P3
400 225
255
163 200 255
163 200 255
163 200 255
163 200 255
163 200 255
163 200 255
163 200 255
163 200 255
163 200 255
163 200 255
163 200 255
162 200 255
162 200 255
162 200 255
162 199 255
162 199 255
162 199 255
162 199 255
162 199 255
162 199 255
162 199 255
161 199 255
161 199 255
161 199 255
161 199 255
161 199 255
161 199 255
161 199 255
161 199 255
161 199 255
161 199 255
161 199 255
160 198 255
160 198 255
160 198 255
160 198 255
160 198 255
160 198 255
160 198 255
160 198 255
160 198 255
160 198 255
159 198 255
159 198 255
159 198 255
159 198 255
159 198 255
159 198 255
159 197 255
159 197 255
159 197 255
159 197 255
158 197 255
158 197 255
158 197 255
158 197 255
158 197 255
158 197 255
158 197 255
158 197 255
158 197 255
157 197 255
157 197 255
157 197 255
157 196 255
157 196 255
157 196 255
157 196 255
157 196 255
157 196 255
157 196 255
156 196 255
156 196 255
156 196 255
156 196 255
156 196 255
156 196 255
156 196 255
156 196 255
156 196 255
155 195 255
155 195 255
155 195 255
155 195 255
155 195 255
155 195 255
155 195 255
155 195 255
155 195 255
154 195 255
154 195 255
154 195 255
154 195 255
154 195 255
154 195 255
154 194 255
154 194 255
154 194 255
153 194 255
153 194 255
153 194 255
153 194 255
153 194 255
153 194 255
153 194 255
153 194 255
153 194 255
152 194 255
152 194 255
152 194 255
152 193 255
152 193 255
152 193 255
152 193 255
152 193 255
152 193 255
152 193 255
151 193 255
151 193 255
151 193 255
151 193 255
151 193 255
151 193 255
151 193 255
151 193 255
151 193 255
151 193 255
150 192 255
150 192 255
150 192 255
150 192 255
150 192 255
150 192 255
150 192 255
150 192 255
150 192 255
150 192 255
149 192 255
149 192 255
149 192 255
149 192 255
149 192 255
149 192 255
149 192 255
149 192 255
149 191 255
149 191 255
149 191 255
149 191 255
148 191 255
148 191 255
148 191 255
148 191 255
148 191 255
148 191 255
148 191 255
148 191 255
148 191 255
148 191 255
148 191 255
148 191 255
148 191 255
148 191 255
148 191 255
147 191 255
147 191 255
147 191 255
147 191 255
147 191 255
147 190 255
147 190 255
147 190 255
147 190 255
147 190 255
147 190 255
147 190 255
147 190 255
147 190 255
147 190 255
147 190 255
147 190 255
147 190 255
147 190 255
147 190 255
147 190 255
147 190 255
147 190 255
146 190 255
146 190 255
146 190 255
146 190 255
146 190 255
146 190 255
146 190 255
146 190 255
146 190 255
146 190 255
146 190 255
146 190 255
146 190 255
146 190 255
146 190 255
146 190 255
146 190 255
146 190 255
146 190 255
146 190 255
146 190 255
146 190 255
146 190 255
146 190 255
146 190 255
146 190 255
147 190 255
147 190 255
147 190 255
147 190 255
147 190 255
147 190 255
147 190 255
147 190 255
147 190 255
147 190 255
147 190 255
147 190 255
147 190 255
147 190 255
147 190 255
147 190 255
147 190 255
147 190 255
147 191 255
147 191 255
147 191 255
147 191 255
147 191 255
147 191 255
148 191 255
148 191 255
148 191 255
148 191 255
148 191 255
148 191 255
148 191 255
148 191 255
148 191 255
148 191 255
148 191 255
148 191 255
148 191 255
148 191 255
149 191 255
149 191 255
149 191 255
149 191 255
149 192 255
149 192 255
149 192 255
149 192 255
149 192 255
149 192 255
149 192 255
149 192 255
150 192 255
150 192 255
150 192 255
150 192 255
150 192 255
150 192 255
150 192 255
150 192 255
150 192 255
150 192 255
151 193 255
151 193 255
151 193 255
151 193 255
151 193 255
151 193 255
151 193 255
151 193 255
151 193 255
151 193 255
152 193 255
152 193 255
152 193 255
152 193 255
152 193 255
152 193 255
152 194 255
152 194 255
152 194 255
152 194 255
153 194 255
153 194 255
153 194 255
153 194 255
153 194 255
153 194 255
153 194 255
153 194 255
153 194 255
154 194 255
154 194 255
154 194 255
154 195 255
154 195 255
154 195 255
154 195 255
154 195 255
154 195 255
155 195 255
155 195 255
155 195 255
155 195 255
155 195 255
155 195 255
155 195 255
155 195 255
155 195 255
156 196 255
156 196 255
156 196 255
156 196 255
156 196 255
156 196 255
156 196 255
156 196 255
156 196 255
157 196 255
157 196 255
157 196 255
157 196 255
157 196 255
157 196 255
157 196 255
157 197 255
157 197 255
157 197 255
158 197 255
158 197 255
158 197 255
158 197 255
158 197 255
158 197 255
158 197 255
158 197 255
158 197 255
159 197 255
159 197 255
159 197 255
159 198 255
159 198 255
159 198 255
159 198 255
159 198 255
159 198 255
159 198 255
160 198 255
160 198 255
160 198 255
160 198 255
160 198 255
160 198 255
160 198 255
160 198 255
160 198 255
160 198 255
161 199 255
161 199 255
161 199 255
161 199 255
161 199 255
161 199 255
161 199 255
161 199 255
161 199 255
161 199 255
162 199 255
162 199 255
162 199 255
162 199 255
162 199 255
162 199 255
162 199 255
162 199 255
162 200 255
162 200 255
162 200 255
163 200 255
163 200 255
163 200 255
163 200 255
163 200 255
163 200 255
163 200 255
163 200 255
163 200 255
163 200 255
163 200 255
164 200 255
164 200 255
163 200 255
163 200 255
163 200 255
163 200 255
163 200 255
163 200 255
163 200 255
163 200 255
163 200 255
163 200 255
163 200 255
162 200 255
162 200 255
162 200 255
162 200 255
162 199 255
162 199 255
162 199 255
162 199 255
162 199 255
162 199 255
162 199 255
161 199 255
161 199 255
161 199 255
161 199 255
161 199 255
161 199 255
161 199 255
161 199 255
161 199 255
161 199 255
160 198 255
160 198 255
160 198 255
160 198 255
160 198 255
160 198 255
160 198 255
160 198 255
160 198 255
160 198 255
159 198 255
159 198 255
159 198 255
159 198 255
159 198 255
159 198 255
159 198 255
159 197 255
159 197 255
159 197 255
158 197 255
158 197 255
158 197 255
158 197 255
158 197 255
158 197 255
158 197 255
158 197 255
158 197 255
158 197 255
157 197 255
157 197 255
157 196 255
157 196 255
157 196 255
157 196 255
157 196 255
157 196 255
157 196 255
156 196 255
156 196 255
156 196 255
156 196 255
156 196 255
156 196 255
156 196 255
156 196 255
156 196 255
155 195 255
155 195 255
155 195 255
155 195 255
155 195 255
155 195 255
155 195 255
155 195 255
155 195 255
154 195 255
154 195 255
154 195 255
154 195 255
154 195 255
154 195 255
154 194 255
154 194 255
154 194 255
153 194 255
153 194 255
153 194 255
153 194 255
153 194 255
153 194 255
153 194 255
153 194 255
153 194 255
153 194 255
152 194 255
152 194 255
152 194 255
152 193 255
152 193 255
152 193 255
152 193 255
152 193 255
152 193 255
151 193 255
151 193 255
151 193 255
151 193 255
151 193 255
151 193 255
151 193 255
151 193 255
151 193 255
151 193 255
150 192 255
150 192 255
150 192 255
150 192 255
150 192 255
150 192 255
150 192 255
150 192 255
150 192 255
150 192 255
150 192 255
149 192 255
149 192 255
149 192 255
149 192 255
149 192 255
149 192 255
149 192 255
149 192 255
149 191 255
149 191 255
149 191 255
149 191 255
148 191 255
148 191 255
148 191 255
148 191 255
148 191 255
148 191 255
148 191 255
148 191 255
148 191 255
148 191 255
148 191 255
148 191 255
148 191 255
148 191 255
148 191 255
147 191 255
147 191 255
147 191 255
147 191 255
147 191 255
147 191 255
147 191 255
147 190 255
147 190 255
147 190 255
147 190 255
147 190 255
147 190 255
147 190 255
147 190 255
147 190 255
147 190 255
147 190 255
147 190 255
147 190 255
147 190 255
147 190 255
147 190 255
147 190 255
147 190 255
147 190 255
147 190 255
147 190 255
147 190 255
147 190 255
147 190 255
147 190 255
147 190 255
147 190 255
147 190 255
147 190 255
147 190 255
147 190 255
147 190 255
147 190 255
147 190 255
147 190 255
147 190 255
147 190 255
147 190 255
147 190 255
147 190 255
147 190 255
147 190 255
147 190 255
147 190 255
147 190 255
147 190 255
147 190 255
147 190 255
147 190 255
147 190 255
147 190 255
147 190 255
147 191 255
147 191 255
147 191 255
147 191 255
147 191 255
147 191 255
147 191 255
148 191 255
148 191 255
148 191 255
148 191 255
148 191 255
148 191 255
148 191 255
148 191 255
148 191 255
148 191 255
148 191 255
148 191 255
148 191 255
148 191 255
148 191 255
149 191 255
149 191 255
149 191 255
149 191 255
149 191 255
149 192 255
149 192 255
149 192 255
149 192 255
149 192 255
149 192 255
149 192 255
150 192 255
150 192 255
150 192 255
150 192 255
150 192 255
150 192 255
150 192 255
150 192 255
150 192 255
150 192 255
150 192 255
151 193 255
151 193 255
151 193 255
151 193 255
151 193 255
151 193 255
151 193 255
151 193 255
151 193 255
151 193 255
152 193 255
152 193 255
152 193 255
152 193 255
152 193 255
152 193 255
152 194 255
152 194 255
152 194 255
152 194 255
153 194 255
153 194 255
153 194 255
153 194 255
153 194 255
153 194 255
153 194 255
153 194 255
153 194 255
154 194 255
154 194 255
154 194 255
154 195 255
154 195 255
154 195 255
154 195 255
154 195 255
154 195 255
155 195 255
155 195 255
155 195 255
155 195 255
155 195 255
155 195 255
155 195 255
155 195 255
155 195 255
156 196 255
156 196 255
156 196 255
156 196 255
156 196 255
156 196 255
156 196 255
156 196 255
156 196 255
157 196 255
157 196 255
157 196 255
157 196 255
157 196 255
157 196 255
157 196 255
157 197 255
157 197 255
157 197 255
158 197 255
158 197 255
158 197 255
158 197 255
158 197 255
158 197 255
158 197 255
158 197 255
158 197 255
159 197 255
159 197 255
159 197 255
159 198 255
159 198 255
159 198 255
159 198 255
159 198 255
159 198 255
159 198 255
160 198 255
160 198 255
160 198 255
160 198 255
160 198 255
160 198 255
160 198 255
160 198 255
160 198 255
160 198 255
161 199 255
161 199 255
161 199 255
161 199 255
161 199 255
161 199 255
161 199 255
161 199 255
161 199 255
161 199 255
162 199 255
162 199 255
162 199 255
162 199 255
162 199 255
162 199 255
162 199 255
162 199 255
162 200 255
162 200 255
162 200 255
163 200 255
163 200 255
163 200 255
163 200 255
163 200 255
163 200 255
163 200 255
163 200 255
163 200 255
163 200 255
163 200 255
164 200 255
164 200 255
164 200 255
164 200 255
164 200 255
164 200 255
163 200 255
163 200 255
163 200 255
163 200 255
163 200 255
163 200 255
163 200 255
163 200 255
163 200 255
163 200 255
163 200 255
162 200 255
162 200 255
162 200 255
162 200 255
162 199 255
162 199 255
162 199 255
162 199 255
162 199 255
162 199 255
162 199 255
161 199 255
161 199 255
161 199 255
161 199 255
161 199 255
161 199 255
161 199 255
161 199 255
161 199 255
161 199 255
160 198 255
160 198 255
160 198 255
160 198 255
160 198 255
160 198 255
160 198 255
160 198 255
160 198 255
160 198 255
159 198 255
159 198 255
159 198 255
159 198 255
159 198 255
159 198 255
159 198 255
159 197 255
159 197 255
159 197 255
158 197 255
158 197 255
158 197 255
158 197 255
158 197 255
158 197 255
158 197 255
158 197 255
158 197 255
158 197 255
157 197 255
157 197 255
157 196 255
157 196 255
157 196 255
157 196 255
157 196 255
157 196 255
157 196 255
156 196 255
156 196 255
156 196 255
156 196 255
156 196 255
156 196 255
156 196 255
156 196 255
156 196 255
155 195 255
155 195 255
155 195 255
155 195 255
155 195 255
155 195 255
155 195 255
155 195 255
155 195 255
154 195 255
154 195 255
154 195 255
154 195 255
154 195 255
154 195 255
154 194 255
154 194 255
154 194 255
153 194 255
153 194 255
153 194 255
153 194 255
153 194 255
153 194 255
153 194 255
153 194 255
153 194 255
153 194 255
152 194 255
152 194 255
152 194 255
152 193 255
152 193 255
152 193 255
152 193 255
152 193 255
152 193 255
151 193 255
151 193 255
151 193 255
151 193 255
151 193 255
151 193 255
151 193 255
151 193 255
151 193 255
151 193 255
150 192 255
150 192 255
150 192 255
150 192 255
150 192 255
150 192 255
150 192 255
150 192 255
150 192 255
150 192 255
150 192 255
149 192 255
149 192 255
149 192 255
149 192 255
149 192 255
149 192 255
149 192 255
149 192 255
149 191 255
149 191 255
149 191 255
149 191 255
149 191 255
148 191 255
148 191 255
148 191 255
148 191 255
148 191 255
148 191 255
148 191 255
148 191 255
148 191 255
148 191 255
148 191 255
148 191 255
148 191 255
148 191 255
148 191 255
148 191 255
147 191 255
147 191 255
147 191 255
147 191 255
147 191 255
147 191 255
147 191 255
147 191 255
147 190 255
147 190 255
147 190 255
147 190 255
147 190 255
147 190 255
147 190 255
147 190 255
147 190 255
147 190 255
147 190 255
147 190 255
147 190 255
147 190 255
147 190 255
147 190 255
147 190 255
147 190 255
147 190 255
147 190 255
147 190 255
147 190 255
147 190 255
147 190 255
147 190 255
147 190 255
147 190 255
147 190 255
147 190 255
147 190 255
147 190 255
147 190 255
147 190 255
147 190 255
147 190 255
147 190 255
147 190 255
147 190 255
147 190 255
147 190 255
147 190 255
147 190 255
147 190 255
147 191 255
147 191 255
147 191 255
147 191 255
147 191 255
147 191 255
147 191 255
148 191 255
148 191 255
148 191 255
148 191 255
148 191 255
148 191 255
148 191 255
148 191 255
148 191 255
148 191 255
148 191 255
148 191 255
148 191 255
148 191 255
148 191 255
148 191 255
149 191 255
149 191 255
149 191 255
149 191 255
149 191 255
149 192 255
149 192 255
149 192 255
149 192 255
149 192 255
149 192 255
149 192 255
149 192 255
150 192 255
150 192 255
150 192 255
150 192 255
150 192 255
150 192 255
150 192 255
150 192 255
150 192 255
150 192 255
150 192 255
151 193 255
151 193 255
151 193 255
151 193 255
151 193 255
151 193 255
151 193 255
151 193 255
151 193 255
151 193 255
152 193 255
152 193 255
152 193 255
152 193 255
152 193 255
152 193 255
152 194 255
152 194 255
152 194 255
153 194 255
153 194 255
153 194 255
153 194 255
153 194 255
153 194 255
153 194 255
153 194 255
153 194 255
153 194 255
154 194 255
154 194 255
154 194 255
154 195 255
154 195 255
154 195 255
154 195 255
154 195 255
154 195 255
155 195 255
155 195 255
155 195 255
155 195 255
155 195 255
155 195 255
155 195 255
155 195 255
155 195 255
156 196 255
156 196 255
156 196 255
156 196 255
156 196 255
156 196 255
156 196 255
156 196 255
156 196 255
157 196 255
157 196 255
157 196 255
157 196 255
157 196 255
157 196 255
157 197 255
157 197 255
157 197 255
157 197 255
158 197 255
158 197 255
158 197 255
158 197 255
158 197 255
158 197 255
158 197 255
158 197 255
158 197 255
159 197 255
159 197 255
159 197 255
159 198 255
159 198 255
159 198 255
159 198 255
159 198 255
159 198 255
159 198 255
160 198 255
160 198 255
160 198 255
160 198 255
160 198 255
160 198 255
160 198 255
160 198 255
160 198 255
160 198 255
161 199 255
161 199 255
161 199 255
161 199 255
161 199 255
161 199 255
161 199 255
161 199 255
161 199 255
161 199 255
162 199 255
162 199 255
162 199 255
162 199 255
162 199 255
162 199 255
162 199 255
162 200 255
162 200 255
162 200 255
162 200 255
163 200 255
163 200 255
163 200 255
163 200 255
163 200 255
163 200 255
163 200 255
163 200 255
163 200 255
163 200 255
163 200 255
164 200 255
164 200 255
164 200 255
164 200 255
164 201 255
164 201 255
164 200 255
164 200 255
164 200 255
164 200 255
163 200 255
163 200 255
163 200 255
163 200 255
163 200 255
163 200 255
163 200 255
163 200 255
163 200 255
163 200 255
163 200 255
162 200 255
162 200 255
162 200 255
162 200 255
162 199 255
162 199 255
162 199 255
162 199 255
162 199 255
162 199 255
162 199 255
161 199 255
161 199 255
161 199 255
161 199 255
161 199 255
161 199 255
161 199 255
161 199 255
161 199 255
161 199 255
160 198 255
160 198 255
160 198 255
160 198 255
160 198 255
160 198 255
160 198 255
160 198 255
160 198 255
160 198 255
159 198 255
159 198 255
159 198 255
159 198 255
159 198 255
159 198 255
159 198 255
159 197 255
159 197 255
159 197 255
158 197 255
158 197 255
158 197 255
158 197 255
158 197 255
158 197 255
158 197 255
158 197 255
158 197 255
158 197 255
157 197 255
157 197 255
157 197 255
157 196 255
157 196 255
157 196 255
157 196 255
157 196 255
157 196 255
156 196 255
156 196 255
156 196 255
156 196 255
156 196 255
156 196 255
156 196 255
156 196 255
156 196 255
155 195 255
155 195 255
155 195 255
155 195 255
155 195 255
155 195 255
155 195 255
155 195 255
155 195 255
154 195 255
154 195 255
154 195 255
154 195 255
154 195 255
154 195 255
154 194 255
154 194 255
154 194 255
153 194 255
153 194 255
153 194 255
153 194 255
153 194 255
153 194 255
153 194 255
153 194 255
153 194 255
153 194 255
152 194 255
152 194 255
152 194 255
152 193 255
152 193 255
152 193 255
152 193 255
152 193 255
152 193 255
151 193 255
151 193 255
151 193 255
151 193 255
151 193 255
151 193 255
151 193 255
151 193 255
151 193 255
151 193 255
150 192 255
150 192 255
150 192 255
150 192 255
150 192 255
150 192 255
150 192 255
150 192 255
150 192 255
150 192 255
150 192 255
150 192 255
149 192 255
149 192 255
149 192 255
149 192 255
149 192 255
149 192 255
149 192 255
149 192 255
149 191 255
149 191 255
149 191 255
149 191 255
149 191 255
148 191 255
148 191 255
148 191 255
148 191 255
148 191 255
148 191 255
148 191 255
148 191 255
148 191 255
148 191 255
148 191 255
148 191 255
148 191 255
148 191 255
148 191 255
148 191 255
148 191 255
147 191 255
147 191 255
147 191 255
147 191 255
147 191 255
147 191 255
147 191 255
147 191 255
147 191 255
147 191 255
147 190 255
147 190 255
147 190 255
147 190 255
147 190 255
147 190 255
147 190 255
147 190 255
147 190 255
147 190 255
147 190 255
147 190 255
147 190 255
147 190 255
147 190 255
147 190 255
147 190 255
147 190 255
147 190 255
147 190 255
147 190 255
147 190 255
147 190 255
147 190 255
147 190 255
147 190 255
147 190 255
147 190 255
147 190 255
147 190 255
147 191 255
147 191 255
147 191 255
147 191 255
147 191 255
147 191 255
147 191 255
147 191 255
147 191 255
148 191 255
148 191 255
148 191 255
148 191 255
148 191 255
148 191 255
148 191 255
148 191 255
148 191 255
148 191 255
148 191 255
148 191 255
148 191 255
148 191 255
148 191 255
148 191 255
148 191 255
148 191 255
149 191 255
149 191 255
149 191 255
149 191 255
149 191 255
149 192 255
149 192 255
149 192 255
149 192 255
149 192 255
149 192 255
149 192 255
149 192 255
150 192 255
150 192 255
150 192 255
150 192 255
150 192 255
150 192 255
150 192 255
150 192 255
150 192 255
150 192 255
150 192 255
151 193 255
151 193 255
151 193 255
151 193 255
151 193 255
151 193 255
151 193 255
151 193 255
151 193 255
151 193 255
151 193 255
152 193 255
152 193 255
152 193 255
152 193 255
152 193 255
152 193 255
152 194 255
152 194 255
152 194 255
153 194 255
153 194 255
153 194 255
153 194 255
153 194 255
153 194 255
153 194 255
153 194 255
153 194 255
153 194 255
154 194 255
154 194 255
154 194 255
154 195 255
154 195 255
154 195 255
154 195 255
154 195 255
154 195 255
155 195 255
155 195 255
155 195 255
155 195 255
155 195 255
155 195 255
155 195 255
155 195 255
155 195 255
156 196 255
156 196 255
156 196 255
156 196 255
156 196 255
156 196 255
156 196 255
156 196 255
156 196 255
157 196 255
157 196 255
157 196 255
157 196 255
157 196 255
157 196 255
157 197 255
157 197 255
157 197 255
158 197 255
158 197 255
158 197 255
158 197 255
158 197 255
158 197 255
158 197 255
158 197 255
158 197 255
158 197 255
159 197 255
159 197 255
159 197 255
159 198 255
159 198 255
159 198 255
159 198 255
159 198 255
159 198 255
159 198 255
160 198 255
160 198 255
160 198 255
160 198 255
160 198 255
160 198 255
160 198 255
160 198 255
160 198 255
160 198 255
161 199 255
161 199 255
161 199 255
161 199 255
161 199 255
161 199 255
161 199 255
161 199 255
161 199 255
161 199 255
162 199 255
162 199 255
162 199 255
162 199 255
162 199 255
162 199 255
162 199 255
162 200 255
162 200 255
162 200 255
163 200 255
163 200 255
163 200 255
163 200 255
163 200 255
163 200 255
163 200 255
163 200 255
163 200 255
163 200 255
163 200 255
163 200 255
164 200 255
164 200 255
164 200 255
164 200 255
164 201 255
164 201 255
164 201 255
164 201 255
164 201 255
164 201 255
164 201 255
164 200 255
164 200 255
164 200 255
164 200 255
163 200 255
163 200 255
163 200 255
163 200 255
163 200 255
163 200 255
163 200 255
163 200 255
163 200 255
163 200 255
163 200 255
162 200 255
162 200 255
162 200 255
162 199 255
162 199 255
162 199 255
162 199 255
162 199 255
162 199 255
162 199 255
161 199 255
161 199 255
161 199 255
161 199 255
161 199 255
161 199 255
161 199 255
161 199 255
161 199 255
161 199 255
161 199 255
160 198 255
160 198 255
160 198 255
160 198 255
160 198 255
160 198 255
160 198 255
160 198 255
160 198 255
160 198 255
159 198 255
159 198 255
159 198 255
159 198 255
159 198 255
159 198 255
159 197 255
159 197 255
159 197 255
158 197 255
158 197 255
158 197 255
158 197 255
158 197 255
158 197 255
158 197 255
158 197 255
158 197 255
158 197 255
157 197 255
157 197 255
157 197 255
157 196 255
157 196 255
157 196 255
157 196 255
157 196 255
157 196 255
156 196 255
156 196 255
156 196 255
156 196 255
156 196 255
156 196 255
156 196 255
156 196 255
156 196 255
155 195 255
155 195 255
155 195 255
155 195 255
155 195 255
155 195 255
155 195 255
155 195 255
155 195 255
154 195 255
154 195 255
154 195 255
154 195 255
154 195 255
154 195 255
154 194 255
154 194 255
154 194 255
153 194 255
153 194 255
153 194 255
153 194 255
153 194 255
153 194 255
153 194 255
153 194 255
153 194 255
153 194 255
152 194 255
152 194 255
152 194 255
152 193 255
152 193 255
152 193 255
152 193 255
152 193 255
152 193 255
152 193 255
151 193 255
151 193 255
151 193 255
151 193 255
151 193 255
151 193 255
151 193 255
151 193 255
151 193 255
151 193 255
150 192 255
150 192 255
150 192 255
150 192 255
150 192 255
150 192 255
150 192 255
150 192 255
150 192 255
150 192 255
150 192 255
149 192 255
149 192 255
149 192 255
149 192 255
149 192 255
149 192 255
149 192 255
149 192 255
149 192 255
149 191 255
149 191 255
149 191 255
149 191 255
149 191 255
148 191 255
148 191 255
148 191 255
148 191 255
148 191 255
148 191 255
148 191 255
148 191 255
148 191 255
148 191 255
148 191 255
148 191 255
148 191 255
148 191 255
148 191 255
148 191 255
148 191 255
148 191 255
148 191 255
148 191 255
147 191 255
147 191 255
147 191 255
147 191 255
147 191 255
147 191 255
147 191 255
147 191 255
147 191 255
147 191 255
147 191 255
147 191 255
147 191 255
147 191 255
147 191 255
147 191 255
147 191 255
147 191 255
147 191 255
147 191 255
147 191 255
147 191 255
147 191 255
147 191 255
147 191 255
147 191 255
147 191 255
147 191 255
147 191 255
147 191 255
147 191 255
147 191 255
147 191 255
147 191 255
147 191 255
147 191 255
147 191 255
147 191 255
148 191 255
148 191 255
148 191 255
148 191 255
148 191 255
148 191 255
148 191 255
148 191 255
148 191 255
148 191 255
148 191 255
148 191 255
148 191 255
148 191 255
148 191 255
148 191 255
148 191 255
148 191 255
148 191 255
148 191 255
149 191 255
149 191 255
149 191 255
149 191 255
149 191 255
149 192 255
149 192 255
149 192 255
149 192 255
149 192 255
149 192 255
149 192 255
149 192 255
149 192 255
150 192 255
150 192 255
150 192 255
150 192 255
150 192 255
150 192 255
150 192 255
150 192 255
150 192 255
150 192 255
150 192 255
151 193 255
151 193 255
151 193 255
151 193 255
151 193 255
151 193 255
151 193 255
151 193 255
151 193 255
151 193 255
152 193 255
152 193 255
152 193 255
152 193 255
152 193 255
152 193 255
152 193 255
152 194 255
152 194 255
152 194 255
153 194 255
153 194 255
153 194 255
153 194 255
153 194 255
153 194 255
153 194 255
153 194 255
153 194 255
153 194 255
154 194 255
154 194 255
154 194 255
154 195 255
154 195 255
154 195 255
154 195 255
154 195 255
154 195 255
155 195 255
155 195 255
155 195 255
155 195 255
155 195 255
155 195 255
155 195 255
155 195 255
155 195 255
156 196 255
156 196 255
156 196 255
156 196 255
156 196 255
156 196 255
156 196 255
156 196 255
156 196 255
157 196 255
157 196 255
157 196 255
157 196 255
157 196 255
157 196 255
157 197 255
157 197 255
157 197 255
158 197 255
158 197 255
158 197 255
158 197 255
158 197 255
158 197 255
158 197 255
158 197 255
158 197 255
158 197 255
159 197 255
159 197 255
159 197 255
159 198 255
159 198 255
159 198 255
159 198 255
159 198 255
159 198 255
160 198 255
160 198 255
160 198 255
160 198 255
160 198 255
160 198 255
160 198 255
160 198 255
160 198 255
160 198 255
161 199 255
161 199 255
161 199 255
161 199 255
161 199 255
161 199 255
161 199 255
161 199 255
161 199 255
161 199 255
161 199 255
162 199 255
162 199 255
162 199 255
162 199 255
162 199 255
162 199 255
162 199 255
162 200 255
162 200 255
162 200 255
163 200 255
163 200 255
163 200 255
163 200 255
163 200 255
163 200 255
163 200 255
163 200 255
163 200 255
163 200 255
163 200 255
164 200 255
164 200 255
164 200 255
164 200 255
164 201 255
164 201 255
164 201 255
164 201 255
164 201 255
164 201 255
164 201 255
164 201 255
164 201 255
164 201 255
164 201 255
164 201 255
164 200 255
164 200 255
164 200 255
164 200 255
163 200 255
163 200 255
163 200 255
163 200 255
163 200 255
163 200 255
163 200 255
163 200 255
163 200 255
163 200 255
163 200 255
162 200 255
162 200 255
162 200 255
162 200 255
162 199 255
162 199 255
162 199 255
162 199 255
162 199 255
162 199 255
162 199 255
161 199 255
161 199 255
161 199 255
161 199 255
161 199 255
161 199 255
161 199 255
161 199 255
161 199 255
161 199 255
160 198 255
160 198 255
160 198 255
160 198 255
160 198 255
160 198 255
160 198 255
160 198 255
160 198 255
160 198 255
159 198 255
159 198 255
159 198 255
159 198 255
159 198 255
159 198 255
159 197 255
159 197 255
159 197 255
158 197 255
158 197 255
158 197 255
158 197 255
158 197 255
158 197 255
158 197 255
158 197 255
158 197 255
158 197 255
157 197 255
157 197 255
157 197 255
157 196 255
157 196 255
157 196 255
157 196 255
157 196 255
157 196 255
156 196 255
156 196 255
156 196 255
156 196 255
156 196 255
156 196 255
156 196 255
156 196 255
156 196 255
155 195 255
155 195 255
155 195 255
155 195 255
155 195 255
155 195 255
155 195 255
155 195 255
155 195 255
154 195 255
154 195 255
154 195 255
154 195 255
154 195 255
154 195 255
154 194 255
154 194 255
154 194 255
154 194 255
153 194 255
153 194 255
153 194 255
153 194 255
153 194 255
153 194 255
153 194 255
153 194 255
153 194 255
152 194 255
152 194 255
152 194 255
152 193 255
152 193 255
152 193 255
152 193 255
152 193 255
152 193 255
152 193 255
151 193 255
151 193 255
151 193 255
151 193 255
151 193 255
151 193 255
151 193 255
151 193 255
151 193 255
151 193 255
151 193 255
150 192 255
150 192 255
150 192 255
150 192 255
150 192 255
150 192 255
150 192 255
150 192 255
150 192 255
150 192 255
150 192 255
149 192 255
149 192 255
149 192 255
149 192 255
149 192 255
149 192 255
149 192 255
149 192 255
149 192 255
149 191 255
149 191 255
149 191 255
149 191 255
149 191 255
149 191 255
148 191 255
148 191 255
148 191 255
148 191 255
148 191 255
148 191 255
148 191 255
148 191 255
148 191 255
148 191 255
148 191 255
148 191 255
148 191 255
148 191 255
148 191 255
148 191 255
148 191 255
148 191 255
148 191 255
148 191 255
148 191 255
148 191 255
148 191 255
148 191 255
147 191 255
147 191 255
147 191 255
147 191 255
147 191 255
147 191 255
147 191 255
147 191 255
147 191 255
147 191 255
147 191 255
147 191 255
147 191 255
147 191 255
147 191 255
147 191 255
147 191 255
147 191 255
147 191 255
147 191 255
147 191 255
147 191 255
148 191 255
148 191 255
148 191 255
148 191 255
148 191 255
148 191 255
148 191 255
148 191 255
148 191 255
148 191 255
148 191 255
148 191 255
148 191 255
148 191 255
148 191 255
148 191 255
148 191 255
148 191 255
148 191 255
148 191 255
148 191 255
148 191 255
148 191 255
148 191 255
148 191 255
149 191 255
149 191 255
149 191 255
149 191 255
149 191 255
149 192 255
149 192 255
149 192 255
149 192 255
149 192 255
149 192 255
149 192 255
149 192 255
149 192 255
150 192 255
150 192 255
150 192 255
150 192 255
150 192 255
150 192 255
150 192 255
150 192 255
150 192 255
150 192 255
150 192 255
150 192 255
151 193 255
151 193 255
151 193 255
151 193 255
151 193 255
151 193 255
151 193 255
151 193 255
151 193 255
151 193 255
152 193 255
152 193 255
152 193 255
152 193 255
152 193 255
152 193 255
152 193 255
152 194 255
152 194 255
152 194 255
153 194 255
153 194 255
153 194 255
153 194 255
153 194 255
153 194 255
153 194 255
153 194 255
153 194 255
153 194 255
154 194 255
154 194 255
154 194 255
154 195 255
154 195 255
154 195 255
154 195 255
154 195 255
154 195 255
155 195 255
155 195 255
155 195 255
155 195 255
155 195 255
155 195 255
155 195 255
155 195 255
155 195 255
156 196 255
156 196 255
156 196 255
156 196 255
156 196 255
156 196 255
156 196 255
156 196 255
156 196 255
157 196 255
157 196 255
157 196 255
157 196 255
157 196 255
157 196 255
157 197 255
157 197 255
157 197 255
158 197 255
158 197 255
158 197 255
158 197 255
158 197 255
158 197 255
158 197 255
158 197 255
158 197 255
158 197 255
159 197 255
159 197 255
159 197 255
159 198 255
159 198 255
159 198 255
159 198 255
159 198 255
159 198 255
160 198 255
160 198 255
160 198 255
160 198 255
160 198 255
160 198 255
160 198 255
160 198 255
160 198 255
160 198 255
161 199 255
161 199 255
161 199 255
161 199 255
161 199 255
161 199 255
161 199 255
161 199 255
161 199 255
161 199 255
162 199 255
162 199 255
162 199 255
162 199 255
162 199 255
162 199 255
162 199 255
162 200 255
162 200 255
162 200 255
162 200 255
163 200 255
163 200 255
163 200 255
163 200 255
163 200 255
163 200 255
163 200 255
163 200 255
163 200 255
163 200 255
163 200 255
164 200 255
164 200 255
164 200 255
164 200 255
164 201 255
164 201 255
164 201 255
164 201 255
164 201 255
164 201 255
164 201 255
165 201 255
165 201 255
164 201 255
164 201 255
164 201 255
164 201 255
164 201 255
164 201 255
164 201 255
164 201 255
164 200 255
164 200 255
164 200 255
163 200 255
163 200 255
163 200 255
163 200 255
163 200 255
163 200 255
163 200 255
163 200 255
163 200 255
163 200 255
163 200 255
162 200 255
162 200 255
162 200 255
162 200 255
162 199 255
162 199 255
162 199 255
162 199 255
162 199 255
162 199 255
162 199 255
161 199 255
161 199 255
161 199 255
161 199 255
161 199 255
161 199 255
161 199 255
161 199 255
161 199 255
161 199 255
160 198 255
160 198 255
160 198 255
160 198 255
160 198 255
160 198 255
160 198 255
160 198 255
160 198 255
160 198 255
159 198 255
159 198 255
159 198 255
159 198 255
159 198 255
159 198 255
159 197 255
159 197 255
159 197 255
159 197 255
158 197 255
158 197 255
158 197 255
158 197 255
158 197 255
158 197 255
158 197 255
158 197 255
158 197 255
157 197 255
157 197 255
157 197 255
157 196 255
157 196 255
157 196 255
157 196 255
157 196 255
157 196 255
156 196 255
156 196 255
156 196 255
156 196 255
156 196 255
156 196 255
156 196 255
156 196 255
156 196 255
155 195 255
155 195 255
155 195 255
155 195 255
155 195 255
155 195 255
155 195 255
155 195 255
155 195 255
154 195 255
154 195 255
154 195 255
154 195 255
154 195 255
154 195 255
154 195 255
154 194 255
154 194 255
154 194 255
153 194 255
153 194 255
153 194 255
153 194 255
153 194 255
153 194 255
153 194 255
153 194 255
153 194 255
152 194 255
152 194 255
152 194 255
152 193 255
152 193 255
152 193 255
152 193 255
152 193 255
152 193 255
152 193 255
151 193 255
151 193 255
151 193 255
151 193 255
151 193 255
151 193 255
151 193 255
151 193 255
151 193 255
151 193 255
151 193 255
150 192 255
150 192 255
150 192 255
150 192 255
150 192 255
150 192 255
150 192 255
150 192 255
150 192 255
150 192 255
150 192 255
150 192 255
149 192 255
149 192 255
149 192 255
149 192 255
149 192 255
149 192 255
149 192 255
149 192 255
149 192 255
149 192 255
149 191 255
149 191 255
149 191 255
149 191 255
149 191 255
148 191 255
148 191 255
148 191 255
148 191 255
148 191 255
148 191 255
148 191 255
148 191 255
148 191 255
148 191 255
148 191 255
148 191 255
148 191 255
148 191 255
148 191 255
148 191 255
148 191 255
148 191 255
148 191 255
148 191 255
148 191 255
148 191 255
148 191 255
148 191 255
148 191 255
148 191 255
148 191 255
148 191 255
148 191 255
148 191 255
148 191 255
148 191 255
148 191 255
148 191 255
148 191 255
148 191 255
148 191 255
148 191 255
148 191 255
148 191 255
148 191 255
148 191 255
148 191 255
148 191 255
148 191 255
148 191 255
148 191 255
148 191 255
148 191 255
148 191 255
148 191 255
148 191 255
148 191 255
148 191 255
148 191 255
148 191 255
148 191 255
148 191 255
148 191 255
148 191 255
148 191 255
148 191 255
148 191 255
148 191 255
149 191 255
149 191 255
149 191 255
149 191 255
149 191 255
149 192 255
149 192 255
149 192 255
149 192 255
149 192 255
149 192 255
149 192 255
149 192 255
149 192 255
149 192 255
150 192 255
150 192 255
150 192 255
150 192 255
150 192 255
150 192 255
150 192 255
150 192 255
150 192 255
150 192 255
150 192 255
150 192 255
151 193 255
151 193 255
151 193 255
151 193 255
151 193 255
151 193 255
151 193 255
151 193 255
151 193 255
151 193 255
151 193 255
152 193 255
152 193 255
152 193 255
152 193 255
152 193 255
152 193 255
152 193 255
152 194 255
152 194 255
152 194 255
153 194 255
153 194 255
153 194 255
153 194 255
153 194 255
153 194 255
153 194 255
153 194 255
153 194 255
154 194 255
154 194 255
154 194 255
154 195 255
154 195 255
154 195 255
154 195 255
154 195 255
154 195 255
154 195 255
155 195 255
155 195 255
155 195 255
155 195 255
155 195 255
155 195 255
155 195 255
155 195 255
155 195 255
156 196 255
156 196 255
156 196 255
156 196 255
156 196 255
156 196 255
156 196 255
156 196 255
156 196 255
157 196 255
157 196 255
157 196 255
157 196 255
157 196 255
157 196 255
157 197 255
157 197 255
157 197 255
158 197 255
158 197 255
158 197 255
158 197 255
158 197 255
158 197 255
158 197 255
158 197 255
158 197 255
158 197 255
159 197 255
159 197 255
159 197 255
159 198 255
159 198 255
159 198 255
159 198 255
159 198 255
159 198 255
160 198 255
160 198 255
160 198 255
160 198 255
160 198 255
160 198 255
160 198 255
160 198 255
160 198 255
160 198 255
161 199 255
161 199 255
161 199 255
161 199 255
161 199 255
161 199 255
161 199 255
161 199 255
161 199 255
161 199 255
162 199 255
162 199 255
162 199 255
162 199 255
162 199 255
162 199 255
162 199 255
162 200 255
162 200 255
162 200 255
162 200 255
163 200 255
163 200 255
163 200 255
163 200 255
163 200 255
163 200 255
163 200 255
163 200 255
163 200 255
163 200 255
163 200 255
164 200 255
164 200 255
164 200 255
164 201 255
164 201 255
164 201 255
164 201 255
164 201 255
164 201 255
164 201 255
164 201 255
165 201 255
165 201 255
165 201 255
165 201 255
165 201 255
165 201 255
164 201 255
164 201 255
164 201 255
164 201 255
164 201 255
164 201 255
164 201 255
164 201 255
164 200 255
164 200 255
164 200 255
164 200 255
163 200 255
163 200 255
163 200 255
163 200 255
163 200 255
163 200 255
163 200 255
163 200 255
163 200 255
163 200 255
163 200 255
162 200 255
162 200 255
162 200 255
162 199 255
162 199 255
162 199 255
162 199 255
162 199 255
162 199 255
162 199 255
161 199 255
161 199 255
161 199 255
161 199 255
161 199 255
161 199 255
161 199 255
161 199 255
161 199 255
161 199 255
160 198 255
160 198 255
160 198 255
160 198 255
160 198 255
160 198 255
160 198 255
160 198 255
160 198 255
160 198 255
159 198 255
159 198 255
159 198 255
159 198 255
159 198 255
159 198 255
159 198 255
159 197 255
159 197 255
159 197 255
158 197 255
158 197 255
158 197 255
158 197 255
158 197 255
158 197 255
158 197 255
158 197 255
158 197 255
157 197 255
157 197 255
157 197 255
157 196 255
157 196 255
157 196 255
157 196 255
157 196 255
157 196 255
156 196 255
156 196 255
156 196 255
156 196 255
156 196 255
156 196 255
156 196 255
156 196 255
156 196 255
155 195 255
155 195 255
155 195 255
155 195 255
155 195 255
155 195 255
155 195 255
155 195 255
155 195 255
155 195 255
154 195 255
154 195 255
154 195 255
154 195 255
154 195 255
154 195 255
154 194 255
154 194 255
154 194 255
153 194 255
153 194 255
153 194 255
153 194 255
153 194 255
153 194 255
153 194 255
153 194 255
153 194 255
152 194 255
152 194 255
152 194 255
152 194 255
152 193 255
152 193 255
152 193 255
152 193 255
152 193 255
152 193 255
152 193 255
151 193 255
151 193 255
151 193 255
151 193 255
151 193 255
151 193 255
151 193 255
151 193 255
151 193 255
151 193 255
151 193 255
150 192 255
150 192 255
150 192 255
150 192 255
150 192 255
150 192 255
150 192 255
150 192 255
150 192 255
150 192 255
150 192 255
150 192 255
149 192 255
149 192 255
149 192 255
149 192 255
149 192 255
149 192 255
149 192 255
149 192 255
149 192 255
149 192 255
149 191 255
149 191 255
149 191 255
149 191 255
149 191 255
149 191 255
149 191 255
148 191 255
148 191 255
148 191 255
148 191 255
148 191 255
148 191 255
148 191 255
148 191 255
148 191 255
148 191 255
148 191 255
148 191 255
148 191 255
148 191 255
148 191 255
148 191 255
148 191 255
148 191 255
148 191 255
148 191 255
148 191 255
148 191 255
148 191 255
148 191 255
148 191 255
148 191 255
148 191 255
148 191 255
148 191 255
148 191 255
148 191 255
148 191 255
148 191 255
148 191 255
148 191 255
148 191 255
148 191 255
148 191 255
148 191 255
148 191 255
148 191 255
148 191 255
148 191 255
148 191 255
148 191 255
148 191 255
148 191 255
148 191 255
148 191 255
148 191 255
148 191 255
148 191 255
148 191 255
148 191 255
149 191 255
149 191 255
149 191 255
149 191 255
149 191 255
149 191 255
149 191 255
149 192 255
149 192 255
149 192 255
149 192 255
149 192 255
149 192 255
149 192 255
149 192 255
149 192 255
149 192 255
150 192 255
150 192 255
150 192 255
150 192 255
150 192 255
150 192 255
150 192 255
150 192 255
150 192 255
150 192 255
150 192 255
150 192 255
151 193 255
151 193 255
151 193 255
151 193 255
151 193 255
151 193 255
151 193 255
151 193 255
151 193 255
151 193 255
151 193 255
151 193 255
152 193 255
152 193 255
152 193 255
152 193 255
152 193 255
152 193 255
152 194 255
152 194 255
152 194 255
152 194 255
153 194 255
153 194 255
153 194 255
153 194 255
153 194 255
153 194 255
153 194 255
153 194 255
153 194 255
154 194 255
154 194 255
154 194 255
154 195 255
154 195 255
154 195 255
154 195 255
154 195 255
154 195 255
155 195 255
155 195 255
155 195 255
155 195 255
155 195 255
155 195 255
155 195 255
155 195 255
155 195 255
155 195 255
156 196 255
156 196 255
156 196 255
156 196 255
156 196 255
156 196 255
156 196 255
156 196 255
156 196 255
157 196 255
157 196 255
157 196 255
157 196 255
157 196 255
157 196 255
157 197 255
157 197 255
157 197 255
158 197 255
158 197 255
158 197 255
158 197 255
158 197 255
158 197 255
158 197 255
158 197 255
158 197 255
159 197 255
159 197 255
159 197 255
159 198 255
159 198 255
159 198 255
159 198 255
159 198 255
159 198 255
159 198 255
160 198 255
160 198 255
160 198 255
160 198 255
160 198 255
160 198 255
160 198 255
160 198 255
160 198 255
160 198 255
161 199 255
161 199 255
161 199 255
161 199 255
161 199 255
161 199 255
161 199 255
161 199 255
161 199 255
161 199 255
162 199 255
162 199 255
162 199 255
162 199 255
162 199 255
162 199 255
162 199 255
162 200 255
162 200 255
162 200 255
163 200 255
163 200 255
163 200 255
163 200 255
163 200 255
163 200 255
163 200 255
163 200 255
163 200 255
163 200 255
163 200 255
164 200 255
164 200 255
164 200 255
164 200 255
164 201 255
164 201 255
164 201 255
164 201 255
164 201 255
164 201 255
164 201 255
164 201 255
165 201 255
165 201 255
165 201 255
165 201 255
165 201 255
165 201 255
165 201 255
165 201 255
165 201 255
165 201 255
165 201 255
164 201 255
164 201 255
164 201 255
164 201 255
164 201 255
164 201 255
164 201 255
164 200 255
164 200 255
164 200 255
164 200 255
163 200 255
163 200 255
163 200 255
163 200 255
163 200 255
163 200 255
163 200 255
163 200 255
163 200 255
163 200 255
163 200 255
162 200 255
162 200 255
162 200 255
162 200 255
162 199 255
162 199 255
162 199 255
162 199 255
162 199 255
162 199 255
162 199 255
161 199 255
161 199 255
161 199 255
161 199 255
161 199 255
161 199 255
161 199 255
161 199 255
161 199 255
161 199 255
160 198 255
160 198 255
160 198 255
160 198 255
160 198 255
160 198 255
160 198 255
160 198 255
160 198 255
159 198 255
159 198 255
159 198 255
159 198 255
159 198 255
159 198 255
159 198 255
159 197 255
159 197 255
159 197 255
158 197 255
158 197 255
158 197 255
158 197 255
158 197 255
158 197 255
158 197 255
158 197 255
158 197 255
157 197 255
157 197 255
157 197 255
157 196 255
157 196 255
157 196 255
157 196 255
157 196 255
157 196 255
156 196 255
156 196 255
156 196 255
156 196 255
156 196 255
156 196 255
156 196 255
156 196 255
156 196 255
156 196 255
155 195 255
155 195 255
155 195 255
155 195 255
155 195 255
155 195 255
155 195 255
155 195 255
155 195 255
154 195 255
154 195 255
154 195 255
154 195 255
154 195 255
154 195 255
154 194 255
154 194 255
154 194 255
153 194 255
153 194 255
153 194 255
153 194 255
153 194 255
153 194 255
153 194 255
153 194 255
153 194 255
153 194 255
152 194 255
152 194 255
152 194 255
152 193 255
152 193 255
152 193 255
152 193 255
152 193 255
152 193 255
152 193 255
151 193 255
151 193 255
151 193 255
151 193 255
151 193 255
151 193 255
151 193 255
151 193 255
151 193 255
151 193 255
151 193 255
150 192 255
150 192 255
150 192 255
150 192 255
150 192 255
150 192 255
150 192 255
150 192 255
150 192 255
150 192 255
150 192 255
150 192 255
150 192 255
149 192 255
149 192 255
149 192 255
149 192 255
149 192 255
149 192 255
149 192 255
149 192 255
149 192 255
149 192 255
149 192 255
149 192 255
149 191 255
149 191 255
149 191 255
149 191 255
149 191 255
149 191 255
149 191 255
148 191 255
148 191 255
148 191 255
148 191 255
148 191 255
148 191 255
148 191 255
148 191 255
148 191 255
148 191 255
148 191 255
148 191 255
148 191 255
148 191 255
148 191 255
148 191 255
148 191 255
148 191 255
148 191 255
148 191 255
148 191 255
148 191 255
148 191 255
148 191 255
148 191 255
148 191 255
148 191 255
148 191 255
148 191 255
148 191 255
148 191 255
148 191 255
148 191 255
148 191 255
148 191 255
148 191 255
148 191 255
148 191 255
148 191 255
148 191 255
148 191 255
148 191 255
148 191 255
148 191 255
149 191 255
149 191 255
149 191 255
149 191 255
149 191 255
149 191 255
149 191 255
149 191 255
149 192 255
149 192 255
149 192 255
149 192 255
149 192 255
149 192 255
149 192 255
149 192 255
149 192 255
149 192 255
149 192 255
150 192 255
150 192 255
150 192 255
150 192 255
150 192 255
150 192 255
150 192 255
150 192 255
150 192 255
150 192 255
150 192 255
150 192 255
150 192 255
151 193 255
151 193 255
151 193 255
151 193 255
151 193 255
151 193 255
151 193 255
151 193 255
151 193 255
151 193 255
151 193 255
152 193 255
152 193 255
152 193 255
152 193 255
152 193 255
152 193 255
152 193 255
152 194 255
152 194 255
152 194 255
153 194 255
153 194 255
153 194 255
153 194 255
153 194 255
153 194 255
153 194 255
153 194 255
153 194 255
153 194 255
154 194 255
154 194 255
154 194 255
154 195 255
154 195 255
154 195 255
154 195 255
154 195 255
154 195 255
155 195 255
155 195 255
155 195 255
155 195 255
155 195 255
155 195 255
155 195 255
155 195 255
155 195 255
156 196 255
156 196 255
156 196 255
156 196 255
156 196 255
156 196 255
156 196 255
156 196 255
156 196 255
156 196 255
157 196 255
157 196 255
157 196 255
157 196 255
157 196 255
157 196 255
157 197 255
157 197 255
157 197 255
158 197 255
158 197 255
158 197 255
158 197 255
158 197 255
158 197 255
158 197 255
158 197 255
158 197 255
159 197 255
159 197 255
159 197 255
159 198 255
159 198 255
159 198 255
159 198 255
159 198 255
159 198 255
159 198 255
160 198 255
160 198 255
160 198 255
160 198 255
160 198 255
160 198 255
160 198 255
160 198 255
160 198 255
161 199 255
161 199 255
161 199 255
161 199 255
161 199 255
161 199 255
161 199 255
161 199 255
161 199 255
161 199 255
162 199 255
162 199 255
162 199 255
162 199 255
162 199 255
162 199 255
162 199 255
162 200 255
162 200 255
162 200 255
162 200 255
163 200 255
163 200 255
163 200 255
163 200 255
163 200 255
163 200 255
163 200 255
163 200 255
163 200 255
163 200 255
163 200 255
164 200 255
164 200 255
164 200 255
164 200 255
164 201 255
164 201 255
164 201 255
164 201 255
164 201 255
164 201 255
164 201 255
165 201 255
165 201 255
165 201 255
165 201 255
165 201 255
165 201 255
165 201 255
165 201 255
165 201 255
165 201 255
165 201 255
165 201 255
165 201 255
165 201 255
165 201 255
165 201 255
164 201 255
164 201 255
164 201 255
164 201 255
164 201 255
164 201 255
164 201 255
164 201 255
164 200 255
164 200 255
164 200 255
164 200 255
163 200 255
163 200 255
163 200 255
163 200 255
163 200 255
163 200 255
163 200 255
163 200 255
163 200 255
163 200 255
162 200 255
162 200 255
162 200 255
162 200 255
162 199 255
162 199 255
162 199 255
162 199 255
162 199 255
162 199 255
162 199 255
161 199 255
161 199 255
161 199 255
161 199 255
161 199 255
161 199 255
161 199 255
161 199 255
161 199 255
161 199 255
160 198 255
160 198 255
160 198 255
160 198 255
160 198 255
160 198 255
160 198 255
160 198 255
160 198 255
159 198 255
159 198 255
159 198 255
159 198 255
159 198 255
159 198 255
159 198 255
159 197 255
159 197 255
159 197 255
158 197 255
158 197 255
158 197 255
158 197 255
158 197 255
158 197 255
158 197 255
158 197 255
158 197 255
157 197 255
157 197 255
157 197 255
157 197 255
157 196 255
157 196 255
157 196 255
157 196 255
157 196 255
157 196 255
156 196 255
156 196 255
156 196 255
156 196 255
156 196 255
156 196 255
156 196 255
156 196 255
156 196 255
155 195 255
155 195 255
155 195 255
155 195 255
155 195 255
155 195 255
155 195 255
155 195 255
155 195 255
154 195 255
154 195 255
154 195 255
154 195 255
154 195 255
154 195 255
154 194 255
154 194 255
154 194 255
153 194 255
153 194 255
153 194 255
153 194 255
153 194 255
153 194 255
153 194 255
153 194 255
153 194 255
153 194 255
152 194 255
152 194 255
152 194 255
152 194 255
152 193 255
152 193 255
152 193 255
152 193 255
152 193 255
152 193 255
152 193 255
151 193 255
151 193 255
151 193 255
151 193 255
151 193 255
151 193 255
151 193 255
151 193 255
151 193 255
151 193 255
151 193 255
150 192 255
150 192 255
150 192 255
150 192 255
150 192 255
150 192 255
150 192 255
150 192 255
150 192 255
150 192 255
150 192 255
150 192 255
150 192 255
150 192 255
149 192 255
149 192 255
149 192 255
149 192 255
149 192 255
149 192 255
149 192 255
149 192 255
149 192 255
149 192 255
149 192 255
149 192 255
149 191 255
149 191 255
149 191 255
149 191 255
149 191 255
149 191 255
149 191 255
149 191 255
149 191 255
149 191 255
148 191 255
148 191 255
148 191 255
148 191 255
148 191 255
148 191 255
148 191 255
148 191 255
148 191 255
148 191 255
148 191 255
148 191 255
148 191 255
148 191 255
148 191 255
148 191 255
148 191 255
148 191 255
148 191 255
148 191 255
148 191 255
148 191 255
148 191 255
148 191 255
148 191 255
148 191 255
148 191 255
148 191 255
148 191 255
148 191 255
148 191 255
149 191 255
149 191 255
149 191 255
149 191 255
149 191 255
149 191 255
149 191 255
149 191 255
149 192 255
149 192 255
149 192 255
149 192 255
149 192 255
149 192 255
149 192 255
149 192 255
149 192 255
149 192 255
149 192 255
149 192 255
149 192 255
150 192 255
150 192 255
150 192 255
150 192 255
150 192 255
150 192 255
150 192 255
150 192 255
150 192 255
150 192 255
150 192 255
150 192 255
150 192 255
150 192 255
151 193 255
151 193 255
151 193 255
151 193 255
151 193 255
151 193 255
151 193 255
151 193 255
151 193 255
151 193 255
151 193 255
152 193 255
152 193 255
152 193 255
152 193 255
152 193 255
152 193 255
152 193 255
152 194 255
152 194 255
152 194 255
152 194 255
153 194 255
153 194 255
153 194 255
153 194 255
153 194 255
153 194 255
153 194 255
153 194 255
153 194 255
153 194 255
154 194 255
154 194 255
154 194 255
154 195 255
154 195 255
154 195 255
154 195 255
154 195 255
154 195 255
155 195 255
155 195 255
155 195 255
155 195 255
155 195 255
155 195 255
155 195 255
155 195 255
155 195 255
156 196 255
156 196 255
156 196 255
156 196 255
156 196 255
156 196 255
156 196 255
156 196 255
156 196 255
156 196 255
157 196 255
157 196 255
157 196 255
157 196 255
157 196 255
157 196 255
157 197 255
157 197 255
157 197 255
158 197 255
158 197 255
158 197 255
158 197 255
158 197 255
158 197 255
158 197 255
158 197 255
158 197 255
159 197 255
159 197 255
159 197 255
159 198 255
159 198 255
159 198 255
159 198 255
159 198 255
159 198 255
160 198 255
160 198 255
160 198 255
160 198 255
160 198 255
160 198 255
160 198 255
160 198 255
160 198 255
160 198 255
161 199 255
161 199 255
161 199 255
161 199 255
161 199 255
161 199 255
161 199 255
161 199 255
161 199 255
161 199 255
162 199 255
162 199 255
162 199 255
162 199 255
162 199 255
162 199 255
162 199 255
162 200 255
162 200 255
162 200 255
163 200 255
163 200 255
163 200 255
163 200 255
163 200 255
163 200 255
163 200 255
163 200 255
163 200 255
163 200 255
163 200 255
164 200 255
164 200 255
164 200 255
164 200 255
164 201 255
164 201 255
164 201 255
164 201 255
164 201 255
164 201 255
164 201 255
164 201 255
165 201 255
165 201 255
165 201 255
165 201 255
165 201 255
165 201 255
165 201 255
165 201 255
165 201 255
165 201 255
165 201 255
165 201 255
165 201 255
165 201 255
165 201 255
165 201 255
165 201 255
165 201 255
165 201 255
165 201 255
165 201 255
164 201 255
164 201 255
164 201 255
164 201 255
164 201 255
164 201 255
164 201 255
164 200 255
164 200 255
164 200 255
164 200 255
163 200 255
163 200 255
163 200 255
163 200 255
163 200 255
163 200 255
163 200 255
163 200 255
163 200 255
163 200 255
163 200 255
162 200 255
162 200 255
162 200 255
162 199 255
162 199 255
162 199 255
162 199 255
162 199 255
162 199 255
162 199 255
161 199 255
161 199 255
161 199 255
161 199 255
161 199 255
161 199 255
161 199 255
161 199 255
161 199 255
161 199 255
160 198 255
160 198 255
160 198 255
160 198 255
160 198 255
160 198 255
160 198 255
160 198 255
160 198 255
160 198 255
159 198 255
159 198 255
159 198 255
159 198 255
159 198 255
159 198 255
159 197 255
159 197 255
159 197 255
158 197 255
158 197 255
158 197 255
158 197 255
158 197 255
158 197 255
158 197 255
158 197 255
158 197 255
158 197 255
157 197 255
157 197 255
157 197 255
157 196 255
157 196 255
157 196 255
157 196 255
157 196 255
157 196 255
156 196 255
156 196 255
156 196 255
156 196 255
156 196 255
156 196 255
156 196 255
156 196 255
156 196 255
155 195 255
155 195 255
155 195 255
155 195 255
155 195 255
155 195 255
155 195 255
155 195 255
155 195 255
154 195 255
154 195 255
154 195 255
154 195 255
154 195 255
154 195 255
154 195 255
154 194 255
154 194 255
154 194 255
153 194 255
153 194 255
153 194 255
153 194 255
153 194 255
153 194 255
153 194 255
153 194 255
153 194 255
153 194 255
152 194 255
152 194 255
152 194 255
152 193 255
152 193 255
152 193 255
152 193 255
152 193 255
152 193 255
152 193 255
151 193 255
151 193 255
151 193 255
151 193 255
151 193 255
151 193 255
151 193 255
151 193 255
151 193 255
151 193 255
151 193 255
151 193 255
150 192 255
150 192 255
150 192 255
150 192 255
150 192 255
150 192 255
150 192 255
150 192 255
150 192 255
150 192 255
150 192 255
150 192 255
150 192 255
150 192 255
150 192 255
149 192 255
149 192 255
149 192 255
149 192 255
149 192 255
149 192 255
149 192 255
149 192 255
149 192 255
149 192 255
149 192 255
149 192 255
149 192 255
149 192 255
149 191 255
149 191 255
149 191 255
149 191 255
149 191 255
149 191 255
149 191 255
149 191 255
149 191 255
149 191 255
149 191 255
149 191 255
149 191 255
149 191 255
149 191 255
149 191 255
149 191 255
149 191 255
149 191 255
149 191 255
149 191 255
149 191 255
149 191 255
149 191 255
149 191 255
149 191 255
149 191 255
149 191 255
149 191 255
149 191 255
149 191 255
149 191 255
149 191 255
149 191 255
149 191 255
149 191 255
149 191 255
149 191 255
149 192 255
149 192 255
149 192 255
149 192 255
149 192 255
149 192 255
149 192 255
149 192 255
149 192 255
149 192 255
149 192 255
149 192 255
149 192 255
149 192 255
150 192 255
150 192 255
150 192 255
150 192 255
150 192 255
150 192 255
150 192 255
150 192 255
150 192 255
150 192 255
150 192 255
150 192 255
150 192 255
150 192 255
150 192 255
151 193 255
151 193 255
151 193 255
151 193 255
151 193 255
151 193 255
151 193 255
151 193 255
151 193 255
151 193 255
151 193 255
151 193 255
152 193 255
152 193 255
152 193 255
152 193 255
152 193 255
152 193 255
152 193 255
152 194 255
152 194 255
152 194 255
153 194 255
153 194 255
153 194 255
153 194 255
153 194 255
153 194 255
153 194 255
153 194 255
153 194 255
153 194 255
154 194 255
154 194 255
154 194 255
154 195 255
154 195 255
154 195 255
154 195 255
154 195 255
154 195 255
154 195 255
155 195 255
155 195 255
155 195 255
155 195 255
155 195 255
155 195 255
155 195 255
155 195 255
155 195 255
156 196 255
156 196 255
156 196 255
156 196 255
156 196 255
156 196 255
156 196 255
156 196 255
156 196 255
157 196 255
157 196 255
157 196 255
157 196 255
157 196 255
157 196 255
157 197 255
157 197 255
157 197 255
158 197 255
158 197 255
158 197 255
158 197 255
158 197 255
158 197 255
158 197 255
158 197 255
158 197 255
158 197 255
159 197 255
159 197 255
159 197 255
159 198 255
159 198 255
159 198 255
159 198 255
159 198 255
159 198 255
160 198 255
160 198 255
160 198 255
160 198 255
160 198 255
160 198 255
160 198 255
160 198 255
160 198 255
160 198 255
161 199 255
161 199 255
161 199 255
161 199 255
161 199 255
161 199 255
161 199 255
161 199 255
161 199 255
161 199 255
162 199 255
162 199 255
162 199 255
162 199 255
162 199 255
162 199 255
162 199 255
162 200 255
162 200 255
162 200 255
163 200 255
163 200 255
163 200 255
163 200 255
163 200 255
163 200 255
163 200 255
163 200 255
163 200 255
163 200 255
163 200 255
164 200 255
164 200 255
164 200 255
164 200 255
164 201 255
164 201 255
164 201 255
164 201 255
164 201 255
164 201 255
164 201 255
165 201 255
165 201 255
165 201 255
165 201 255
165 201 255
165 201 255
165 201 255
165 201 255
165 201 255
165 201 255
165 201 255
165 201 255
166 202 255
166 202 255
166 202 255
165 201 255
165 201 255
165 201 255
165 201 255
165 201 255
165 201 255
165 201 255
165 201 255
165 201 255
165 201 255
165 201 255
164 201 255
164 201 255
164 201 255
164 201 255
164 201 255
164 201 255
164 201 255
164 201 255
164 200 255
164 200 255
164 200 255
164 200 255
163 200 255
163 200 255
163 200 255
163 200 255
163 200 255
163 200 255
163 200 255
163 200 255
163 200 255
163 200 255
162 200 255
162 200 255
162 200 255
162 200 255
162 199 255
162 199 255
162 199 255
162 199 255
162 199 255
162 199 255
161 199 255
161 199 255
161 199 255
161 199 255
161 199 255
161 199 255
161 199 255
161 199 255
161 199 255
161 199 255
160 198 255
160 198 255
160 198 255
160 198 255
160 198 255
160 198 255
160 198 255
160 198 255
160 198 255
160 198 255
159 198 255
159 198 255
159 198 255
159 198 255
159 198 255
159 198 255
159 197 255
159 197 255
159 197 255
159 197 255
158 197 255
158 197 255
158 197 255
158 197 255
158 197 255
158 197 255
158 197 255
158 197 255
158 197 255
157 197 255
157 197 255
157 197 255
157 196 255
157 196 255
157 196 255
157 196 255
157 196 255
157 196 255
156 196 255
156 196 255
156 196 255
156 196 255
156 196 255
156 196 255
156 196 255
156 196 255
156 196 255
155 195 255
155 195 255
155 195 255
155 195 255
155 195 255
155 195 255
155 195 255
155 195 255
155 195 255
154 195 255
154 195 255
154 195 255
154 195 255
154 195 255
154 195 255
154 195 255
154 194 255
154 194 255
154 194 255
153 194 255
153 194 255
153 194 255
153 194 255
153 194 255
153 194 255
153 194 255
153 194 255
153 194 255
153 194 255
152 194 255
152 194 255
152 194 255
152 194 255
152 193 255
152 193 255
152 193 255
152 193 255
152 193 255
152 193 255
152 193 255
151 193 255
151 193 255
151 193 255
151 193 255
151 193 255
151 193 255
151 193 255
151 193 255
151 193 255
151 193 255
151 193 255
151 193 255
150 192 255
150 192 255
150 192 255
150 192 255
150 192 255
150 192 255
150 192 255
150 192 255
150 192 255
150 192 255
150 192 255
150 192 255
150 192 255
150 192 255
150 192 255
150 192 255
149 192 255
149 192 255
149 192 255
149 192 255
149 192 255
149 192 255
149 192 255
149 192 255
149 192 255
149 192 255
149 192 255
149 192 255
149 192 255
149 192 255
149 192 255
149 192 255
149 192 255
149 192 255
149 192 255
149 192 255
149 191 255
149 191 255
149 191 255
149 191 255
149 191 255
149 191 255
149 191 255
149 191 255
149 191 255
149 191 255
149 191 255
149 191 255
149 191 255
149 191 255
149 191 255
149 191 255
149 191 255
149 191 255
149 191 255
149 192 255
149 192 255
149 192 255
149 192 255
149 192 255
149 192 255
149 192 255
149 192 255
149 192 255
149 192 255
149 192 255
149 192 255
149 192 255
149 192 255
149 192 255
149 192 255
149 192 255
149 192 255
149 192 255
150 192 255
150 192 255
150 192 255
150 192 255
150 192 255
150 192 255
150 192 255
150 192 255
150 192 255
150 192 255
150 192 255
150 192 255
150 192 255
150 192 255
150 192 255
150 192 255
151 193 255
151 193 255
151 193 255
151 193 255
151 193 255
151 193 255
151 193 255
151 193 255
151 193 255
151 193 255
151 193 255
151 193 255
152 193 255
152 193 255
152 193 255
152 193 255
152 193 255
152 193 255
152 193 255
152 194 255
152 194 255
152 194 255
152 194 255
153 194 255
153 194 255
153 194 255
153 194 255
153 194 255
153 194 255
153 194 255
153 194 255
153 194 255
153 194 255
154 194 255
154 194 255
154 194 255
154 195 255
154 195 255
154 195 255
154 195 255
154 195 255
154 195 255
154 195 255
155 195 255
155 195 255
155 195 255
155 195 255
155 195 255
155 195 255
155 195 255
155 195 255
155 195 255
156 196 255
156 196 255
156 196 255
156 196 255
156 196 255
156 196 255
156 196 255
156 196 255
156 196 255
157 196 255
157 196 255
157 196 255
157 196 255
157 196 255
157 196 255
157 197 255
157 197 255
157 197 255
158 197 255
158 197 255
158 197 255
158 197 255
158 197 255
158 197 255
158 197 255
158 197 255
158 197 255
158 197 255
159 197 255
159 197 255
159 198 255
159 198 255
159 198 255
159 198 255
159 198 255
159 198 255
159 198 255
160 198 255
160 198 255
160 198 255
160 198 255
160 198 255
160 198 255
160 198 255
160 198 255
160 198 255
161 199 255
161 199 255
161 199 255
161 199 255
161 199 255
161 199 255
161 199 255
161 199 255
161 199 255
161 199 255
161 199 255
162 199 255
162 199 255
162 199 255
162 199 255
162 199 255
162 199 255
162 200 255
162 200 255
162 200 255
162 200 255
163 200 255
163 200 255
163 200 255
163 200 255
163 200 255
163 200 255
163 200 255
163 200 255
163 200 255
163 200 255
164 200 255
164 200 255
164 200 255
164 200 255
164 201 255
164 201 255
164 201 255
164 201 255
164 201 255
164 201 255
164 201 255
164 201 255
165 201 255
165 201 255
165 201 255
165 201 255
165 201 255
165 201 255
165 201 255
165 201 255
165 201 255
165 201 255
165 201 255
166 202 255
166 202 255
166 202 255
166 202 255
166 202 255
166 202 255
166 202 255
166 202 255
165 201 255
165 201 255
165 201 255
165 201 255
165 201 255
165 201 255
165 201 255
165 201 255
165 201 255
165 201 255
165 201 255
165 201 255
164 201 255
164 201 255
164 201 255
164 201 255
164 201 255
164 201 255
164 201 255
164 200 255
164 200 255
164 200 255
164 200 255
163 200 255
163 200 255
163 200 255
163 200 255
163 200 255
163 200 255
163 200 255
163 200 255
163 200 255
163 200 255
163 200 255
162 200 255
162 200 255
162 200 255
162 199 255
162 199 255
162 199 255
162 199 255
162 199 255
162 199 255
162 199 255
161 199 255
161 199 255
161 199 255
161 199 255
161 199 255
161 199 255
161 199 255
161 199 255
161 199 255
161 199 255
160 198 255
160 198 255
160 198 255
160 198 255
160 198 255
160 198 255
160 198 255
160 198 255
160 198 255
159 198 255
159 198 255
159 198 255
159 198 255
159 198 255
159 198 255
159 197 255
159 197 255
159 197 255
159 197 255
158 197 255
158 197 255
158 197 255
158 197 255
158 197 255
158 197 255
158 197 255
158 197 255
158 197 255
157 197 255
157 197 255
157 197 255
157 196 255
157 196 255
157 196 255
157 196 255
157 196 255
157 196 255
156 196 255
156 196 255
156 196 255
156 196 255
156 196 255
156 196 255
156 196 255
156 196 255
156 196 255
155 195 255
155 195 255
155 195 255
155 195 255
155 195 255
155 195 255
155 195 255
155 195 255
155 195 255
155 195 255
154 195 255
154 195 255
154 195 255
154 195 255
154 195 255
154 195 255
154 194 255
154 194 255
154 194 255
153 194 255
153 194 255
153 194 255
153 194 255
153 194 255
153 194 255
153 194 255
153 194 255
153 194 255
153 194 255
153 194 255
152 194 255
152 194 255
152 194 255
152 193 255
152 193 255
152 193 255
152 193 255
152 193 255
152 193 255
152 193 255
152 193 255
151 193 255
151 193 255
151 193 255
151 193 255
151 193 255
151 193 255
151 193 255
151 193 255
151 193 255
151 193 255
151 193 255
151 193 255
151 193 255
150 192 255
150 192 255
150 192 255
150 192 255
150 192 255
150 192 255
150 192 255
150 192 255
150 192 255
150 192 255
150 192 255
150 192 255
150 192 255
150 192 255
150 192 255
150 192 255
150 192 255
149 192 255
149 192 255
149 192 255
149 192 255
149 192 255
149 192 255
149 192 255
149 192 255
149 192 255
149 192 255
149 192 255
149 192 255
149 192 255
149 192 255
149 192 255
149 192 255
149 192 255
149 192 255
149 192 255
149 192 255
149 192 255
149 192 255
149 192 255
149 192 255
149 192 255
149 192 255
149 192 255
149 192 255
149 192 255
149 192 255
149 192 255
149 192 255
149 192 255
149 192 255
149 192 255
149 192 255
149 192 255
149 192 255
149 192 255
149 192 255
149 192 255
149 192 255
149 192 255
149 192 255
149 192 255
149 192 255
149 192 255
149 192 255
150 192 255
150 192 255
150 192 255
150 192 255
150 192 255
150 192 255
150 192 255
150 192 255
150 192 255
150 192 255
150 192 255
150 192 255
150 192 255
150 192 255
150 192 255
150 192 255
150 192 255
151 193 255
151 193 255
151 193 255
151 193 255
151 193 255
151 193 255
151 193 255
151 193 255
151 193 255
151 193 255
151 193 255
151 193 255
151 193 255
152 193 255
152 193 255
152 193 255
152 193 255
152 193 255
152 193 255
152 193 255
152 193 255
152 194 255
152 194 255
152 194 255
153 194 255
153 194 255
153 194 255
153 194 255
153 194 255
153 194 255
153 194 255
153 194 255
153 194 255
153 194 255
153 194 255
154 194 255
154 194 255
154 194 255
154 195 255
154 195 255
154 195 255
154 195 255
154 195 255
154 195 255
155 195 255
155 195 255
155 195 255
155 195 255
155 195 255
155 195 255
155 195 255
155 195 255
155 195 255
155 195 255
156 196 255
156 196 255
156 196 255
156 196 255
156 196 255
156 196 255
156 196 255
156 196 255
156 196 255
157 196 255
157 196 255
157 196 255
157 196 255
157 196 255
157 196 255
157 197 255
157 197 255
157 197 255
158 197 255
158 197 255
158 197 255
158 197 255
158 197 255
158 197 255
158 197 255
158 197 255
158 197 255
159 197 255
159 197 255
159 197 255
159 198 255
159 198 255
159 198 255
159 198 255
159 198 255
159 198 255
159 198 255
160 198 255
160 198 255
160 198 255
160 198 255
160 198 255
160 198 255
160 198 255
160 198 255
160 198 255
160 198 255
161 199 255
161 199 255
161 199 255
161 199 255
161 199 255
161 199 255
161 199 255
161 199 255
161 199 255
162 199 255
162 199 255
162 199 255
162 199 255
162 199 255
162 199 255
162 199 255
162 200 255
162 200 255
162 200 255
163 200 255
163 200 255
163 200 255
163 200 255
163 200 255
163 200 255
163 200 255
163 200 255
163 200 255
163 200 255
163 200 255
164 200 255
164 200 255
164 200 255
164 200 255
164 201 255
164 201 255
164 201 255
164 201 255
164 201 255
164 201 255
164 201 255
165 201 255
165 201 255
165 201 255
165 201 255
165 201 255
165 201 255
165 201 255
165 201 255
165 201 255
165 201 255
165 201 255
165 201 255
166 202 255
166 202 255
166 202 255
166 202 255
166 202 255
166 202 255
166 202 255
166 202 255
166 202 255
166 202 255
166 202 255
166 202 255
166 202 255
165 201 255
165 201 255
165 201 255
165 201 255
165 201 255
165 201 255
165 201 255
165 201 255
165 201 255
165 201 255
165 201 255
164 201 255
164 201 255
164 201 255
164 201 255
164 201 255
164 201 255
164 201 255
164 201 255
164 200 255
164 200 255
164 200 255
163 200 255
163 200 255
163 200 255
163 200 255
163 200 255
163 200 255
163 200 255
163 200 255
163 200 255
163 200 255
163 200 255
162 200 255
162 200 255
162 200 255
162 199 255
162 199 255
162 199 255
162 199 255
162 199 255
162 199 255
162 199 255
161 199 255
161 199 255
161 199 255
161 199 255
161 199 255
161 199 255
161 199 255
161 199 255
161 199 255
161 199 255
160 198 255
160 198 255
160 198 255
160 198 255
160 198 255
160 198 255
160 198 255
160 198 255
160 198 255
160 198 255
159 198 255
159 198 255
159 198 255
159 198 255
159 198 255
159 198 255
159 197 255
159 197 255
159 197 255
158 197 255
158 197 255
158 197 255
158 197 255
158 197 255
158 197 255
158 197 255
158 197 255
158 197 255
157 197 255
157 197 255
157 197 255
157 196 255
157 196 255
157 196 255
157 196 255
157 196 255
157 196 255
157 196 255
156 196 255
156 196 255
156 196 255
156 196 255
156 196 255
156 196 255
156 196 255
156 196 255
156 196 255
155 195 255
155 195 255
155 195 255
155 195 255
155 195 255
155 195 255
155 195 255
155 195 255
155 195 255
154 195 255
154 195 255
154 195 255
154 195 255
154 195 255
154 195 255
154 195 255
154 194 255
154 194 255
154 194 255
153 194 255
153 194 255
153 194 255
153 194 255
153 194 255
153 194 255
153 194 255
153 194 255
153 194 255
153 194 255
152 194 255
152 194 255
152 194 255
152 194 255
152 193 255
152 193 255
152 193 255
152 193 255
152 193 255
152 193 255
152 193 255
152 193 255
151 193 255
151 193 255
151 193 255
151 193 255
151 193 255
151 193 255
151 193 255
151 193 255
151 193 255
151 193 255
151 193 255
151 193 255
151 193 255
150 192 255
150 192 255
150 192 255
150 192 255
150 192 255
150 192 255
150 192 255
150 192 255
150 192 255
150 192 255
150 192 255
150 192 255
150 192 255
150 192 255
150 192 255
150 192 255
150 192 255
150 192 255
150 192 255
150 192 255
150 192 255
149 192 255
149 192 255
149 192 255
149 192 255
149 192 255
149 192 255
149 192 255
149 192 255
149 192 255
149 192 255
149 192 255
149 192 255
149 192 255
149 192 255
149 192 255
149 192 255
149 192 255
149 192 255
149 192 255
149 192 255
149 192 255
149 192 255
149 192 255
149 192 255
149 192 255
149 192 255
149 192 255
149 192 255
149 192 255
149 192 255
149 192 255
149 192 255
149 192 255
149 192 255
150 192 255
150 192 255
150 192 255
150 192 255
150 192 255
150 192 255
150 192 255
150 192 255
150 192 255
150 192 255
150 192 255
150 192 255
150 192 255
150 192 255
150 192 255
150 192 255
150 192 255
150 192 255
150 192 255
150 192 255
150 192 255
151 193 255
151 193 255
151 193 255
151 193 255
151 193 255
151 193 255
151 193 255
151 193 255
151 193 255
151 193 255
151 193 255
151 193 255
151 193 255
152 193 255
152 193 255
152 193 255
152 193 255
152 193 255
152 193 255
152 193 255
152 193 255
152 194 255
152 194 255
152 194 255
152 194 255
153 194 255
153 194 255
153 194 255
153 194 255
153 194 255
153 194 255
153 194 255
153 194 255
153 194 255
153 194 255
154 194 255
154 194 255
154 194 255
154 195 255
154 195 255
154 195 255
154 195 255
154 195 255
154 195 255
154 195 255
155 195 255
155 195 255
155 195 255
155 195 255
155 195 255
155 195 255
155 195 255
155 195 255
155 195 255
156 196 255
156 196 255
156 196 255
156 196 255
156 196 255
156 196 255
156 196 255
156 196 255
156 196 255
156 196 255
157 196 255
157 196 255
157 196 255
157 196 255
157 196 255
157 196 255
157 197 255
157 197 255
157 197 255
158 197 255
158 197 255
158 197 255
158 197 255
158 197 255
158 197 255
158 197 255
158 197 255
158 197 255
159 197 255
159 197 255
159 197 255
159 198 255
159 198 255
159 198 255
159 198 255
159 198 255
159 198 255
160 198 255
160 198 255
160 198 255
160 198 255
160 198 255
160 198 255
160 198 255
160 198 255
160 198 255
160 198 255
161 199 255
161 199 255
161 199 255
161 199 255
161 199 255
161 199 255
161 199 255
161 199 255
161 199 255
161 199 255
162 199 255
162 199 255
162 199 255
162 199 255
162 199 255
162 199 255
162 199 255
162 200 255
162 200 255
162 200 255
163 200 255
163 200 255
163 200 255
163 200 255
163 200 255
163 200 255
163 200 255
163 200 255
163 200 255
163 200 255
163 200 255
164 200 255
164 200 255
164 200 255
164 201 255
164 201 255
164 201 255
164 201 255
164 201 255
164 201 255
164 201 255
165 201 255
165 201 255
165 201 255
165 201 255
165 201 255
165 201 255
165 201 255
165 201 255
165 201 255
165 201 255
165 201 255
165 201 255
166 202 255
166 202 255
166 202 255
166 202 255
166 202 255
166 202 255
166 202 255
166 202 255
166 202 255
166 202 255
166 202 255
166 202 255
166 202 255
166 202 255
166 202 255
166 202 255
166 202 255
166 202 255
165 201 255
165 201 255
165 201 255
165 201 255
165 201 255
165 201 255
165 201 255
165 201 255
165 201 255
165 201 255
165 201 255
165 201 255
164 201 255
164 201 255
164 201 255
164 201 255
164 201 255
164 201 255
164 201 255
164 200 255
164 200 255
164 200 255
164 200 255
163 200 255
163 200 255
163 200 255
163 200 255
163 200 255
163 200 255
163 200 255
163 200 255
163 200 255
163 200 255
162 200 255
162 200 255
162 200 255
162 200 255
162 199 255
162 199 255
162 199 255
162 199 255
162 199 255
162 199 255
162 199 255
161 199 255
161 199 255
161 199 255
161 199 255
161 199 255
161 199 255
161 199 255
161 199 255
161 199 255
160 198 255
160 198 255
160 198 255
160 198 255
160 198 255
160 198 255
160 198 255
160 198 255
160 198 255
160 198 255
159 198 255
159 198 255
159 198 255
159 198 255
159 198 255
159 198 255
159 197 255
159 197 255
159 197 255
158 197 255
158 197 255
158 197 255
158 197 255
158 197 255
158 197 255
158 197 255
158 197 255
158 197 255
157 197 255
157 197 255
157 197 255
157 197 255
157 196 255
157 196 255
157 196 255
157 196 255
157 196 255
157 196 255
156 196 255
156 196 255
156 196 255
156 196 255
156 196 255
156 196 255
156 196 255
156 196 255
156 196 255
155 195 255
155 195 255
155 195 255
155 195 255
155 195 255
155 195 255
155 195 255
155 195 255
155 195 255
155 195 255
154 195 255
154 195 255
154 195 255
154 195 255
154 195 255
154 195 255
154 194 255
154 194 255
154 194 255
153 194 255
153 194 255
153 194 255
153 194 255
153 194 255
153 194 255
153 194 255
153 194 255
153 194 255
153 194 255
153 194 255
152 194 255
152 194 255
152 194 255
152 194 255
152 193 255
152 193 255
152 193 255
152 193 255
152 193 255
152 193 255
152 193 255
152 193 255
151 193 255
151 193 255
151 193 255
151 193 255
151 193 255
151 193 255
151 193 255
151 193 255
151 193 255
151 193 255
151 193 255
151 193 255
151 193 255
151 193 255
150 192 255
150 192 255
150 192 255
150 192 255
150 192 255
150 192 255
150 192 255
150 192 255
150 192 255
150 192 255
150 192 255
150 192 255
150 192 255
150 192 255
150 192 255
150 192 255
150 192 255
150 192 255
150 192 255
150 192 255
150 192 255
150 192 255
150 192 255
150 192 255
150 192 255
150 192 255
150 192 255
150 192 255
149 192 255
149 192 255
149 192 255
149 192 255
149 192 255
149 192 255
149 192 255
149 192 255
149 192 255
149 192 255
149 192 255
149 192 255
150 192 255
150 192 255
150 192 255
150 192 255
150 192 255
150 192 255
150 192 255
150 192 255
150 192 255
150 192 255
150 192 255
150 192 255
150 192 255
150 192 255
150 192 255
150 192 255
150 192 255
150 192 255
150 192 255
150 192 255
150 192 255
150 192 255
150 192 255
150 192 255
150 192 255
150 192 255
150 192 255
150 192 255
151 193 255
151 193 255
151 193 255
151 193 255
151 193 255
151 193 255
151 193 255
151 193 255
151 193 255
151 193 255
151 193 255
151 193 255
151 193 255
151 193 255
152 193 255
152 193 255
152 193 255
152 193 255
152 193 255
152 193 255
152 193 255
152 193 255
152 194 255
152 194 255
152 194 255
152 194 255
153 194 255
153 194 255
153 194 255
153 194 255
153 194 255
153 194 255
153 194 255
153 194 255
153 194 255
153 194 255
153 194 255
154 194 255
154 194 255
154 194 255
154 195 255
154 195 255
154 195 255
154 195 255
154 195 255
154 195 255
155 195 255
155 195 255
155 195 255
155 195 255
155 195 255
155 195 255
155 195 255
155 195 255
155 195 255
155 195 255
156 196 255
156 196 255
156 196 255
156 196 255
156 196 255
156 196 255
156 196 255
156 196 255
156 196 255
157 196 255
157 196 255
157 196 255
157 196 255
157 196 255
157 196 255
157 197 255
157 197 255
157 197 255
158 197 255
158 197 255
158 197 255
158 197 255
158 197 255
158 197 255
158 197 255
158 197 255
158 197 255
158 197 255
159 197 255
159 197 255
159 197 255
159 198 255
159 198 255
159 198 255
159 198 255
159 198 255
159 198 255
160 198 255
160 198 255
160 198 255
160 198 255
160 198 255
160 198 255
160 198 255
160 198 255
160 198 255
160 198 255
161 199 255
161 199 255
161 199 255
161 199 255
161 199 255
161 199 255
161 199 255
161 199 255
161 199 255
161 199 255
162 199 255
162 199 255
162 199 255
162 199 255
162 199 255
162 199 255
162 200 255
162 200 255
162 200 255
162 200 255
163 200 255
163 200 255
163 200 255
163 200 255
163 200 255
163 200 255
163 200 255
163 200 255
163 200 255
163 200 255
164 200 255
164 200 255
164 200 255
164 200 255
164 201 255
164 201 255
164 201 255
164 201 255
164 201 255
164 201 255
164 201 255
165 201 255
165 201 255
165 201 255
165 201 255
165 201 255
165 201 255
165 201 255
165 201 255
165 201 255
165 201 255
165 201 255
165 201 255
166 202 255
166 202 255
166 202 255
166 202 255
166 202 255
166 202 255
166 202 255
166 202 255
166 202 255
166 202 255
167 202 255
166 202 255
166 202 255
166 202 255
166 202 255
166 202 255
166 202 255
166 202 255
166 202 255
166 202 255
166 202 255
166 202 255
166 202 255
165 201 255
165 201 255
165 201 255
165 201 255
165 201 255
165 201 255
165 201 255
165 201 255
165 201 255
165 201 255
165 201 255
165 201 255
164 201 255
164 201 255
164 201 255
164 201 255
164 201 255
164 201 255
164 201 255
164 200 255
164 200 255
164 200 255
163 200 255
163 200 255
163 200 255
163 200 255
163 200 255
163 200 255
163 200 255
163 200 255
163 200 255
163 200 255
163 200 255
162 200 255
162 200 255
162 200 255
162 199 255
162 199 255
162 199 255
162 199 255
162 199 255
162 199 255
162 199 255
161 199 255
161 199 255
161 199 255
161 199 255
161 199 255
161 199 255
161 199 255
161 199 255
161 199 255
161 199 255
160 198 255
160 198 255
160 198 255
160 198 255
160 198 255
160 198 255
160 198 255
160 198 255
160 198 255
159 198 255
159 198 255
159 198 255
159 198 255
159 198 255
159 198 255
159 198 255
159 197 255
159 197 255
159 197 255
158 197 255
158 197 255
158 197 255
158 197 255
158 197 255
158 197 255
158 197 255
158 197 255
158 197 255
157 197 255
157 197 255
157 197 255
157 196 255
157 196 255
157 196 255
157 196 255
157 196 255
157 196 255
156 196 255
156 196 255
156 196 255
156 196 255
156 196 255
156 196 255
156 196 255
156 196 255
156 196 255
155 195 255
155 195 255
155 195 255
155 195 255
155 195 255
155 195 255
155 195 255
155 195 255
155 195 255
155 195 255
154 195 255
154 195 255
154 195 255
154 195 255
154 195 255
154 195 255
154 195 255
154 194 255
154 194 255
154 194 255
153 194 255
153 194 255
153 194 255
153 194 255
153 194 255
153 194 255
153 194 255
153 194 255
153 194 255
153 194 255
153 194 255
152 194 255
152 194 255
152 194 255
152 194 255
152 193 255
152 193 255
152 193 255
152 193 255
152 193 255
152 193 255
152 193 255
152 193 255
151 193 255
151 193 255
151 193 255
151 193 255
151 193 255
151 193 255
151 193 255
151 193 255
151 193 255
151 193 255
151 193 255
151 193 255
151 193 255
151 193 255
151 193 255
151 193 255
150 192 255
150 192 255
150 192 255
150 192 255
150 192 255
150 192 255
150 192 255
150 192 255
150 192 255
150 192 255
150 192 255
150 192 255
150 192 255
150 192 255
150 192 255
150 192 255
150 192 255
150 192 255
150 192 255
150 192 255
150 192 255
150 192 255
150 192 255
150 192 255
150 192 255
150 192 255
150 192 255
150 192 255
150 192 255
150 192 255
150 192 255
150 192 255
150 192 255
150 192 255
150 192 255
150 192 255
150 192 255
150 192 255
150 192 255
150 192 255
150 192 255
150 192 255
150 192 255
150 192 255
150 192 255
150 192 255
150 192 255
150 192 255
150 192 255
150 192 255
150 192 255
150 192 255
150 192 255
150 192 255
150 192 255
150 192 255
150 192 255
150 192 255
151 193 255
151 193 255
151 193 255
151 193 255
151 193 255
151 193 255
151 193 255
151 193 255
151 193 255
151 193 255
151 193 255
151 193 255
151 193 255
151 193 255
151 193 255
151 193 255
152 193 255
152 193 255
152 193 255
152 193 255
152 193 255
152 193 255
152 193 255
152 193 255
152 194 255
152 194 255
152 194 255
152 194 255
153 194 255
153 194 255
153 194 255
153 194 255
153 194 255
153 194 255
153 194 255
153 194 255
153 194 255
153 194 255
153 194 255
154 194 255
154 194 255
154 194 255
154 195 255
154 195 255
154 195 255
154 195 255
154 195 255
154 195 255
154 195 255
155 195 255
155 195 255
155 195 255
155 195 255
155 195 255
155 195 255
155 195 255
155 195 255
155 195 255
156 196 255
156 196 255
156 196 255
156 196 255
156 196 255
156 196 255
156 196 255
156 196 255
156 196 255
156 196 255
157 196 255
157 196 255
157 196 255
157 196 255
157 196 255
157 196 255
157 197 255
157 197 255
157 197 255
158 197 255
158 197 255
158 197 255
158 197 255
158 197 255
158 197 255
158 197 255
158 197 255
158 197 255
159 197 255
159 197 255
159 197 255
159 197 255
159 198 255
159 198 255
159 198 255
159 198 255
159 198 255
159 198 255
160 198 255
160 198 255
160 198 255
160 198 255
160 198 255
160 198 255
160 198 255
160 198 255
160 198 255
161 199 255
161 199 255
161 199 255
161 199 255
161 199 255
161 199 255
161 199 255
161 199 255
161 199 255
161 199 255
162 199 255
162 199 255
162 199 255
162 199 255
162 199 255
162 199 255
162 199 255
162 200 255
162 200 255
162 200 255
163 200 255
163 200 255
163 200 255
163 200 255
163 200 255
163 200 255
163 200 255
163 200 255
163 200 255
163 200 255
163 200 255
164 200 255
164 200 255
164 200 255
164 201 255
164 201 255
164 201 255
164 201 255
164 201 255
164 201 255
164 201 255
164 201 255
165 201 255
165 201 255
165 201 255
165 201 255
165 201 255
165 201 255
165 201 255
165 201 255
165 201 255
165 201 255
165 201 255
166 202 255
166 202 255
166 202 255
166 202 255
166 202 255
166 202 255
166 202 255
166 202 255
166 202 255
166 202 255
166 202 255
166 202 255
167 202 255
167 202 255
167 202 255
167 202 255
167 202 255
166 202 255
166 202 255
166 202 255
166 202 255
166 202 255
166 202 255
166 202 255
166 202 255
166 202 255
166 202 255
166 202 255
166 202 255
165 201 255
165 201 255
165 201 255
165 201 255
165 201 255
165 201 255
165 201 255
165 201 255
165 201 255
165 201 255
165 201 255
164 201 255
164 201 255
164 201 255
164 201 255
164 201 255
164 201 255
164 201 255
164 200 255
164 200 255
164 200 255
164 200 255
163 200 255
163 200 255
163 200 255
163 200 255
163 200 255
163 200 255
163 200 255
163 200 255
163 200 255
163 200 255
162 200 255
162 200 255
162 200 255
162 200 255
162 199 255
162 199 255
162 199 255
162 199 255
162 199 255
162 199 255
162 199 255
161 199 255
161 199 255
161 199 255
161 199 255
161 199 255
161 199 255
161 199 255
161 199 255
161 199 255
160 198 255
160 198 255
160 198 255
160 198 255
160 198 255
160 198 255
160 198 255
160 198 255
160 198 255
159 198 255
159 198 255
159 198 255
159 198 255
159 198 255
159 198 255
159 198 255
159 197 255
159 197 255
159 197 255
158 197 255
158 197 255
158 197 255
158 197 255
158 197 255
158 197 255
158 197 255
158 197 255
158 197 255
157 197 255
157 197 255
157 197 255
157 196 255
157 196 255
157 196 255
157 196 255
157 196 255
157 196 255
156 196 255
156 196 255
156 196 255
156 196 255
156 196 255
156 196 255
156 196 255
156 196 255
156 196 255
156 196 255
155 195 255
155 195 255
155 195 255
155 195 255
155 195 255
155 195 255
155 195 255
155 195 255
155 195 255
155 195 255
154 195 255
154 195 255
154 195 255
154 195 255
154 195 255
154 195 255
154 194 255
154 194 255
154 194 255
154 194 255
153 194 255
153 194 255
153 194 255
153 194 255
153 194 255
153 194 255
153 194 255
153 194 255
153 194 255
153 194 255
153 194 255
152 194 255
152 194 255
152 194 255
152 194 255
152 193 255
152 193 255
152 193 255
152 193 255
152 193 255
152 193 255
152 193 255
152 193 255
152 193 255
151 193 255
151 193 255
151 193 255
151 193 255
151 193 255
151 193 255
151 193 255
151 193 255
151 193 255
151 193 255
151 193 255
151 193 255
151 193 255
151 193 255
151 193 255
151 193 255
151 193 255
150 192 255
150 192 255
150 192 255
150 192 255
150 192 255
150 192 255
150 192 255
150 192 255
150 192 255
150 192 255
150 192 255
150 192 255
150 192 255
150 192 255
150 192 255
150 192 255
150 192 255
150 192 255
150 192 255
150 192 255
150 192 255
150 192 255
150 192 255
150 192 255
150 192 255
150 192 255
150 192 255
150 192 255
150 192 255
150 192 255
150 192 255
150 192 255
150 192 255
150 192 255
150 192 255
150 192 255
150 192 255
150 192 255
150 192 255
150 192 255
150 192 255
150 192 255
150 192 255
150 192 255
150 192 255
150 192 255
150 192 255
150 192 255
151 193 255
151 193 255
151 193 255
151 193 255
151 193 255
151 193 255
151 193 255
151 193 255
151 193 255
151 193 255
151 193 255
151 193 255
151 193 255
151 193 255
151 193 255
151 193 255
151 193 255
152 193 255
152 193 255
152 193 255
152 193 255
152 193 255
152 193 255
152 193 255
152 193 255
152 193 255
152 194 255
152 194 255
152 194 255
152 194 255
153 194 255
153 194 255
153 194 255
153 194 255
153 194 255
153 194 255
153 194 255
153 194 255
153 194 255
153 194 255
153 194 255
154 194 255
154 194 255
154 194 255
154 194 255
154 195 255
154 195 255
154 195 255
154 195 255
154 195 255
154 195 255
154 195 255
155 195 255
155 195 255
155 195 255
155 195 255
155 195 255
155 195 255
155 195 255
155 195 255
155 195 255
156 196 255
156 196 255
156 196 255
156 196 255
156 196 255
156 196 255
156 196 255
156 196 255
156 196 255
156 196 255
157 196 255
157 196 255
157 196 255
157 196 255
157 196 255
157 196 255
157 197 255
157 197 255
157 197 255
158 197 255
158 197 255
158 197 255
158 197 255
158 197 255
158 197 255
158 197 255
158 197 255
158 197 255
159 197 255
159 197 255
159 197 255
159 198 255
159 198 255
159 198 255
159 198 255
159 198 255
159 198 255
160 198 255
160 198 255
160 198 255
160 198 255
160 198 255
160 198 255
160 198 255
160 198 255
160 198 255
160 198 255
161 199 255
161 199 255
161 199 255
161 199 255
161 199 255
161 199 255
161 199 255
161 199 255
161 199 255
161 199 255
162 199 255
162 199 255
162 199 255
162 199 255
162 199 255
162 199 255
162 200 255
162 200 255
162 200 255
162 200 255
163 200 255
163 200 255
163 200 255
163 200 255
163 200 255
163 200 255
163 200 255
163 200 255
163 200 255
163 200 255
164 200 255
164 200 255
164 200 255
164 200 255
164 201 255
164 201 255
164 201 255
164 201 255
164 201 255
164 201 255
164 201 255
165 201 255
165 201 255
165 201 255
165 201 255
165 201 255
165 201 255
165 201 255
165 201 255
165 201 255
165 201 255
165 201 255
166 202 255
166 202 255
166 202 255
166 202 255
166 202 255
166 202 255
166 202 255
166 202 255
166 202 255
166 202 255
166 202 255
166 202 255
167 202 255
167 202 255
167 202 255
167 202 255
167 202 255
167 202 255
167 202 255
167 202 255
167 202 255
167 202 255
167 202 255
166 202 255
166 202 255
166 202 255
166 202 255
166 202 255
166 202 255
166 202 255
166 202 255
166 202 255
166 202 255
166 202 255
165 201 255
165 201 255
165 201 255
165 201 255
165 201 255
165 201 255
165 201 255
165 201 255
165 201 255
165 201 255
165 201 255
165 201 255
164 201 255
164 201 255
164 201 255
164 201 255
164 201 255
164 201 255
164 201 255
164 200 255
164 200 255
164 200 255
163 200 255
163 200 255
163 200 255
163 200 255
163 200 255
163 200 255
163 200 255
163 200 255
163 200 255
163 200 255
163 200 255
162 200 255
162 200 255
162 200 255
162 199 255
162 199 255
162 199 255
162 199 255
162 199 255
162 199 255
162 199 255
161 199 255
161 199 255
161 199 255
161 199 255
161 199 255
161 199 255
161 199 255
161 199 255
161 199 255
160 198 255
160 198 255
160 198 255
160 198 255
160 198 255
160 198 255
160 198 255
160 198 255
160 198 255
160 198 255
159 198 255
159 198 255
159 198 255
159 198 255
159 198 255
159 198 255
159 197 255
159 197 255
159 197 255
158 197 255
158 197 255
158 197 255
158 197 255
158 197 255
158 197 255
158 197 255
158 197 255
158 197 255
157 197 255
157 197 255
157 197 255
157 197 255
157 196 255
157 196 255
157 196 255
157 196 255
157 196 255
157 196 255
156 196 255
156 196 255
156 196 255
156 196 255
156 196 255
156 196 255
156 196 255
156 196 255
156 196 255
155 195 255
155 195 255
155 195 255
155 195 255
155 195 255
155 195 255
155 195 255
155 195 255
155 195 255
155 195 255
154 195 255
154 195 255
154 195 255
154 195 255
154 195 255
154 195 255
154 195 255
154 194 255
154 194 255
154 194 255
153 194 255
153 194 255
153 194 255
153 194 255
153 194 255
153 194 255
153 194 255
153 194 255
153 194 255
153 194 255
153 194 255
153 194 255
152 194 255
152 194 255
152 194 255
152 194 255
152 193 255
152 193 255
152 193 255
152 193 255
152 193 255
152 193 255
152 193 255
152 193 255
152 193 255
152 193 255
151 193 255
151 193 255
151 193 255
151 193 255
151 193 255
151 193 255
151 193 255
151 193 255
151 193 255
151 193 255
151 193 255
151 193 255
151 193 255
151 193 255
151 193 255
151 193 255
151 193 255
151 193 255
151 193 255
150 192 255
150 192 255
150 192 255
150 192 255
150 192 255
150 192 255
150 192 255
150 192 255
150 192 255
150 192 255
150 192 255
150 192 255
150 192 255
150 192 255
150 192 255
150 192 255
150 192 255
150 192 255
150 192 255
150 192 255
150 192 255
150 192 255
150 192 255
150 192 255
150 192 255
150 192 255
150 192 255
150 192 255
150 192 255
150 192 255
150 192 255
150 192 255
150 192 255
150 192 255
150 192 255
150 192 255
151 193 255
151 193 255
151 193 255
151 193 255
151 193 255
151 193 255
151 193 255
151 193 255
151 193 255
151 193 255
151 193 255
151 193 255
151 193 255
151 193 255
151 193 255
151 193 255
151 193 255
151 193 255
151 193 255
152 193 255
152 193 255
152 193 255
152 193 255
152 193 255
152 193 255
152 193 255
152 193 255
152 193 255
152 193 255
152 194 255
152 194 255
152 194 255
152 194 255
153 194 255
153 194 255
153 194 255
153 194 255
153 194 255
153 194 255
153 194 255
153 194 255
153 194 255
153 194 255
153 194 255
153 194 255
154 194 255
154 194 255
154 194 255
154 195 255
154 195 255
154 195 255
154 195 255
154 195 255
154 195 255
154 195 255
155 195 255
155 195 255
155 195 255
155 195 255
155 195 255
155 195 255
155 195 255
155 195 255
155 195 255
155 195 255
156 196 255
156 196 255
156 196 255
156 196 255
156 196 255
156 196 255
156 196 255
156 196 255
156 196 255
157 196 255
157 196 255
157 196 255
157 196 255
157 196 255
157 196 255
157 197 255
157 197 255
157 197 255
157 197 255
158 197 255
158 197 255
158 197 255
158 197 255
158 197 255
158 197 255
158 197 255
158 197 255
158 197 255
159 197 255
159 197 255
159 197 255
159 198 255
159 198 255
159 198 255
159 198 255
159 198 255
159 198 255
160 198 255
160 198 255
160 198 255
160 198 255
160 198 255
160 198 255
160 198 255
160 198 255
160 198 255
160 198 255
161 199 255
161 199 255
161 199 255
161 199 255
161 199 255
161 199 255
161 199 255
161 199 255
161 199 255
162 199 255
162 199 255
162 199 255
162 199 255
162 199 255
162 199 255
162 199 255
162 200 255
162 200 255
162 200 255
163 200 255
163 200 255
163 200 255
163 200 255
163 200 255
163 200 255
163 200 255
163 200 255
163 200 255
163 200 255
163 200 255
164 200 255
164 200 255
164 200 255
164 201 255
164 201 255
164 201 255
164 201 255
164 201 255
164 201 255
164 201 255
165 201 255
165 201 255
165 201 255
165 201 255
165 201 255
165 201 255
165 201 255
165 201 255
165 201 255
165 201 255
165 201 255
165 201 255
166 202 255
166 202 255
166 202 255
166 202 255
166 202 255
166 202 255
166 202 255
166 202 255
166 202 255
166 202 255
166 202 255
166 202 255
167 202 255
167 202 255
167 202 255
167 202 255
167 202 255
167 202 255
167 203 255
167 202 255
167 202 255
167 202 255
167 202 255
167 202 255
167 202 255
167 202 255
167 202 255
166 202 255
166 202 255
166 202 255
166 202 255
166 202 255
166 202 255
166 202 255
166 202 255
166 202 255
166 202 255
166 202 255
166 202 255
165 201 255
165 201 255
165 201 255
165 201 255
165 201 255
165 201 255
165 201 255
165 201 255
165 201 255
165 201 255
165 201 255
164 201 255
164 201 255
164 201 255
164 201 255
164 201 255
164 201 255
164 201 255
164 200 255
164 200 255
164 200 255
164 200 255
163 200 255
163 200 255
163 200 255
163 200 255
163 200 255
163 200 255
163 200 255
163 200 255
163 200 255
163 200 255
162 200 255
162 200 255
162 200 255
162 200 255
162 199 255
162 199 255
162 199 255
162 199 255
162 199 255
162 199 255
161 199 255
161 199 255
161 199 255
161 199 255
161 199 255
161 199 255
161 199 255
161 199 255
161 199 255
161 199 255
160 198 255
160 198 255
160 198 255
160 198 255
160 198 255
160 198 255
160 198 255
160 198 255
160 198 255
159 198 255
159 198 255
159 198 255
159 198 255
159 198 255
159 198 255
159 197 255
159 197 255
159 197 255
159 197 255
158 197 255
158 197 255
158 197 255
158 197 255
158 197 255
158 197 255
158 197 255
158 197 255
158 197 255
157 197 255
157 197 255
157 197 255
157 196 255
157 196 255
157 196 255
157 196 255
157 196 255
157 196 255
156 196 255
156 196 255
156 196 255
156 196 255
156 196 255
156 196 255
156 196 255
156 196 255
156 196 255
156 196 255
155 195 255
155 195 255
155 195 255
155 195 255
155 195 255
155 195 255
155 195 255
155 195 255
155 195 255
155 195 255
154 195 255
154 195 255
154 195 255
154 195 255
154 195 255
154 195 255
154 195 255
154 194 255
154 194 255
154 194 255
153 194 255
153 194 255
153 194 255
153 194 255
153 194 255
153 194 255
153 194 255
153 194 255
153 194 255
153 194 255
153 194 255
153 194 255
152 194 255
152 194 255
152 194 255
152 194 255
152 193 255
152 193 255
152 193 255
152 193 255
152 193 255
152 193 255
152 193 255
152 193 255
152 193 255
152 193 255
152 193 255
151 193 255
151 193 255
151 193 255
151 193 255
151 193 255
151 193 255
151 193 255
151 193 255
151 193 255
151 193 255
151 193 255
151 193 255
151 193 255
151 193 255
151 193 255
151 193 255
151 193 255
151 193 255
151 193 255
151 193 255
151 193 255
151 193 255
151 193 255
151 193 255
151 193 255
151 193 255
150 192 255
151 193 255
150 192 255
150 192 255
150 192 255
150 192 255
150 192 255
150 192 255
150 192 255
150 192 255
150 192 255
150 192 255
150 192 255
151 193 255
151 193 255
151 193 255
151 193 255
151 193 255
151 193 255
151 193 255
151 193 255
151 193 255
151 193 255
151 193 255
151 193 255
151 193 255
151 193 255
151 193 255
151 193 255
151 193 255
151 193 255
151 193 255
151 193 255
151 193 255
151 193 255
151 193 255
151 193 255
151 193 255
151 193 255
151 193 255
152 193 255
152 193 255
152 193 255
152 193 255
152 193 255
152 193 255
152 193 255
152 193 255
152 193 255
152 193 255
152 193 255
152 194 255
152 194 255
152 194 255
152 194 255
153 194 255
153 194 255
153 194 255
153 194 255
153 194 255
153 194 255
153 194 255
153 194 255
153 194 255
153 194 255
153 194 255
153 194 255
154 194 255
154 194 255
154 194 255
154 195 255
154 195 255
154 195 255
154 195 255
154 195 255
154 195 255
154 195 255
155 195 255
155 195 255
155 195 255
155 195 255
155 195 255
155 195 255
155 195 255
155 195 255
155 195 255
155 195 255
156 196 255
156 196 255
156 196 255
156 196 255
156 196 255
156 196 255
156 196 255
156 196 255
156 196 255
156 196 255
157 196 255
157 196 255
157 196 255
157 196 255
157 196 255
157 196 255
157 197 255
157 197 255
157 197 255
158 197 255
158 197 255
158 197 255
158 197 255
158 197 255
158 197 255
158 197 255
158 197 255
158 197 255
159 197 255
159 197 255
159 197 255
159 197 255
159 198 255
159 198 255
159 198 255
159 198 255
159 198 255
159 198 255
160 198 255
160 198 255
160 198 255
160 198 255
160 198 255
160 198 255
160 198 255
160 198 255
160 198 255
161 199 255
161 199 255
161 199 255
161 199 255
161 199 255
161 199 255
161 199 255
161 199 255
161 199 255
161 199 255
162 199 255
162 199 255
162 199 255
162 199 255
162 199 255
162 199 255
162 199 255
162 200 255
162 200 255
162 200 255
163 200 255
163 200 255
163 200 255
163 200 255
163 200 255
163 200 255
163 200 255
163 200 255
163 200 255
163 200 255
164 200 255
164 200 255
164 200 255
164 201 255
164 201 255
164 201 255
164 201 255
164 201 255
164 201 255
164 201 255
164 201 255
165 201 255
165 201 255
165 201 255
165 201 255
165 201 255
165 201 255
165 201 255
165 201 255
165 201 255
165 201 255
165 201 255
166 202 255
166 202 255
166 202 255
166 202 255
166 202 255
166 202 255
166 202 255
166 202 255
166 202 255
166 202 255
166 202 255
166 202 255
167 202 255
167 202 255
167 202 255
167 202 255
167 202 255
167 202 255
167 202 255
167 202 255
167 203 255
167 203 255
167 203 255
167 203 255
167 203 255
167 202 255
167 202 255
167 202 255
167 202 255
167 202 255
167 202 255
167 202 255
167 202 255
166 202 255
166 202 255
166 202 255
166 202 255
166 202 255
166 202 255
166 202 255
166 202 255
166 202 255
166 202 255
166 202 255
166 202 255
165 201 255
165 201 255
165 201 255
165 201 255
165 201 255
165 201 255
165 201 255
165 201 255
165 201 255
165 201 255
165 201 255
164 201 255
164 201 255
164 201 255
164 201 255
164 201 255
164 201 255
164 201 255
164 200 255
164 200 255
164 200 255
163 200 255
163 200 255
163 200 255
163 200 255
163 200 255
163 200 255
163 200 255
163 200 255
163 200 255
163 200 255
163 200 255
162 200 255
162 200 255
162 200 255
162 199 255
162 199 255
162 199 255
162 199 255
162 199 255
162 199 255
162 199 255
161 199 255
161 199 255
161 199 255
161 199 255
161 199 255
161 199 255
161 199 255
161 199 255
161 199 255
160 198 255
160 198 255
160 198 255
160 198 255
160 198 255
160 198 255
160 198 255
160 198 255
160 198 255
160 198 255
159 198 255
159 198 255
159 198 255
159 198 255
159 198 255
159 198 255
159 197 255
159 197 255
159 197 255
158 197 255
158 197 255
158 197 255
158 197 255
158 197 255
158 197 255
158 197 255
158 197 255
158 197 255
157 197 255
157 197 255
157 197 255
157 196 255
157 196 255
157 196 255
157 196 255
157 196 255
157 196 255
157 196 255
156 196 255
156 196 255
156 196 255
156 196 255
156 196 255
156 196 255
156 196 255
156 196 255
156 196 255
155 195 255
155 195 255
155 195 255
155 195 255
155 195 255
155 195 255
155 195 255
155 195 255
155 195 255
155 195 255
154 195 255
154 195 255
154 195 255
154 195 255
154 195 255
154 195 255
154 195 255
154 195 255
154 194 255
154 194 255
154 194 255
153 194 255
153 194 255
153 194 255
153 194 255
153 194 255
153 194 255
153 194 255
153 194 255
153 194 255
153 194 255
153 194 255
153 194 255
152 194 255
152 194 255
152 194 255
152 194 255
152 194 255
152 193 255
152 193 255
152 193 255
152 193 255
152 193 255
152 193 255
152 193 255
152 193 255
152 193 255
152 193 255
152 193 255
151 193 255
151 193 255
151 193 255
151 193 255
151 193 255
151 193 255
151 193 255
151 193 255
151 193 255
151 193 255
151 193 255
151 193 255
151 193 255
151 193 255
151 193 255
151 193 255
151 193 255
151 193 255
151 193 255
151 193 255
151 193 255
151 193 255
151 193 255
151 193 255
151 193 255
151 193 255
151 193 255
151 193 255
151 193 255
151 193 255
151 193 255
151 193 255
151 193 255
151 193 255
151 193 255
151 193 255
151 193 255
151 193 255
151 193 255
151 193 255
151 193 255
151 193 255
151 193 255
151 193 255
151 193 255
151 193 255
151 193 255
151 193 255
151 193 255
151 193 255
151 193 255
151 193 255
151 193 255
151 193 255
151 193 255
151 193 255
151 193 255
151 193 255
152 193 255
152 193 255
152 193 255
152 193 255
152 193 255
152 193 255
152 193 255
152 193 255
152 193 255
152 193 255
152 193 255
152 194 255
152 194 255
152 194 255
152 194 255
153 194 255
153 194 255
153 194 255
153 194 255
153 194 255
153 194 255
153 194 255
153 194 255
153 194 255
153 194 255
153 194 255
153 194 255
153 194 255
154 194 255
154 194 255
154 194 255
154 195 255
154 195 255
154 195 255
154 195 255
154 195 255
154 195 255
154 195 255
154 195 255
155 195 255
155 195 255
155 195 255
155 195 255
155 195 255
155 195 255
155 195 255
155 195 255
155 195 255
155 195 255
156 196 255
156 196 255
156 196 255
156 196 255
156 196 255
156 196 255
156 196 255
156 196 255
156 196 255
157 196 255
157 196 255
157 196 255
157 196 255
157 196 255
157 196 255
157 196 255
157 197 255
157 197 255
157 197 255
158 197 255
158 197 255
158 197 255
158 197 255
158 197 255
158 197 255
158 197 255
158 197 255
158 197 255
159 197 255
159 197 255
159 197 255
159 198 255
159 198 255
159 198 255
159 198 255
159 198 255
159 198 255
160 198 255
160 198 255
160 198 255
160 198 255
160 198 255
160 198 255
160 198 255
160 198 255
160 198 255
160 198 255
161 199 255
161 199 255
161 199 255
161 199 255
161 199 255
161 199 255
161 199 255
161 199 255
161 199 255
162 199 255
162 199 255
162 199 255
162 199 255
162 199 255
162 199 255
162 199 255
162 200 255
162 200 255
162 200 255
163 200 255
163 200 255
163 200 255
163 200 255
163 200 255
163 200 255
163 200 255
163 200 255
163 200 255
163 200 255
163 200 255
164 200 255
164 200 255
164 200 255
164 201 255
164 201 255
164 201 255
164 201 255
164 201 255
164 201 255
164 201 255
165 201 255
165 201 255
165 201 255
165 201 255
165 201 255
165 201 255
165 201 255
165 201 255
165 201 255
165 201 255
165 201 255
166 202 255
166 202 255
166 202 255
166 202 255
166 202 255
166 202 255
166 202 255
166 202 255
166 202 255
166 202 255
166 202 255
166 202 255
167 202 255
167 202 255
167 202 255
167 202 255
167 202 255
167 202 255
167 202 255
167 202 255
167 203 255
167 203 255
167 203 255
167 203 255
168 203 255
168 203 255
167 203 255
167 203 255
167 203 255
167 203 255
167 202 255
167 202 255
167 202 255
167 202 255
167 202 255
167 202 255
167 202 255
167 202 255
167 202 255
166 202 255
166 202 255
166 202 255
166 202 255
166 202 255
166 202 255
166 202 255
166 202 255
166 202 255
166 202 255
166 202 255
165 201 255
165 201 255
165 201 255
165 201 255
165 201 255
165 201 255
165 201 255
165 201 255
165 201 255
165 201 255
165 201 255
164 201 255
164 201 255
164 201 255
164 201 255
164 201 255
164 201 255
164 201 255
164 200 255
164 200 255
164 200 255
164 200 255
163 200 255
163 200 255
163 200 255
163 200 255
163 200 255
163 200 255
163 200 255
163 200 255
163 200 255
163 200 255
162 200 255
162 200 255
162 200 255
162 199 255
162 199 255
162 199 255
162 199 255
162 199 255
162 199 255
162 199 255
161 199 255
161 199 255
161 199 255
161 199 255
161 199 255
161 199 255
161 199 255
161 199 255
161 199 255
161 199 255
160 198 255
160 198 255
160 198 255
160 198 255
160 198 255
160 198 255
160 198 255
160 198 255
160 198 255
159 198 255
159 198 255
159 198 255
159 198 255
159 198 255
159 198 255
159 197 255
159 197 255
159 197 255
159 197 255
158 197 255
158 197 255
158 197 255
158 197 255
158 197 255
158 197 255
158 197 255
158 197 255
158 197 255
157 197 255
157 197 255
157 197 255
157 196 255
157 196 255
157 196 255
157 196 255
157 196 255
157 196 255
156 196 255
156 196 255
156 196 255
156 196 255
156 196 255
156 196 255
156 196 255
156 196 255
156 196 255
156 196 255
155 195 255
155 195 255
155 195 255
155 195 255
155 195 255
155 195 255
155 195 255
155 195 255
155 195 255
155 195 255
154 195 255
154 195 255
154 195 255
154 195 255
154 195 255
154 195 255
154 195 255
154 194 255
154 194 255
154 194 255
154 194 255
153 194 255
153 194 255
153 194 255
153 194 255
153 194 255
153 194 255
153 194 255
153 194 255
153 194 255
153 194 255
153 194 255
153 194 255
153 194 255
152 194 255
152 194 255
152 194 255
152 194 255
152 194 255
152 193 255
152 193 255
152 193 255
152 193 255
152 193 255
152 193 255
152 193 255
152 193 255
152 193 255
152 193 255
152 193 255
152 193 255
152 193 255
151 193 255
151 193 255
151 193 255
151 193 255
151 193 255
151 193 255
151 193 255
151 193 255
151 193 255
151 193 255
151 193 255
151 193 255
151 193 255
151 193 255
151 193 255
151 193 255
151 193 255
151 193 255
151 193 255
151 193 255
151 193 255
151 193 255
151 193 255
151 193 255
151 193 255
151 193 255
151 193 255
151 193 255
151 193 255
151 193 255
151 193 255
151 193 255
151 193 255
151 193 255
151 193 255
151 193 255
151 193 255
151 193 255
151 193 255
151 193 255
151 193 255
151 193 255
151 193 255
151 193 255
151 193 255
151 193 255
151 193 255
152 193 255
152 193 255
152 193 255
152 193 255
152 193 255
152 193 255
152 193 255
152 193 255
152 193 255
152 193 255
152 193 255
152 193 255
152 194 255
152 194 255
152 194 255
152 194 255
152 194 255
153 194 255
153 194 255
153 194 255
153 194 255
153 194 255
153 194 255
153 194 255
153 194 255
153 194 255
153 194 255
153 194 255
153 194 255
153 194 255
154 194 255
154 194 255
154 194 255
154 194 255
154 195 255
154 195 255
154 195 255
154 195 255
154 195 255
154 195 255
154 195 255
155 195 255
155 195 255
155 195 255
155 195 255
155 195 255
155 195 255
155 195 255
155 195 255
155 195 255
155 195 255
156 196 255
156 196 255
156 196 255
156 196 255
156 196 255
156 196 255
156 196 255
156 196 255
156 196 255
156 196 255
157 196 255
157 196 255
157 196 255
157 196 255
157 196 255
157 196 255
157 197 255
157 197 255
157 197 255
158 197 255
158 197 255
158 197 255
158 197 255
158 197 255
158 197 255
158 197 255
158 197 255
158 197 255
158 197 255
159 197 255
159 197 255
159 197 255
159 198 255
159 198 255
159 198 255
159 198 255
159 198 255
159 198 255
160 198 255
160 198 255
160 198 255
160 198 255
160 198 255
160 198 255
160 198 255
160 198 255
160 198 255
161 199 255
161 199 255
161 199 255
161 199 255
161 199 255
161 199 255
161 199 255
161 199 255
161 199 255
161 199 255
162 199 255
162 199 255
162 199 255
162 199 255
162 199 255
162 199 255
162 200 255
162 200 255
162 200 255
162 200 255
163 200 255
163 200 255
163 200 255
163 200 255
163 200 255
163 200 255
163 200 255
163 200 255
163 200 255
163 200 255
164 200 255
164 200 255
164 200 255
164 201 255
164 201 255
164 201 255
164 201 255
164 201 255
164 201 255
164 201 255
164 201 255
165 201 255
165 201 255
165 201 255
165 201 255
165 201 255
165 201 255
165 201 255
165 201 255
165 201 255
165 201 255
165 201 255
166 202 255
166 202 255
166 202 255
166 202 255
166 202 255
166 202 255
166 202 255
166 202 255
166 202 255
166 202 255
166 202 255
167 202 255
167 202 255
167 202 255
167 202 255
167 202 255
167 202 255
167 202 255
167 202 255
167 202 255
167 203 255
167 203 255
167 203 255
167 203 255
168 203 255
168 203 255
168 203 255
168 203 255
168 203 255
168 203 255
168 203 255
167 203 255
167 203 255
167 203 255
167 203 255
167 202 255
167 202 255
167 202 255
167 202 255
167 202 255
167 202 255
167 202 255
167 202 255
166 202 255
166 202 255
166 202 255
166 202 255
166 202 255
166 202 255
166 202 255
166 202 255
166 202 255
166 202 255
166 202 255
166 202 255
165 201 255
165 201 255
165 201 255
165 201 255
165 201 255
165 201 255
165 201 255
165 201 255
165 201 255
165 201 255
165 201 255
164 201 255
164 201 255
164 201 255
164 201 255
164 201 255
164 201 255
164 201 255
164 200 255
164 200 255
164 200 255
164 200 255
163 200 255
163 200 255
163 200 255
163 200 255
163 200 255
163 200 255
163 200 255
163 200 255
163 200 255
163 200 255
162 200 255
162 200 255
162 200 255
162 199 255
162 199 255
162 199 255
162 199 255
162 199 255
162 199 255
162 199 255
161 199 255
161 199 255
161 199 255
161 199 255
161 199 255
161 199 255
161 199 255
161 199 255
161 199 255
160 198 255
160 198 255
160 198 255
160 198 255
160 198 255
160 198 255
160 198 255
160 198 255
160 198 255
160 198 255
159 198 255
159 198 255
159 198 255
159 198 255
159 198 255
159 198 255
159 197 255
159 197 255
159 197 255
158 197 255
158 197 255
158 197 255
158 197 255
158 197 255
158 197 255
158 197 255
158 197 255
158 197 255
157 197 255
157 197 255
157 197 255
157 197 255
157 196 255
157 196 255
157 196 255
157 196 255
157 196 255
157 196 255
156 196 255
156 196 255
156 196 255
156 196 255
156 196 255
156 196 255
156 196 255
156 196 255
156 196 255
156 196 255
155 195 255
155 195 255
155 195 255
155 195 255
155 195 255
155 195 255
155 195 255
155 195 255
155 195 255
155 195 255
154 195 255
154 195 255
154 195 255
154 195 255
154 195 255
154 195 255
154 195 255
154 194 255
154 194 255
154 194 255
154 194 255
153 194 255
153 194 255
153 194 255
153 194 255
153 194 255
153 194 255
153 194 255
153 194 255
153 194 255
153 194 255
153 194 255
153 194 255
153 194 255
153 194 255
152 194 255
152 194 255
152 194 255
152 194 255
152 194 255
152 194 255
152 193 255
152 193 255
152 193 255
152 193 255
152 193 255
152 193 255
152 193 255
152 193 255
152 193 255
152 193 255
152 193 255
152 193 255
152 193 255
152 193 255
151 193 255
151 193 255
151 193 255
151 193 255
151 193 255
151 193 255
151 193 255
151 193 255
151 193 255
151 193 255
151 193 255
151 193 255
151 193 255
151 193 255
151 193 255
151 193 255
151 193 255
151 193 255
151 193 255
151 193 255
151 193 255
151 193 255
151 193 255
151 193 255
151 193 255
151 193 255
151 193 255
151 193 255
151 193 255
151 193 255
151 193 255
151 193 255
151 193 255
152 193 255
152 193 255
152 193 255
152 193 255
152 193 255
152 193 255
152 193 255
152 193 255
152 193 255
152 193 255
152 193 255
152 193 255
152 193 255
152 193 255
152 193 255
152 193 255
152 194 255
152 194 255
152 194 255
152 194 255
152 194 255
153 194 255
153 194 255
153 194 255
153 194 255
153 194 255
153 194 255
153 194 255
153 194 255
153 194 255
153 194 255
153 194 255
153 194 255
153 194 255
153 194 255
154 194 255
154 194 255
154 194 255
154 195 255
154 195 255
154 195 255
154 195 255
154 195 255
154 195 255
154 195 255
154 195 255
155 195 255
155 195 255
155 195 255
155 195 255
155 195 255
155 195 255
155 195 255
155 195 255
155 195 255
155 195 255
156 196 255
156 196 255
156 196 255
156 196 255
156 196 255
156 196 255
156 196 255
156 196 255
156 196 255
156 196 255
157 196 255
157 196 255
157 196 255
157 196 255
157 196 255
157 196 255
157 197 255
157 197 255
157 197 255
157 197 255
158 197 255
158 197 255
158 197 255
158 197 255
158 197 255
158 197 255
158 197 255
158 197 255
158 197 255
159 197 255
159 197 255
159 197 255
159 198 255
159 198 255
159 198 255
159 198 255
159 198 255
159 198 255
160 198 255
160 198 255
160 198 255
160 198 255
160 198 255
160 198 255
160 198 255
160 198 255
160 198 255
160 198 255
161 199 255
161 199 255
161 199 255
161 199 255
161 199 255
161 199 255
161 199 255
161 199 255
161 199 255
162 199 255
162 199 255
162 199 255
162 199 255
162 199 255
162 199 255
162 199 255
162 200 255
162 200 255
162 200 255
163 200 255
163 200 255
163 200 255
163 200 255
163 200 255
163 200 255
163 200 255
163 200 255
163 200 255
163 200 255
164 200 255
164 200 255
164 200 255
164 200 255
164 201 255
164 201 255
164 201 255
164 201 255
164 201 255
164 201 255
164 201 255
165 201 255
165 201 255
165 201 255
165 201 255
165 201 255
165 201 255
165 201 255
165 201 255
165 201 255
165 201 255
165 201 255
166 202 255
166 202 255
166 202 255
166 202 255
166 202 255
166 202 255
166 202 255
166 202 255
166 202 255
166 202 255
166 202 255
167 202 255
167 202 255
167 202 255
167 202 255
167 202 255
167 202 255
167 202 255
167 202 255
167 202 255
167 203 255
167 203 255
167 203 255
167 203 255
168 203 255
168 203 255
168 203 255
168 203 255
168 203 255
168 203 255
168 203 255
168 203 255
168 203 255
168 203 255
168 203 255
168 203 255
168 203 255
167 203 255
167 203 255
167 203 255
167 203 255
167 202 255
167 202 255
167 202 255
167 202 255
167 202 255
167 202 255
167 202 255
167 202 255
166 202 255
166 202 255
166 202 255
166 202 255
166 202 255
166 202 255
166 202 255
166 202 255
166 202 255
166 202 255
166 202 255
166 202 255
165 201 255
165 201 255
165 201 255
165 201 255
165 201 255
165 201 255
165 201 255
165 201 255
165 201 255
165 201 255
165 201 255
164 201 255
164 201 255
164 201 255
164 201 255
164 201 255
164 201 255
164 201 255
164 200 255
164 200 255
164 200 255
163 200 255
163 200 255
163 200 255
163 200 255
163 200 255
163 200 255
163 200 255
163 200 255
163 200 255
163 200 255
162 200 255
162 200 255
162 200 255
162 199 255
162 199 255
162 199 255
162 199 255
162 199 255
162 199 255
162 199 255
161 199 255
161 199 255
161 199 255
161 199 255
161 199 255
161 199 255
161 199 255
161 199 255
161 199 255
161 199 255
160 198 255
160 198 255
160 198 255
160 198 255
160 198 255
160 198 255
160 198 255
160 198 255
160 198 255
159 198 255
159 198 255
159 198 255
159 198 255
159 198 255
159 198 255
159 197 255
159 197 255
159 197 255
158 197 255
158 197 255
158 197 255
158 197 255
158 197 255
158 197 255
158 197 255
158 197 255
158 197 255
158 197 255
157 197 255
157 197 255
157 197 255
157 196 255
157 196 255
157 196 255
157 196 255
157 196 255
157 196 255
156 196 255
156 196 255
156 196 255
156 196 255
156 196 255
156 196 255
156 196 255
156 196 255
156 196 255
156 196 255
155 195 255
155 195 255
155 195 255
155 195 255
155 195 255
155 195 255
155 195 255
155 195 255
155 195 255
155 195 255
155 195 255
154 195 255
154 195 255
154 195 255
154 195 255
154 195 255
154 195 255
154 195 255
154 195 255
154 194 255
154 194 255
154 194 255
154 194 255
153 194 255
153 194 255
153 194 255
153 194 255
153 194 255
153 194 255
153 194 255
153 194 255
153 194 255
153 194 255
153 194 255
153 194 255
153 194 255
153 194 255
153 194 255
152 194 255
152 194 255
152 194 255
152 194 255
152 194 255
152 194 255
152 193 255
152 193 255
152 193 255
152 193 255
152 193 255
152 193 255
152 193 255
152 193 255
152 193 255
152 193 255
152 193 255
152 193 255
152 193 255
152 193 255
152 193 255
152 193 255
152 193 255
152 193 255
152 193 255
152 193 255
152 193 255
152 193 255
152 193 255
152 193 255
152 193 255
152 193 255
152 193 255
152 193 255
152 193 255
152 193 255
152 193 255
152 193 255
152 193 255
152 193 255
152 193 255
152 193 255
152 193 255
152 193 255
152 193 255
152 193 255
152 193 255
152 193 255
152 193 255
152 193 255
152 193 255
152 193 255
152 193 255
152 193 255
152 193 255
152 193 255
152 193 255
152 193 255
152 194 255
152 194 255
152 194 255
152 194 255
152 194 255
152 194 255
152 194 255
153 194 255
153 194 255
153 194 255
153 194 255
153 194 255
153 194 255
153 194 255
153 194 255
153 194 255
153 194 255
153 194 255
153 194 255
153 194 255
153 194 255
154 194 255
154 194 255
154 194 255
154 194 255
154 195 255
154 195 255
154 195 255
154 195 255
154 195 255
154 195 255
154 195 255
154 195 255
155 195 255
155 195 255
155 195 255
155 195 255
155 195 255
155 195 255
155 195 255
155 195 255
155 195 255
155 195 255
155 195 255
156 196 255
156 196 255
156 196 255
156 196 255
156 196 255
156 196 255
156 196 255
156 196 255
156 196 255
156 196 255
157 196 255
157 196 255
157 196 255
157 196 255
157 196 255
157 196 255
157 197 255
157 197 255
157 197 255
158 197 255
158 197 255
158 197 255
158 197 255
158 197 255
158 197 255
158 197 255
158 197 255
158 197 255
158 197 255
159 197 255
159 197 255
159 197 255
159 198 255
159 198 255
159 198 255
159 198 255
159 198 255
159 198 255
160 198 255
160 198 255
160 198 255
160 198 255
160 198 255
160 198 255
160 198 255
160 198 255
160 198 255
161 199 255
161 199 255
161 199 255
161 199 255
161 199 255
161 199 255
161 199 255
161 199 255
161 199 255
161 199 255
162 199 255
162 199 255
162 199 255
162 199 255
162 199 255
162 199 255
162 199 255
162 200 255
162 200 255
162 200 255
163 200 255
163 200 255
163 200 255
163 200 255
163 200 255
163 200 255
163 200 255
163 200 255
163 200 255
163 200 255
164 200 255
164 200 255
164 200 255
164 201 255
164 201 255
164 201 255
164 201 255
164 201 255
164 201 255
164 201 255
165 201 255
165 201 255
165 201 255
165 201 255
165 201 255
165 201 255
165 201 255
165 201 255
165 201 255
165 201 255
165 201 255
166 202 255
166 202 255
166 202 255
166 202 255
166 202 255
166 202 255
166 202 255
166 202 255
166 202 255
166 202 255
166 202 255
166 202 255
167 202 255
167 202 255
167 202 255
167 202 255
167 202 255
167 202 255
167 202 255
167 202 255
167 203 255
167 203 255
167 203 255
167 203 255
168 203 255
168 203 255
168 203 255
168 203 255
168 203 255
168 203 255
168 203 255
168 203 255
168 203 255
168 203 255
168 203 255
168 203 255
168 203 255
168 203 255
168 203 255
168 203 255
168 203 255
168 203 255
168 203 255
167 203 255
167 203 255
167 203 255
167 203 255
167 202 255
167 202 255
167 202 255
167 202 255
167 202 255
167 202 255
167 202 255
167 202 255
166 202 255
166 202 255
166 202 255
166 202 255
166 202 255
166 202 255
166 202 255
166 202 255
166 202 255
166 202 255
166 202 255
166 202 255
165 201 255
165 201 255
165 201 255
165 201 255
165 201 255
165 201 255
165 201 255
165 201 255
165 201 255
165 201 255
164 201 255
164 201 255
164 201 255
164 201 255
164 201 255
164 201 255
164 201 255
164 200 255
164 200 255
164 200 255
164 200 255
163 200 255
163 200 255
163 200 255
163 200 255
163 200 255
163 200 255
163 200 255
163 200 255
163 200 255
163 200 255
162 200 255
162 200 255
162 200 255
162 199 255
162 199 255
162 199 255
162 199 255
162 199 255
162 199 255
162 199 255
161 199 255
161 199 255
161 199 255
161 199 255
161 199 255
161 199 255
161 199 255
161 199 255
161 199 255
160 198 255
160 198 255
160 198 255
160 198 255
160 198 255
160 198 255
160 198 255
160 198 255
160 198 255
160 198 255
159 198 255
159 198 255
159 198 255
159 198 255
159 198 255
159 198 255
159 197 255
159 197 255
159 197 255
158 197 255
158 197 255
158 197 255
158 197 255
158 197 255
158 197 255
158 197 255
158 197 255
158 197 255
158 197 255
157 197 255
157 197 255
157 197 255
157 196 255
157 196 255
157 196 255
157 196 255
157 196 255
157 196 255
156 196 255
156 196 255
156 196 255
156 196 255
156 196 255
156 196 255
156 196 255
156 196 255
156 196 255
156 196 255
155 195 255
155 195 255
155 195 255
155 195 255
155 195 255
155 195 255
155 195 255
155 195 255
155 195 255
155 195 255
155 195 255
154 195 255
154 195 255
154 195 255
154 195 255
154 195 255
154 195 255
154 195 255
154 195 255
154 194 255
154 194 255
154 194 255
154 194 255
153 194 255
153 194 255
153 194 255
153 194 255
153 194 255
153 194 255
153 194 255
153 194 255
153 194 255
153 194 255
153 194 255
153 194 255
153 194 255
153 194 255
153 194 255
153 194 255
153 194 255
152 194 255
152 194 255
152 194 255
152 194 255
152 194 255
152 194 255
152 194 255
152 193 255
152 193 255
152 193 255
152 193 255
152 193 255
152 193 255
152 193 255
152 193 255
152 193 255
152 193 255
152 193 255
152 193 255
152 193 255
152 193 255
152 193 255
152 193 255
152 193 255
152 193 255
152 193 255
152 193 255
152 193 255
152 193 255
152 193 255
152 193 255
152 193 255
152 193 255
152 193 255
152 193 255
152 193 255
152 193 255
152 193 255
152 193 255
152 193 255
152 193 255
152 193 255
152 193 255
152 193 255
152 193 255
152 193 255
152 193 255
152 194 255
152 194 255
152 194 255
152 194 255
152 194 255
152 194 255
152 194 255
153 194 255
153 194 255
153 194 255
153 194 255
153 194 255
153 194 255
153 194 255
153 194 255
153 194 255
153 194 255
153 194 255
153 194 255
153 194 255
153 194 255
153 194 255
153 194 255
154 194 255
154 194 255
154 194 255
154 194 255
154 194 255
154 195 255
154 195 255
154 195 255
154 195 255
154 195 255
154 195 255
154 195 255
154 195 255
155 195 255
155 195 255
155 195 255
155 195 255
155 195 255
155 195 255
155 195 255
155 195 255
155 195 255
155 195 255
155 195 255
156 196 255
156 196 255
156 196 255
156 196 255
156 196 255
156 196 255
156 196 255
156 196 255
156 196 255
156 196 255
157 196 255
157 196 255
157 196 255
157 196 255
157 196 255
157 196 255
157 197 255
157 197 255
157 197 255
157 197 255
158 197 255
158 197 255
158 197 255
158 197 255
158 197 255
158 197 255
158 197 255
158 197 255
158 197 255
159 197 255
159 197 255
159 197 255
159 198 255
159 198 255
159 198 255
159 198 255
159 198 255
159 198 255
160 198 255
160 198 255
160 198 255
160 198 255
160 198 255
160 198 255
160 198 255
160 198 255
160 198 255
160 198 255
161 199 255
161 199 255
161 199 255
161 199 255
161 199 255
161 199 255
161 199 255
161 199 255
161 199 255
162 199 255
162 199 255
162 199 255
162 199 255
162 199 255
162 199 255
162 199 255
162 200 255
162 200 255
162 200 255
163 200 255
163 200 255
163 200 255
163 200 255
163 200 255
163 200 255
163 200 255
163 200 255
163 200 255
163 200 255
164 200 255
164 200 255
164 200 255
164 200 255
164 201 255
164 201 255
164 201 255
164 201 255
164 201 255
164 201 255
164 201 255
165 201 255
165 201 255
165 201 255
165 201 255
165 201 255
165 201 255
165 201 255
165 201 255
165 201 255
165 201 255
165 201 255
166 202 255
166 202 255
166 202 255
166 202 255
166 202 255
166 202 255
166 202 255
166 202 255
166 202 255
166 202 255
166 202 255
167 202 255
167 202 255
167 202 255
167 202 255
167 202 255
167 202 255
167 202 255
167 202 255
167 203 255
167 203 255
167 203 255
167 203 255
168 203 255
168 203 255
168 203 255
168 203 255
168 203 255
168 203 255
168 203 255
168 203 255
168 203 255
168 203 255
168 203 255
169 203 255
168 203 255
168 203 255
168 203 255
168 203 255
168 203 255
168 203 255
168 203 255
168 203 255
168 203 255
168 203 255
168 203 255
168 203 255
168 203 255
167 203 255
167 203 255
167 203 255
167 203 255
167 202 255
167 202 255
167 202 255
167 202 255
167 202 255
167 202 255
167 202 255
167 202 255
166 202 255
166 202 255
166 202 255
166 202 255
166 202 255
166 202 255
166 202 255
166 202 255
166 202 255
166 202 255
166 202 255
165 201 255
165 201 255
165 201 255
165 201 255
165 201 255
165 201 255
165 201 255
165 201 255
165 201 255
165 201 255
165 201 255
164 201 255
164 201 255
164 201 255
164 201 255
164 201 255
164 201 255
164 201 255
164 200 255
164 200 255
164 200 255
163 200 255
163 200 255
163 200 255
163 200 255
163 200 255
163 200 255
163 200 255
163 200 255
163 200 255
163 200 255
162 200 255
162 200 255
162 200 255
162 200 255
162 199 255
162 199 255
162 199 255
162 199 255
162 199 255
162 199 255
161 199 255
161 199 255
161 199 255
161 199 255
161 199 255
161 199 255
161 199 255
161 199 255
161 199 255
161 199 255
160 198 255
160 198 255
160 198 255
160 198 255
160 198 255
160 198 255
160 198 255
160 198 255
160 198 255
159 198 255
159 198 255
159 198 255
159 198 255
159 198 255
159 198 255
159 197 255
159 197 255
159 197 255
159 197 255
158 197 255
158 197 255
158 197 255
158 197 255
158 197 255
158 197 255
158 197 255
158 197 255
158 197 255
157 197 255
157 197 255
157 197 255
157 196 255
157 196 255
157 196 255
157 196 255
157 196 255
157 196 255
157 196 255
156 196 255
156 196 255
156 196 255
156 196 255
156 196 255
156 196 255
156 196 255
156 196 255
156 196 255
156 196 255
155 195 255
155 195 255
155 195 255
155 195 255
155 195 255
155 195 255
155 195 255
155 195 255
155 195 255
155 195 255
155 195 255
154 195 255
154 195 255
154 195 255
154 195 255
154 195 255
154 195 255
154 195 255
154 195 255
154 195 255
154 194 255
154 194 255
154 194 255
154 194 255
153 194 255
153 194 255
153 194 255
153 194 255
153 194 255
153 194 255
153 194 255
153 194 255
153 194 255
153 194 255
153 194 255
153 194 255
153 194 255
153 194 255
153 194 255
153 194 255
153 194 255
153 194 255
153 194 255
152 194 255
152 194 255
152 194 255
152 194 255
152 194 255
152 194 255
152 194 255
152 194 255
152 194 255
152 194 255
152 194 255
152 193 255
152 193 255
152 193 255
152 193 255
152 193 255
152 193 255
152 193 255
152 193 255
152 193 255
152 193 255
152 193 255
152 193 255
152 193 255
152 193 255
152 193 255
152 193 255
152 193 255
152 193 255
152 193 255
152 193 255
152 194 255
152 194 255
152 194 255
152 194 255
152 194 255
152 194 255
152 194 255
152 194 255
152 194 255
152 194 255
152 194 255
153 194 255
153 194 255
153 194 255
153 194 255
153 194 255
153 194 255
153 194 255
153 194 255
153 194 255
153 194 255
153 194 255
153 194 255
153 194 255
153 194 255
153 194 255
153 194 255
153 194 255
153 194 255
153 194 255
154 194 255
154 194 255
154 194 255
154 194 255
154 195 255
154 195 255
154 195 255
154 195 255
154 195 255
154 195 255
154 195 255
154 195 255
154 195 255
155 195 255
155 195 255
155 195 255
155 195 255
155 195 255
155 195 255
155 195 255
155 195 255
155 195 255
155 195 255
155 195 255
156 196 255
156 196 255
156 196 255
156 196 255
156 196 255
156 196 255
156 196 255
156 196 255
156 196 255
156 196 255
157 196 255
157 196 255
157 196 255
157 196 255
157 196 255
157 196 255
157 196 255
157 197 255
157 197 255
157 197 255
158 197 255
158 197 255
158 197 255
158 197 255
158 197 255
158 197 255
158 197 255
158 197 255
158 197 255
158 197 255
159 197 255
159 197 255
159 197 255
159 198 255
159 198 255
159 198 255
159 198 255
159 198 255
159 198 255
160 198 255
160 198 255
160 198 255
160 198 255
160 198 255
160 198 255
160 198 255
160 198 255
160 198 255
161 199 255
161 199 255
161 199 255
161 199 255
161 199 255
161 199 255
161 199 255
161 199 255
161 199 255
161 199 255
162 199 255
162 199 255
162 199 255
162 199 255
162 199 255
162 199 255
162 200 255
162 200 255
162 200 255
162 200 255
163 200 255
163 200 255
163 200 255
163 200 255
163 200 255
163 200 255
163 200 255
163 200 255
163 200 255
163 200 255
164 200 255
164 200 255
164 200 255
164 201 255
164 201 255
164 201 255
164 201 255
164 201 255
164 201 255
164 201 255
165 201 255
165 201 255
165 201 255
165 201 255
165 201 255
165 201 255
165 201 255
165 201 255
165 201 255
165 201 255
165 201 255
166 202 255
166 202 255
166 202 255
166 202 255
166 202 255
166 202 255
166 202 255
166 202 255
166 202 255
166 202 255
166 202 255
167 202 255
167 202 255
167 202 255
167 202 255
167 202 255
167 202 255
167 202 255
167 202 255
167 203 255
167 203 255
167 203 255
167 203 255
168 203 255
168 203 255
168 203 255
168 203 255
168 203 255
168 203 255
168 203 255
168 203 255
168 203 255
168 203 255
168 203 255
168 203 255
168 203 255
169 203 255
169 203 255
169 203 255
169 203 255
169 203 255
168 203 255
168 203 255
168 203 255
168 203 255
168 203 255
168 203 255
168 203 255
168 203 255
168 203 255
168 203 255
168 203 255
168 203 255
168 203 255
167 203 255
167 203 255
167 203 255
167 203 255
167 202 255
167 202 255
167 202 255
167 202 255
167 202 255
167 202 255
167 202 255
167 202 255
166 202 255
166 202 255
166 202 255
166 202 255
166 202 255
166 202 255
166 202 255
166 202 255
166 202 255
166 202 255
166 202 255
165 201 255
165 201 255
165 201 255
165 201 255
165 201 255
165 201 255
165 201 255
165 201 255
165 201 255
165 201 255
165 201 255
164 201 255
164 201 255
164 201 255
164 201 255
164 201 255
164 201 255
164 201 255
164 200 255
164 200 255
164 200 255
163 200 255
163 200 255
163 200 255
163 200 255
163 200 255
163 200 255
163 200 255
163 200 255
163 200 255
163 200 255
162 200 255
162 200 255
162 200 255
162 199 255
162 199 255
162 199 255
162 199 255
162 199 255
162 199 255
162 199 255
161 199 255
161 199 255
161 199 255
161 199 255
161 199 255
161 199 255
161 199 255
161 199 255
161 199 255
160 198 255
160 198 255
160 198 255
160 198 255
160 198 255
160 198 255
160 198 255
160 198 255
160 198 255
160 198 255
159 198 255
159 198 255
159 198 255
159 198 255
159 198 255
159 198 255
159 197 255
159 197 255
159 197 255
158 197 255
158 197 255
158 197 255
158 197 255
158 197 255
158 197 255
158 197 255
158 197 255
158 197 255
158 197 255
157 197 255
157 197 255
157 197 255
157 196 255
157 196 255
157 196 255
157 196 255
157 196 255
157 196 255
157 196 255
156 196 255
156 196 255
156 196 255
156 196 255
156 196 255
156 196 255
156 196 255
156 196 255
156 196 255
156 196 255
155 195 255
155 195 255
155 195 255
155 195 255
155 195 255
155 195 255
155 195 255
155 195 255
155 195 255
155 195 255
155 195 255
155 195 255
154 195 255
154 195 255
154 195 255
154 195 255
154 195 255
154 195 255
154 195 255
154 195 255
154 195 255
154 194 255
154 194 255
154 194 255
154 194 255
154 194 255
153 194 255
153 194 255
153 194 255
153 194 255
153 194 255
153 194 255
153 194 255
153 194 255
153 194 255
153 194 255
153 194 255
153 194 255
153 194 255
153 194 255
153 194 255
153 194 255
153 194 255
153 194 255
153 194 255
153 194 255
153 194 255
153 194 255
152 194 255
152 194 255
152 194 255
152 194 255
152 194 255
152 194 255
152 194 255
152 194 255
152 194 255
152 194 255
152 194 255
152 194 255
152 194 255
152 194 255
152 194 255
152 194 255
152 194 255
152 194 255
152 194 255
152 194 255
152 194 255
152 194 255
152 194 255
152 194 255
152 194 255
152 194 255
153 194 255
153 194 255
153 194 255
153 194 255
153 194 255
153 194 255
153 194 255
153 194 255
153 194 255
153 194 255
153 194 255
153 194 255
153 194 255
153 194 255
153 194 255
153 194 255
153 194 255
153 194 255
153 194 255
153 194 255
153 194 255
153 194 255
154 194 255
154 194 255
154 194 255
154 194 255
154 194 255
154 195 255
154 195 255
154 195 255
154 195 255
154 195 255
154 195 255
154 195 255
154 195 255
154 195 255
155 195 255
155 195 255
155 195 255
155 195 255
155 195 255
155 195 255
155 195 255
155 195 255
155 195 255
155 195 255
155 195 255
155 195 255
156 196 255
156 196 255
156 196 255
156 196 255
156 196 255
156 196 255
156 196 255
156 196 255
156 196 255
156 196 255
157 196 255
157 196 255
157 196 255
157 196 255
157 196 255
157 196 255
157 196 255
157 197 255
157 197 255
157 197 255
158 197 255
158 197 255
158 197 255
158 197 255
158 197 255
158 197 255
158 197 255
158 197 255
158 197 255
158 197 255
159 197 255
159 197 255
159 197 255
159 198 255
159 198 255
159 198 255
159 198 255
159 198 255
159 198 255
160 198 255
160 198 255
160 198 255
160 198 255
160 198 255
160 198 255
160 198 255
160 198 255
160 198 255
160 198 255
161 199 255
161 199 255
161 199 255
161 199 255
161 199 255
161 199 255
161 199 255
161 199 255
161 199 255
162 199 255
162 199 255
162 199 255
162 199 255
162 199 255
162 199 255
162 199 255
162 200 255
162 200 255
162 200 255
163 200 255
163 200 255
163 200 255
163 200 255
163 200 255
163 200 255
163 200 255
163 200 255
163 200 255
163 200 255
164 200 255
164 200 255
164 200 255
164 201 255
164 201 255
164 201 255
164 201 255
164 201 255
164 201 255
164 201 255
165 201 255
165 201 255
165 201 255
165 201 255
165 201 255
165 201 255
165 201 255
165 201 255
165 201 255
165 201 255
165 201 255
166 202 255
166 202 255
166 202 255
166 202 255
166 202 255
166 202 255
166 202 255
166 202 255
166 202 255
166 202 255
166 202 255
167 202 255
167 202 255
167 202 255
167 202 255
167 202 255
167 202 255
167 202 255
167 202 255
167 203 255
167 203 255
167 203 255
167 203 255
168 203 255
168 203 255
168 203 255
168 203 255
168 203 255
168 203 255
168 203 255
168 203 255
168 203 255
168 203 255
168 203 255
168 203 255
168 203 255
169 203 255
169 203 255
169 203 255
169 203 255
169 204 255
169 204 255
169 204 255
169 203 255
169 203 255
169 203 255
169 203 255
168 203 255
168 203 255
168 203 255
168 203 255
168 203 255
168 203 255
168 203 255
168 203 255
168 203 255
168 203 255
168 203 255
168 203 255
168 203 255
167 203 255
167 203 255
167 203 255
167 203 255
167 202 255
167 202 255
167 202 255
167 202 255
167 202 255
167 202 255
167 202 255
166 202 255
166 202 255
166 202 255
166 202 255
166 202 255
166 202 255
166 202 255
166 202 255
166 202 255
166 202 255
166 202 255
166 202 255
165 201 255
165 201 255
165 201 255
165 201 255
165 201 255
165 201 255
165 201 255
165 201 255
165 201 255
165 201 255
164 201 255
164 201 255
164 201 255
164 201 255
164 201 255
164 201 255
164 201 255
164 200 255
164 200 255
164 200 255
164 200 255
163 200 255
163 200 255
163 200 255
163 200 255
163 200 255
163 200 255
163 200 255
163 200 255
163 200 255
163 200 255
162 200 255
162 200 255
162 200 255
162 199 255
162 199 255
162 199 255
162 199 255
162 199 255
162 199 255
161 199 255
161 199 255
161 199 255
161 199 255
161 199 255
161 199 255
161 199 255
161 199 255
161 199 255
161 199 255
160 198 255
160 198 255
160 198 255
160 198 255
160 198 255
160 198 255
160 198 255
160 198 255
160 198 255
159 198 255
159 198 255
159 198 255
159 198 255
159 198 255
159 198 255
159 198 255
159 197 255
159 197 255
159 197 255
158 197 255
158 197 255
158 197 255
158 197 255
158 197 255
158 197 255
158 197 255
158 197 255
158 197 255
158 197 255
157 197 255
157 197 255
157 197 255
157 196 255
157 196 255
157 196 255
157 196 255
157 196 255
157 196 255
157 196 255
156 196 255
156 196 255
156 196 255
156 196 255
156 196 255
156 196 255
156 196 255
156 196 255
156 196 255
156 196 255
155 195 255
155 195 255
155 195 255
155 195 255
155 195 255
155 195 255
155 195 255
155 195 255
155 195 255
155 195 255
155 195 255
155 195 255
154 195 255
154 195 255
154 195 255
154 195 255
154 195 255
154 195 255
154 195 255
154 195 255
154 195 255
154 195 255
154 194 255
154 194 255
154 194 255
154 194 255
154 194 255
154 194 255
153 194 255
153 194 255
153 194 255
153 194 255
153 194 255
153 194 255
153 194 255
153 194 255
153 194 255
153 194 255
153 194 255
153 194 255
153 194 255
153 194 255
153 194 255
153 194 255
153 194 255
153 194 255
153 194 255
153 194 255
153 194 255
153 194 255
153 194 255
153 194 255
153 194 255
153 194 255
153 194 255
153 194 255
153 194 255
153 194 255
153 194 255
153 194 255
153 194 255
153 194 255
153 194 255
153 194 255
153 194 255
153 194 255
153 194 255
153 194 255
153 194 255
153 194 255
153 194 255
153 194 255
153 194 255
153 194 255
153 194 255
153 194 255
153 194 255
153 194 255
153 194 255
153 194 255
153 194 255
153 194 255
153 194 255
153 194 255
153 194 255
153 194 255
153 194 255
153 194 255
154 194 255
154 194 255
154 194 255
154 194 255
154 194 255
154 194 255
154 195 255
154 195 255
154 195 255
154 195 255
154 195 255
154 195 255
154 195 255
154 195 255
154 195 255
154 195 255
155 195 255
155 195 255
155 195 255
155 195 255
155 195 255
155 195 255
155 195 255
155 195 255
155 195 255
155 195 255
155 195 255
155 195 255
156 196 255
156 196 255
156 196 255
156 196 255
156 196 255
156 196 255
156 196 255
156 196 255
156 196 255
156 196 255
157 196 255
157 196 255
157 196 255
157 196 255
157 196 255
157 196 255
157 196 255
157 197 255
157 197 255
157 197 255
158 197 255
158 197 255
158 197 255
158 197 255
158 197 255
158 197 255
158 197 255
158 197 255
158 197 255
158 197 255
159 197 255
159 197 255
159 197 255
159 198 255
159 198 255
159 198 255
159 198 255
159 198 255
159 198 255
159 198 255
160 198 255
160 198 255
160 198 255
160 198 255
160 198 255
160 198 255
160 198 255
160 198 255
160 198 255
161 199 255
161 199 255
161 199 255
161 199 255
161 199 255
161 199 255
161 199 255
161 199 255
161 199 255
161 199 255
162 199 255
162 199 255
162 199 255
162 199 255
162 199 255
162 199 255
162 200 255
162 200 255
162 200 255
163 200 255
163 200 255
163 200 255
163 200 255
163 200 255
163 200 255
163 200 255
163 200 255
163 200 255
163 200 255
164 200 255
164 200 255
164 200 255
164 200 255
164 201 255
164 201 255
164 201 255
164 201 255
164 201 255
164 201 255
164 201 255
165 201 255
165 201 255
165 201 255
165 201 255
165 201 255
165 201 255
165 201 255
165 201 255
165 201 255
165 201 255
166 202 255
166 202 255
166 202 255
166 202 255
166 202 255
166 202 255
166 202 255
166 202 255
166 202 255
166 202 255
166 202 255
166 202 255
167 202 255
167 202 255
167 202 255
167 202 255
167 202 255
167 202 255
167 202 255
167 203 255
167 203 255
167 203 255
167 203 255
168 203 255
168 203 255
168 203 255
168 203 255
168 203 255
168 203 255
168 203 255
168 203 255
168 203 255
168 203 255
168 203 255
168 203 255
168 203 255
169 203 255
169 203 255
169 203 255
169 203 255
169 204 255
169 204 255
169 204 255
169 204 255
169 204 255
169 204 255
169 204 255
169 204 255
169 204 255
169 203 255
169 203 255
169 203 255
169 203 255
168 203 255
168 203 255
168 203 255
168 203 255
168 203 255
168 203 255
168 203 255
168 203 255
168 203 255
168 203 255
168 203 255
168 203 255
167 203 255
167 203 255
167 203 255
167 203 255
167 203 255
167 202 255
167 202 255
167 202 255
167 202 255
167 202 255
167 202 255
167 202 255
166 202 255
166 202 255
166 202 255
166 202 255
166 202 255
166 202 255
166 202 255
166 202 255
166 202 255
166 202 255
166 202 255
165 201 255
165 201 255
165 201 255
165 201 255
165 201 255
165 201 255
165 201 255
165 201 255
165 201 255
165 201 255
165 201 255
164 201 255
164 201 255
164 201 255
164 201 255
164 201 255
164 201 255
164 201 255
164 200 255
164 200 255
164 200 255
163 200 255
163 200 255
163 200 255
163 200 255
163 200 255
163 200 255
163 200 255
163 200 255
163 200 255
163 200 255
162 200 255
162 200 255
162 200 255
162 200 255
162 199 255
162 199 255
162 199 255
162 199 255
162 199 255
162 199 255
161 199 255
161 199 255
161 199 255
161 199 255
161 199 255
161 199 255
161 199 255
161 199 255
161 199 255
160 198 255
160 198 255
160 198 255
160 198 255
160 198 255
160 198 255
160 198 255
160 198 255
160 198 255
160 198 255
159 198 255
159 198 255
159 198 255
159 198 255
159 198 255
159 198 255
159 198 255
159 197 255
159 197 255
159 197 255
158 197 255
158 197 255
158 197 255
158 197 255
158 197 255
158 197 255
158 197 255
158 197 255
158 197 255
157 197 255
157 197 255
157 197 255
157 197 255
157 196 255
157 196 255
157 196 255
157 196 255
157 196 255
157 196 255
157 196 255
156 196 255
156 196 255
156 196 255
156 196 255
156 196 255
156 196 255
156 196 255
156 196 255
156 196 255
156 196 255
156 196 255
155 195 255
155 195 255
155 195 255
155 195 255
155 195 255
155 195 255
155 195 255
155 195 255
155 195 255
155 195 255
155 195 255
155 195 255
154 195 255
154 195 255
154 195 255
154 195 255
154 195 255
154 195 255
154 195 255
154 195 255
154 195 255
154 195 255
154 195 255
154 194 255
154 194 255
154 194 255
154 194 255
154 194 255
154 194 255
153 194 255
153 194 255
153 194 255
153 194 255
153 194 255
153 194 255
153 194 255
153 194 255
153 194 255
153 194 255
153 194 255
153 194 255
153 194 255
153 194 255
153 194 255
153 194 255
153 194 255
153 194 255
153 194 255
153 194 255
153 194 255
153 194 255
153 194 255
153 194 255
153 194 255
153 194 255
153 194 255
153 194 255
153 194 255
153 194 255
153 194 255
153 194 255
153 194 255
153 194 255
153 194 255
153 194 255
153 194 255
153 194 255
153 194 255
153 194 255
153 194 255
153 194 255
153 194 255
153 194 255
153 194 255
153 194 255
153 194 255
153 194 255
153 194 255
153 194 255
154 194 255
154 194 255
154 194 255
154 194 255
154 194 255
154 194 255
154 195 255
154 195 255
154 195 255
154 195 255
154 195 255
154 195 255
154 195 255
154 195 255
154 195 255
154 195 255
154 195 255
155 195 255
155 195 255
155 195 255
155 195 255
155 195 255
155 195 255
155 195 255
155 195 255
155 195 255
155 195 255
155 195 255
155 195 255
156 196 255
156 196 255
156 196 255
156 196 255
156 196 255
156 196 255
156 196 255
156 196 255
156 196 255
156 196 255
156 196 255
156 196 255
157 196 255
157 196 255
157 196 255
157 196 255
157 196 255
157 196 255
157 197 255
157 197 255
157 197 255
157 197 255
158 197 255
158 197 255
158 197 255
158 197 255
158 197 255
158 197 255
158 197 255
158 197 255
158 197 255
159 197 255
159 197 255
159 197 255
159 198 255
159 198 255
159 198 255
159 198 255
159 198 255
159 198 255
159 198 255
160 198 255
160 198 255
160 198 255
160 198 255
160 198 255
160 198 255
160 198 255
160 198 255
160 198 255
160 198 255
161 199 255
161 199 255
161 199 255
161 199 255
161 199 255
161 199 255
161 199 255
161 199 255
161 199 255
162 199 255
162 199 255
162 199 255
162 199 255
162 199 255
162 199 255
162 200 255
162 200 255
162 200 255
162 200 255
163 200 255
163 200 255
163 200 255
163 200 255
163 200 255
163 200 255
163 200 255
163 200 255
163 200 255
163 200 255
164 200 255
164 200 255
164 200 255
164 201 255
164 201 255
164 201 255
164 201 255
164 201 255
164 201 255
164 201 255
165 201 255
165 201 255
165 201 255
165 201 255
165 201 255
165 201 255
165 201 255
165 201 255
165 201 255
165 201 255
165 201 255
166 202 255
166 202 255
166 202 255
166 202 255
166 202 255
166 202 255
166 202 255
166 202 255
166 202 255
166 202 255
166 202 255
167 202 255
167 202 255
167 202 255
167 202 255
167 202 255
167 202 255
167 202 255
167 202 255
167 203 255
167 203 255
167 203 255
168 203 255
168 203 255
168 203 255
168 203 255
168 203 255
168 203 255
168 203 255
168 203 255
168 203 255
168 203 255
168 203 255
168 203 255
168 203 255
169 203 255
169 203 255
169 203 255
169 203 255
169 204 255
169 204 255
169 204 255
169 204 255
169 204 255
169 204 255
169 204 255
169 204 255
169 204 255
169 204 255
169 204 255
169 204 255
169 204 255
169 204 255
169 204 255
169 203 255
169 203 255
169 203 255
169 203 255
168 203 255
168 203 255
168 203 255
168 203 255
168 203 255
168 203 255
168 203 255
168 203 255
168 203 255
168 203 255
168 203 255
168 203 255
167 203 255
167 203 255
167 203 255
167 203 255
167 202 255
167 202 255
167 202 255
167 202 255
167 202 255
167 202 255
167 202 255
167 202 255
166 202 255
166 202 255
166 202 255
166 202 255
166 202 255
166 202 255
166 202 255
166 202 255
166 202 255
166 202 255
166 202 255
165 201 255
165 201 255
165 201 255
165 201 255
165 201 255
165 201 255
165 201 255
165 201 255
165 201 255
165 201 255
165 201 255
164 201 255
164 201 255
164 201 255
164 201 255
164 201 255
164 201 255
164 201 255
164 200 255
164 200 255
164 200 255
163 200 255
163 200 255
163 200 255
163 200 255
163 200 255
163 200 255
163 200 255
163 200 255
163 200 255
163 200 255
162 200 255
162 200 255
162 200 255
162 199 255
162 199 255
162 199 255
162 199 255
162 199 255
162 199 255
161 199 255
161 199 255
161 199 255
161 199 255
161 199 255
161 199 255
161 199 255
161 199 255
161 199 255
161 199 255
160 198 255
160 198 255
160 198 255
160 198 255
160 198 255
160 198 255
160 198 255
160 198 255
160 198 255
160 198 255
159 198 255
159 198 255
159 198 255
159 198 255
159 198 255
159 198 255
159 197 255
159 197 255
159 197 255
158 197 255
158 197 255
158 197 255
158 197 255
158 197 255
158 197 255
158 197 255
158 197 255
158 197 255
158 197 255
157 197 255
157 197 255
157 197 255
157 197 255
157 196 255
157 196 255
157 196 255
157 196 255
157 196 255
157 196 255
157 196 255
156 196 255
156 196 255
156 196 255
156 196 255
156 196 255
156 196 255
156 196 255
156 196 255
156 196 255
156 196 255
156 196 255
155 195 255
155 195 255
155 195 255
155 195 255
155 195 255
155 195 255
155 195 255
155 195 255
155 195 255
155 195 255
155 195 255
155 195 255
155 195 255
155 195 255
154 195 255
154 195 255
154 195 255
154 195 255
154 195 255
154 195 255
154 195 255
154 195 255
154 195 255
154 195 255
154 195 255
154 195 255
154 194 255
154 194 255
154 194 255
154 194 255
154 194 255
154 194 255
154 194 255
154 194 255
153 194 255
153 194 255
153 194 255
153 194 255
153 194 255
153 194 255
153 194 255
153 194 255
153 194 255
153 194 255
153 194 255
153 194 255
153 194 255
153 194 255
153 194 255
153 194 255
153 194 255
153 194 255
153 194 255
153 194 255
153 194 255
153 194 255
153 194 255
153 194 255
153 194 255
153 194 255
153 194 255
153 194 255
153 194 255
153 194 255
153 194 255
153 194 255
153 194 255
153 194 255
154 194 255
154 194 255
154 194 255
154 194 255
154 194 255
154 194 255
154 194 255
154 194 255
154 195 255
154 195 255
154 195 255
154 195 255
154 195 255
154 195 255
154 195 255
154 195 255
154 195 255
154 195 255
154 195 255
154 195 255
155 195 255
155 195 255
155 195 255
155 195 255
155 195 255
155 195 255
155 195 255
155 195 255
155 195 255
155 195 255
155 195 255
155 195 255
155 195 255
155 195 255
156 196 255
156 196 255
156 196 255
156 196 255
156 196 255
156 196 255
156 196 255
156 196 255
156 196 255
156 196 255
156 196 255
157 196 255
157 196 255
157 196 255
157 196 255
157 196 255
157 196 255
157 196 255
157 197 255
157 197 255
157 197 255
157 197 255
158 197 255
158 197 255
158 197 255
158 197 255
158 197 255
158 197 255
158 197 255
158 197 255
158 197 255
158 197 255
159 197 255
159 197 255
159 197 255
159 198 255
159 198 255
159 198 255
159 198 255
159 198 255
159 198 255
160 198 255
160 198 255
160 198 255
160 198 255
160 198 255
160 198 255
160 198 255
160 198 255
160 198 255
160 198 255
161 199 255
161 199 255
161 199 255
161 199 255
161 199 255
161 199 255
161 199 255
161 199 255
161 199 255
162 199 255
162 199 255
162 199 255
162 199 255
162 199 255
162 199 255
162 199 255
162 200 255
162 200 255
162 200 255
163 200 255
163 200 255
163 200 255
163 200 255
163 200 255
163 200 255
163 200 255
163 200 255
163 200 255
163 200 255
164 200 255
164 200 255
164 200 255
164 201 255
164 201 255
164 201 255
164 201 255
164 201 255
164 201 255
164 201 255
165 201 255
165 201 255
165 201 255
165 201 255
165 201 255
165 201 255
165 201 255
165 201 255
165 201 255
165 201 255
165 201 255
166 202 255
166 202 255
166 202 255
166 202 255
166 202 255
166 202 255
166 202 255
166 202 255
166 202 255
166 202 255
166 202 255
167 202 255
167 202 255
167 202 255
167 202 255
167 202 255
167 202 255
167 202 255
167 202 255
167 203 255
167 203 255
167 203 255
168 203 255
168 203 255
168 203 255
168 203 255
168 203 255
168 203 255
168 203 255
168 203 255
168 203 255
168 203 255
168 203 255
168 203 255
168 203 255
169 203 255
169 203 255
169 203 255
169 203 255
169 204 255
169 204 255
169 204 255
169 204 255
169 204 255
169 204 255
169 204 255
169 204 255
169 204 255
170 204 255
170 204 255
170 204 255
169 204 255
169 204 255
169 204 255
169 204 255
169 204 255
169 204 255
169 204 255
169 204 255
169 204 255
169 203 255
169 203 255
169 203 255
169 203 255
168 203 255
168 203 255
168 203 255
168 203 255
168 203 255
168 203 255
168 203 255
168 203 255
168 203 255
168 203 255
168 203 255
168 203 255
167 203 255
167 203 255
167 203 255
167 203 255
167 202 255
167 202 255
167 202 255
167 202 255
167 202 255
167 202 255
167 202 255
167 202 255
166 202 255
166 202 255
166 202 255
166 202 255
166 202 255
166 202 255
166 202 255
166 202 255
166 202 255
166 202 255
166 202 255
165 201 255
165 201 255
165 201 255
165 201 255
165 201 255
165 201 255
165 201 255
165 201 255
165 201 255
165 201 255
165 201 255
164 201 255
164 201 255
164 201 255
164 201 255
164 201 255
164 201 255
164 200 255
164 200 255
164 200 255
164 200 255
163 200 255
163 200 255
163 200 255
163 200 255
163 200 255
163 200 255
163 200 255
163 200 255
163 200 255
163 200 255
162 200 255
162 200 255
162 200 255
162 199 255
162 199 255
162 199 255
162 199 255
162 199 255
162 199 255
161 199 255
161 199 255
161 199 255
161 199 255
161 199 255
161 199 255
161 199 255
161 199 255
161 199 255
161 199 255
160 198 255
160 198 255
160 198 255
160 198 255
160 198 255
160 198 255
160 198 255
160 198 255
160 198 255
160 198 255
159 198 255
159 198 255
159 198 255
159 198 255
159 198 255
159 198 255
159 197 255
159 197 255
159 197 255
158 197 255
158 197 255
158 197 255
158 197 255
158 197 255
158 197 255
158 197 255
158 197 255
158 197 255
158 197 255
157 197 255
157 197 255
157 197 255
157 197 255
157 196 255
157 196 255
157 196 255
157 196 255
157 196 255
157 196 255
157 196 255
156 196 255
156 196 255
156 196 255
156 196 255
156 196 255
156 196 255
156 196 255
156 196 255
156 196 255
156 196 255
156 196 255
156 196 255
155 195 255
155 195 255
155 195 255
155 195 255
155 195 255
155 195 255
155 195 255
155 195 255
155 195 255
155 195 255
155 195 255
155 195 255
155 195 255
155 195 255
154 195 255
154 195 255
154 195 255
154 195 255
154 195 255
154 195 255
154 195 255
154 195 255
154 195 255
154 195 255
154 195 255
154 195 255
154 195 255
154 195 255
154 195 255
154 194 255
154 194 255
154 194 255
154 194 255
154 194 255
154 194 255
154 194 255
154 194 255
154 194 255
154 194 255
154 194 255
154 194 255
154 194 255
154 194 255
154 194 255
154 194 255
153 194 255
154 194 255
154 194 255
154 194 255
153 194 255
154 194 255
154 194 255
154 194 255
154 194 255
154 194 255
154 194 255
154 194 255
154 194 255
154 194 255
154 194 255
154 194 255
154 194 255
154 194 255
154 194 255
154 194 255
154 194 255
154 195 255
154 195 255
154 195 255
154 195 255
154 195 255
154 195 255
154 195 255
154 195 255
154 195 255
154 195 255
154 195 255
154 195 255
154 195 255
154 195 255
155 195 255
155 195 255
155 195 255
155 195 255
155 195 255
155 195 255
155 195 255
155 195 255
155 195 255
155 195 255
155 195 255
155 195 255
155 195 255
155 195 255
156 196 255
156 196 255
156 196 255
156 196 255
156 196 255
156 196 255
156 196 255
156 196 255
156 196 255
156 196 255
156 196 255
156 196 255
157 196 255
157 196 255
157 196 255
157 196 255
157 196 255
157 196 255
157 196 255
157 197 255
157 197 255
157 197 255
157 197 255
158 197 255
158 197 255
158 197 255
158 197 255
158 197 255
158 197 255
158 197 255
158 197 255
158 197 255
158 197 255
159 197 255
159 197 255
159 197 255
159 198 255
159 198 255
159 198 255
159 198 255
159 198 255
159 198 255
160 198 255
160 198 255
160 198 255
160 198 255
160 198 255
160 198 255
160 198 255
160 198 255
160 198 255
160 198 255
161 199 255
161 199 255
161 199 255
161 199 255
161 199 255
161 199 255
161 199 255
161 199 255
161 199 255
161 199 255
162 199 255
162 199 255
162 199 255
162 199 255
162 199 255
162 199 255
162 200 255
162 200 255
162 200 255
163 200 255
163 200 255
163 200 255
163 200 255
163 200 255
163 200 255
163 200 255
163 200 255
163 200 255
163 200 255
164 200 255
164 200 255
164 200 255
164 200 255
164 201 255
164 201 255
164 201 255
164 201 255
164 201 255
164 201 255
165 201 255
165 201 255
165 201 255
165 201 255
165 201 255
165 201 255
165 201 255
165 201 255
165 201 255
165 201 255
165 201 255
166 202 255
166 202 255
166 202 255
166 202 255
166 202 255
166 202 255
166 202 255
166 202 255
166 202 255
166 202 255
166 202 255
167 202 255
167 202 255
167 202 255
167 202 255
167 202 255
167 202 255
167 202 255
167 202 255
167 203 255
167 203 255
167 203 255
167 203 255
168 203 255
168 203 255
168 203 255
168 203 255
168 203 255
168 203 255
168 203 255
168 203 255
168 203 255
168 203 255
168 203 255
168 203 255
169 203 255
169 203 255
169 203 255
169 203 255
169 204 255
169 204 255
169 204 255
169 204 255
169 204 255
169 204 255
169 204 255
169 204 255
169 204 255
170 204 255
170 204 255
170 204 255
170 204 255
170 204 255
170 204 255
170 204 255
170 204 255
170 204 255
169 204 255
169 204 255
169 204 255
169 204 255
169 204 255
169 204 255
169 204 255
169 204 255
169 204 255
169 203 255
169 203 255
169 203 255
169 203 255
168 203 255
168 203 255
168 203 255
168 203 255
168 203 255
168 203 255
168 203 255
168 203 255
168 203 255
168 203 255
168 203 255
168 203 255
167 203 255
167 203 255
167 203 255
167 203 255
167 202 255
167 202 255
167 202 255
167 202 255
167 202 255
167 202 255
167 202 255
167 202 255
166 202 255
166 202 255
166 202 255
166 202 255
166 202 255
166 202 255
166 202 255
166 202 255
166 202 255
166 202 255
166 202 255
165 201 255
165 201 255
165 201 255
165 201 255
165 201 255
165 201 255
165 201 255
165 201 255
165 201 255
165 201 255
164 201 255
164 201 255
164 201 255
164 201 255
164 201 255
164 201 255
164 201 255
164 200 255
164 200 255
164 200 255
163 200 255
163 200 255
163 200 255
163 200 255
163 200 255
163 200 255
163 200 255
163 200 255
163 200 255
163 200 255
162 200 255
162 200 255
162 200 255
162 200 255
162 199 255
162 199 255
162 199 255
162 199 255
162 199 255
162 199 255
161 199 255
161 199 255
161 199 255
161 199 255
161 199 255
161 199 255
161 199 255
161 199 255
161 199 255
161 199 255
160 198 255
160 198 255
160 198 255
160 198 255
160 198 255
160 198 255
160 198 255
160 198 255
160 198 255
159 198 255
159 198 255
159 198 255
159 198 255
159 198 255
159 198 255
159 198 255
159 197 255
159 197 255
159 197 255
158 197 255
158 197 255
158 197 255
158 197 255
158 197 255
158 197 255
158 197 255
158 197 255
158 197 255
158 197 255
157 197 255
157 197 255
157 197 255
157 197 255
157 196 255
157 196 255
157 196 255
157 196 255
157 196 255
157 196 255
157 196 255
156 196 255
156 196 255
156 196 255
156 196 255
156 196 255
156 196 255
156 196 255
156 196 255
156 196 255
156 196 255
156 196 255
156 196 255
156 196 255
155 195 255
155 195 255
155 195 255
155 195 255
155 195 255
155 195 255
155 195 255
155 195 255
155 195 255
155 195 255
155 195 255
155 195 255
155 195 255
155 195 255
155 195 255
155 195 255
154 195 255
154 195 255
154 195 255
154 195 255
154 195 255
154 195 255
154 195 255
154 195 255
154 195 255
154 195 255
154 195 255
154 195 255
154 195 255
154 195 255
154 195 255
154 195 255
154 195 255
154 195 255
154 195 255
154 195 255
154 194 255
154 195 255
154 195 255
154 194 255
154 194 255
154 194 255
154 194 255
154 194 255
154 194 255
154 194 255
154 194 255
154 194 255
154 195 255
154 195 255
154 195 255
154 195 255
154 195 255
154 195 255
154 195 255
154 195 255
154 195 255
154 195 255
154 195 255
154 195 255
154 195 255
154 195 255
154 195 255
154 195 255
154 195 255
154 195 255
154 195 255
154 195 255
154 195 255
154 195 255
155 195 255
155 195 255
155 195 255
155 195 255
155 195 255
155 195 255
155 195 255
155 195 255
155 195 255
155 195 255
155 195 255
155 195 255
155 195 255
155 195 255
155 195 255
155 195 255
156 196 255
156 196 255
156 196 255
156 196 255
156 196 255
156 196 255
156 196 255
156 196 255
156 196 255
156 196 255
156 196 255
156 196 255
156 196 255
157 196 255
157 196 255
157 196 255
157 196 255
157 196 255
157 196 255
157 196 255
157 197 255
157 197 255
157 197 255
157 197 255
158 197 255
158 197 255
158 197 255
158 197 255
158 197 255
158 197 255
158 197 255
158 197 255
158 197 255
158 197 255
159 197 255
159 197 255
159 197 255
159 198 255
159 198 255
159 198 255
159 198 255
159 198 255
159 198 255
159 198 255
160 198 255
160 198 255
160 198 255
160 198 255
160 198 255
160 198 255
160 198 255
160 198 255
160 198 255
161 199 255
161 199 255
161 199 255
161 199 255
161 199 255
161 199 255
161 199 255
161 199 255
161 199 255
161 199 255
162 199 255
162 199 255
162 199 255
162 199 255
162 199 255
162 199 255
162 199 255
162 200 255
162 200 255
163 200 255
163 200 255
163 200 255
163 200 255
163 200 255
163 200 255
163 200 255
163 200 255
163 200 255
163 200 255
164 200 255
164 200 255
164 200 255
164 200 255
164 201 255
164 201 255
164 201 255
164 201 255
164 201 255
164 201 255
164 201 255
165 201 255
165 201 255
165 201 255
165 201 255
165 201 255
165 201 255
165 201 255
165 201 255
165 201 255
165 201 255
166 202 255
166 202 255
166 202 255
166 202 255
166 202 255
166 202 255
166 202 255
166 202 255
166 202 255
166 202 255
166 202 255
167 202 255
167 202 255
167 202 255
167 202 255
167 202 255
167 202 255
167 202 255
167 202 255
167 203 255
167 203 255
167 203 255
167 203 255
168 203 255
168 203 255
168 203 255
168 203 255
168 203 255
168 203 255
168 203 255
168 203 255
168 203 255
168 203 255
168 203 255
168 203 255
169 203 255
169 203 255
169 203 255
169 203 255
169 204 255
169 204 255
169 204 255
169 204 255
169 204 255
169 204 255
169 204 255
169 204 255
169 204 255
170 204 255
170 204 255
170 204 255
170 204 255
170 204 255
170 204 255
170 204 255
170 204 255
170 204 255
170 204 255
170 204 255
170 204 255
170 204 255
170 204 255
170 204 255
169 204 255
169 204 255
169 204 255
169 204 255
169 204 255
169 204 255
169 204 255
169 204 255
169 204 255
169 203 255
169 203 255
169 203 255
169 203 255
168 203 255
168 203 255
168 203 255
168 203 255
168 203 255
168 203 255
168 203 255
168 203 255
168 203 255
168 203 255
168 203 255
168 203 255
167 203 255
167 203 255
167 203 255
167 203 255
167 202 255
167 202 255
167 202 255
167 202 255
167 202 255
167 202 255
167 202 255
167 202 255
166 202 255
166 202 255
166 202 255
166 202 255
166 202 255
166 202 255
166 202 255
166 202 255
166 202 255
166 202 255
166 202 255
165 201 255
165 201 255
165 201 255
165 201 255
165 201 255
165 201 255
165 201 255
165 201 255
165 201 255
165 201 255
164 201 255
164 201 255
164 201 255
164 201 255
164 201 255
164 201 255
164 201 255
164 200 255
164 200 255
164 200 255
163 200 255
163 200 255
163 200 255
163 200 255
163 200 255
163 200 255
163 200 255
163 200 255
163 200 255
163 200 255
162 200 255
162 200 255
162 200 255
162 199 255
162 199 255
162 199 255
162 199 255
162 199 255
162 199 255
162 199 255
161 199 255
161 199 255
161 199 255
161 199 255
161 199 255
161 199 255
161 199 255
161 199 255
161 199 255
160 198 255
160 198 255
160 198 255
160 198 255
160 198 255
160 198 255
160 198 255
160 198 255
160 198 255
160 198 255
159 198 255
159 198 255
159 198 255
159 198 255
159 198 255
159 198 255
159 198 255
159 197 255
159 197 255
159 197 255
158 197 255
158 197 255
158 197 255
158 197 255
158 197 255
158 197 255
158 197 255
158 197 255
158 197 255
158 197 255
157 197 255
157 197 255
157 197 255
157 197 255
157 196 255
157 196 255
157 196 255
157 196 255
157 196 255
157 196 255
157 196 255
157 196 255
156 196 255
156 196 255
156 196 255
156 196 255
156 196 255
156 196 255
156 196 255
156 196 255
156 196 255
156 196 255
156 196 255
156 196 255
156 196 255
155 195 255
155 195 255
155 195 255
155 195 255
155 195 255
155 195 255
155 195 255
155 195 255
155 195 255
155 195 255
155 195 255
155 195 255
155 195 255
155 195 255
155 195 255
155 195 255
155 195 255
155 195 255
155 195 255
154 195 255
154 195 255
154 195 255
154 195 255
154 195 255
154 195 255
154 195 255
154 195 255
154 195 255
154 195 255
154 195 255
154 195 255
154 195 255
154 195 255
154 195 255
154 195 255
154 195 255
154 195 255
154 195 255
154 195 255
154 195 255
154 195 255
154 195 255
154 195 255
154 195 255
154 195 255
154 195 255
154 195 255
154 195 255
154 195 255
154 195 255
154 195 255
154 195 255
154 195 255
154 195 255
154 195 255
154 195 255
154 195 255
154 195 255
154 195 255
155 195 255
155 195 255
155 195 255
155 195 255
155 195 255
155 195 255
155 195 255
155 195 255
155 195 255
155 195 255
155 195 255
155 195 255
155 195 255
155 195 255
155 195 255
155 195 255
155 195 255
155 195 255
155 195 255
156 196 255
156 196 255
156 196 255
156 196 255
156 196 255
156 196 255
156 196 255
156 196 255
156 196 255
156 196 255
156 196 255
156 196 255
156 196 255
157 196 255
157 196 255
157 196 255
157 196 255
157 196 255
157 196 255
157 196 255
157 196 255
157 197 255
157 197 255
157 197 255
157 197 255
158 197 255
158 197 255
158 197 255
158 197 255
158 197 255
158 197 255
158 197 255
158 197 255
158 197 255
158 197 255
159 197 255
159 197 255
159 197 255
159 198 255
159 198 255
159 198 255
159 198 255
159 198 255
159 198 255
159 198 255
160 198 255
160 198 255
160 198 255
160 198 255
160 198 255
160 198 255
160 198 255
160 198 255
160 198 255
161 199 255
161 199 255
161 199 255
161 199 255
161 199 255
161 199 255
161 199 255
161 199 255
161 199 255
161 199 255
162 199 255
162 199 255
162 199 255
162 199 255
162 199 255
162 199 255
162 199 255
162 200 255
162 200 255
162 200 255
163 200 255
163 200 255
163 200 255
163 200 255
163 200 255
163 200 255
163 200 255
163 200 255
163 200 255
163 200 255
164 200 255
164 200 255
164 200 255
164 201 255
164 201 255
164 201 255
164 201 255
164 201 255
164 201 255
164 201 255
165 201 255
165 201 255
165 201 255
165 201 255
165 201 255
165 201 255
165 201 255
165 201 255
165 201 255
165 201 255
166 202 255
166 202 255
166 202 255
166 202 255
166 202 255
166 202 255
166 202 255
166 202 255
166 202 255
166 202 255
166 202 255
167 202 255
167 202 255
167 202 255
167 202 255
167 202 255
167 202 255
167 202 255
167 202 255
167 203 255
167 203 255
167 203 255
167 203 255
168 203 255
168 203 255
168 203 255
168 203 255
168 203 255
168 203 255
168 203 255
168 203 255
168 203 255
168 203 255
168 203 255
168 203 255
169 203 255
169 203 255
169 203 255
169 203 255
169 204 255
169 204 255
169 204 255
169 204 255
169 204 255
169 204 255
169 204 255
169 204 255
170 204 255
170 204 255
170 204 255
170 204 255
170 204 255
170 204 255
170 204 255
170 204 255
170 204 255
170 204 255
170 204 255
170 204 255
170 204 255
170 204 255
170 204 255
170 204 255
170 204 255
170 204 255
170 204 255
170 204 255
170 204 255
170 204 255
170 204 255
169 204 255
169 204 255
169 204 255
169 204 255
169 204 255
169 204 255
169 204 255
169 204 255
169 203 255
169 203 255
169 203 255
169 203 255
168 203 255
168 203 255
168 203 255
168 203 255
168 203 255
168 203 255
168 203 255
168 203 255
168 203 255
168 203 255
168 203 255
168 203 255
167 203 255
167 203 255
167 203 255
167 203 255
167 202 255
167 202 255
167 202 255
167 202 255
167 202 255
167 202 255
167 202 255
167 202 255
166 202 255
166 202 255
166 202 255
166 202 255
166 202 255
166 202 255
166 202 255
166 202 255
166 202 255
166 202 255
166 202 255
165 201 255
165 201 255
165 201 255
165 201 255
165 201 255
165 201 255
165 201 255
165 201 255
165 201 255
165 201 255
164 201 255
164 201 255
164 201 255
164 201 255
164 201 255
164 201 255
164 201 255
164 200 255
164 200 255
164 200 255
163 200 255
163 200 255
163 200 255
163 200 255
163 200 255
163 200 255
163 200 255
163 200 255
163 200 255
163 200 255
162 200 255
162 200 255
162 200 255
162 199 255
162 199 255
162 199 255
162 199 255
162 199 255
162 199 255
162 199 255
161 199 255
161 199 255
161 199 255
161 199 255
161 199 255
161 199 255
161 199 255
161 199 255
161 199 255
160 198 255
160 198 255
160 198 255
160 198 255
160 198 255
160 198 255
160 198 255
160 198 255
160 198 255
160 198 255
159 198 255
159 198 255
159 198 255
159 198 255
159 198 255
159 198 255
159 198 255
159 197 255
159 197 255
159 197 255
158 197 255
158 197 255
158 197 255
158 197 255
158 197 255
158 197 255
158 197 255
158 197 255
158 197 255
158 197 255
158 197 255
157 197 255
157 197 255
157 197 255
157 197 255
157 196 255
157 196 255
157 196 255
157 196 255
157 196 255
157 196 255
157 196 255
157 196 255
156 196 255
156 196 255
156 196 255
156 196 255
156 196 255
156 196 255
156 196 255
156 196 255
156 196 255
156 196 255
156 196 255
156 196 255
156 196 255
156 196 255
155 195 255
155 195 255
155 195 255
155 195 255
155 195 255
155 195 255
155 195 255
155 195 255
155 195 255
155 195 255
155 195 255
155 195 255
155 195 255
155 195 255
155 195 255
155 195 255
155 195 255
155 195 255
155 195 255
155 195 255
155 195 255
155 195 255
155 195 255
155 195 255
154 195 255
154 195 255
154 195 255
154 195 255
154 195 255
154 195 255
154 195 255
154 195 255
154 195 255
154 195 255
154 195 255
154 195 255
154 195 255
154 195 255
154 195 255
154 195 255
154 195 255
154 195 255
154 195 255
154 195 255
155 195 255
155 195 255
155 195 255
155 195 255
155 195 255
155 195 255
155 195 255
155 195 255
155 195 255
155 195 255
155 195 255
155 195 255
155 195 255
155 195 255
155 195 255
155 195 255
155 195 255
155 195 255
155 195 255
155 195 255
155 195 255
155 195 255
155 195 255
155 195 255
156 196 255
156 196 255
156 196 255
156 196 255
156 196 255
156 196 255
156 196 255
156 196 255
156 196 255
156 196 255
156 196 255
156 196 255
156 196 255
156 196 255
157 196 255
157 196 255
157 196 255
157 196 255
157 196 255
157 196 255
157 196 255
157 196 255
157 197 255
157 197 255
157 197 255
157 197 255
158 197 255
158 197 255
158 197 255
158 197 255
158 197 255
158 197 255
158 197 255
158 197 255
158 197 255
158 197 255
158 197 255
159 197 255
159 197 255
159 197 255
159 198 255
159 198 255
159 198 255
159 198 255
159 198 255
159 198 255
159 198 255
160 198 255
160 198 255
160 198 255
160 198 255
160 198 255
160 198 255
160 198 255
160 198 255
160 198 255
160 198 255
161 199 255
161 199 255
161 199 255
161 199 255
161 199 255
161 199 255
161 199 255
161 199 255
161 199 255
162 199 255
162 199 255
162 199 255
162 199 255
162 199 255
162 199 255
162 199 255
162 200 255
162 200 255
162 200 255
163 200 255
163 200 255
163 200 255
163 200 255
163 200 255
163 200 255
163 200 255
163 200 255
163 200 255
163 200 255
164 200 255
164 200 255
164 200 255
164 201 255
164 201 255
164 201 255
164 201 255
164 201 255
164 201 255
164 201 255
165 201 255
165 201 255
165 201 255
165 201 255
165 201 255
165 201 255
165 201 255
165 201 255
165 201 255
165 201 255
166 202 255
166 202 255
166 202 255
166 202 255
166 202 255
166 202 255
166 202 255
166 202 255
166 202 255
166 202 255
166 202 255
167 202 255
167 202 255
167 202 255
167 202 255
167 202 255
167 202 255
167 202 255
167 202 255
167 203 255
167 203 255
167 203 255
167 203 255
168 203 255
168 203 255
168 203 255
168 203 255
168 203 255
168 203 255
168 203 255
168 203 255
168 203 255
168 203 255
168 203 255
168 203 255
169 203 255
169 203 255
169 203 255
169 203 255
169 204 255
169 204 255
169 204 255
169 204 255
169 204 255
169 204 255
169 204 255
169 204 255
170 204 255
170 204 255
170 204 255
170 204 255
170 204 255
170 204 255
170 204 255
170 204 255
170 204 255
170 204 255
170 204 255
170 204 255
170 204 255
171 205 255
171 205 255
170 204 255
170 204 255
170 204 255
170 204 255
170 204 255
170 204 255
170 204 255
170 204 255
170 204 255
170 204 255
170 204 255
170 204 255
170 204 255
170 204 255
169 204 255
169 204 255
169 204 255
169 204 255
169 204 255
169 204 255
169 204 255
169 204 255
169 203 255
169 203 255
169 203 255
169 203 255
168 203 255
168 203 255
168 203 255
168 203 255
168 203 255
168 203 255
168 203 255
168 203 255
168 203 255
168 203 255
168 203 255
168 203 255
167 203 255
167 203 255
167 203 255
167 203 255
167 202 255
167 202 255
167 202 255
167 202 255
167 202 255
167 202 255
167 202 255
167 202 255
166 202 255
166 202 255
166 202 255
166 202 255
166 202 255
166 202 255
166 202 255
166 202 255
166 202 255
166 202 255
165 201 255
165 201 255
165 201 255
165 201 255
165 201 255
165 201 255
165 201 255
165 201 255
165 201 255
165 201 255
165 201 255
164 201 255
164 201 255
164 201 255
164 201 255
164 201 255
164 201 255
164 201 255
164 200 255
164 200 255
164 200 255
163 200 255
163 200 255
163 200 255
163 200 255
163 200 255
163 200 255
163 200 255
163 200 255
163 200 255
163 200 255
162 200 255
162 200 255
162 200 255
162 199 255
162 199 255
162 199 255
162 199 255
162 199 255
162 199 255
162 199 255
161 199 255
161 199 255
161 199 255
161 199 255
161 199 255
161 199 255
161 199 255
161 199 255
161 199 255
160 198 255
160 198 255
160 198 255
160 198 255
160 198 255
160 198 255
160 198 255
160 198 255
160 198 255
160 198 255
159 198 255
159 198 255
159 198 255
159 198 255
159 198 255
159 198 255
159 198 255
159 197 255
159 197 255
159 197 255
158 197 255
158 197 255
158 197 255
158 197 255
158 197 255
158 197 255
158 197 255
158 197 255
158 197 255
158 197 255
158 197 255
157 197 255
157 197 255
157 197 255
157 197 255
157 196 255
157 196 255
157 196 255
157 196 255
157 196 255
157 196 255
157 196 255
157 196 255
157 196 255
156 196 255
156 196 255
156 196 255
156 196 255
156 196 255
156 196 255
156 196 255
156 196 255
156 196 255
156 196 255
156 196 255
156 196 255
156 196 255
156 196 255
156 196 255
155 195 255
155 195 255
155 195 255
155 195 255
155 195 255
155 195 255
155 195 255
155 195 255
155 195 255
155 195 255
155 195 255
155 195 255
155 195 255
155 195 255
155 195 255
155 195 255
155 195 255
155 195 255
155 195 255
155 195 255
155 195 255
155 195 255
155 195 255
155 195 255
155 195 255
155 195 255
155 195 255
155 195 255
155 195 255
155 195 255
155 195 255
155 195 255
155 195 255
155 195 255
155 195 255
155 195 255
155 195 255
155 195 255
155 195 255
155 195 255
155 195 255
155 195 255
155 195 255
155 195 255
155 195 255
155 195 255
155 195 255
155 195 255
155 195 255
155 195 255
155 195 255
155 195 255
155 195 255
155 195 255
155 195 255
155 195 255
155 195 255
155 195 255
156 196 255
156 196 255
156 196 255
156 196 255
156 196 255
156 196 255
156 196 255
156 196 255
156 196 255
156 196 255
156 196 255
156 196 255
156 196 255
156 196 255
156 196 255
157 196 255
157 196 255
157 196 255
157 196 255
157 196 255
157 196 255
157 196 255
157 196 255
157 196 255
157 197 255
157 197 255
157 197 255
157 197 255
158 197 255
158 197 255
158 197 255
158 197 255
158 197 255
158 197 255
158 197 255
158 197 255
158 197 255
158 197 255
158 197 255
159 197 255
159 197 255
159 197 255
159 198 255
159 198 255
159 198 255
159 198 255
159 198 255
159 198 255
159 198 255
160 198 255
160 198 255
160 198 255
160 198 255
160 198 255
160 198 255
160 198 255
160 198 255
160 198 255
160 198 255
161 199 255
161 199 255
161 199 255
161 199 255
161 199 255
161 199 255
161 199 255
161 199 255
161 199 255
161 199 255
162 199 255
162 199 255
162 199 255
162 199 255
162 199 255
162 199 255
162 200 255
162 200 255
162 200 255
163 200 255
163 200 255
163 200 255
163 200 255
163 200 255
163 200 255
163 200 255
163 200 255
163 200 255
163 200 255
164 200 255
164 200 255
164 200 255
164 201 255
164 201 255
164 201 255
164 201 255
164 201 255
164 201 255
164 201 255
165 201 255
165 201 255
165 201 255
165 201 255
165 201 255
165 201 255
165 201 255
165 201 255
165 201 255
165 201 255
166 202 255
166 202 255
166 202 255
166 202 255
166 202 255
166 202 255
166 202 255
166 202 255
166 202 255
166 202 255
166 202 255
167 202 255
167 202 255
167 202 255
167 202 255
167 202 255
167 202 255
167 202 255
167 202 255
167 203 255
167 203 255
167 203 255
167 203 255
168 203 255
168 203 255
168 203 255
168 203 255
168 203 255
168 203 255
168 203 255
168 203 255
168 203 255
168 203 255
168 203 255
168 203 255
169 203 255
169 203 255
169 203 255
169 203 255
169 204 255
169 204 255
169 204 255
169 204 255
169 204 255
169 204 255
169 204 255
169 204 255
170 204 255
170 204 255
170 204 255
170 204 255
170 204 255
170 204 255
170 204 255
170 204 255
170 204 255
170 204 255
170 204 255
170 204 255
170 204 255
170 204 255
171 205 255
171 205 255
171 205 255
171 205 255
171 205 255
171 205 255
171 205 255
171 205 255
170 204 255
170 204 255
170 204 255
170 204 255
170 204 255
170 204 255
170 204 255
170 204 255
170 204 255
170 204 255
170 204 255
170 204 255
170 204 255
169 204 255
169 204 255
169 204 255
169 204 255
169 204 255
169 204 255
169 204 255
169 204 255
169 204 255
169 203 255
169 203 255
169 203 255
169 203 255
168 203 255
168 203 255
168 203 255
168 203 255
168 203 255
168 203 255
168 203 255
168 203 255
168 203 255
168 203 255
168 203 255
168 203 255
167 203 255
167 203 255
167 203 255
167 202 255
167 202 255
167 202 255
167 202 255
167 202 255
167 202 255
167 202 255
167 202 255
166 202 255
166 202 255
166 202 255
166 202 255
166 202 255
166 202 255
166 202 255
166 202 255
166 202 255
166 202 255
165 201 255
165 201 255
165 201 255
165 201 255
165 201 255
165 201 255
165 201 255
165 201 255
165 201 255
165 201 255
165 201 255
164 201 255
164 201 255
164 201 255
164 201 255
164 201 255
164 201 255
164 200 255
164 200 255
164 200 255
164 200 255
163 200 255
163 200 255
163 200 255
163 200 255
163 200 255
163 200 255
163 200 255
163 200 255
163 200 255
163 200 255
162 200 255
162 200 255
162 200 255
162 199 255
162 199 255
162 199 255
162 199 255
162 199 255
162 199 255
161 199 255
161 199 255
161 199 255
161 199 255
161 199 255
161 199 255
161 199 255
161 199 255
161 199 255
161 199 255
160 198 255
160 198 255
160 198 255
160 198 255
160 198 255
160 198 255
160 198 255
160 198 255
160 198 255
160 198 255
159 198 255
159 198 255
159 198 255
159 198 255
159 198 255
159 198 255
159 198 255
159 197 255
159 197 255
159 197 255
159 197 255
158 197 255
158 197 255
158 197 255
158 197 255
158 197 255
158 197 255
158 197 255
158 197 255
158 197 255
158 197 255
158 197 255
157 197 255
157 197 255
157 197 255
157 197 255
157 196 255
157 196 255
157 196 255
157 196 255
157 196 255
157 196 255
157 196 255
157 196 255
157 196 255
156 196 255
156 196 255
156 196 255
156 196 255
156 196 255
156 196 255
156 196 255
156 196 255
156 196 255
156 196 255
156 196 255
156 196 255
156 196 255
156 196 255
156 196 255
156 196 255
156 196 255
156 196 255
155 195 255
155 195 255
155 195 255
155 195 255
155 195 255
155 195 255
155 195 255
155 195 255
155 195 255
155 195 255
155 195 255
155 195 255
155 195 255
155 195 255
155 195 255
155 195 255
155 195 255
155 195 255
155 195 255
155 195 255
155 195 255
155 195 255
155 195 255
155 195 255
155 195 255
155 195 255
155 195 255
155 195 255
155 195 255
155 195 255
155 195 255
155 195 255
155 195 255
155 195 255
155 195 255
155 195 255
155 195 255
155 195 255
155 195 255
155 195 255
155 195 255
155 195 255
155 195 255
155 195 255
156 196 255
156 196 255
156 196 255
156 196 255
156 196 255
156 196 255
156 196 255
156 196 255
156 196 255
156 196 255
156 196 255
156 196 255
156 196 255
156 196 255
156 196 255
156 196 255
156 196 255
156 196 255
157 196 255
157 196 255
157 196 255
157 196 255
157 196 255
157 196 255
157 196 255
157 196 255
157 196 255
157 197 255
157 197 255
157 197 255
157 197 255
158 197 255
158 197 255
158 197 255
158 197 255
158 197 255
158 197 255
158 197 255
158 197 255
158 197 255
158 197 255
158 197 255
159 197 255
159 197 255
159 197 255
159 197 255
159 198 255
159 198 255
159 198 255
159 198 255
159 198 255
159 198 255
159 198 255
160 198 255
160 198 255
160 198 255
160 198 255
160 198 255
160 198 255
160 198 255
160 198 255
160 198 255
160 198 255
161 199 255
161 199 255
161 199 255
161 199 255
161 199 255
161 199 255
161 199 255
161 199 255
161 199 255
161 199 255
162 199 255
162 199 255
162 199 255
162 199 255
162 199 255
162 199 255
162 200 255
162 200 255
162 200 255
163 200 255
163 200 255
163 200 255
163 200 255
163 200 255
163 200 255
163 200 255
163 200 255
163 200 255
163 200 255
164 200 255
164 200 255
164 200 255
164 201 255
164 201 255
164 201 255
164 201 255
164 201 255
164 201 255
164 201 255
165 201 255
165 201 255
165 201 255
165 201 255
165 201 255
165 201 255
165 201 255
165 201 255
165 201 255
165 201 255
165 201 255
166 202 255
166 202 255
166 202 255
166 202 255
166 202 255
166 202 255
166 202 255
166 202 255
166 202 255
166 202 255
167 202 255
167 202 255
167 202 255
167 202 255
167 202 255
167 202 255
167 202 255
167 202 255
167 203 255
167 203 255
167 203 255
167 203 255
168 203 255
168 203 255
168 203 255
168 203 255
168 203 255
168 203 255
168 203 255
168 203 255
168 203 255
168 203 255
168 203 255
169 203 255
169 203 255
169 203 255
169 203 255
169 203 255
169 204 255
169 204 255
169 204 255
169 204 255
169 204 255
169 204 255
169 204 255
169 204 255
170 204 255
170 204 255
170 204 255
170 204 255
170 204 255
170 204 255
170 204 255
170 204 255
170 204 255
170 204 255
170 204 255
170 204 255
170 204 255
171 205 255
171 205 255
171 205 255
171 205 255
171 205 255
171 205 255
171 205 255
171 205 255
171 205 255
171 205 255
171 205 255
171 205 255
171 205 255
171 205 255
171 205 255
170 204 255
170 204 255
170 204 255
170 204 255
170 204 255
170 204 255
170 204 255
170 204 255
170 204 255
170 204 255
170 204 255
170 204 255
170 204 255
169 204 255
169 204 255
169 204 255
169 204 255
169 204 255
169 204 255
169 204 255
169 204 255
169 203 255
169 203 255
169 203 255
169 203 255
169 203 255
168 203 255
168 203 255
168 203 255
168 203 255
168 203 255
168 203 255
168 203 255
168 203 255
168 203 255
168 203 255
168 203 255
167 203 255
167 203 255
167 203 255
167 203 255
167 202 255
167 202 255
167 202 255
167 202 255
167 202 255
167 202 255
167 202 255
167 202 255
166 202 255
166 202 255
166 202 255
166 202 255
166 202 255
166 202 255
166 202 255
166 202 255
166 202 255
166 202 255
165 201 255
165 201 255
165 201 255
165 201 255
165 201 255
165 201 255
165 201 255
165 201 255
165 201 255
165 201 255
165 201 255
164 201 255
164 201 255
164 201 255
164 201 255
164 201 255
164 201 255
164 201 255
164 200 255
164 200 255
164 200 255
163 200 255
163 200 255
163 200 255
163 200 255
163 200 255
163 200 255
163 200 255
163 200 255
163 200 255
163 200 255
162 200 255
162 200 255
162 200 255
162 199 255
162 199 255
162 199 255
162 199 255
162 199 255
162 199 255
161 199 255
161 199 255
161 199 255
161 199 255
161 199 255
161 199 255
161 199 255
161 199 255
161 199 255
161 199 255
160 198 255
160 198 255
160 198 255
160 198 255
160 198 255
160 198 255
160 198 255
160 198 255
160 198 255
160 198 255
159 198 255
159 198 255
159 198 255
159 198 255
159 198 255
159 198 255
159 198 255
159 197 255
159 197 255
159 197 255
159 197 255
158 197 255
158 197 255
158 197 255
158 197 255
158 197 255
158 197 255
158 197 255
158 197 255
158 197 255
158 197 255
158 197 255
158 197 255
157 197 255
157 197 255
157 197 255
157 197 255
157 196 255
157 196 255
157 196 255
157 196 255
157 196 255
157 196 255
157 196 255
157 196 255
157 196 255
157 196 255
156 196 255
156 196 255
156 196 255
156 196 255
156 196 255
156 196 255
156 196 255
156 196 255
156 196 255
156 196 255
156 196 255
156 196 255
156 196 255
156 196 255
156 196 255
156 196 255
156 196 255
156 196 255
156 196 255
156 196 255
156 196 255
156 196 255
156 196 255
155 195 255
155 195 255
155 195 255
155 195 255
155 195 255
155 195 255
155 195 255
155 195 255
155 195 255
155 195 255
155 195 255
155 195 255
155 195 255
155 195 255
155 195 255
155 195 255
155 195 255
155 195 255
155 195 255
155 195 255
155 195 255
155 195 255
155 195 255
155 195 255
156 196 255
156 196 255
156 196 255
156 196 255
156 196 255
156 196 255
156 196 255
156 196 255
156 196 255
156 196 255
156 196 255
156 196 255
156 196 255
156 196 255
156 196 255
156 196 255
156 196 255
156 196 255
156 196 255
156 196 255
156 196 255
156 196 255
156 196 255
157 196 255
157 196 255
157 196 255
157 196 255
157 196 255
157 196 255
157 196 255
157 196 255
157 196 255
157 196 255
157 197 255
157 197 255
157 197 255
157 197 255
158 197 255
158 197 255
158 197 255
158 197 255
158 197 255
158 197 255
158 197 255
158 197 255
158 197 255
158 197 255
158 197 255
158 197 255
159 197 255
159 197 255
159 197 255
159 197 255
159 198 255
159 198 255
159 198 255
159 198 255
159 198 255
159 198 255
159 198 255
160 198 255
160 198 255
160 198 255
160 198 255
160 198 255
160 198 255
160 198 255
160 198 255
160 198 255
160 198 255
161 199 255
161 199 255
161 199 255
161 199 255
161 199 255
161 199 255
161 199 255
161 199 255
161 199 255
161 199 255
162 199 255
162 199 255
162 199 255
162 199 255
162 199 255
162 199 255
162 200 255
162 200 255
162 200 255
163 200 255
163 200 255
163 200 255
163 200 255
163 200 255
163 200 255
163 200 255
163 200 255
163 200 255
163 200 255
164 200 255
164 200 255
164 200 255
164 200 255
164 201 255
164 201 255
164 201 255
164 201 255
164 201 255
164 201 255
165 201 255
165 201 255
165 201 255
165 201 255
165 201 255
165 201 255
165 201 255
165 201 255
165 201 255
165 201 255
165 201 255
166 202 255
166 202 255
166 202 255
166 202 255
166 202 255
166 202 255
166 202 255
166 202 255
166 202 255
166 202 255
167 202 255
167 202 255
167 202 255
167 202 255
167 202 255
167 202 255
167 202 255
167 202 255
167 203 255
167 203 255
167 203 255
167 203 255
168 203 255
168 203 255
168 203 255
168 203 255
168 203 255
168 203 255
168 203 255
168 203 255
168 203 255
168 203 255
168 203 255
169 203 255
169 203 255
169 203 255
169 203 255
169 204 255
169 204 255
169 204 255
169 204 255
169 204 255
169 204 255
169 204 255
169 204 255
169 204 255
170 204 255
170 204 255
170 204 255
170 204 255
170 204 255
170 204 255
170 204 255
170 204 255
170 204 255
170 204 255
170 204 255
170 204 255
170 204 255
171 205 255
171 205 255
171 205 255
171 205 255
171 205 255
171 205 255
171 205 255
171 205 255
171 205 255
171 205 255
171 205 255
171 205 255
171 205 255
171 205 255
171 205 255
171 205 255
171 205 255
171 205 255
171 205 255
171 205 255
171 205 255
170 204 255
170 204 255
170 204 255
170 204 255
170 204 255
170 204 255
170 204 255
170 204 255
170 204 255
170 204 255
170 204 255
170 204 255
170 204 255
169 204 255
169 204 255
169 204 255
169 204 255
169 204 255
169 204 255
169 204 255
169 204 255
169 204 255
169 203 255
169 203 255
169 203 255
169 203 255
168 203 255
168 203 255
168 203 255
168 203 255
168 203 255
168 203 255
168 203 255
168 203 255
168 203 255
168 203 255
168 203 255
168 203 255
167 203 255
167 203 255
167 203 255
167 202 255
167 202 255
167 202 255
167 202 255
167 202 255
167 202 255
167 202 255
167 202 255
166 202 255
166 202 255
166 202 255
166 202 255
166 202 255
166 202 255
166 202 255
166 202 255
166 202 255
166 202 255
165 201 255
165 201 255
165 201 255
165 201 255
165 201 255
165 201 255
165 201 255
165 201 255
165 201 255
165 201 255
165 201 255
164 201 255
164 201 255
164 201 255
164 201 255
164 201 255
164 201 255
164 200 255
164 200 255
164 200 255
163 200 255
163 200 255
163 200 255
163 200 255
163 200 255
163 200 255
163 200 255
163 200 255
163 200 255
163 200 255
163 200 255
162 200 255
162 200 255
162 200 255
162 199 255
162 199 255
162 199 255
162 199 255
162 199 255
162 199 255
161 199 255
161 199 255
161 199 255
161 199 255
161 199 255
161 199 255
161 199 255
161 199 255
161 199 255
161 199 255
160 198 255
160 198 255
160 198 255
160 198 255
160 198 255
160 198 255
160 198 255
160 198 255
160 198 255
160 198 255
160 198 255
159 198 255
159 198 255
159 198 255
159 198 255
159 198 255
159 198 255
159 198 255
159 197 255
159 197 255
159 197 255
158 197 255
158 197 255
158 197 255
158 197 255
158 197 255
158 197 255
158 197 255
158 197 255
158 197 255
158 197 255
158 197 255
158 197 255
158 197 255
157 197 255
157 197 255
157 197 255
157 197 255
157 197 255
157 196 255
157 196 255
157 196 255
157 196 255
157 196 255
157 196 255
157 196 255
157 196 255
157 196 255
157 196 255
156 196 255
156 196 255
156 196 255
156 196 255
156 196 255
156 196 255
156 196 255
156 196 255
156 196 255
156 196 255
156 196 255
156 196 255
156 196 255
156 196 255
156 196 255
156 196 255
156 196 255
156 196 255
156 196 255
156 196 255
156 196 255
156 196 255
156 196 255
156 196 255
156 196 255
156 196 255
156 196 255
156 196 255
156 196 255
156 196 255
156 196 255
156 196 255
156 196 255
156 196 255
156 196 255
156 196 255
156 196 255
156 196 255
156 196 255
156 196 255
156 196 255
156 196 255
156 196 255
156 196 255
156 196 255
156 196 255
156 196 255
156 196 255
156 196 255
156 196 255
156 196 255
156 196 255
156 196 255
156 196 255
156 196 255
156 196 255
156 196 255
156 196 255
156 196 255
156 196 255
157 196 255
157 196 255
157 196 255
157 196 255
157 196 255
157 196 255
157 196 255
157 196 255
157 196 255
157 196 255
157 196 255
157 197 255
157 197 255
157 197 255
157 197 255
158 197 255
158 197 255
158 197 255
158 197 255
158 197 255
158 197 255
158 197 255
158 197 255
158 197 255
158 197 255
158 197 255
158 197 255
159 197 255
159 197 255
159 197 255
159 197 255
159 198 255
159 198 255
159 198 255
159 198 255
159 198 255
159 198 255
159 198 255
160 198 255
160 198 255
160 198 255
160 198 255
160 198 255
160 198 255
160 198 255
160 198 255
160 198 255
160 198 255
160 198 255
161 199 255
161 199 255
161 199 255
161 199 255
161 199 255
161 199 255
161 199 255
161 199 255
161 199 255
161 199 255
162 199 255
162 199 255
162 199 255
162 199 255
162 199 255
162 199 255
162 200 255
162 200 255
162 200 255
162 200 255
163 200 255
163 200 255
163 200 255
163 200 255
163 200 255
163 200 255
163 200 255
163 200 255
163 200 255
163 200 255
164 200 255
164 200 255
164 200 255
164 201 255
164 201 255
164 201 255
164 201 255
164 201 255
164 201 255
165 201 255
165 201 255
165 201 255
165 201 255
165 201 255
165 201 255
165 201 255
165 201 255
165 201 255
165 201 255
165 201 255
166 202 255
166 202 255
166 202 255
166 202 255
166 202 255
166 202 255
166 202 255
166 202 255
166 202 255
166 202 255
166 202 255
167 202 255
167 202 255
167 202 255
167 202 255
167 202 255
167 202 255
167 202 255
167 203 255
167 203 255
167 203 255
168 203 255
168 203 255
168 203 255
168 203 255
168 203 255
168 203 255
168 203 255
168 203 255
168 203 255
168 203 255
168 203 255
168 203 255
169 203 255
169 203 255
169 203 255
169 203 255
169 204 255
169 204 255
169 204 255
169 204 255
169 204 255
169 204 255
169 204 255
169 204 255
170 204 255
170 204 255
170 204 255
170 204 255
170 204 255
170 204 255
170 204 255
170 204 255
170 204 255
170 204 255
170 204 255
170 204 255
170 204 255
170 204 255
171 205 255
171 205 255
171 205 255
171 205 255
171 205 255
171 205 255
171 205 255
171 205 255
171 205 255
171 205 255
171 205 255
171 205 255
172 205 255
172 205 255
171 205 255
171 205 255
171 205 255
171 205 255
171 205 255
171 205 255
171 205 255
171 205 255
171 205 255
171 205 255
171 205 255
171 205 255
171 205 255
171 205 255
170 204 255
170 204 255
170 204 255
170 204 255
170 204 255
170 204 255
170 204 255
170 204 255
170 204 255
170 204 255
170 204 255
170 204 255
170 204 255
169 204 255
169 204 255
169 204 255
169 204 255
169 204 255
169 204 255
169 204 255
169 204 255
169 203 255
169 203 255
169 203 255
169 203 255
168 203 255
168 203 255
168 203 255
168 203 255
168 203 255
168 203 255
168 203 255
168 203 255
168 203 255
168 203 255
168 203 255
167 203 255
167 203 255
167 203 255
167 203 255
167 202 255
167 202 255
167 202 255
167 202 255
167 202 255
167 202 255
167 202 255
167 202 255
166 202 255
166 202 255
166 202 255
166 202 255
166 202 255
166 202 255
166 202 255
166 202 255
166 202 255
166 202 255
165 201 255
165 201 255
165 201 255
165 201 255
165 201 255
165 201 255
165 201 255
165 201 255
165 201 255
165 201 255
165 201 255
164 201 255
164 201 255
164 201 255
164 201 255
164 201 255
164 201 255
164 200 255
164 200 255
164 200 255
164 200 255
163 200 255
163 200 255
163 200 255
163 200 255
163 200 255
163 200 255
163 200 255
163 200 255
163 200 255
163 200 255
162 200 255
162 200 255
162 200 255
162 199 255
162 199 255
162 199 255
162 199 255
162 199 255
162 199 255
161 199 255
161 199 255
161 199 255
161 199 255
161 199 255
161 199 255
161 199 255
161 199 255
161 199 255
161 199 255
161 199 255
160 198 255
160 198 255
160 198 255
160 198 255
160 198 255
160 198 255
160 198 255
160 198 255
160 198 255
160 198 255
159 198 255
159 198 255
159 198 255
159 198 255
159 198 255
159 198 255
159 198 255
159 197 255
159 197 255
159 197 255
159 197 255
158 197 255
158 197 255
158 197 255
158 197 255
158 197 255
158 197 255
158 197 255
158 197 255
158 197 255
158 197 255
158 197 255
158 197 255
158 197 255
157 197 255
157 197 255
157 197 255
157 197 255
157 197 255
157 196 255
157 196 255
157 196 255
157 196 255
157 196 255
157 196 255
157 196 255
157 196 255
157 196 255
157 196 255
157 196 255
157 196 255
157 196 255
156 196 255
156 196 255
156 196 255
156 196 255
156 196 255
156 196 255
156 196 255
156 196 255
156 196 255
156 196 255
156 196 255
156 196 255
156 196 255
156 196 255
156 196 255
156 196 255
156 196 255
156 196 255
156 196 255
156 196 255
156 196 255
156 196 255
156 196 255
156 196 255
156 196 255
156 196 255
156 196 255
156 196 255
156 196 255
156 196 255
156 196 255
156 196 255
156 196 255
156 196 255
156 196 255
156 196 255
156 196 255
156 196 255
156 196 255
156 196 255
156 196 255
156 196 255
156 196 255
156 196 255
156 196 255
156 196 255
157 196 255
157 196 255
157 196 255
157 196 255
157 196 255
157 196 255
157 196 255
157 196 255
157 196 255
157 196 255
157 196 255
157 196 255
157 197 255
157 197 255
157 197 255
157 197 255
157 197 255
157 197 255
158 197 255
158 197 255
158 197 255
158 197 255
158 197 255
158 197 255
158 197 255
158 197 255
158 197 255
158 197 255
158 197 255
158 197 255
158 197 255
159 197 255
159 197 255
159 197 255
159 197 255
159 198 255
159 198 255
159 198 255
159 198 255
159 198 255
159 198 255
159 198 255
160 198 255
160 198 255
160 198 255
160 198 255
160 198 255
160 198 255
160 198 255
160 198 255
160 198 255
160 198 255
161 199 255
161 199 255
161 199 255
161 199 255
161 199 255
161 199 255
161 199 255
161 199 255
161 199 255
161 199 255
161 199 255
162 199 255
162 199 255
162 199 255
162 199 255
162 199 255
162 199 255
162 200 255
162 200 255
162 200 255
163 200 255
163 200 255
163 200 255
163 200 255
163 200 255
163 200 255
163 200 255
163 200 255
163 200 255
163 200 255
164 200 255
164 200 255
164 200 255
164 200 255
164 201 255
164 201 255
164 201 255
164 201 255
164 201 255
164 201 255
165 201 255
165 201 255
165 201 255
165 201 255
165 201 255
165 201 255
165 201 255
165 201 255
165 201 255
165 201 255
165 201 255
166 202 255
166 202 255
166 202 255
166 202 255
166 202 255
166 202 255
166 202 255
166 202 255
166 202 255
166 202 255
167 202 255
167 202 255
167 202 255
167 202 255
167 202 255
167 202 255
167 202 255
167 202 255
167 203 255
167 203 255
167 203 255
168 203 255
168 203 255
168 203 255
168 203 255
168 203 255
168 203 255
168 203 255
168 203 255
168 203 255
168 203 255
168 203 255
168 203 255
169 203 255
169 203 255
169 203 255
169 203 255
169 204 255
169 204 255
169 204 255
169 204 255
169 204 255
169 204 255
169 204 255
169 204 255
170 204 255
170 204 255
170 204 255
170 204 255
170 204 255
170 204 255
170 204 255
170 204 255
170 204 255
170 204 255
170 204 255
170 204 255
170 204 255
171 205 255
171 205 255
171 205 255
171 205 255
171 205 255
171 205 255
171 205 255
171 205 255
171 205 255
171 205 255
171 205 255
171 205 255
171 205 255
171 205 255
172 205 255
172 205 255
172 205 255
172 205 255
172 205 255
172 205 255
172 205 255
171 205 255
171 205 255
171 205 255
171 205 255
171 205 255
171 205 255
171 205 255
171 205 255
171 205 255
171 205 255
171 205 255
171 205 255
171 205 255
171 205 255
170 204 255
170 204 255
170 204 255
170 204 255
170 204 255
170 204 255
170 204 255
170 204 255
170 204 255
170 204 255
170 204 255
170 204 255
170 204 255
169 204 255
169 204 255
169 204 255
169 204 255
169 204 255
169 204 255
169 204 255
169 204 255
169 203 255
169 203 255
169 203 255
169 203 255
168 203 255
168 203 255
168 203 255
168 203 255
168 203 255
168 203 255
168 203 255
168 203 255
168 203 255
168 203 255
168 203 255
168 203 255
167 203 255
167 203 255
167 203 255
167 202 255
167 202 255
167 202 255
167 202 255
167 202 255
167 202 255
167 202 255
167 202 255
166 202 255
166 202 255
166 202 255
166 202 255
166 202 255
166 202 255
166 202 255
166 202 255
166 202 255
166 202 255
165 201 255
165 201 255
165 201 255
165 201 255
165 201 255
165 201 255
165 201 255
165 201 255
165 201 255
165 201 255
164 201 255
164 201 255
164 201 255
164 201 255
164 201 255
164 201 255
164 201 255
164 200 255
164 200 255
164 200 255
163 200 255
163 200 255
163 200 255
163 200 255
163 200 255
163 200 255
163 200 255
163 200 255
163 200 255
163 200 255
162 200 255
162 200 255
162 200 255
162 200 255
162 199 255
162 199 255
162 199 255
162 199 255
162 199 255
162 199 255
162 199 255
161 199 255
161 199 255
161 199 255
161 199 255
161 199 255
161 199 255
161 199 255
161 199 255
161 199 255
161 199 255
160 198 255
160 198 255
160 198 255
160 198 255
160 198 255
160 198 255
160 198 255
160 198 255
160 198 255
160 198 255
160 198 255
159 198 255
159 198 255
159 198 255
159 198 255
159 198 255
159 198 255
159 198 255
159 197 255
159 197 255
159 197 255
159 197 255
159 197 255
158 197 255
158 197 255
158 197 255
158 197 255
158 197 255
158 197 255
158 197 255
158 197 255
158 197 255
158 197 255
158 197 255
158 197 255
158 197 255
157 197 255
157 197 255
157 197 255
157 197 255
157 197 255
157 197 255
157 196 255
157 196 255
157 196 255
157 196 255
157 196 255
157 196 255
157 196 255
157 196 255
157 196 255
157 196 255
157 196 255
157 196 255
157 196 255
157 196 255
157 196 255
157 196 255
157 196 255
156 196 255
156 196 255
156 196 255
156 196 255
156 196 255
156 196 255
156 196 255
156 196 255
156 196 255
156 196 255
156 196 255
156 196 255
156 196 255
156 196 255
156 196 255
156 196 255
156 196 255
156 196 255
156 196 255
156 196 255
156 196 255
156 196 255
156 196 255
156 196 255
156 196 255
156 196 255
157 196 255
157 196 255
157 196 255
157 196 255
157 196 255
157 196 255
157 196 255
157 196 255
157 196 255
157 196 255
157 196 255
157 196 255
157 196 255
157 196 255
157 196 255
157 196 255
157 196 255
157 197 255
157 197 255
157 197 255
157 197 255
157 197 255
158 197 255
158 197 255
158 197 255
158 197 255
158 197 255
158 197 255
158 197 255
158 197 255
158 197 255
158 197 255
158 197 255
158 197 255
158 197 255
158 197 255
158 197 255
159 197 255
159 197 255
159 197 255
159 197 255
159 198 255
159 198 255
159 198 255
159 198 255
159 198 255
159 198 255
159 198 255
160 198 255
160 198 255
160 198 255
160 198 255
160 198 255
160 198 255
160 198 255
160 198 255
160 198 255
160 198 255
160 198 255
161 199 255
161 199 255
161 199 255
161 199 255
161 199 255
161 199 255
161 199 255
161 199 255
161 199 255
161 199 255
162 199 255
162 199 255
162 199 255
162 199 255
162 199 255
162 199 255
162 199 255
162 200 255
162 200 255
162 200 255
163 200 255
163 200 255
163 200 255
163 200 255
163 200 255
163 200 255
163 200 255
163 200 255
163 200 255
163 200 255
164 200 255
164 200 255
164 200 255
164 200 255
164 201 255
164 201 255
164 201 255
164 201 255
164 201 255
164 201 255
165 201 255
165 201 255
165 201 255
165 201 255
165 201 255
165 201 255
165 201 255
165 201 255
165 201 255
165 201 255
165 201 255
166 202 255
166 202 255
166 202 255
166 202 255
166 202 255
166 202 255
166 202 255
166 202 255
166 202 255
166 202 255
167 202 255
167 202 255
167 202 255
167 202 255
167 202 255
167 202 255
167 202 255
167 203 255
167 203 255
167 203 255
167 203 255
168 203 255
168 203 255
168 203 255
168 203 255
168 203 255
168 203 255
168 203 255
168 203 255
168 203 255
168 203 255
168 203 255
168 203 255
169 203 255
169 203 255
169 203 255
169 203 255
169 204 255
169 204 255
169 204 255
169 204 255
169 204 255
169 204 255
169 204 255
169 204 255
170 204 255
170 204 255
170 204 255
170 204 255
170 204 255
170 204 255
170 204 255
170 204 255
170 204 255
170 204 255
170 204 255
170 204 255
170 204 255
171 205 255
171 205 255
171 205 255
171 205 255
171 205 255
171 205 255
171 205 255
171 205 255
171 205 255
171 205 255
171 205 255
171 205 255
171 205 255
171 205 255
172 205 255
172 205 255
172 205 255
172 205 255
172 205 255
172 205 255
172 205 255
172 205 255
172 205 255
172 205 255
172 205 255
172 205 255
172 205 255
172 205 255
171 205 255
171 205 255
171 205 255
171 205 255
171 205 255
171 205 255
171 205 255
171 205 255
171 205 255
171 205 255
171 205 255
171 205 255
171 205 255
171 205 255
170 204 255
170 204 255
170 204 255
170 204 255
170 204 255
170 204 255
170 204 255
170 204 255
170 204 255
170 204 255
170 204 255
170 204 255
169 204 255
169 204 255
169 204 255
169 204 255
169 204 255
169 204 255
169 204 255
169 204 255
169 203 255
169 203 255
169 203 255
169 203 255
168 203 255
168 203 255
168 203 255
168 203 255
168 203 255
168 203 255
168 203 255
168 203 255
168 203 255
168 203 255
168 203 255
168 203 255
167 203 255
167 203 255
167 203 255
167 203 255
167 202 255
167 202 255
167 202 255
167 202 255
167 202 255
167 202 255
167 202 255
166 202 255
166 202 255
166 202 255
166 202 255
166 202 255
166 202 255
166 202 255
166 202 255
166 202 255
166 202 255
165 201 255
165 201 255
165 201 255
165 201 255
165 201 255
165 201 255
165 201 255
165 201 255
165 201 255
165 201 255
165 201 255
164 201 255
164 201 255
164 201 255
164 201 255
164 201 255
164 201 255
164 200 255
164 200 255
164 200 255
164 200 255
163 200 255
163 200 255
163 200 255
163 200 255
163 200 255
163 200 255
163 200 255
163 200 255
163 200 255
163 200 255
162 200 255
162 200 255
162 200 255
162 199 255
162 199 255
162 199 255
162 199 255
162 199 255
162 199 255
162 199 255
161 199 255
161 199 255
161 199 255
161 199 255
161 199 255
161 199 255
161 199 255
161 199 255
161 199 255
161 199 255
160 198 255
160 198 255
160 198 255
160 198 255
160 198 255
160 198 255
160 198 255
160 198 255
160 198 255
160 198 255
160 198 255
159 198 255
159 198 255
159 198 255
159 198 255
159 198 255
159 198 255
159 198 255
159 198 255
159 197 255
159 197 255
159 197 255
159 197 255
159 197 255
158 197 255
158 197 255
158 197 255
158 197 255
158 197 255
158 197 255
158 197 255
158 197 255
158 197 255
158 197 255
158 197 255
158 197 255
158 197 255
158 197 255
158 197 255
157 197 255
157 197 255
157 197 255
157 197 255
157 197 255
157 197 255
157 197 255
157 196 255
157 196 255
157 196 255
157 196 255
157 196 255
157 196 255
157 196 255
157 196 255
157 196 255
157 196 255
157 196 255
157 196 255
157 196 255
157 196 255
157 196 255
157 196 255
157 196 255
157 196 255
157 196 255
157 196 255
157 196 255
157 196 255
157 196 255
157 196 255
157 196 255
157 196 255
157 196 255
157 196 255
157 196 255
157 196 255
157 196 255
157 196 255
157 196 255
157 196 255
157 196 255
157 196 255
157 196 255
157 196 255
157 196 255
157 196 255
157 196 255
157 196 255
157 196 255
157 196 255
157 196 255
157 196 255
157 197 255
157 197 255
157 197 255
157 197 255
157 197 255
157 197 255
157 197 255
158 197 255
158 197 255
158 197 255
158 197 255
158 197 255
158 197 255
158 197 255
158 197 255
158 197 255
158 197 255
158 197 255
158 197 255
158 197 255
158 197 255
158 197 255
159 197 255
159 197 255
159 197 255
159 197 255
159 197 255
159 198 255
159 198 255
159 198 255
159 198 255
159 198 255
159 198 255
159 198 255
159 198 255
160 198 255
160 198 255
160 198 255
160 198 255
160 198 255
160 198 255
160 198 255
160 198 255
160 198 255
160 198 255
160 198 255
161 199 255
161 199 255
161 199 255
161 199 255
161 199 255
161 199 255
161 199 255
161 199 255
161 199 255
161 199 255
162 199 255
162 199 255
162 199 255
162 199 255
162 199 255
162 199 255
162 199 255
162 200 255
162 200 255
162 200 255
163 200 255
163 200 255
163 200 255
163 200 255
163 200 255
163 200 255
163 200 255
163 200 255
163 200 255
163 200 255
164 200 255
164 200 255
164 200 255
164 200 255
164 201 255
164 201 255
164 201 255
164 201 255
164 201 255
164 201 255
165 201 255
165 201 255
165 201 255
165 201 255
165 201 255
165 201 255
165 201 255
165 201 255
165 201 255
165 201 255
165 201 255
166 202 255
166 202 255
166 202 255
166 202 255
166 202 255
166 202 255
166 202 255
166 202 255
166 202 255
166 202 255
167 202 255
167 202 255
167 202 255
167 202 255
167 202 255
167 202 255
167 202 255
167 202 255
167 203 255
167 203 255
167 203 255
168 203 255
168 203 255
168 203 255
168 203 255
168 203 255
168 203 255
168 203 255
168 203 255
168 203 255
168 203 255
168 203 255
168 203 255
169 203 255
169 203 255
169 203 255
169 203 255
169 204 255
169 204 255
169 204 255
169 204 255
169 204 255
169 204 255
169 204 255
169 204 255
170 204 255
170 204 255
170 204 255
170 204 255
170 204 255
170 204 255
170 204 255
170 204 255
170 204 255
170 204 255
170 204 255
170 204 255
171 205 255
171 205 255
171 205 255
171 205 255
171 205 255
171 205 255
171 205 255
171 205 255
171 205 255
171 205 255
171 205 255
171 205 255
171 205 255
171 205 255
172 205 255
172 205 255
172 205 255
172 205 255
172 205 255
172 205 255
172 205 255
172 205 255
172 205 255
172 206 255
172 206 255
172 206 255
172 205 255
172 205 255
172 205 255
172 205 255
172 205 255
172 205 255
172 205 255
172 205 255
172 205 255
171 205 255
171 205 255
171 205 255
171 205 255
171 205 255
171 205 255
171 205 255
171 205 255
171 205 255
171 205 255
171 205 255
171 205 255
171 205 255
171 205 255
170 204 255
170 204 255
170 204 255
170 204 255
170 204 255
170 204 255
170 204 255
170 204 255
170 204 255
170 204 255
170 204 255
170 204 255
170 204 255
169 204 255
169 204 255
169 204 255
169 204 255
169 204 255
169 204 255
169 204 255
169 204 255
169 203 255
169 203 255
169 203 255
169 203 255
168 203 255
168 203 255
168 203 255
168 203 255
168 203 255
168 203 255
168 203 255
168 203 255
168 203 255
168 203 255
168 203 255
167 203 255
167 203 255
167 203 255
167 203 255
167 202 255
167 202 255
167 202 255
167 202 255
167 202 255
167 202 255
167 202 255
166 202 255
166 202 255
166 202 255
166 202 255
166 202 255
166 202 255
166 202 255
166 202 255
166 202 255
166 202 255
165 201 255
165 201 255
165 201 255
165 201 255
165 201 255
165 201 255
165 201 255
165 201 255
165 201 255
165 201 255
165 201 255
164 201 255
164 201 255
164 201 255
164 201 255
164 201 255
164 201 255
164 200 255
164 200 255
164 200 255
164 200 255
163 200 255
163 200 255
163 200 255
163 200 255
163 200 255
163 200 255
163 200 255
163 200 255
163 200 255
163 200 255
162 200 255
162 200 255
162 200 255
162 199 255
162 199 255
162 199 255
162 199 255
162 199 255
162 199 255
162 199 255
161 199 255
161 199 255
161 199 255
161 199 255
161 199 255
161 199 255
161 199 255
161 199 255
161 199 255
161 199 255
161 199 255
160 198 255
160 198 255
160 198 255
160 198 255
160 198 255
160 198 255
160 198 255
160 198 255
160 198 255
160 198 255
160 198 255
159 198 255
159 198 255
159 198 255
159 198 255
159 198 255
159 198 255
159 198 255
159 198 255
159 198 255
159 197 255
159 197 255
159 197 255
159 197 255
158 197 255
158 197 255
158 197 255
158 197 255
158 197 255
158 197 255
158 197 255
158 197 255
158 197 255
158 197 255
158 197 255
158 197 255
158 197 255
158 197 255
158 197 255
158 197 255
158 197 255
158 197 255
157 197 255
157 197 255
157 197 255
157 197 255
157 197 255
157 197 255
157 197 255
157 197 255
157 197 255
157 197 255
157 196 255
157 196 255
157 196 255
157 196 255
157 196 255
157 196 255
157 196 255
157 196 255
157 196 255
157 196 255
157 196 255
157 196 255
157 196 255
157 196 255
157 196 255
157 196 255
157 196 255
157 196 255
157 196 255
157 196 255
157 196 255
157 196 255
157 196 255
157 196 255
157 196 255
157 196 255
157 197 255
157 197 255
157 197 255
157 197 255
157 197 255
157 197 255
157 197 255
157 197 255
157 197 255
157 197 255
158 197 255
158 197 255
158 197 255
158 197 255
158 197 255
158 197 255
158 197 255
158 197 255
158 197 255
158 197 255
158 197 255
158 197 255
158 197 255
158 197 255
158 197 255
158 197 255
158 197 255
158 197 255
159 197 255
159 197 255
159 197 255
159 197 255
159 198 255
159 198 255
159 198 255
159 198 255
159 198 255
159 198 255
159 198 255
159 198 255
159 198 255
160 198 255
160 198 255
160 198 255
160 198 255
160 198 255
160 198 255
160 198 255
160 198 255
160 198 255
160 198 255
160 198 255
161 199 255
161 199 255
161 199 255
161 199 255
161 199 255
161 199 255
161 199 255
161 199 255
161 199 255
161 199 255
161 199 255
162 199 255
162 199 255
162 199 255
162 199 255
162 199 255
162 199 255
162 199 255
162 200 255
162 200 255
162 200 255
163 200 255
163 200 255
163 200 255
163 200 255
163 200 255
163 200 255
163 200 255
163 200 255
163 200 255
163 200 255
164 200 255
164 200 255
164 200 255
164 200 255
164 201 255
164 201 255
164 201 255
164 201 255
164 201 255
164 201 255
165 201 255
165 201 255
165 201 255
165 201 255
165 201 255
165 201 255
165 201 255
165 201 255
165 201 255
165 201 255
166 202 255
166 202 255
166 202 255
166 202 255
166 202 255
166 202 255
166 202 255
166 202 255
166 202 255
166 202 255
166 202 255
167 202 255
167 202 255
167 202 255
167 202 255
167 202 255
167 202 255
167 202 255
167 203 255
167 203 255
167 203 255
167 203 255
168 203 255
168 203 255
168 203 255
168 203 255
168 203 255
168 203 255
168 203 255
168 203 255
168 203 255
168 203 255
168 203 255
169 203 255
169 203 255
169 203 255
169 203 255
169 204 255
169 204 255
169 204 255
169 204 255
169 204 255
169 204 255
169 204 255
169 204 255
170 204 255
170 204 255
170 204 255
170 204 255
170 204 255
170 204 255
170 204 255
170 204 255
170 204 255
170 204 255
170 204 255
170 204 255
170 204 255
171 205 255
171 205 255
171 205 255
171 205 255
171 205 255
171 205 255
171 205 255
171 205 255
171 205 255
171 205 255
171 205 255
171 205 255
171 205 255
171 205 255
172 205 255
172 205 255
172 205 255
172 205 255
172 205 255
172 205 255
172 205 255
172 205 255
172 205 255
172 206 255
172 206 255
172 206 255
173 206 255
172 206 255
172 206 255
172 206 255
172 206 255
172 206 255
172 205 255
172 205 255
172 205 255
172 205 255
172 205 255
172 205 255
172 205 255
172 205 255
172 205 255
172 205 255
171 205 255
171 205 255
171 205 255
171 205 255
171 205 255
171 205 255
171 205 255
171 205 255
171 205 255
171 205 255
171 205 255
171 205 255
171 205 255
170 204 255
170 204 255
170 204 255
170 204 255
170 204 255
170 204 255
170 204 255
170 204 255
170 204 255
170 204 255
170 204 255
170 204 255
170 204 255
169 204 255
169 204 255
169 204 255
169 204 255
169 204 255
169 204 255
169 204 255
169 204 255
169 203 255
169 203 255
169 203 255
169 203 255
168 203 255
168 203 255
168 203 255
168 203 255
168 203 255
168 203 255
168 203 255
168 203 255
168 203 255
168 203 255
168 203 255
167 203 255
167 203 255
167 203 255
167 203 255
167 202 255
167 202 255
167 202 255
167 202 255
167 202 255
167 202 255
167 202 255
166 202 255
166 202 255
166 202 255
166 202 255
166 202 255
166 202 255
166 202 255
166 202 255
166 202 255
166 202 255
166 202 255
165 201 255
165 201 255
165 201 255
165 201 255
165 201 255
165 201 255
165 201 255
165 201 255
165 201 255
165 201 255
164 201 255
164 201 255
164 201 255
164 201 255
164 201 255
164 201 255
164 201 255
164 200 255
164 200 255
164 200 255
163 200 255
163 200 255
163 200 255
163 200 255
163 200 255
163 200 255
163 200 255
163 200 255
163 200 255
163 200 255
162 200 255
162 200 255
162 200 255
162 200 255
162 199 255
162 199 255
162 199 255
162 199 255
162 199 255
162 199 255
162 199 255
161 199 255
161 199 255
161 199 255
161 199 255
161 199 255
161 199 255
161 199 255
161 199 255
161 199 255
161 199 255
160 198 255
160 198 255
160 198 255
160 198 255
160 198 255
160 198 255
160 198 255
160 198 255
160 198 255
160 198 255
160 198 255
160 198 255
159 198 255
159 198 255
159 198 255
159 198 255
159 198 255
159 198 255
159 198 255
159 198 255
159 198 255
159 197 255
159 197 255
159 197 255
159 197 255
159 197 255
159 197 255
158 197 255
158 197 255
158 197 255
158 197 255
158 197 255
158 197 255
158 197 255
158 197 255
158 197 255
158 197 255
158 197 255
158 197 255
158 197 255
158 197 255
158 197 255
158 197 255
158 197 255
158 197 255
158 197 255
158 197 255
158 197 255
158 197 255
157 197 255
157 197 255
157 197 255
157 197 255
157 197 255
157 197 255
157 197 255
157 197 255
157 197 255
157 197 255
157 197 255
157 197 255
157 197 255
157 197 255
157 197 255
157 197 255
157 197 255
157 197 255
157 197 255
157 197 255
157 197 255
157 197 255
157 197 255
157 197 255
157 197 255
157 197 255
158 197 255
158 197 255
158 197 255
158 197 255
158 197 255
158 197 255
158 197 255
158 197 255
158 197 255
158 197 255
158 197 255
158 197 255
158 197 255
158 197 255
158 197 255
158 197 255
158 197 255
158 197 255
158 197 255
158 197 255
158 197 255
158 197 255
158 197 255
159 197 255
159 197 255
159 197 255
159 197 255
159 197 255
159 198 255
159 198 255
159 198 255
159 198 255
159 198 255
159 198 255
159 198 255
159 198 255
160 198 255
160 198 255
160 198 255
160 198 255
160 198 255
160 198 255
160 198 255
160 198 255
160 198 255
160 198 255
160 198 255
160 198 255
160 198 255
161 199 255
161 199 255
161 199 255
161 199 255
161 199 255
161 199 255
161 199 255
161 199 255
161 199 255
161 199 255
162 199 255
162 199 255
162 199 255
162 199 255
162 199 255
162 199 255
162 199 255
162 200 255
162 200 255
162 200 255
162 200 255
163 200 255
163 200 255
163 200 255
163 200 255
163 200 255
163 200 255
163 200 255
163 200 255
163 200 255
163 200 255
164 200 255
164 200 255
164 200 255
164 201 255
164 201 255
164 201 255
164 201 255
164 201 255
164 201 255
164 201 255
165 201 255
165 201 255
165 201 255
165 201 255
165 201 255
165 201 255
165 201 255
165 201 255
165 201 255
165 201 255
166 202 255
166 202 255
166 202 255
166 202 255
166 202 255
166 202 255
166 202 255
166 202 255
166 202 255
166 202 255
166 202 255
167 202 255
167 202 255
167 202 255
167 202 255
167 202 255
167 202 255
167 202 255
167 203 255
167 203 255
167 203 255
167 203 255
168 203 255
168 203 255
168 203 255
168 203 255
168 203 255
168 203 255
168 203 255
168 203 255
168 203 255
168 203 255
168 203 255
169 203 255
169 203 255
169 203 255
169 203 255
169 204 255
169 204 255
169 204 255
169 204 255
169 204 255
169 204 255
169 204 255
169 204 255
170 204 255
170 204 255
170 204 255
170 204 255
170 204 255
170 204 255
170 204 255
170 204 255
170 204 255
170 204 255
170 204 255
170 204 255
170 204 255
171 205 255
171 205 255
171 205 255
171 205 255
171 205 255
171 205 255
171 205 255
171 205 255
171 205 255
171 205 255
171 205 255
171 205 255
171 205 255
172 205 255
172 205 255
172 205 255
172 205 255
172 205 255
172 205 255
172 205 255
172 205 255
172 205 255
172 205 255
172 206 255
172 206 255
172 206 255
172 206 255
172 206 255
173 206 255
173 206 255
173 206 255
173 206 255
173 206 255
173 206 255
172 206 255
172 206 255
172 206 255
172 206 255
172 206 255
172 205 255
172 205 255
172 205 255
172 205 255
172 205 255
172 205 255
172 205 255
172 205 255
172 205 255
171 205 255
171 205 255
171 205 255
171 205 255
171 205 255
171 205 255
171 205 255
171 205 255
171 205 255
171 205 255
171 205 255
171 205 255
171 205 255
171 205 255
170 204 255
170 204 255
170 204 255
170 204 255
170 204 255
170 204 255
170 204 255
170 204 255
170 204 255
170 204 255
170 204 255
170 204 255
169 204 255
169 204 255
169 204 255
169 204 255
169 204 255
169 204 255
169 204 255
169 204 255
169 204 255
169 203 255
169 203 255
169 203 255
168 203 255
168 203 255
168 203 255
168 203 255
168 203 255
168 203 255
168 203 255
168 203 255
168 203 255
168 203 255
168 203 255
167 203 255
167 203 255
167 203 255
167 203 255
167 202 255
167 202 255
167 202 255
167 202 255
167 202 255
167 202 255
167 202 255
166 202 255
166 202 255
166 202 255
166 202 255
166 202 255
166 202 255
166 202 255
166 202 255
166 202 255
166 202 255
166 202 255
165 201 255
165 201 255
165 201 255
165 201 255
165 201 255
165 201 255
165 201 255
165 201 255
165 201 255
165 201 255
164 201 255
164 201 255
164 201 255
164 201 255
164 201 255
164 201 255
164 201 255
164 200 255
164 200 255
164 200 255
163 200 255
163 200 255
163 200 255
163 200 255
163 200 255
163 200 255
163 200 255
163 200 255
163 200 255
163 200 255
163 200 255
162 200 255
162 200 255
162 200 255
162 199 255
162 199 255
162 199 255
162 199 255
162 199 255
162 199 255
162 199 255
161 199 255
161 199 255
161 199 255
161 199 255
161 199 255
161 199 255
161 199 255
161 199 255
161 199 255
161 199 255
161 199 255
160 198 255
160 198 255
160 198 255
160 198 255
160 198 255
160 198 255
160 198 255
160 198 255
160 198 255
160 198 255
160 198 255
160 198 255
160 198 255
159 198 255
159 198 255
159 198 255
159 198 255
159 198 255
159 198 255
159 198 255
159 198 255
159 198 255
159 198 255
159 197 255
159 197 255
159 197 255
159 197 255
159 197 255
159 197 255
158 197 255
158 197 255
158 197 255
158 197 255
158 197 255
158 197 255
158 197 255
158 197 255
158 197 255
158 197 255
158 197 255
158 197 255
158 197 255
158 197 255
158 197 255
158 197 255
158 197 255
158 197 255
158 197 255
158 197 255
158 197 255
158 197 255
158 197 255
158 197 255
158 197 255
158 197 255
158 197 255
158 197 255
158 197 255
158 197 255
158 197 255
158 197 255
158 197 255
158 197 255
158 197 255
158 197 255
158 197 255
158 197 255
158 197 255
158 197 255
158 197 255
158 197 255
158 197 255
158 197 255
158 197 255
158 197 255
158 197 255
158 197 255
158 197 255
158 197 255
158 197 255
158 197 255
158 197 255
158 197 255
158 197 255
158 197 255
158 197 255
158 197 255
158 197 255
159 197 255
159 197 255
159 197 255
159 197 255
159 197 255
159 198 255
159 198 255
159 198 255
159 198 255
159 198 255
159 198 255
159 198 255
159 198 255
159 198 255
159 198 255
160 198 255
160 198 255
160 198 255
160 198 255
160 198 255
160 198 255
160 198 255
160 198 255
160 198 255
160 198 255
160 198 255
160 198 255
160 198 255
161 199 255
161 199 255
161 199 255
161 199 255
161 199 255
161 199 255
161 199 255
161 199 255
161 199 255
161 199 255
161 199 255
162 199 255
162 199 255
162 199 255
162 199 255
162 199 255
162 199 255
162 199 255
162 200 255
162 200 255
162 200 255
163 200 255
163 200 255
163 200 255
163 200 255
163 200 255
163 200 255
163 200 255
163 200 255
163 200 255
163 200 255
163 200 255
164 200 255
164 200 255
164 200 255
164 201 255
164 201 255
164 201 255
164 201 255
164 201 255
164 201 255
164 201 255
165 201 255
165 201 255
165 201 255
165 201 255
165 201 255
165 201 255
165 201 255
165 201 255
165 201 255
165 201 255
166 202 255
166 202 255
166 202 255
166 202 255
166 202 255
166 202 255
166 202 255
166 202 255
166 202 255
166 202 255
166 202 255
167 202 255
167 202 255
167 202 255
167 202 255
167 202 255
167 202 255
167 202 255
167 203 255
167 203 255
167 203 255
167 203 255
168 203 255
168 203 255
168 203 255
168 203 255
168 203 255
168 203 255
168 203 255
168 203 255
168 203 255
168 203 255
168 203 255
169 203 255
169 203 255
169 203 255
169 203 255
169 204 255
169 204 255
169 204 255
169 204 255
169 204 255
169 204 255
169 204 255
169 204 255
170 204 255
170 204 255
170 204 255
170 204 255
170 204 255
170 204 255
170 204 255
170 204 255
170 204 255
170 204 255
170 204 255
170 204 255
171 205 255
171 205 255
171 205 255
171 205 255
171 205 255
171 205 255
171 205 255
171 205 255
171 205 255
171 205 255
171 205 255
171 205 255
171 205 255
171 205 255
172 205 255
172 205 255
172 205 255
172 205 255
172 205 255
172 205 255
172 205 255
172 205 255
172 205 255
172 206 255
172 206 255
172 206 255
172 206 255
172 206 255
173 206 255
173 206 255
173 206 255
173 206 255
173 206 255
173 206 255
173 206 255
173 206 255
173 206 255
173 206 255
173 206 255
173 206 255
173 206 255
173 206 255
172 206 255
172 206 255
172 206 255
172 206 255
172 205 255
172 205 255
172 205 255
172 205 255
172 205 255
172 205 255
172 205 255
172 205 255
172 205 255
172 205 255
171 205 255
171 205 255
171 205 255
171 205 255
171 205 255
171 205 255
171 205 255
171 205 255
171 205 255
171 205 255
171 205 255
171 205 255
171 205 255
170 204 255
170 204 255
170 204 255
170 204 255
170 204 255
170 204 255
170 204 255
170 204 255
170 204 255
170 204 255
170 204 255
170 204 255
170 204 255
169 204 255
169 204 255
169 204 255
169 204 255
169 204 255
169 204 255
169 204 255
169 204 255
169 203 255
169 203 255
169 203 255
169 203 255
168 203 255
168 203 255
168 203 255
168 203 255
168 203 255
168 203 255
168 203 255
168 203 255
168 203 255
168 203 255
168 203 255
167 203 255
167 203 255
167 203 255
167 202 255
167 202 255
167 202 255
167 202 255
167 202 255
167 202 255
167 202 255
167 202 255
166 202 255
166 202 255
166 202 255
166 202 255
166 202 255
166 202 255
166 202 255
166 202 255
166 202 255
166 202 255
165 201 255
165 201 255
165 201 255
165 201 255
165 201 255
165 201 255
165 201 255
165 201 255
165 201 255
165 201 255
164 201 255
164 201 255
164 201 255
164 201 255
164 201 255
164 201 255
164 201 255
164 200 255
164 200 255
164 200 255
164 200 255
163 200 255
163 200 255
163 200 255
163 200 255
163 200 255
163 200 255
163 200 255
163 200 255
163 200 255
163 200 255
162 200 255
162 200 255
162 200 255
162 200 255
162 199 255
162 199 255
162 199 255
162 199 255
162 199 255
162 199 255
162 199 255
161 199 255
161 199 255
161 199 255
161 199 255
161 199 255
161 199 255
161 199 255
161 199 255
161 199 255
161 199 255
161 199 255
160 198 255
160 198 255
160 198 255
160 198 255
160 198 255
160 198 255
160 198 255
160 198 255
160 198 255
160 198 255
160 198 255
160 198 255
160 198 255
160 198 255
159 198 255
159 198 255
159 198 255
159 198 255
159 198 255
159 198 255
159 198 255
159 198 255
159 198 255
159 198 255
159 198 255
159 197 255
159 197 255
159 197 255
159 197 255
159 197 255
159 197 255
159 197 255
158 197 255
158 197 255
158 197 255
158 197 255
158 197 255
158 197 255
158 197 255
158 197 255
158 197 255
158 197 255
158 197 255
158 197 255
158 197 255
158 197 255
158 197 255
158 197 255
158 197 255
158 197 255
158 197 255
158 197 255
158 197 255
158 197 255
158 197 255
158 197 255
158 197 255
158 197 255
158 197 255
158 197 255
158 197 255
158 197 255
158 197 255
158 197 255
158 197 255
158 197 255
158 197 255
158 197 255
158 197 255
158 197 255
158 197 255
158 197 255
158 197 255
158 197 255
158 197 255
158 197 255
159 197 255
159 197 255
159 197 255
159 197 255
159 197 255
159 197 255
159 197 255
159 198 255
159 198 255
159 198 255
159 198 255
159 198 255
159 198 255
159 198 255
159 198 255
159 198 255
159 198 255
159 198 255
160 198 255
160 198 255
160 198 255
160 198 255
160 198 255
160 198 255
160 198 255
160 198 255
160 198 255
160 198 255
160 198 255
160 198 255
160 198 255
160 198 255
161 199 255
161 199 255
161 199 255
161 199 255
161 199 255
161 199 255
161 199 255
161 199 255
161 199 255
161 199 255
161 199 255
162 199 255
162 199 255
162 199 255
162 199 255
162 199 255
162 199 255
162 199 255
162 200 255
162 200 255
162 200 255
162 200 255
163 200 255
163 200 255
163 200 255
163 200 255
163 200 255
163 200 255
163 200 255
163 200 255
163 200 255
163 200 255
164 200 255
164 200 255
164 200 255
164 200 255
164 201 255
164 201 255
164 201 255
164 201 255
164 201 255
164 201 255
164 201 255
165 201 255
165 201 255
165 201 255
165 201 255
165 201 255
165 201 255
165 201 255
165 201 255
165 201 255
165 201 255
166 202 255
166 202 255
166 202 255
166 202 255
166 202 255
166 202 255
166 202 255
166 202 255
166 202 255
166 202 255
166 202 255
167 202 255
167 202 255
167 202 255
167 202 255
167 202 255
167 202 255
167 202 255
167 203 255
167 203 255
167 203 255
168 203 255
168 203 255
168 203 255
168 203 255
168 203 255
168 203 255
168 203 255
168 203 255
168 203 255
168 203 255
168 203 255
169 203 255
169 203 255
169 203 255
169 203 255
169 204 255
169 204 255
169 204 255
169 204 255
169 204 255
169 204 255
169 204 255
169 204 255
170 204 255
170 204 255
170 204 255
170 204 255
170 204 255
170 204 255
170 204 255
170 204 255
170 204 255
170 204 255
170 204 255
170 204 255
170 204 255
171 205 255
171 205 255
171 205 255
171 205 255
171 205 255
171 205 255
171 205 255
171 205 255
171 205 255
171 205 255
171 205 255
171 205 255
171 205 255
172 205 255
172 205 255
172 205 255
172 205 255
172 205 255
172 205 255
172 205 255
172 205 255
172 205 255
172 206 255
172 206 255
172 206 255
172 206 255
172 206 255
173 206 255
173 206 255
173 206 255
173 206 255
173 206 255
173 206 255
173 206 255
173 206 255
173 206 255
173 206 255
173 206 255
173 206 255
173 206 255
173 206 255
173 206 255
173 206 255
173 206 255
173 206 255
173 206 255
173 206 255
173 206 255
172 206 255
172 206 255
172 206 255
172 206 255
172 206 255
172 205 255
172 205 255
172 205 255
172 205 255
172 205 255
172 205 255
172 205 255
172 205 255
172 205 255
172 205 255
171 205 255
171 205 255
171 205 255
171 205 255
171 205 255
171 205 255
171 205 255
171 205 255
171 205 255
171 205 255
171 205 255
171 205 255
171 205 255
170 204 255
170 204 255
170 204 255
170 204 255
170 204 255
170 204 255
170 204 255
170 204 255
170 204 255
170 204 255
170 204 255
170 204 255
169 204 255
169 204 255
169 204 255
169 204 255
169 204 255
169 204 255
169 204 255
169 204 255
169 203 255
169 203 255
169 203 255
169 203 255
168 203 255
168 203 255
168 203 255
168 203 255
168 203 255
168 203 255
168 203 255
168 203 255
168 203 255
168 203 255
168 203 255
167 203 255
167 203 255
167 203 255
167 203 255
167 202 255
167 202 255
167 202 255
167 202 255
167 202 255
167 202 255
167 202 255
166 202 255
166 202 255
166 202 255
166 202 255
166 202 255
166 202 255
166 202 255
166 202 255
166 202 255
166 202 255
165 201 255
165 201 255
165 201 255
165 201 255
165 201 255
165 201 255
165 201 255
165 201 255
165 201 255
165 201 255
165 201 255
164 201 255
164 201 255
164 201 255
164 201 255
164 201 255
164 201 255
164 201 255
164 200 255
164 200 255
164 200 255
163 200 255
163 200 255
163 200 255
163 200 255
163 200 255
163 200 255
163 200 255
163 200 255
163 200 255
163 200 255
162 200 255
162 200 255
162 200 255
162 200 255
162 199 255
162 199 255
162 199 255
162 199 255
162 199 255
162 199 255
162 199 255
162 199 255
161 199 255
161 199 255
161 199 255
161 199 255
161 199 255
161 199 255
161 199 255
161 199 255
161 199 255
161 199 255
161 199 255
161 199 255
160 198 255
160 198 255
160 198 255
160 198 255
160 198 255
160 198 255
160 198 255
160 198 255
160 198 255
160 198 255
160 198 255
160 198 255
160 198 255
160 198 255
159 198 255
159 198 255
159 198 255
159 198 255
159 198 255
159 198 255
159 198 255
159 198 255
159 198 255
159 198 255
159 198 255
159 198 255
159 198 255
159 198 255
159 197 255
159 197 255
159 197 255
159 197 255
159 197 255
159 197 255
159 197 255
159 197 255
159 197 255
159 197 255
159 197 255
158 197 255
158 197 255
158 197 255
158 197 255
158 197 255
158 197 255
158 197 255
158 197 255
158 197 255
158 197 255
158 197 255
158 197 255
158 197 255
158 197 255
158 197 255
158 197 255
158 197 255
158 197 255
158 197 255
158 197 255
158 197 255
159 197 255
159 197 255
159 197 255
159 197 255
159 197 255
159 197 255
159 197 255
159 197 255
159 197 255
159 197 255
159 197 255
159 198 255
159 198 255
159 198 255
159 198 255
159 198 255
159 198 255
159 198 255
159 198 255
159 198 255
159 198 255
159 198 255
159 198 255
159 198 255
160 198 255
160 198 255
160 198 255
160 198 255
160 198 255
160 198 255
160 198 255
160 198 255
160 198 255
160 198 255
160 198 255
160 198 255
160 198 255
160 198 255
161 199 255
161 199 255
161 199 255
161 199 255
161 199 255
161 199 255
161 199 255
161 199 255
161 199 255
161 199 255
161 199 255
161 199 255
162 199 255
162 199 255
162 199 255
162 199 255
162 199 255
162 199 255
162 199 255
162 199 255
162 200 255
162 200 255
162 200 255
162 200 255
163 200 255
163 200 255
163 200 255
163 200 255
163 200 255
163 200 255
163 200 255
163 200 255
163 200 255
163 200 255
164 200 255
164 200 255
164 200 255
164 201 255
164 201 255
164 201 255
164 201 255
164 201 255
164 201 255
164 201 255
165 201 255
165 201 255
165 201 255
165 201 255
165 201 255
165 201 255
165 201 255
165 201 255
165 201 255
165 201 255
165 201 255
166 202 255
166 202 255
166 202 255
166 202 255
166 202 255
166 202 255
166 202 255
166 202 255
166 202 255
166 202 255
167 202 255
167 202 255
167 202 255
167 202 255
167 202 255
167 202 255
167 202 255
167 203 255
167 203 255
167 203 255
167 203 255
168 203 255
168 203 255
168 203 255
168 203 255
168 203 255
168 203 255
168 203 255
168 203 255
168 203 255
168 203 255
168 203 255
169 203 255
169 203 255
169 203 255
169 203 255
169 204 255
169 204 255
169 204 255
169 204 255
169 204 255
169 204 255
169 204 255
169 204 255
170 204 255
170 204 255
170 204 255
170 204 255
170 204 255
170 204 255
170 204 255
170 204 255
170 204 255
170 204 255
170 204 255
170 204 255
171 205 255
171 205 255
171 205 255
171 205 255
171 205 255
171 205 255
171 205 255
171 205 255
171 205 255
171 205 255
171 205 255
171 205 255
171 205 255
172 205 255
172 205 255
172 205 255
172 205 255
172 205 255
172 205 255
172 205 255
172 205 255
172 205 255
172 205 255
172 206 255
172 206 255
172 206 255
172 206 255
172 206 255
173 206 255
173 206 255
173 206 255
173 206 255
173 206 255
173 206 255
173 206 255
173 206 255
173 206 255
173 206 255
173 206 255
173 206 255
174 206 255
173 206 255
173 206 255
173 206 255
173 206 255
173 206 255
173 206 255
173 206 255
173 206 255
173 206 255
173 206 255
173 206 255
173 206 255
173 206 255
173 206 255
173 206 255
172 206 255
172 206 255
172 206 255
172 206 255
172 206 255
172 205 255
172 205 255
172 205 255
172 205 255
172 205 255
172 205 255
172 205 255
172 205 255
172 205 255
171 205 255
171 205 255
171 205 255
171 205 255
171 205 255
171 205 255
171 205 255
171 205 255
171 205 255
171 205 255
171 205 255
171 205 255
171 205 255
170 204 255
170 204 255
170 204 255
170 204 255
170 204 255
170 204 255
170 204 255
170 204 255
170 204 255
170 204 255
170 204 255
170 204 255
170 204 255
169 204 255
169 204 255
169 204 255
169 204 255
169 204 255
169 204 255
169 204 255
169 203 255
169 203 255
169 203 255
169 203 255
168 203 255
168 203 255
168 203 255
168 203 255
168 203 255
168 203 255
168 203 255
168 203 255
168 203 255
168 203 255
168 203 255
168 203 255
167 203 255
167 203 255
167 203 255
167 202 255
167 202 255
167 202 255
167 202 255
167 202 255
167 202 255
167 202 255
166 202 255
166 202 255
166 202 255
166 202 255
166 202 255
166 202 255
166 202 255
166 202 255
166 202 255
166 202 255
166 202 255
165 201 255
165 201 255
165 201 255
165 201 255
165 201 255
165 201 255
165 201 255
165 201 255
165 201 255
165 201 255
164 201 255
164 201 255
164 201 255
164 201 255
164 201 255
164 201 255
164 201 255
164 200 255
164 200 255
164 200 255
164 200 255
163 200 255
163 200 255
163 200 255
163 200 255
163 200 255
163 200 255
163 200 255
163 200 255
163 200 255
163 200 255
162 200 255
162 200 255
162 200 255
162 200 255
162 199 255
162 199 255
162 199 255
162 199 255
162 199 255
162 199 255
162 199 255
162 199 255
161 199 255
161 199 255
161 199 255
161 199 255
161 199 255
161 199 255
161 199 255
161 199 255
161 199 255
161 199 255
161 199 255
161 199 255
160 198 255
160 198 255
160 198 255
160 198 255
160 198 255
160 198 255
160 198 255
160 198 255
160 198 255
160 198 255
160 198 255
160 198 255
160 198 255
160 198 255
160 198 255
160 198 255
159 198 255
159 198 255
159 198 255
159 198 255
159 198 255
159 198 255
159 198 255
159 198 255
159 198 255
159 198 255
159 198 255
159 198 255
159 198 255
159 198 255
159 198 255
159 198 255
159 198 255
159 198 255
159 198 255
159 198 255
159 197 255
159 197 255
159 197 255
159 197 255
159 197 255
159 197 255
159 197 255
159 197 255
159 197 255
159 197 255
159 197 255
159 197 255
159 197 255
159 197 255
159 197 255
159 197 255
159 197 255
159 197 255
159 198 255
159 198 255
159 198 255
159 198 255
159 198 255
159 198 255
159 198 255
159 198 255
159 198 255
159 198 255
159 198 255
159 198 255
159 198 255
159 198 255
159 198 255
159 198 255
159 198 255
159 198 255
159 198 255
160 198 255
160 198 255
160 198 255
160 198 255
160 198 255
160 198 255
160 198 255
160 198 255
160 198 255
160 198 255
160 198 255
160 198 255
160 198 255
160 198 255
160 198 255
160 198 255
161 199 255
161 199 255
161 199 255
161 199 255
161 199 255
161 199 255
161 199 255
161 199 255
161 199 255
161 199 255
161 199 255
161 199 255
161 199 255
162 199 255
162 199 255
162 199 255
162 199 255
162 199 255
162 199 255
162 199 255
162 199 255
162 200 255
162 200 255
162 200 255
162 200 255
163 200 255
163 200 255
163 200 255
163 200 255
163 200 255
163 200 255
163 200 255
163 200 255
163 200 255
163 200 255
164 200 255
164 200 255
164 200 255
164 200 255
164 201 255
164 201 255
164 201 255
164 201 255
164 201 255
164 201 255
164 201 255
165 201 255
165 201 255
165 201 255
165 201 255
165 201 255
165 201 255
165 201 255
165 201 255
165 201 255
165 201 255
166 202 255
166 202 255
166 202 255
166 202 255
166 202 255
166 202 255
166 202 255
166 202 255
166 202 255
166 202 255
166 202 255
167 202 255
167 202 255
167 202 255
167 202 255
167 202 255
167 202 255
167 202 255
167 203 255
167 203 255
167 203 255
167 203 255
168 203 255
168 203 255
168 203 255
168 203 255
168 203 255
168 203 255
168 203 255
168 203 255
168 203 255
168 203 255
168 203 255
169 203 255
169 203 255
169 203 255
169 203 255
169 204 255
169 204 255
169 204 255
169 204 255
169 204 255
169 204 255
169 204 255
170 204 255
170 204 255
170 204 255
170 204 255
170 204 255
170 204 255
170 204 255
170 204 255
170 204 255
170 204 255
170 204 255
170 204 255
170 204 255
171 205 255
171 205 255
171 205 255
171 205 255
171 205 255
171 205 255
171 205 255
171 205 255
171 205 255
171 205 255
171 205 255
171 205 255
171 205 255
172 205 255
172 205 255
172 205 255
172 205 255
172 205 255
172 205 255
172 205 255
172 205 255
172 205 255
172 206 255
172 206 255
172 206 255
172 206 255
172 206 255
173 206 255
173 206 255
173 206 255
173 206 255
173 206 255
173 206 255
173 206 255
173 206 255
173 206 255
173 206 255
173 206 255
173 206 255
173 206 255
173 206 255
173 206 255
174 206 255
174 206 255
174 206 255
174 206 255
174 206 255
174 206 255
173 206 255
173 206 255
173 206 255
173 206 255
173 206 255
173 206 255
173 206 255
173 206 255
173 206 255
173 206 255
173 206 255
173 206 255
173 206 255
173 206 255
173 206 255
172 206 255
172 206 255
172 206 255
172 206 255
172 206 255
172 205 255
172 205 255
172 205 255
172 205 255
172 205 255
172 205 255
172 205 255
172 205 255
172 205 255
171 205 255
171 205 255
171 205 255
171 205 255
171 205 255
171 205 255
171 205 255
171 205 255
171 205 255
171 205 255
171 205 255
171 205 255
171 205 255
170 204 255
170 204 255
170 204 255
170 204 255
170 204 255
170 204 255
170 204 255
170 204 255
170 204 255
170 204 255
170 204 255
170 204 255
169 204 255
169 204 255
169 204 255
169 204 255
169 204 255
169 204 255
169 204 255
169 204 255
169 203 255
169 203 255
169 203 255
169 203 255
168 203 255
168 203 255
168 203 255
168 203 255
168 203 255
168 203 255
168 203 255
168 203 255
168 203 255
168 203 255
168 203 255
167 203 255
167 203 255
167 203 255
167 202 255
167 202 255
167 202 255
167 202 255
167 202 255
167 202 255
167 202 255
166 202 255
166 202 255
166 202 255
166 202 255
166 202 255
166 202 255
166 202 255
166 202 255
166 202 255
166 202 255
166 202 255
165 201 255
165 201 255
165 201 255
165 201 255
165 201 255
165 201 255
165 201 255
165 201 255
165 201 255
165 201 255
165 201 255
164 201 255
164 201 255
164 201 255
164 201 255
164 201 255
164 201 255
164 201 255
164 200 255
164 200 255
164 200 255
163 200 255
163 200 255
163 200 255
163 200 255
163 200 255
163 200 255
163 200 255
163 200 255
163 200 255
163 200 255
163 200 255
162 200 255
162 200 255
162 200 255
162 200 255
162 199 255
162 199 255
162 199 255
162 199 255
162 199 255
162 199 255
162 199 255
162 199 255
161 199 255
161 199 255
161 199 255
161 199 255
161 199 255
161 199 255
161 199 255
161 199 255
161 199 255
161 199 255
161 199 255
161 199 255
161 199 255
161 199 255
160 198 255
160 198 255
160 198 255
160 198 255
160 198 255
160 198 255
160 198 255
160 198 255
160 198 255
160 198 255
160 198 255
160 198 255
160 198 255
160 198 255
160 198 255
160 198 255
160 198 255
160 198 255
160 198 255
159 198 255
159 198 255
159 198 255
159 198 255
159 198 255
159 198 255
159 198 255
159 198 255
159 198 255
159 198 255
159 198 255
159 198 255
159 198 255
159 198 255
159 198 255
159 198 255
159 198 255
159 198 255
159 198 255
159 198 255
159 198 255
159 198 255
159 198 255
159 198 255
159 198 255
159 198 255
159 198 255
159 198 255
159 198 255
159 198 255
159 198 255
159 198 255
159 198 255
159 198 255
159 198 255
159 198 255
159 198 255
159 198 255
159 198 255
159 198 255
160 198 255
160 198 255
160 198 255
160 198 255
160 198 255
160 198 255
160 198 255
160 198 255
160 198 255
160 198 255
160 198 255
160 198 255
160 198 255
160 198 255
160 198 255
160 198 255
160 198 255
160 198 255
160 198 255
161 199 255
161 199 255
161 199 255
161 199 255
161 199 255
161 199 255
161 199 255
161 199 255
161 199 255
161 199 255
161 199 255
161 199 255
161 199 255
161 199 255
162 199 255
162 199 255
162 199 255
162 199 255
162 199 255
162 199 255
162 199 255
162 199 255
162 200 255
162 200 255
162 200 255
162 200 255
163 200 255
163 200 255
163 200 255
163 200 255
163 200 255
163 200 255
163 200 255
163 200 255
163 200 255
163 200 255
163 200 255
164 200 255
164 200 255
164 200 255
164 201 255
164 201 255
164 201 255
164 201 255
164 201 255
164 201 255
164 201 255
165 201 255
165 201 255
165 201 255
165 201 255
165 201 255
165 201 255
165 201 255
165 201 255
165 201 255
165 201 255
165 201 255
166 202 255
166 202 255
166 202 255
166 202 255
166 202 255
166 202 255
166 202 255
166 202 255
166 202 255
166 202 255
167 202 255
167 202 255
167 202 255
167 202 255
167 202 255
167 202 255
167 202 255
167 202 255
167 203 255
167 203 255
167 203 255
168 203 255
168 203 255
168 203 255
168 203 255
168 203 255
168 203 255
168 203 255
168 203 255
168 203 255
168 203 255
168 203 255
169 203 255
169 203 255
169 203 255
169 203 255
169 204 255
169 204 255
169 204 255
169 204 255
169 204 255
169 204 255
169 204 255
169 204 255
170 204 255
170 204 255
170 204 255
170 204 255
170 204 255
170 204 255
170 204 255
170 204 255
170 204 255
170 204 255
170 204 255
170 204 255
171 205 255
171 205 255
171 205 255
171 205 255
171 205 255
171 205 255
171 205 255
171 205 255
171 205 255
171 205 255
171 205 255
171 205 255
171 205 255
172 205 255
172 205 255
172 205 255
172 205 255
172 205 255
172 205 255
172 205 255
172 205 255
172 205 255
172 206 255
172 206 255
172 206 255
172 206 255
172 206 255
173 206 255
173 206 255
173 206 255
173 206 255
173 206 255
173 206 255
173 206 255
173 206 255
173 206 255
173 206 255
173 206 255
173 206 255
173 206 255
173 206 255
173 206 255
174 206 255
174 206 255
174 206 255
174 206 255
174 206 255
174 207 255
174 207 255
174 207 255
174 207 255
174 206 255
174 206 255
174 206 255
174 206 255
174 206 255
173 206 255
173 206 255
173 206 255
173 206 255
173 206 255
173 206 255
173 206 255
173 206 255
173 206 255
173 206 255
173 206 255
173 206 255
173 206 255
173 206 255
173 206 255
172 206 255
172 206 255
172 206 255
172 206 255
172 206 255
172 205 255
172 205 255
172 205 255
172 205 255
172 205 255
172 205 255
172 205 255
172 205 255
172 205 255
171 205 255
171 205 255
171 205 255
171 205 255
171 205 255
171 205 255
171 205 255
171 205 255
171 205 255
171 205 255
171 205 255
171 205 255
170 204 255
170 204 255
170 204 255
170 204 255
170 204 255
170 204 255
170 204 255
170 204 255
170 204 255
170 204 255
170 204 255
170 204 255
169 204 255
169 204 255
169 204 255
169 204 255
169 204 255
169 204 255
169 204 255
169 204 255
169 203 255
169 203 255
169 203 255
169 203 255
168 203 255
168 203 255
168 203 255
168 203 255
168 203 255
168 203 255
168 203 255
168 203 255
168 203 255
168 203 255
168 203 255
168 203 255
167 203 255
167 203 255
167 203 255
167 202 255
167 202 255
167 202 255
167 202 255
167 202 255
167 202 255
167 202 255
166 202 255
166 202 255
166 202 255
166 202 255
166 202 255
166 202 255
166 202 255
166 202 255
166 202 255
166 202 255
166 202 255
165 201 255
165 201 255
165 201 255
165 201 255
165 201 255
165 201 255
165 201 255
165 201 255
165 201 255
165 201 255
164 201 255
164 201 255
164 201 255
164 201 255
164 201 255
164 201 255
164 201 255
164 200 255
164 200 255
164 200 255
164 200 255
163 200 255
163 200 255
163 200 255
163 200 255
163 200 255
163 200 255
163 200 255
163 200 255
163 200 255
163 200 255
163 200 255
162 200 255
162 200 255
162 200 255
162 200 255
162 199 255
162 199 255
162 199 255
162 199 255
162 199 255
162 199 255
162 199 255
162 199 255
162 199 255
161 199 255
161 199 255
161 199 255
161 199 255
161 199 255
161 199 255
161 199 255
161 199 255
161 199 255
161 199 255
161 199 255
161 199 255
161 199 255
161 199 255
160 198 255
160 198 255
160 198 255
160 198 255
160 198 255
160 198 255
160 198 255
160 198 255
160 198 255
160 198 255
160 198 255
160 198 255
160 198 255
160 198 255
160 198 255
160 198 255
160 198 255
160 198 255
160 198 255
160 198 255
160 198 255
160 198 255
160 198 255
160 198 255
160 198 255
160 198 255
157 195 252
149 185 239
141 175 226
139 172 222
131 163 209
126 155 199
120 149 193
130 161 208
123 152 195
122 151 194
132 162 208
142 176 226
136 168 216
147 183 236
151 188 243
154 191 247
160 198 255
160 198 255
160 198 255
160 198 255
160 198 255
160 198 255
160 198 255
160 198 255
160 198 255
160 198 255
160 198 255
160 198 255
160 198 255
160 198 255
160 198 255
160 198 255
160 198 255
160 198 255
160 198 255
160 198 255
160 198 255
160 198 255
160 198 255
160 198 255
160 198 255
160 198 255
161 199 255
161 199 255
161 199 255
161 199 255
161 199 255
161 199 255
161 199 255
161 199 255
161 199 255
161 199 255
161 199 255
161 199 255
161 199 255
161 199 255
161 199 255
162 199 255
162 199 255
162 199 255
162 199 255
162 199 255
162 199 255
162 199 255
162 199 255
162 200 255
162 200 255
162 200 255
162 200 255
163 200 255
163 200 255
163 200 255
163 200 255
163 200 255
163 200 255
163 200 255
163 200 255
163 200 255
163 200 255
163 200 255
164 200 255
164 200 255
164 200 255
164 200 255
164 201 255
164 201 255
164 201 255
164 201 255
164 201 255
164 201 255
164 201 255
165 201 255
165 201 255
165 201 255
165 201 255
165 201 255
165 201 255
165 201 255
165 201 255
165 201 255
165 201 255
166 202 255
166 202 255
166 202 255
166 202 255
166 202 255
166 202 255
166 202 255
166 202 255
166 202 255
166 202 255
166 202 255
167 202 255
167 202 255
167 202 255
167 202 255
167 202 255
167 202 255
167 202 255
167 203 255
167 203 255
167 203 255
167 203 255
168 203 255
168 203 255
168 203 255
168 203 255
168 203 255
168 203 255
168 203 255
168 203 255
168 203 255
168 203 255
168 203 255
169 203 255
169 203 255
169 203 255
169 203 255
169 204 255
169 204 255
169 204 255
169 204 255
169 204 255
169 204 255
169 204 255
170 204 255
170 204 255
170 204 255
170 204 255
170 204 255
170 204 255
170 204 255
170 204 255
170 204 255
170 204 255
170 204 255
170 204 255
171 205 255
171 205 255
171 205 255
171 205 255
171 205 255
171 205 255
171 205 255
171 205 255
171 205 255
171 205 255
171 205 255
171 205 255
171 205 255
172 205 255
172 205 255
172 205 255
172 205 255
172 205 255
172 205 255
172 205 255
172 205 255
172 205 255
172 206 255
172 206 255
172 206 255
172 206 255
172 206 255
173 206 255
173 206 255
173 206 255
173 206 255
173 206 255
173 206 255
173 206 255
173 206 255
173 206 255
173 206 255
173 206 255
173 206 255
173 206 255
173 206 255
173 206 255
174 206 255
174 206 255
174 206 255
174 206 255
174 206 255
174 206 255
174 207 255
174 207 255
174 207 255
174 207 255
174 207 255
174 207 255
174 207 255
174 207 255
174 207 255
174 207 255
174 207 255
174 206 255
174 206 255
174 206 255
174 206 255
174 206 255
173 206 255
173 206 255
173 206 255
173 206 255
173 206 255
173 206 255
173 206 255
173 206 255
173 206 255
173 206 255
173 206 255
173 206 255
173 206 255
173 206 255
173 206 255
172 206 255
172 206 255
172 206 255
172 206 255
172 205 255
172 205 255
172 205 255
172 205 255
172 205 255
172 205 255
172 205 255
172 205 255
172 205 255
171 205 255
171 205 255
171 205 255
171 205 255
171 205 255
171 205 255
171 205 255
171 205 255
171 205 255
171 205 255
171 205 255
171 205 255
171 205 255
170 204 255
170 204 255
170 204 255
170 204 255
170 204 255
170 204 255
170 204 255
170 204 255
170 204 255
170 204 255
170 204 255
170 204 255
169 204 255
169 204 255
169 204 255
169 204 255
169 204 255
169 204 255
169 204 255
169 204 255
169 203 255
169 203 255
169 203 255
169 203 255
168 203 255
168 203 255
168 203 255
168 203 255
168 203 255
168 203 255
168 203 255
168 203 255
168 203 255
168 203 255
168 203 255
167 203 255
167 203 255
167 203 255
167 202 255
167 202 255
167 202 255
167 202 255
167 202 255
167 202 255
167 202 255
167 202 255
166 202 255
166 202 255
166 202 255
166 202 255
166 202 255
166 202 255
166 202 255
166 202 255
166 202 255
166 202 255
165 201 255
165 201 255
165 201 255
165 201 255
165 201 255
165 201 255
165 201 255
165 201 255
165 201 255
165 201 255
165 201 255
164 201 255
164 201 255
164 201 255
164 201 255
164 201 255
164 201 255
164 201 255
164 200 255
164 200 255
164 200 255
164 200 255
163 200 255
163 200 255
163 200 255
163 200 255
163 200 255
163 200 255
163 200 255
163 200 255
163 200 255
163 200 255
163 200 255
162 200 255
162 200 255
162 200 255
162 200 255
162 199 255
162 199 255
162 199 255
162 199 255
162 199 255
162 199 255
162 199 255
162 199 255
162 199 255
162 199 255
161 199 255
161 199 255
161 199 255
161 199 255
161 199 255
161 199 255
161 199 255
161 199 255
161 199 255
161 199 255
161 199 255
161 199 255
161 199 255
161 199 255
161 199 255
161 199 255
161 199 255
160 198 255
160 198 255
160 198 255
160 198 255
160 198 255
160 198 255
160 198 255
160 198 255
160 198 255
160 198 255
160 198 255
160 198 255
154 191 247
144 178 229
128 159 204
113 138 175
102 127 163
87 107 137
84 102 128
82 100 127
81 99 128
82 100 128
82 100 128
82 100 128
84 101 128
82 100 128
79 98 126
82 100 128
84 101 127
83 100 126
79 99 128
82 100 128
82 100 127
82 100 128
90 111 142
96 117 149
111 138 177
129 160 206
141 175 225
158 196 253
160 198 255
160 198 255
160 198 255
160 198 255
160 198 255
160 198 255
160 198 255
160 198 255
160 198 255
160 198 255
160 198 255
160 198 255
161 199 255
161 199 255
161 199 255
161 199 255
161 199 255
161 199 255
161 199 255
161 199 255
161 199 255
161 199 255
161 199 255
161 199 255
161 199 255
161 199 255
161 199 255
161 199 255
161 199 255
162 199 255
162 199 255
162 199 255
162 199 255
162 199 255
162 199 255
162 199 255
162 199 255
162 199 255
162 200 255
162 200 255
162 200 255
162 200 255
162 200 255
163 200 255
163 200 255
163 200 255
163 200 255
163 200 255
163 200 255
163 200 255
163 200 255
163 200 255
163 200 255
163 200 255
164 200 255
164 200 255
164 200 255
164 200 255
164 201 255
164 201 255
164 201 255
164 201 255
164 201 255
164 201 255
164 201 255
165 201 255
165 201 255
165 201 255
165 201 255
165 201 255
165 201 255
165 201 255
165 201 255
165 201 255
165 201 255
165 201 255
166 202 255
166 202 255
166 202 255
166 202 255
166 202 255
166 202 255
166 202 255
166 202 255
166 202 255
166 202 255
166 202 255
167 202 255
167 202 255
167 202 255
167 202 255
167 202 255
167 202 255
167 202 255
167 203 255
167 203 255
167 203 255
168 203 255
168 203 255
168 203 255
168 203 255
168 203 255
168 203 255
168 203 255
168 203 255
168 203 255
168 203 255
168 203 255
169 203 255
169 203 255
169 203 255
169 203 255
169 204 255
169 204 255
169 204 255
169 204 255
169 204 255
169 204 255
169 204 255
169 204 255
170 204 255
170 204 255
170 204 255
170 204 255
170 204 255
170 204 255
170 204 255
170 204 255
170 204 255
170 204 255
170 204 255
170 204 255
171 205 255
171 205 255
171 205 255
171 205 255
171 205 255
171 205 255
171 205 255
171 205 255
171 205 255
171 205 255
171 205 255
171 205 255
171 205 255
172 205 255
172 205 255
172 205 255
172 205 255
172 205 255
172 205 255
172 205 255
172 205 255
172 205 255
172 206 255
172 206 255
172 206 255
172 206 255
173 206 255
173 206 255
173 206 255
173 206 255
173 206 255
173 206 255
173 206 255
173 206 255
173 206 255
173 206 255
173 206 255
173 206 255
173 206 255
173 206 255
173 206 255
174 206 255
174 206 255
174 206 255
174 206 255
174 206 255
174 207 255
174 207 255
174 207 255
174 207 255
174 207 255
174 207 255
174 207 255
174 207 255
175 207 255
174 207 255
174 207 255
174 207 255
174 207 255
174 207 255
174 207 255
174 207 255
174 207 255
174 207 255
174 207 255
174 207 255
174 206 255
174 206 255
174 206 255
174 206 255
174 206 255
173 206 255
173 206 255
173 206 255
173 206 255
173 206 255
173 206 255
173 206 255
173 206 255
173 206 255
173 206 255
173 206 255
173 206 255
173 206 255
173 206 255
172 206 255
172 206 255
172 206 255
172 206 255
172 206 255
172 205 255
172 205 255
172 205 255
172 205 255
172 205 255
172 205 255
172 205 255
172 205 255
172 205 255
171 205 255
171 205 255
171 205 255
171 205 255
171 205 255
171 205 255
171 205 255
171 205 255
171 205 255
171 205 255
171 205 255
171 205 255
171 205 255
170 204 255
170 204 255
170 204 255
170 204 255
170 204 255
170 204 255
170 204 255
170 204 255
170 204 255
170 204 255
170 204 255
170 204 255
169 204 255
169 204 255
169 204 255
169 204 255
169 204 255
169 204 255
169 204 255
169 203 255
169 203 255
169 203 255
169 203 255
168 203 255
168 203 255
168 203 255
168 203 255
168 203 255
168 203 255
168 203 255
168 203 255
168 203 255
168 203 255
168 203 255
167 203 255
167 203 255
167 203 255
167 203 255
167 202 255
167 202 255
167 202 255
167 202 255
167 202 255
167 202 255
167 202 255
166 202 255
166 202 255
166 202 255
166 202 255
166 202 255
166 202 255
166 202 255
166 202 255
166 202 255
166 202 255
166 202 255
165 201 255
165 201 255
165 201 255
165 201 255
165 201 255
165 201 255
165 201 255
165 201 255
165 201 255
165 201 255
165 201 255
164 201 255
164 201 255
164 201 255
164 201 255
164 201 255
164 201 255
164 201 255
164 200 255
164 200 255
164 200 255
164 200 255
163 200 255
163 200 255
163 200 255
163 200 255
163 200 255
163 200 255
163 200 255
163 200 255
163 200 255
163 200 255
163 200 255
163 200 255
162 200 255
162 200 255
162 200 255
162 200 255
162 200 255
162 199 255
162 199 255
162 199 255
162 199 255
162 199 255
162 199 255
162 199 255
162 199 255
162 199 255
161 199 255
161 199 255
161 199 255
161 199 255
161 199 255
161 199 255
161 199 255
161 199 255
161 199 255
161 199 255
161 199 255
161 199 255
161 199 255
161 199 255
161 199 255
161 199 255
161 199 255
161 199 255
161 199 255
161 199 255
154 191 245
135 167 215
121 149 191
101 124 158
84 103 131
84 102 128
82 100 128
83 100 126
84 101 128
81 99 126
81 99 127
81 99 126
81 99 126
82 99 125
83 101 128
83 100 126
82 100 126
81 99 126
80 98 124
83 101 128
80 99 126
82 100 126
81 99 125
83 100 126
81 99 126
81 100 128
83 101 127
83 100 127
81 99 126
83 101 128
81 100 128
83 101 128
94 115 147
115 141 181
134 164 211
153 189 244
161 199 255
161 199 255
161 199 255
161 199 255
161 199 255
161 199 255
161 199 255
161 199 255
161 199 255
161 199 255
161 199 255
161 199 255
161 199 255
161 199 255
161 199 255
161 199 255
161 199 255
161 199 255
161 199 255
161 199 255
162 199 255
162 199 255
162 199 255
162 199 255
162 199 255
162 199 255
162 199 255
162 199 255
162 199 255
162 199 255
162 200 255
162 200 255
162 200 255
162 200 255
163 200 255
163 200 255
163 200 255
163 200 255
163 200 255
163 200 255
163 200 255
163 200 255
163 200 255
163 200 255
163 200 255
163 200 255
164 200 255
164 200 255
164 200 255
164 200 255
164 201 255
164 201 255
164 201 255
164 201 255
164 201 255
164 201 255
164 201 255
165 201 255
165 201 255
165 201 255
165 201 255
165 201 255
165 201 255
165 201 255
165 201 255
165 201 255
165 201 255
165 201 255
166 202 255
166 202 255
166 202 255
166 202 255
166 202 255
166 202 255
166 202 255
166 202 255
166 202 255
166 202 255
166 202 255
167 202 255
167 202 255
167 202 255
167 202 255
167 202 255
167 202 255
167 202 255
167 203 255
167 203 255
167 203 255
167 203 255
168 203 255
168 203 255
168 203 255
168 203 255
168 203 255
168 203 255
168 203 255
168 203 255
168 203 255
168 203 255
168 203 255
169 203 255
169 203 255
169 203 255
169 203 255
169 204 255
169 204 255
169 204 255
169 204 255
169 204 255
169 204 255
169 204 255
170 204 255
170 204 255
170 204 255
170 204 255
170 204 255
170 204 255
170 204 255
170 204 255
170 204 255
170 204 255
170 204 255
170 204 255
171 205 255
171 205 255
171 205 255
171 205 255
171 205 255
171 205 255
171 205 255
171 205 255
171 205 255
171 205 255
171 205 255
171 205 255
171 205 255
172 205 255
172 205 255
172 205 255
172 205 255
172 205 255
172 205 255
172 205 255
172 205 255
172 205 255
172 206 255
172 206 255
172 206 255
172 206 255
173 206 255
173 206 255
173 206 255
173 206 255
173 206 255
173 206 255
173 206 255
173 206 255
173 206 255
173 206 255
173 206 255
173 206 255
173 206 255
173 206 255
173 206 255
174 206 255
174 206 255
174 206 255
174 206 255
174 206 255
174 207 255
174 207 255
174 207 255
174 207 255
174 207 255
174 207 255
174 207 255
174 207 255
174 207 255
174 207 255
174 207 255
175 207 255
175 207 255
175 207 255
175 207 255
175 207 255
175 207 255
174 207 255
174 207 255
174 207 255
174 207 255
174 207 255
174 207 255
174 207 255
174 207 255
174 207 255
174 207 255
174 207 255
174 206 255
174 206 255
174 206 255
174 206 255
174 206 255
173 206 255
173 206 255
173 206 255
173 206 255
173 206 255
173 206 255
173 206 255
173 206 255
173 206 255
173 206 255
173 206 255
173 206 255
173 206 255
173 206 255
172 206 255
172 206 255
172 206 255
172 206 255
172 206 255
172 205 255
172 205 255
172 205 255
172 205 255
172 205 255
172 205 255
172 205 255
172 205 255
172 205 255
171 205 255
171 205 255
171 205 255
171 205 255
171 205 255
171 205 255
171 205 255
171 205 255
171 205 255
171 205 255
171 205 255
171 205 255
170 204 255
170 204 255
170 204 255
170 204 255
170 204 255
170 204 255
170 204 255
170 204 255
170 204 255
170 204 255
170 204 255
170 204 255
169 204 255
169 204 255
169 204 255
169 204 255
169 204 255
169 204 255
169 204 255
169 204 255
169 203 255
169 203 255
169 203 255
169 203 255
168 203 255
168 203 255
168 203 255
168 203 255
168 203 255
168 203 255
168 203 255
168 203 255
168 203 255
168 203 255
168 203 255
167 203 255
167 203 255
167 203 255
167 202 255
167 202 255
167 202 255
167 202 255
167 202 255
167 202 255
167 202 255
167 202 255
166 202 255
166 202 255
166 202 255
166 202 255
166 202 255
166 202 255
166 202 255
166 202 255
166 202 255
166 202 255
166 202 255
165 201 255
165 201 255
165 201 255
165 201 255
165 201 255
165 201 255
165 201 255
165 201 255
165 201 255
165 201 255
165 201 255
164 201 255
164 201 255
164 201 255
164 201 255
164 201 255
164 201 255
164 201 255
164 200 255
164 200 255
164 200 255
164 200 255
163 200 255
163 200 255
163 200 255
163 200 255
163 200 255
163 200 255
163 200 255
163 200 255
163 200 255
163 200 255
163 200 255
163 200 255
163 200 255
162 200 255
162 200 255
162 200 255
162 200 255
162 200 255
162 199 255
162 199 255
162 199 255
162 199 255
162 199 255
162 199 255
162 199 255
162 199 255
162 199 255
162 199 255
162 199 255
161 199 255
161 199 255
161 199 255
161 199 255
161 199 255
161 199 255
161 199 255
161 199 255
161 199 255
161 199 255
150 185 238
123 151 194
106 131 168
84 102 128
84 101 127
83 101 127
83 100 126
81 99 126
80 99 127
82 100 126
81 99 126
84 101 128
78 97 124
80 98 125
81 98 125
81 98 125
80 96 121
82 99 126
81 100 127
82 99 125
82 100 127
82 99 126
81 100 128
81 99 125
80 99 127
80 98 126
83 99 124
83 101 128
83 100 126
81 99 126
82 100 128
83 100 126
82 100 128
84 100 125
80 99 126
79 98 127
79 97 124
83 101 127
82 100 127
98 119 151
120 147 186
145 179 231
161 199 255
161 199 255
161 199 255
161 199 255
161 199 255
161 199 255
161 199 255
161 199 255
161 199 255
161 199 255
162 199 255
162 199 255
162 199 255
162 199 255
162 199 255
162 199 255
162 199 255
162 199 255
162 199 255
162 199 255
162 199 255
162 200 255
162 200 255
162 200 255
162 200 255
162 200 255
163 200 255
163 200 255
163 200 255
163 200 255
163 200 255
163 200 255
163 200 255
163 200 255
163 200 255
163 200 255
163 200 255
163 200 255
163 200 255
164 200 255
164 200 255
164 200 255
164 200 255
164 201 255
164 201 255
164 201 255
164 201 255
164 201 255
164 201 255
164 201 255
165 201 255
165 201 255
165 201 255
165 201 255
165 201 255
165 201 255
165 201 255
165 201 255
165 201 255
165 201 255
165 201 255
166 202 255
166 202 255
166 202 255
166 202 255
166 202 255
166 202 255
166 202 255
166 202 255
166 202 255
166 202 255
166 202 255
167 202 255
167 202 255
167 202 255
167 202 255
167 202 255
167 202 255
167 202 255
167 203 255
167 203 255
167 203 255
167 203 255
168 203 255
168 203 255
168 203 255
168 203 255
168 203 255
168 203 255
168 203 255
168 203 255
168 203 255
168 203 255
168 203 255
169 203 255
169 203 255
169 203 255
169 203 255
169 204 255
169 204 255
169 204 255
169 204 255
169 204 255
169 204 255
169 204 255
169 204 255
170 204 255
170 204 255
170 204 255
170 204 255
170 204 255
170 204 255
170 204 255
170 204 255
170 204 255
170 204 255
170 204 255
170 204 255
171 205 255
171 205 255
171 205 255
171 205 255
171 205 255
171 205 255
171 205 255
171 205 255
171 205 255
171 205 255
171 205 255
171 205 255
172 205 255
172 205 255
172 205 255
172 205 255
172 205 255
172 205 255
172 205 255
172 205 255
172 205 255
172 206 255
172 206 255
172 206 255
172 206 255
172 206 255
173 206 255
173 206 255
173 206 255
173 206 255
173 206 255
173 206 255
173 206 255
173 206 255
173 206 255
173 206 255
173 206 255
173 206 255
173 206 255
173 206 255
174 206 255
174 206 255
174 206 255
174 206 255
174 206 255
174 207 255
174 207 255
174 207 255
174 207 255
174 207 255
174 207 255
174 207 255
174 207 255
174 207 255
174 207 255
174 207 255
175 207 255
175 207 255
175 207 255
175 207 255
175 207 255
175 207 255
175 207 255
175 207 255
175 207 255
175 207 255
175 207 255
175 207 255
175 207 255
175 207 255
174 207 255
174 207 255
174 207 255
174 207 255
174 207 255
174 207 255
174 207 255
174 207 255
174 207 255
174 207 255
174 207 255
174 206 255
174 206 255
174 206 255
174 206 255
174 206 255
173 206 255
173 206 255
173 206 255
173 206 255
173 206 255
173 206 255
173 206 255
173 206 255
173 206 255
173 206 255
173 206 255
173 206 255
173 206 255
173 206 255
172 206 255
172 206 255
172 206 255
172 206 255
172 206 255
172 205 255
172 205 255
172 205 255
172 205 255
172 205 255
172 205 255
172 205 255
172 205 255
172 205 255
171 205 255
171 205 255
171 205 255
171 205 255
171 205 255
171 205 255
171 205 255
171 205 255
171 205 255
171 205 255
171 205 255
171 205 255
170 204 255
170 204 255
170 204 255
170 204 255
170 204 255
170 204 255
170 204 255
170 204 255
170 204 255
170 204 255
170 204 255
170 204 255
169 204 255
169 204 255
169 204 255
169 204 255
169 204 255
169 204 255
169 204 255
169 204 255
169 203 255
169 203 255
169 203 255
169 203 255
168 203 255
168 203 255
168 203 255
168 203 255
168 203 255
168 203 255
168 203 255
168 203 255
168 203 255
168 203 255
168 203 255
167 203 255
167 203 255
167 203 255
167 202 255
167 202 255
167 202 255
167 202 255
167 202 255
167 202 255
167 202 255
167 202 255
166 202 255
166 202 255
166 202 255
166 202 255
166 202 255
166 202 255
166 202 255
166 202 255
166 202 255
166 202 255
165 201 255
165 201 255
165 201 255
165 201 255
165 201 255
165 201 255
165 201 255
165 201 255
165 201 255
165 201 255
165 201 255
165 201 255
164 201 255
164 201 255
164 201 255
164 201 255
164 201 255
164 201 255
164 201 255
164 201 255
164 200 255
164 200 255
164 200 255
164 200 255
163 200 255
163 200 255
163 200 255
163 200 255
163 200 255
163 200 255
163 200 255
163 200 255
163 200 255
163 200 255
163 200 255
163 200 255
163 200 255
162 200 255
162 200 255
162 200 255
162 200 255
162 200 255
162 199 255
162 199 255
162 199 255
162 199 255
162 199 255
162 199 255
162 199 255
162 199 255
162 199 255
162 199 255
162 199 255
162 199 255
162 199 255
152 187 239
126 155 198
96 117 147
80 98 126
82 99 125
83 101 128
82 99 126
84 101 126
84 101 126
83 100 127
81 98 124
80 97 123
81 100 128
82 99 124
83 100 125
81 99 125
83 101 126
81 98 125
79 97 124
81 98 125
82 99 124
79 96 122
82 100 126
80 98 125
81 99 127
84 101 127
78 96 123
83 100 126
83 99 124
80 98 125
81 99 126
80 99 126
82 99 124
83 101 127
83 100 126
81 99 126
80 98 126
78 96 124
83 100 127
82 99 125
82 99 125
83 101 127
81 99 126
82 100 128
84 101 128
96 117 150
131 161 206
160 197 253
162 199 255
162 199 255
162 199 255
162 199 255
162 199 255
162 199 255
162 199 255
162 199 255
162 199 255
162 199 255
162 199 255
162 199 255
162 199 255
162 200 255
162 200 255
162 200 255
162 200 255
162 200 255
163 200 255
163 200 255
163 200 255
163 200 255
163 200 255
163 200 255
163 200 255
163 200 255
163 200 255
163 200 255
163 200 255
163 200 255
163 200 255
164 200 255
164 200 255
164 200 255
164 200 255
164 201 255
164 201 255
164 201 255
164 201 255
164 201 255
164 201 255
164 201 255
164 201 255
165 201 255
165 201 255
165 201 255
165 201 255
165 201 255
165 201 255
165 201 255
165 201 255
165 201 255
165 201 255
165 201 255
166 202 255
166 202 255
166 202 255
166 202 255
166 202 255
166 202 255
166 202 255
166 202 255
166 202 255
166 202 255
166 202 255
166 202 255
167 202 255
167 202 255
167 202 255
167 202 255
167 202 255
167 202 255
167 202 255
167 203 255
167 203 255
167 203 255
168 203 255
168 203 255
168 203 255
168 203 255
168 203 255
168 203 255
168 203 255
168 203 255
168 203 255
168 203 255
168 203 255
168 203 255
169 203 255
169 203 255
169 203 255
169 204 255
169 204 255
169 204 255
169 204 255
169 204 255
169 204 255
169 204 255
169 204 255
170 204 255
170 204 255
170 204 255
170 204 255
170 204 255
170 204 255
170 204 255
170 204 255
170 204 255
170 204 255
170 204 255
170 204 255
171 205 255
171 205 255
171 205 255
171 205 255
171 205 255
171 205 255
171 205 255
171 205 255
171 205 255
171 205 255
171 205 255
171 205 255
172 205 255
172 205 255
172 205 255
172 205 255
172 205 255
172 205 255
172 205 255
172 205 255
172 205 255
172 206 255
172 206 255
172 206 255
172 206 255
172 206 255
173 206 255
173 206 255
173 206 255
173 206 255
173 206 255
173 206 255
173 206 255
173 206 255
173 206 255
173 206 255
173 206 255
173 206 255
173 206 255
173 206 255
174 206 255
174 206 255
174 206 255
174 206 255
174 206 255
174 207 255
174 207 255
174 207 255
174 207 255
174 207 255
174 207 255
174 207 255
174 207 255
174 207 255
174 207 255
174 207 255
175 207 255
175 207 255
175 207 255
175 207 255
175 207 255
175 207 255
175 207 255
175 207 255
175 207 255
175 207 255
175 207 255
175 207 255
175 207 255
175 207 255
175 207 255
175 207 255
175 207 255
175 207 255
175 207 255
175 207 255
175 207 255
175 207 255
175 207 255
174 207 255
174 207 255
174 207 255
174 207 255
174 207 255
174 207 255
174 207 255
174 207 255
174 207 255
174 207 255
174 206 255
174 206 255
174 206 255
174 206 255
174 206 255
173 206 255
173 206 255
173 206 255
173 206 255
173 206 255
173 206 255
173 206 255
173 206 255
173 206 255
173 206 255
173 206 255
173 206 255
173 206 255
173 206 255
172 206 255
172 206 255
172 206 255
172 206 255
172 206 255
172 205 255
172 205 255
172 205 255
172 205 255
172 205 255
172 205 255
172 205 255
172 205 255
172 205 255
171 205 255
171 205 255
171 205 255
171 205 255
171 205 255
171 205 255
171 205 255
171 205 255
171 205 255
171 205 255
171 205 255
171 205 255
170 204 255
170 204 255
170 204 255
170 204 255
170 204 255
170 204 255
170 204 255
170 204 255
170 204 255
170 204 255
170 204 255
170 204 255
169 204 255
169 204 255
169 204 255
169 204 255
169 204 255
169 204 255
169 204 255
169 203 255
169 203 255
169 203 255
169 203 255
168 203 255
168 203 255
168 203 255
168 203 255
168 203 255
168 203 255
168 203 255
168 203 255
168 203 255
168 203 255
168 203 255
167 203 255
167 203 255
167 203 255
167 203 255
167 202 255
167 202 255
167 202 255
167 202 255
167 202 255
167 202 255
167 202 255
166 202 255
166 202 255
166 202 255
166 202 255
166 202 255
166 202 255
166 202 255
166 202 255
166 202 255
166 202 255
166 202 255
165 201 255
165 201 255
165 201 255
165 201 255
165 201 255
165 201 255
165 201 255
165 201 255
165 201 255
165 201 255
165 201 255
165 201 255
164 201 255
164 201 255
164 201 255
164 201 255
164 201 255
164 201 255
164 201 255
164 201 255
164 200 255
164 200 255
164 200 255
164 200 255
163 200 255
163 200 255
163 200 255
163 200 255
163 200 255
163 200 255
163 200 255
163 200 255
163 200 255
163 200 255
163 200 255
163 200 255
163 200 255
163 200 255
163 200 255
163 200 255
162 200 255
162 200 255
162 200 255
162 200 255
162 200 255
162 199 255
162 199 255
162 199 255
162 199 255
147 181 232
105 130 166
85 105 134
84 100 124
80 98 126
85 102 128
82 100 126
81 98 124
82 99 126
81 100 127
81 98 124
83 100 126
82 99 125
82 100 126
82 99 126
81 99 125
82 100 125
79 97 123
80 98 125
81 98 125
78 96 122
81 97 122
80 98 124
85 102 126
80 98 125
82 99 126
80 98 125
81 98 124
80 97 123
84 101 126
82 100 126
82 98 124
81 98 122
82 99 125
81 98 124
80 98 126
83 100 125
81 98 124
80 97 123
80 98 124
82 99 124
84 101 126
80 98 124
84 101 127
79 98 125
82 99 124
81 99 126
82 100 126
82 100 126
85 103 131
114 139 177
137 168 216
162 199 255
162 199 255
162 199 255
162 199 255
162 200 255
162 200 255
162 200 255
162 200 255
162 200 255
162 200 255
163 200 255
163 200 255
163 200 255
163 200 255
163 200 255
163 200 255
163 200 255
163 200 255
163 200 255
163 200 255
163 200 255
163 200 255
163 200 255
163 200 255
164 200 255
164 200 255
164 200 255
164 200 255
164 200 255
164 201 255
164 201 255
164 201 255
164 201 255
164 201 255
164 201 255
164 201 255
164 201 255
165 201 255
165 201 255
165 201 255
165 201 255
165 201 255
165 201 255
165 201 255
165 201 255
165 201 255
165 201 255
165 201 255
165 201 255
166 202 255
166 202 255
166 202 255
166 202 255
166 202 255
166 202 255
166 202 255
166 202 255
166 202 255
166 202 255
167 202 255
167 202 255
167 202 255
167 202 255
167 202 255
167 202 255
167 202 255
167 202 255
167 203 255
167 203 255
167 203 255
167 203 255
168 203 255
168 203 255
168 203 255
168 203 255
168 203 255
168 203 255
168 203 255
168 203 255
168 203 255
168 203 255
168 203 255
169 203 255
169 203 255
169 203 255
169 203 255
169 204 255
169 204 255
169 204 255
169 204 255
169 204 255
169 204 255
169 204 255
170 204 255
170 204 255
170 204 255
170 204 255
170 204 255
170 204 255
170 204 255
170 204 255
170 204 255
170 204 255
170 204 255
170 204 255
171 205 255
171 205 255
171 205 255
171 205 255
171 205 255
171 205 255
171 205 255
171 205 255
171 205 255
171 205 255
171 205 255
171 205 255
171 205 255
172 205 255
172 205 255
172 205 255
172 205 255
172 205 255
172 205 255
172 205 255
172 205 255
172 206 255
172 206 255
172 206 255
172 206 255
172 206 255
173 206 255
173 206 255
173 206 255
173 206 255
173 206 255
173 206 255
173 206 255
173 206 255
173 206 255
173 206 255
173 206 255
173 206 255
173 206 255
173 206 255
174 206 255
174 206 255
174 206 255
174 206 255
174 206 255
174 207 255
174 207 255
174 207 255
174 207 255
174 207 255
174 207 255
174 207 255
174 207 255
174 207 255
174 207 255
175 207 255
175 207 255
175 207 255
175 207 255
175 207 255
175 207 255
175 207 255
175 207 255
175 207 255
175 207 255
175 207 255
175 207 255
175 207 255
175 207 255
176 208 255
175 207 255
175 207 255
175 207 255
175 207 255
175 207 255
175 207 255
175 207 255
175 207 255
175 207 255
175 207 255
175 207 255
175 207 255
175 207 255
175 207 255
175 207 255
175 207 255
175 207 255
174 207 255
174 207 255
174 207 255
174 207 255
174 207 255
174 207 255
174 207 255
174 207 255
174 207 255
174 207 255
174 206 255
174 206 255
174 206 255
174 206 255
174 206 255
173 206 255
173 206 255
173 206 255
173 206 255
173 206 255
173 206 255
173 206 255
173 206 255
173 206 255
173 206 255
173 206 255
173 206 255
173 206 255
173 206 255
172 206 255
172 206 255
172 206 255
172 206 255
172 206 255
172 205 255
172 205 255
172 205 255
172 205 255
172 205 255
172 205 255
172 205 255
172 205 255
171 205 255
171 205 255
171 205 255
171 205 255
171 205 255
171 205 255
171 205 255
171 205 255
171 205 255
171 205 255
171 205 255
171 205 255
171 205 255
170 204 255
170 204 255
170 204 255
170 204 255
170 204 255
170 204 255
170 204 255
170 204 255
170 204 255
170 204 255
170 204 255
169 204 255
169 204 255
169 204 255
169 204 255
169 204 255
169 204 255
169 204 255
169 204 255
169 203 255
169 203 255
169 203 255
169 203 255
168 203 255
168 203 255
168 203 255
168 203 255
168 203 255
168 203 255
168 203 255
168 203 255
168 203 255
168 203 255
168 203 255
167 203 255
167 203 255
167 203 255
167 203 255
167 202 255
167 202 255
167 202 255
167 202 255
167 202 255
167 202 255
167 202 255
166 202 255
166 202 255
166 202 255
166 202 255
166 202 255
166 202 255
166 202 255
166 202 255
166 202 255
166 202 255
166 202 255
166 202 255
165 201 255
165 201 255
165 201 255
165 201 255
165 201 255
165 201 255
165 201 255
165 201 255
165 201 255
165 201 255
165 201 255
164 201 255
164 201 255
164 201 255
164 201 255
164 201 255
164 201 255
164 201 255
164 201 255
164 201 255
164 200 255
164 200 255
164 200 255
164 200 255
164 200 255
163 200 255
163 200 255
163 200 255
163 200 255
163 200 255
163 200 255
163 200 255
163 200 255
163 200 255
163 200 255
163 200 255
163 200 255
163 200 255
163 200 255
163 200 255
163 200 255
162 200 255
138 169 216
103 124 157
81 99 127
83 100 125
82 100 126
84 101 126
78 96 123
81 98 125
81 97 121
83 100 125
80 97 123
80 98 124
78 96 124
81 99 125
78 95 122
82 99 125
84 101 127
82 98 123
82 98 123
81 100 127
85 101 125
82 99 124
79 97 124
82 100 126
79 97 124
80 97 124
81 99 125
83 100 126
81 97 122
79 96 122
80 97 122
80 98 124
80 97 123
83 99 124
83 99 124
82 99 124
81 99 125
82 98 122
80 98 125
84 100 125
81 98 124
85 102 128
81 97 121
81 99 126
79 96 122
81 98 124
81 99 126
80 98 125
81 98 123
83 100 126
81 100 127
79 97 124
80 98 125
81 98 124
104 127 161
137 167 213
162 199 254
163 200 255
163 200 255
163 200 255
163 200 255
163 200 255
163 200 255
163 200 255
163 200 255
163 200 255
163 200 255
163 200 255
163 200 255
163 200 255
163 200 255
163 200 255
163 200 255
164 200 255
164 200 255
164 200 255
164 200 255
164 200 255
164 201 255
164 201 255
164 201 255
164 201 255
164 201 255
164 201 255
164 201 255
164 201 255
164 201 255
165 201 255
165 201 255
165 201 255
165 201 255
165 201 255
165 201 255
165 201 255
165 201 255
165 201 255
165 201 255
165 201 255
166 202 255
166 202 255
166 202 255
166 202 255
166 202 255
166 202 255
166 202 255
166 202 255
166 202 255
166 202 255
166 202 255
166 202 255
167 202 255
167 202 255
167 202 255
167 202 255
167 202 255
167 202 255
167 202 255
167 203 255
167 203 255
167 203 255
167 203 255
168 203 255
168 203 255
168 203 255
168 203 255
168 203 255
168 203 255
168 203 255
168 203 255
168 203 255
168 203 255
168 203 255
169 203 255
169 203 255
169 203 255
169 203 255
169 204 255
169 204 255
169 204 255
169 204 255
169 204 255
169 204 255
169 204 255
170 204 255
170 204 255
170 204 255
170 204 255
170 204 255
170 204 255
170 204 255
170 204 255
170 204 255
170 204 255
170 204 255
170 204 255
171 205 255
171 205 255
171 205 255
171 205 255
171 205 255
171 205 255
171 205 255
171 205 255
171 205 255
171 205 255
171 205 255
171 205 255
171 205 255
172 205 255
172 205 255
172 205 255
172 205 255
172 205 255
172 205 255
172 205 255
172 205 255
172 206 255
172 206 255
172 206 255
172 206 255
172 206 255
173 206 255
173 206 255
173 206 255
173 206 255
173 206 255
173 206 255
173 206 255
173 206 255
173 206 255
173 206 255
173 206 255
173 206 255
173 206 255
173 206 255
174 206 255
174 206 255
174 206 255
174 206 255
174 206 255
174 207 255
174 207 255
174 207 255
174 207 255
174 207 255
174 207 255
174 207 255
174 207 255
174 207 255
174 207 255
175 207 255
175 207 255
175 207 255
175 207 255
175 207 255
175 207 255
175 207 255
175 207 255
175 207 255
175 207 255
175 207 255
175 207 255
175 207 255
175 207 255
175 207 255
175 207 255
175 207 255
176 208 255
176 208 255
176 208 255
176 208 255
176 208 255
176 208 255
175 207 255
175 207 255
175 207 255
175 207 255
175 207 255
175 207 255
175 207 255
175 207 255
175 207 255
175 207 255
175 207 255
175 207 255
175 207 255
175 207 255
175 207 255
175 207 255
175 207 255
174 207 255
174 207 255
174 207 255
174 207 255
174 207 255
174 207 255
174 207 255
174 207 255
174 207 255
174 207 255
174 206 255
174 206 255
174 206 255
174 206 255
174 206 255
173 206 255
173 206 255
173 206 255
173 206 255
173 206 255
173 206 255
173 206 255
173 206 255
173 206 255
173 206 255
173 206 255
173 206 255
173 206 255
173 206 255
172 206 255
172 206 255
172 206 255
172 206 255
172 206 255
172 205 255
172 205 255
172 205 255
172 205 255
172 205 255
172 205 255
172 205 255
172 205 255
171 205 255
171 205 255
171 205 255
171 205 255
171 205 255
171 205 255
171 205 255
171 205 255
171 205 255
171 205 255
171 205 255
171 205 255
170 204 255
170 204 255
170 204 255
170 204 255
170 204 255
170 204 255
170 204 255
170 204 255
170 204 255
170 204 255
170 204 255
170 204 255
169 204 255
169 204 255
169 204 255
169 204 255
169 204 255
169 204 255
169 204 255
169 204 255
169 203 255
169 203 255
169 203 255
169 203 255
168 203 255
168 203 255
168 203 255
168 203 255
168 203 255
168 203 255
168 203 255
168 203 255
168 203 255
168 203 255
168 203 255
167 203 255
167 203 255
167 203 255
167 203 255
167 202 255
167 202 255
167 202 255
167 202 255
167 202 255
167 202 255
167 202 255
166 202 255
166 202 255
166 202 255
166 202 255
166 202 255
166 202 255
166 202 255
166 202 255
166 202 255
166 202 255
166 202 255
166 202 255
165 201 255
165 201 255
165 201 255
165 201 255
165 201 255
165 201 255
165 201 255
165 201 255
165 201 255
165 201 255
165 201 255
165 201 255
164 201 255
164 201 255
164 201 255
164 201 255
164 201 255
164 201 255
164 201 255
164 201 255
164 201 255
164 201 255
164 200 255
164 200 255
164 200 255
164 200 255
163 200 255
163 200 255
163 200 255
163 200 255
163 200 255
163 200 255
163 200 255
163 200 255
163 200 255
161 197 252
133 163 208
93 113 144
83 101 127
82 100 126
80 97 123
81 99 126
82 99 124
81 99 127
83 100 125
82 100 126
82 99 124
79 97 124
77 95 121
81 98 124
83 99 123
82 98 123
81 98 124
83 100 126
82 99 125
82 99 126
79 97 124
80 98 124
84 100 125
76 95 123
78 95 121
82 99 126
83 100 125
83 100 126
83 100 126
78 95 121
82 98 122
82 99 124
79 96 122
80 98 124
82 99 125
82 99 124
81 98 123
81 98 124
78 95 120
81 98 122
80 98 125
82 99 124
79 98 126
82 98 123
79 97 123
81 98 124
81 97 121
84 100 125
79 97 123
83 100 126
81 99 125
78 95 122
82 99 125
79 97 124
85 101 126
82 99 126
80 98 124
81 99 126
99 121 154
133 162 206
163 200 255
163 200 255
163 200 255
163 200 255
163 200 255
163 200 255
163 200 255
163 200 255
163 200 255
164 200 255
164 200 255
164 200 255
164 200 255
164 200 255
164 200 255
164 201 255
164 201 255
164 201 255
164 201 255
164 201 255
164 201 255
164 201 255
164 201 255
164 201 255
165 201 255
165 201 255
165 201 255
165 201 255
165 201 255
165 201 255
165 201 255
165 201 255
165 201 255
165 201 255
165 201 255
165 201 255
166 202 255
166 202 255
166 202 255
166 202 255
166 202 255
166 202 255
166 202 255
166 202 255
166 202 255
166 202 255
166 202 255
166 202 255
167 202 255
167 202 255
167 202 255
167 202 255
167 202 255
167 202 255
167 202 255
167 203 255
167 203 255
167 203 255
167 203 255
168 203 255
168 203 255
168 203 255
168 203 255
168 203 255
168 203 255
168 203 255
168 203 255
168 203 255
168 203 255
168 203 255
169 203 255
169 203 255
169 203 255
169 203 255
169 204 255
169 204 255
169 204 255
169 204 255
169 204 255
169 204 255
169 204 255
169 204 255
170 204 255
170 204 255
170 204 255
170 204 255
170 204 255
170 204 255
170 204 255
170 204 255
170 204 255
170 204 255
170 204 255
171 205 255
171 205 255
171 205 255
171 205 255
171 205 255
171 205 255
171 205 255
171 205 255
171 205 255
171 205 255
171 205 255
171 205 255
171 205 255
172 205 255
172 205 255
172 205 255
172 205 255
172 205 255
172 205 255
172 205 255
172 205 255
172 206 255
172 206 255
172 206 255
172 206 255
172 206 255
173 206 255
173 206 255
173 206 255
173 206 255
173 206 255
173 206 255
173 206 255
173 206 255
173 206 255
173 206 255
173 206 255
173 206 255
173 206 255
173 206 255
174 206 255
174 206 255
174 206 255
174 206 255
174 206 255
174 207 255
174 207 255
174 207 255
174 207 255
174 207 255
174 207 255
174 207 255
174 207 255
174 207 255
174 207 255
175 207 255
175 207 255
175 207 255
175 207 255
175 207 255
175 207 255
175 207 255
175 207 255
175 207 255
175 207 255
175 207 255
175 207 255
175 207 255
175 207 255
175 207 255
175 207 255
176 208 255
176 208 255
176 208 255
176 208 255
176 208 255
176 208 255
176 208 255
176 208 255
176 208 255
176 208 255
176 208 255
176 208 255
176 208 255
176 208 255
176 208 255
176 208 255
175 207 255
175 207 255
175 207 255
175 207 255
175 207 255
175 207 255
175 207 255
175 207 255
175 207 255
175 207 255
175 207 255
175 207 255
175 207 255
175 207 255
175 207 255
175 207 255
174 207 255
174 207 255
174 207 255
174 207 255
174 207 255
174 207 255
174 207 255
174 207 255
174 207 255
174 207 255
174 207 255
174 206 255
174 206 255
174 206 255
174 206 255
174 206 255
173 206 255
173 206 255
173 206 255
173 206 255
173 206 255
173 206 255
173 206 255
173 206 255
173 206 255
173 206 255
173 206 255
173 206 255
173 206 255
172 206 255
172 206 255
172 206 255
172 206 255
172 206 255
172 205 255
172 205 255
172 205 255
172 205 255
172 205 255
172 205 255
172 205 255
172 205 255
171 205 255
171 205 255
171 205 255
171 205 255
171 205 255
171 205 255
171 205 255
171 205 255
171 205 255
171 205 255
171 205 255
171 205 255
170 204 255
170 204 255
170 204 255
170 204 255
170 204 255
170 204 255
170 204 255
170 204 255
170 204 255
170 204 255
170 204 255
170 204 255
169 204 255
169 204 255
169 204 255
169 204 255
169 204 255
169 204 255
169 204 255
169 204 255
169 203 255
169 203 255
169 203 255
169 203 255
168 203 255
168 203 255
168 203 255
168 203 255
168 203 255
168 203 255
168 203 255
168 203 255
168 203 255
168 203 255
168 203 255
167 203 255
167 203 255
167 203 255
167 203 255
167 202 255
167 202 255
167 202 255
167 202 255
167 202 255
167 202 255
167 202 255
166 202 255
166 202 255
166 202 255
166 202 255
166 202 255
166 202 255
166 202 255
166 202 255
166 202 255
166 202 255
166 202 255
166 202 255
165 201 255
165 201 255
165 201 255
165 201 255
165 201 255
165 201 255
165 201 255
165 201 255
165 201 255
165 201 255
165 201 255
165 201 255
165 201 255
164 201 255
164 201 255
164 201 255
164 201 255
164 201 255
164 201 255
164 201 255
164 201 255
164 201 255
164 201 255
164 201 255
164 200 255
164 200 255
164 200 255
164 200 255
164 200 255
163 200 255
142 174 222
97 119 151
82 99 126
80 99 126
80 99 126
84 100 124
83 100 124
86 102 128
79 96 122
82 99 124
82 99 124
80 97 123
82 99 124
81 98 122
83 99 125
81 99 126
80 97 123
82 100 126
81 99 125
83 99 124
81 97 122
80 98 126
81 97 120
81 98 125
80 98 125
79 96 120
81 98 123
80 98 125
81 98 124
81 98 123
78 96 123
81 99 126
79 97 123
78 96 123
80 98 124
78 96 123
81 98 123
81 98 123
79 96 122
80 98 124
83 98 122
82 98 122
83 100 125
83 100 124
79 95 120
76 93 120
80 96 120
79 97 124
78 96 122
76 93 118
83 100 126
82 98 122
83 100 126
84 100 125
79 97 124
83 99 124
80 97 123
82 99 125
81 99 125
81 98 124
81 98 125
81 99 126
99 121 152
138 169 215
163 200 255
164 200 255
164 200 255
164 200 255
164 200 255
164 200 255
164 200 255
164 201 255
164 201 255
164 201 255
164 201 255
164 201 255
164 201 255
164 201 255
164 201 255
164 201 255
165 201 255
165 201 255
165 201 255
165 201 255
165 201 255
165 201 255
165 201 255
165 201 255
165 201 255
165 201 255
165 201 255
165 201 255
165 201 255
166 202 255
166 202 255
166 202 255
166 202 255
166 202 255
166 202 255
166 202 255
166 202 255
166 202 255
166 202 255
166 202 255
166 202 255
167 202 255
167 202 255
167 202 255
167 202 255
167 202 255
167 202 255
167 202 255
167 202 255
167 203 255
167 203 255
167 203 255
167 203 255
168 203 255
168 203 255
168 203 255
168 203 255
168 203 255
168 203 255
168 203 255
168 203 255
168 203 255
168 203 255
168 203 255
169 203 255
169 203 255
169 203 255
169 203 255
169 204 255
169 204 255
169 204 255
169 204 255
169 204 255
169 204 255
169 204 255
169 204 255
170 204 255
170 204 255
170 204 255
170 204 255
170 204 255
170 204 255
170 204 255
170 204 255
170 204 255
170 204 255
170 204 255
171 205 255
171 205 255
171 205 255
171 205 255
171 205 255
171 205 255
171 205 255
171 205 255
171 205 255
171 205 255
171 205 255
171 205 255
171 205 255
172 205 255
172 205 255
172 205 255
172 205 255
172 205 255
172 205 255
172 205 255
172 205 255
172 206 255
172 206 255
172 206 255
172 206 255
172 206 255
173 206 255
173 206 255
173 206 255
173 206 255
173 206 255
173 206 255
173 206 255
173 206 255
173 206 255
173 206 255
173 206 255
173 206 255
173 206 255
173 206 255
174 206 255
174 206 255
174 206 255
174 206 255
174 207 255
174 207 255
174 207 255
174 207 255
174 207 255
174 207 255
174 207 255
174 207 255
174 207 255
174 207 255
175 207 255
175 207 255
175 207 255
175 207 255
175 207 255
175 207 255
175 207 255
175 207 255
175 207 255
175 207 255
175 207 255
175 207 255
175 207 255
175 207 255
175 207 255
175 207 255
175 207 255
176 208 255
176 208 255
176 208 255
176 208 255
176 208 255
176 208 255
176 208 255
176 208 255
176 208 255
176 208 255
176 208 255
176 208 255
176 208 255
176 208 255
176 208 255
176 208 255
176 208 255
176 208 255
176 208 255
176 208 255
176 208 255
176 208 255
176 208 255
176 208 255
176 208 255
175 207 255
175 207 255
175 207 255
175 207 255
175 207 255
175 207 255
175 207 255
175 207 255
175 207 255
175 207 255
175 207 255
175 207 255
175 207 255
175 207 255
175 207 255
175 207 255
174 207 255
174 207 255
174 207 255
174 207 255
174 207 255
174 207 255
174 207 255
174 207 255
174 207 255
174 207 255
174 206 255
174 206 255
174 206 255
174 206 255
173 206 255
173 206 255
173 206 255
173 206 255
173 206 255
173 206 255
173 206 255
173 206 255
173 206 255
173 206 255
173 206 255
173 206 255
173 206 255
173 206 255
172 206 255
172 206 255
172 206 255
172 206 255
172 206 255
172 205 255
172 205 255
172 205 255
172 205 255
172 205 255
172 205 255
172 205 255
172 205 255
171 205 255
171 205 255
171 205 255
171 205 255
171 205 255
171 205 255
171 205 255
171 205 255
171 205 255
171 205 255
171 205 255
171 205 255
171 205 255
170 204 255
170 204 255
170 204 255
170 204 255
170 204 255
170 204 255
170 204 255
170 204 255
170 204 255
170 204 255
170 204 255
170 204 255
169 204 255
169 204 255
169 204 255
169 204 255
169 204 255
169 204 255
169 204 255
169 203 255
169 203 255
169 203 255
169 203 255
168 203 255
168 203 255
168 203 255
168 203 255
168 203 255
168 203 255
168 203 255
168 203 255
168 203 255
168 203 255
168 203 255
167 203 255
167 203 255
167 203 255
167 203 255
167 202 255
167 202 255
167 202 255
167 202 255
167 202 255
167 202 255
167 202 255
167 202 255
166 202 255
166 202 255
166 202 255
166 202 255
166 202 255
166 202 255
166 202 255
166 202 255
166 202 255
166 202 255
166 202 255
166 202 255
165 201 255
165 201 255
165 201 255
165 201 255
165 201 255
165 201 255
165 201 255
165 201 255
165 201 255
165 201 255
165 201 255
165 201 255
165 201 255
165 201 255
164 201 255
164 201 255
164 201 255
164 201 255
164 201 255
164 201 255
164 201 255
164 201 255
164 201 255
149 182 231
106 128 161
81 99 125
83 100 126
84 100 124
82 99 124
83 99 124
82 99 124
82 100 127
82 100 127
82 98 122
80 98 125
81 98 124
81 98 123
82 98 123
79 97 126
79 97 123
83 100 125
81 99 125
83 100 126
82 99 124
80 97 122
80 97 121
81 98 124
78 95 121
82 98 123
83 100 125
82 98 123
81 99 124
81 97 122
83 100 125
83 100 125
81 98 124
82 98 121
79 95 121
82 98 122
80 98 124
80 96 120
81 98 122
78 96 122
80 98 124
79 96 123
80 97 123
85 101 126
80 98 124
79 96 121
81 98 124
75 93 121
81 97 122
80 97 123
82 99 123
80 97 121
80 97 122
79 96 121
77 95 121
81 98 124
79 97 124
83 100 125
80 98 125
81 98 124
79 97 123
83 100 126
83 100 126
81 99 125
82 100 127
81 98 124
102 124 158
147 179 229
164 201 255
164 201 255
164 201 255
164 201 255
164 201 255
164 201 255
164 201 255
164 201 255
164 201 255
165 201 255
165 201 255
165 201 255
165 201 255
165 201 255
165 201 255
165 201 255
165 201 255
165 201 255
165 201 255
165 201 255
165 201 255
165 201 255
165 201 255
166 202 255
166 202 255
166 202 255
166 202 255
166 202 255
166 202 255
166 202 255
166 202 255
166 202 255
166 202 255
166 202 255
166 202 255
167 202 255
167 202 255
167 202 255
167 202 255
167 202 255
167 202 255
167 202 255
167 202 255
167 203 255
167 203 255
167 203 255
167 203 255
168 203 255
168 203 255
168 203 255
168 203 255
168 203 255
168 203 255
168 203 255
168 203 255
168 203 255
168 203 255
168 203 255
169 203 255
169 203 255
169 203 255
169 203 255
169 204 255
169 204 255
169 204 255
169 204 255
169 204 255
169 204 255
169 204 255
169 204 255
170 204 255
170 204 255
170 204 255
170 204 255
170 204 255
170 204 255
170 204 255
170 204 255
170 204 255
170 204 255
170 204 255
170 204 255
171 205 255
171 205 255
171 205 255
171 205 255
171 205 255
171 205 255
171 205 255
171 205 255
171 205 255
171 205 255
171 205 255
171 205 255
172 205 255
172 205 255
172 205 255
172 205 255
172 205 255
172 205 255
172 205 255
172 205 255
172 206 255
172 206 255
172 206 255
172 206 255
172 206 255
173 206 255
173 206 255
173 206 255
173 206 255
173 206 255
173 206 255
173 206 255
173 206 255
173 206 255
173 206 255
173 206 255
173 206 255
173 206 255
173 206 255
174 206 255
174 206 255
174 206 255
174 206 255
174 206 255
174 207 255
174 207 255
174 207 255
174 207 255
174 207 255
174 207 255
174 207 255
174 207 255
174 207 255
175 207 255
175 207 255
175 207 255
175 207 255
175 207 255
175 207 255
175 207 255
175 207 255
175 207 255
175 207 255
175 207 255
175 207 255
175 207 255
175 207 255
175 207 255
175 207 255
176 208 255
176 208 255
176 208 255
176 208 255
176 208 255
176 208 255
176 208 255
176 208 255
176 208 255
176 208 255
176 208 255
176 208 255
176 208 255
176 208 255
176 208 255
177 208 255
177 208 255
176 208 255
176 208 255
176 208 255
176 208 255
176 208 255
176 208 255
176 208 255
176 208 255
176 208 255
176 208 255
176 208 255
176 208 255
176 208 255
176 208 255
176 208 255
176 208 255
176 208 255
175 207 255
175 207 255
175 207 255
175 207 255
175 207 255
175 207 255
175 207 255
175 207 255
175 207 255
175 207 255
175 207 255
175 207 255
175 207 255
175 207 255
175 207 255
175 207 255
174 207 255
174 207 255
174 207 255
174 207 255
174 207 255
174 207 255
174 207 255
174 207 255
174 207 255
174 207 255
174 206 255
174 206 255
174 206 255
174 206 255
174 206 255
173 206 255
173 206 255
173 206 255
173 206 255
173 206 255
173 206 255
173 206 255
173 206 255
173 206 255
173 206 255
173 206 255
173 206 255
173 206 255
173 206 255
172 206 255
172 206 255
172 206 255
172 206 255
172 205 255
172 205 255
172 205 255
172 205 255
172 205 255
172 205 255
172 205 255
172 205 255
171 205 255
171 205 255
171 205 255
171 205 255
171 205 255
171 205 255
171 205 255
171 205 255
171 205 255
171 205 255
171 205 255
171 205 255
171 205 255
170 204 255
170 204 255
170 204 255
170 204 255
170 204 255
170 204 255
170 204 255
170 204 255
170 204 255
170 204 255
170 204 255
169 204 255
169 204 255
169 204 255
169 204 255
169 204 255
169 204 255
169 204 255
169 204 255
169 203 255
169 203 255
169 203 255
169 203 255
168 203 255
168 203 255
168 203 255
168 203 255
168 203 255
168 203 255
168 203 255
168 203 255
168 203 255
168 203 255
168 203 255
168 203 255
167 203 255
167 203 255
167 203 255
167 203 255
167 202 255
167 202 255
167 202 255
167 202 255
167 202 255
167 202 255
167 202 255
166 202 255
166 202 255
166 202 255
166 202 255
166 202 255
166 202 255
166 202 255
166 202 255
166 202 255
166 202 255
166 202 255
166 202 255
166 202 255
166 202 255
165 201 255
165 201 255
165 201 255
165 201 255
165 201 255
165 201 255
165 201 255
165 201 255
165 201 255
165 201 255
165 201 255
165 201 255
165 201 255
165 201 255
165 201 255
162 198 252
123 148 187
79 98 128
81 99 125
80 98 124
79 97 123
82 98 124
81 97 122
83 100 126
79 98 126
83 100 126
82 98 121
82 97 120
78 96 121
78 95 121
81 99 126
79 96 121
82 98 122
80 97 122
81 98 123
80 98 124
81 98 124
80 97 122
83 100 126
84 101 126
79 96 121
79 96 120
79 95 120
80 97 122
79 97 122
79 97 123
80 97 122
78 95 121
78 96 122
81 96 120
79 96 121
84 100 125
78 96 123
85 101 124
78 95 120
77 94 120
75 93 119
81 97 121
81 98 123
80 96 121
82 97 121
82 98 122
82 98 123
83 99 124
81 97 123
81 97 122
79 96 122
79 97 124
81 97 121
76 93 120
79 97 124
81 97 121
81 97 121
80 97 124
80 98 124
79 97 124
83 100 125
82 99 124
84 101 126
82 98 122
80 97 123
80 97 122
81 98 124
84 101 126
84 101 128
124 151 192
160 195 248
165 201 255
165 201 255
165 201 255
165 201 255
165 201 255
165 201 255
165 201 255
165 201 255
165 201 255
165 201 255
165 201 255
165 201 255
165 201 255
165 201 255
165 201 255
166 202 255
166 202 255
166 202 255
166 202 255
166 202 255
166 202 255
166 202 255
166 202 255
166 202 255
166 202 255
166 202 255
166 202 255
166 202 255
166 202 255
167 202 255
167 202 255
167 202 255
167 202 255
167 202 255
167 202 255
167 202 255
167 203 255
167 203 255
167 203 255
167 203 255
168 203 255
168 203 255
168 203 255
168 203 255
168 203 255
168 203 255
168 203 255
168 203 255
168 203 255
168 203 255
168 203 255
168 203 255
169 203 255
169 203 255
169 203 255
169 203 255
169 204 255
169 204 255
169 204 255
169 204 255
169 204 255
169 204 255
169 204 255
169 204 255
170 204 255
170 204 255
170 204 255
170 204 255
170 204 255
170 204 255
170 204 255
170 204 255
170 204 255
170 204 255
170 204 255
171 205 255
171 205 255
171 205 255
171 205 255
171 205 255
171 205 255
171 205 255
171 205 255
171 205 255
171 205 255
171 205 255
171 205 255
171 205 255
172 205 255
172 205 255
172 205 255
172 205 255
172 205 255
172 205 255
172 205 255
172 205 255
172 206 255
172 206 255
172 206 255
172 206 255
173 206 255
173 206 255
173 206 255
173 206 255
173 206 255
173 206 255
173 206 255
173 206 255
173 206 255
173 206 255
173 206 255
173 206 255
173 206 255
173 206 255
174 206 255
174 206 255
174 206 255
174 206 255
174 206 255
174 207 255
174 207 255
174 207 255
174 207 255
174 207 255
174 207 255
174 207 255
174 207 255
174 207 255
174 207 255
175 207 255
175 207 255
175 207 255
175 207 255
175 207 255
175 207 255
175 207 255
175 207 255
175 207 255
175 207 255
175 207 255
175 207 255
175 207 255
175 207 255
175 207 255
175 207 255
176 208 255
176 208 255
176 208 255
176 208 255
176 208 255
176 208 255
176 208 255
176 208 255
176 208 255
176 208 255
176 208 255
176 208 255
176 208 255
176 208 255
176 208 255
176 208 255
176 208 255
177 208 255
177 208 255
177 208 255
177 208 255
177 208 255
177 208 255
177 208 255
177 208 255
177 208 255
176 208 255
176 208 255
176 208 255
176 208 255
176 208 255
176 208 255
176 208 255
176 208 255
176 208 255
176 208 255
176 208 255
176 208 255
176 208 255
176 208 255
176 208 255
176 208 255
176 208 255
175 207 255
175 207 255
175 207 255
175 207 255
175 207 255
175 207 255
175 207 255
175 207 255
175 207 255
175 207 255
175 207 255
175 207 255
175 207 255
175 207 255
175 207 255
175 207 255
174 207 255
174 207 255
174 207 255
174 207 255
174 207 255
174 207 255
174 207 255
174 207 255
174 207 255
174 206 255
174 206 255
174 206 255
174 206 255
174 206 255
173 206 255
173 206 255
173 206 255
173 206 255
173 206 255
173 206 255
173 206 255
173 206 255
173 206 255
173 206 255
173 206 255
173 206 255
173 206 255
173 206 255
172 206 255
172 206 255
172 206 255
172 206 255
172 205 255
172 205 255
172 205 255
172 205 255
172 205 255
172 205 255
172 205 255
172 205 255
172 205 255
171 205 255
171 205 255
171 205 255
171 205 255
171 205 255
171 205 255
171 205 255
171 205 255
171 205 255
171 205 255
171 205 255
171 205 255
170 204 255
170 204 255
170 204 255
170 204 255
170 204 255
170 204 255
170 204 255
170 204 255
170 204 255
170 204 255
170 204 255
170 204 255
169 204 255
169 204 255
169 204 255
169 204 255
169 204 255
169 204 255
169 204 255
169 204 255
169 203 255
169 203 255
169 203 255
168 203 255
168 203 255
168 203 255
168 203 255
168 203 255
168 203 255
168 203 255
168 203 255
168 203 255
168 203 255
168 203 255
168 203 255
167 203 255
167 203 255
167 203 255
167 203 255
167 202 255
167 202 255
167 202 255
167 202 255
167 202 255
167 202 255
167 202 255
167 202 255
166 202 255
166 202 255
166 202 255
166 202 255
166 202 255
166 202 255
166 202 255
166 202 255
166 202 255
166 202 255
166 202 255
166 202 255
166 202 255
166 202 255
165 201 255
165 201 255
165 201 255
165 201 255
165 201 255
165 201 255
165 201 255
165 201 255
165 201 255
146 178 227
94 113 143
82 99 124
76 94 121
81 97 122
81 98 124
80 97 124
85 101 126
84 100 125
78 96 122
80 97 124
80 98 125
81 98 123
81 98 122
80 97 123
81 98 124
77 95 121
80 97 122
81 98 124
85 101 126
83 101 127
79 96 121
83 100 125
78 95 121
77 93 119
79 95 119
81 98 124
77 94 119
82 98 122
79 95 119
79 96 120
82 99 125
78 94 119
77 94 119
80 96 121
76 94 120
80 96 121
82 98 123
80 98 125
78 95 121
78 95 120
80 98 125
81 98 124
81 98 123
82 99 125
82 99 124
73 90 115
81 98 124
78 95 121
77 95 122
80 97 121
80 96 120
80 97 122
77 94 119
84 100 124
83 100 124
79 96 121
80 97 122
83 98 122
82 98 124
82 99 124
78 96 122
79 97 124
79 96 121
83 100 125
80 98 124
81 98 124
80 97 123
81 98 124
80 97 124
83 101 127
79 96 122
98 118 149
138 169 216
165 201 255
165 201 255
165 201 255
165 201 255
165 201 255
165 201 255
165 201 255
165 201 255
165 201 255
166 202 255
166 202 255
166 202 255
166 202 255
166 202 255
166 202 255
166 202 255
166 202 255
166 202 255
166 202 255
166 202 255
166 202 255
166 202 255
167 202 255
167 202 255
167 202 255
167 202 255
167 202 255
167 202 255
167 202 255
167 202 255
167 202 255
167 203 255
167 203 255
167 203 255
167 203 255
168 203 255
168 203 255
168 203 255
168 203 255
168 203 255
168 203 255
168 203 255
168 203 255
168 203 255
168 203 255
168 203 255
168 203 255
169 203 255
169 203 255
169 203 255
169 204 255
169 204 255
169 204 255
169 204 255
169 204 255
169 204 255
169 204 255
169 204 255
170 204 255
170 204 255
170 204 255
170 204 255
170 204 255
170 204 255
170 204 255
170 204 255
170 204 255
170 204 255
170 204 255
170 204 255
171 205 255
171 205 255
171 205 255
171 205 255
171 205 255
171 205 255
171 205 255
171 205 255
171 205 255
171 205 255
171 205 255
171 205 255
171 205 255
172 205 255
172 205 255
172 205 255
172 205 255
172 205 255
172 205 255
172 205 255
172 205 255
172 206 255
172 206 255
172 206 255
172 206 255
173 206 255
173 206 255
173 206 255
173 206 255
173 206 255
173 206 255
173 206 255
173 206 255
173 206 255
173 206 255
173 206 255
173 206 255
173 206 255
173 206 255
174 206 255
174 206 255
174 206 255
174 206 255
174 207 255
174 207 255
174 207 255
174 207 255
174 207 255
174 207 255
174 207 255
174 207 255
174 207 255
174 207 255
175 207 255
175 207 255
175 207 255
175 207 255
175 207 255
175 207 255
175 207 255
175 207 255
175 207 255
175 207 255
175 207 255
175 207 255
175 207 255
175 207 255
175 207 255
175 207 255
176 208 255
176 208 255
176 208 255
176 208 255
176 208 255
176 208 255
176 208 255
176 208 255
176 208 255
176 208 255
176 208 255
176 208 255
176 208 255
176 208 255
176 208 255
176 208 255
176 208 255
176 208 255
177 208 255
177 208 255
177 208 255
177 208 255
177 208 255
177 208 255
177 208 255
177 208 255
177 208 255
177 208 255
177 208 255
177 208 255
177 208 255
177 208 255
177 208 255
177 208 255
177 208 255
176 208 255
176 208 255
176 208 255
176 208 255
176 208 255
176 208 255
176 208 255
176 208 255
176 208 255
176 208 255
176 208 255
176 208 255
176 208 255
176 208 255
176 208 255
176 208 255
176 208 255
175 207 255
175 207 255
175 207 255
175 207 255
175 207 255
175 207 255
175 207 255
175 207 255
175 207 255
175 207 255
175 207 255
175 207 255
175 207 255
175 207 255
175 207 255
175 207 255
174 207 255
174 207 255
174 207 255
174 207 255
174 207 255
174 207 255
174 207 255
174 207 255
174 207 255
174 207 255
174 206 255
174 206 255
174 206 255
174 206 255
174 206 255
173 206 255
173 206 255
173 206 255
173 206 255
173 206 255
173 206 255
173 206 255
173 206 255
173 206 255
173 206 255
173 206 255
173 206 255
173 206 255
172 206 255
172 206 255
172 206 255
172 206 255
172 205 255
172 205 255
172 205 255
172 205 255
172 205 255
172 205 255
172 205 255
172 205 255
172 205 255
171 205 255
171 205 255
171 205 255
171 205 255
171 205 255
171 205 255
171 205 255
171 205 255
171 205 255
171 205 255
171 205 255
171 205 255
170 204 255
170 204 255
170 204 255
170 204 255
170 204 255
170 204 255
170 204 255
170 204 255
170 204 255
170 204 255
170 204 255
170 204 255
169 204 255
169 204 255
169 204 255
169 204 255
169 204 255
169 204 255
169 204 255
169 204 255
169 203 255
169 203 255
169 203 255
169 203 255
168 203 255
168 203 255
168 203 255
168 203 255
168 203 255
168 203 255
168 203 255
168 203 255
168 203 255
168 203 255
168 203 255
168 203 255
167 203 255
167 203 255
167 203 255
167 203 255
167 202 255
167 202 255
167 202 255
167 202 255
167 202 255
167 202 255
167 202 255
167 202 255
167 202 255
166 202 255
166 202 255
166 202 255
166 202 255
166 202 255
166 202 255
166 202 255
166 202 255
166 202 255
166 202 255
166 202 255
166 202 255
166 202 255
166 202 255
166 202 255
165 200 254
132 160 202
84 100 124
81 96 120
79 97 123
80 98 124
79 96 121
81 98 123
83 100 126
82 98 122
80 98 124
85 100 124
82 98 123
76 93 119
77 95 120
80 97 124
80 97 123
82 98 123
76 94 120
78 95 121
79 95 120
80 97 122
80 97 121
78 96 122
77 94 120
79 96 121
80 96 120
84 100 123
78 94 119
83 100 126
81 98 124
81 96 120
79 96 122
78 95 121
81 98 125
79 96 121
78 95 121
79 96 120
82 99 124
78 94 120
82 99 124
81 98 122
79 96 121
81 98 124
81 97 122
77 95 123
77 95 123
79 95 120
81 97 121
80 97 122
80 97 123
81 97 121
81 97 122
81 98 122
79 97 123
83 100 126
78 96 122
78 94 120
83 99 124
79 96 121
83 98 121
79 97 124
81 99 125
80 96 121
82 98 122
81 98 123
80 97 123
85 102 127
81 98 124
77 94 120
80 97 121
82 98 122
79 96 122
81 98 123
77 96 123
83 100 125
126 154 195
165 200 254
166 202 255
166 202 255
166 202 255
166 202 255
166 202 255
166 202 255
166 202 255
166 202 255
166 202 255
166 202 255
166 202 255
166 202 255
166 202 255
166 202 255
166 202 255
167 202 255
167 202 255
167 202 255
167 202 255
167 202 255
167 202 255
167 202 255
167 202 255
167 202 255
167 203 255
167 203 255
167 203 255
167 203 255
168 203 255
168 203 255
168 203 255
168 203 255
168 203 255
168 203 255
168 203 255
168 203 255
168 203 255
168 203 255
168 203 255
168 203 255
169 203 255
169 203 255
169 203 255
169 203 255
169 204 255
169 204 255
169 204 255
169 204 255
169 204 255
169 204 255
169 204 255
169 204 255
170 204 255
170 204 255
170 204 255
170 204 255
170 204 255
170 204 255
170 204 255
170 204 255
170 204 255
170 204 255
170 204 255
170 204 255
171 205 255
171 205 255
171 205 255
171 205 255
171 205 255
171 205 255
171 205 255
171 205 255
171 205 255
171 205 255
171 205 255
171 205 255
172 205 255
172 205 255
172 205 255
172 205 255
172 205 255
172 205 255
172 205 255
172 205 255
172 205 255
172 206 255
172 206 255
172 206 255
172 206 255
173 206 255
173 206 255
173 206 255
173 206 255
173 206 255
173 206 255
173 206 255
173 206 255
173 206 255
173 206 255
173 206 255
173 206 255
173 206 255
174 206 255
174 206 255
174 206 255
174 206 255
174 206 255
174 207 255
174 207 255
174 207 255
174 207 255
174 207 255
174 207 255
174 207 255
174 207 255
174 207 255
174 207 255
175 207 255
175 207 255
175 207 255
175 207 255
175 207 255
175 207 255
175 207 255
175 207 255
175 207 255
175 207 255
175 207 255
175 207 255
175 207 255
175 207 255
175 207 255
175 207 255
176 208 255
176 208 255
176 208 255
176 208 255
176 208 255
176 208 255
176 208 255
176 208 255
176 208 255
176 208 255
176 208 255
176 208 255
176 208 255
176 208 255
176 208 255
176 208 255
176 208 255
177 208 255
177 208 255
177 208 255
177 208 255
177 208 255
177 208 255
177 208 255
177 208 255
177 208 255
177 208 255
177 208 255
177 209 255
177 209 255
177 209 255
177 208 255
177 208 255
177 208 255
177 208 255
177 208 255
177 208 255
177 208 255
177 208 255
177 208 255
177 208 255
177 208 255
177 208 255
177 208 255
176 208 255
176 208 255
176 208 255
176 208 255
176 208 255
176 208 255
176 208 255
176 208 255
176 208 255
176 208 255
176 208 255
176 208 255
176 208 255
176 208 255
176 208 255
176 208 255
176 208 255
175 207 255
175 207 255
175 207 255
175 207 255
175 207 255
175 207 255
175 207 255
175 207 255
175 207 255
175 207 255
175 207 255
175 207 255
175 207 255
175 207 255
175 207 255
175 207 255
174 207 255
174 207 255
174 207 255
174 207 255
174 207 255
174 207 255
174 207 255
174 207 255
174 207 255
174 206 255
174 206 255
174 206 255
174 206 255
174 206 255
173 206 255
173 206 255
173 206 255
173 206 255
173 206 255
173 206 255
173 206 255
173 206 255
173 206 255
173 206 255
173 206 255
173 206 255
173 206 255
172 206 255
172 206 255
172 206 255
172 206 255
172 205 255
172 205 255
172 205 255
172 205 255
172 205 255
172 205 255
172 205 255
172 205 255
172 205 255
171 205 255
171 205 255
171 205 255
171 205 255
171 205 255
171 205 255
171 205 255
171 205 255
171 205 255
171 205 255
171 205 255
171 205 255
170 204 255
170 204 255
170 204 255
170 204 255
170 204 255
170 204 255
170 204 255
170 204 255
170 204 255
170 204 255
170 204 255
170 204 255
169 204 255
169 204 255
169 204 255
169 204 255
169 204 255
169 204 255
169 204 255
169 204 255
169 203 255
169 203 255
169 203 255
169 203 255
168 203 255
168 203 255
168 203 255
168 203 255
168 203 255
168 203 255
168 203 255
168 203 255
168 203 255
168 203 255
168 203 255
168 203 255
168 203 255
167 203 255
167 203 255
167 203 255
167 203 255
167 202 255
167 202 255
167 202 255
167 202 255
167 202 255
167 202 255
167 202 255
167 202 255
167 202 255
167 202 255
166 202 255
166 202 255
166 202 255
166 202 255
166 202 255
166 202 255
166 202 255
166 202 255
152 186 236
101 123 156
79 97 122
79 96 121
82 99 124
85 101 126
81 98 124
82 99 123
80 96 120
82 99 125
81 98 124
77 94 120
80 96 121
79 96 120
81 98 124
82 99 123
81 98 123
79 96 121
80 97 121
80 97 122
79 97 124
81 98 123
79 97 123
79 96 122
80 97 122
82 99 123
78 94 119
81 97 122
80 97 123
78 95 121
79 96 121
79 96 121
76 94 120
81 98 123
78 94 119
79 96 121
81 96 119
79 96 121
78 95 120
77 94 121
81 97 121
76 93 117
77 93 117
80 96 120
80 97 123
80 96 120
79 96 120
81 97 121
80 96 120
78 94 119
80 96 118
76 94 121
82 98 124
81 97 121
77 95 121
79 96 122
81 98 124
78 94 118
79 95 120
78 95 120
78 95 121
80 97 121
82 98 123
78 96 121
83 99 123
81 97 121
82 99 125
82 98 121
78 95 120
82 99 125
79 96 121
80 98 123
82 99 124
76 94 120
83 99 124
83 100 125
82 98 122
81 98 124
96 117 149
149 181 229
166 202 255
166 202 255
166 202 255
166 202 255
166 202 255
166 202 255
166 202 255
166 202 255
167 202 255
167 202 255
167 202 255
167 202 255
167 202 255
167 202 255
167 202 255
167 202 255
167 202 255
167 202 255
167 203 255
167 203 255
167 203 255
167 203 255
168 203 255
168 203 255
168 203 255
168 203 255
168 203 255
168 203 255
168 203 255
168 203 255
168 203 255
168 203 255
168 203 255
168 203 255
168 203 255
169 203 255
169 203 255
169 203 255
169 203 255
169 204 255
169 204 255
169 204 255
169 204 255
169 204 255
169 204 255
169 204 255
169 204 255
170 204 255
170 204 255
170 204 255
170 204 255
170 204 255
170 204 255
170 204 255
170 204 255
170 204 255
170 204 255
170 204 255
170 204 255
171 205 255
171 205 255
171 205 255
171 205 255
171 205 255
171 205 255
171 205 255
171 205 255
171 205 255
171 205 255
171 205 255
171 205 255
172 205 255
172 205 255
172 205 255
172 205 255
172 205 255
172 205 255
172 205 255
172 205 255
172 206 255
172 206 255
172 206 255
172 206 255
172 206 255
173 206 255
173 206 255
173 206 255
173 206 255
173 206 255
173 206 255
173 206 255
173 206 255
173 206 255
173 206 255
173 206 255
173 206 255
173 206 255
174 206 255
174 206 255
174 206 255
174 206 255
174 207 255
174 207 255
174 207 255
174 207 255
174 207 255
174 207 255
174 207 255
174 207 255
174 207 255
174 207 255
174 207 255
175 207 255
175 207 255
175 207 255
175 207 255
175 207 255
175 207 255
175 207 255
175 207 255
175 207 255
175 207 255
175 207 255
175 207 255
175 207 255
175 207 255
175 207 255
176 208 255
176 208 255
176 208 255
176 208 255
176 208 255
176 208 255
176 208 255
176 208 255
176 208 255
176 208 255
176 208 255
176 208 255
176 208 255
176 208 255
176 208 255
176 208 255
176 208 255
177 208 255
177 208 255
177 208 255
177 208 255
177 208 255
177 208 255
177 208 255
177 208 255
177 208 255
177 208 255
177 208 255
177 208 255
177 209 255
177 209 255
177 209 255
177 209 255
178 209 255
178 209 255
177 209 255
177 209 255
177 209 255
177 209 255
177 209 255
177 209 255
177 209 255
177 208 255
177 208 255
177 208 255
177 208 255
177 208 255
177 208 255
177 208 255
177 208 255
177 208 255
177 208 255
177 208 255
177 208 255
176 208 255
176 208 255
176 208 255
176 208 255
176 208 255
176 208 255
176 208 255
176 208 255
176 208 255
176 208 255
176 208 255
176 208 255
176 208 255
176 208 255
176 208 255
176 208 255
176 208 255
175 207 255
175 207 255
175 207 255
175 207 255
175 207 255
175 207 255
175 207 255
175 207 255
175 207 255
175 207 255
175 207 255
175 207 255
175 207 255
175 207 255
175 207 255
174 207 255
174 207 255
174 207 255
174 207 255
174 207 255
174 207 255
174 207 255
174 207 255
174 207 255
174 206 255
174 206 255
174 206 255
174 206 255
174 206 255
173 206 255
173 206 255
173 206 255
173 206 255
173 206 255
173 206 255
173 206 255
173 206 255
173 206 255
173 206 255
173 206 255
173 206 255
173 206 255
173 206 255
172 206 255
172 206 255
172 206 255
172 206 255
172 205 255
172 205 255
172 205 255
172 205 255
172 205 255
172 205 255
172 205 255
172 205 255
171 205 255
171 205 255
171 205 255
171 205 255
171 205 255
171 205 255
171 205 255
171 205 255
171 205 255
171 205 255
171 205 255
171 205 255
171 205 255
170 204 255
170 204 255
170 204 255
170 204 255
170 204 255
170 204 255
170 204 255
170 204 255
170 204 255
170 204 255
170 204 255
170 204 255
169 204 255
169 204 255
169 204 255
169 204 255
169 204 255
169 204 255
169 204 255
169 204 255
169 203 255
169 203 255
169 203 255
169 203 255
168 203 255
168 203 255
168 203 255
168 203 255
168 203 255
168 203 255
168 203 255
168 203 255
168 203 255
168 203 255
168 203 255
168 203 255
168 203 255
167 203 255
167 203 255
167 203 255
167 203 255
167 203 255
167 202 255
167 202 255
167 202 255
167 202 255
167 202 255
167 202 255
167 202 255
167 202 255
167 202 255
167 202 255
166 202 255
144 175 222
83 101 128
81 98 122
79 96 122
83 99 124
79 96 121
79 96 120
79 96 120
79 96 122
81 97 122
82 99 124
78 95 119
80 97 123
80 96 120
80 96 120
81 97 121
81 98 124
80 96 120
83 100 124
75 92 117
78 95 120
78 95 121
77 93 117
81 98 123
80 95 118
80 96 122
80 97 123
77 94 120
77 94 119
81 98 123
76 92 117
80 96 121
80 96 120
77 93 118
78 95 121
78 95 120
79 96 122
80 95 119
78 95 121
81 97 120
82 98 122
80 96 121
80 98 124
78 95 120
79 95 120
78 94 120
77 95 122
76 92 115
79 96 122
79 95 120
83 99 123
80 97 122
78 95 120
82 98 122
81 97 120
79 95 120
74 92 118
82 98 122
76 92 116
82 98 122
78 95 121
79 96 122
78 94 119
78 95 120
81 97 122
81 97 122
78 95 120
78 95 120
80 97 122
79 96 122
80 97 124
77 93 118
82 98 124
82 99 124
81 98 123
80 96 121
80 96 120
79 98 125
83 99 124
82 99 126
84 102 128
144 174 219
166 202 255
167 202 255
167 202 255
167 202 255
167 202 255
167 202 255
167 202 255
167 202 255
167 202 255
167 202 255
167 202 255
167 203 255
167 203 255
167 203 255
167 203 255
167 203 255
168 203 255
168 203 255
168 203 255
168 203 255
168 203 255
168 203 255
168 203 255
168 203 255
168 203 255
168 203 255
168 203 255
168 203 255
168 203 255
169 203 255
169 203 255
169 203 255
169 203 255
169 204 255
169 204 255
169 204 255
169 204 255
169 204 255
169 204 255
169 204 255
169 204 255
170 204 255
170 204 255
170 204 255
170 204 255
170 204 255
170 204 255
170 204 255
170 204 255
170 204 255
170 204 255
170 204 255
170 204 255
171 205 255
171 205 255
171 205 255
171 205 255
171 205 255
171 205 255
171 205 255
171 205 255
171 205 255
171 205 255
171 205 255
171 205 255
171 205 255
172 205 255
172 205 255
172 205 255
172 205 255
172 205 255
172 205 255
172 205 255
172 205 255
172 206 255
172 206 255
172 206 255
172 206 255
173 206 255
173 206 255
173 206 255
173 206 255
173 206 255
173 206 255
173 206 255
173 206 255
173 206 255
173 206 255
173 206 255
173 206 255
173 206 255
173 206 255
174 206 255
174 206 255
174 206 255
174 206 255
174 207 255
174 207 255
174 207 255
174 207 255
174 207 255
174 207 255
174 207 255
174 207 255
174 207 255
174 207 255
175 207 255
175 207 255
175 207 255
175 207 255
175 207 255
175 207 255
175 207 255
175 207 255
175 207 255
175 207 255
175 207 255
175 207 255
175 207 255
175 207 255
175 207 255
176 208 255
176 208 255
176 208 255
176 208 255
176 208 255
176 208 255
176 208 255
176 208 255
176 208 255
176 208 255
176 208 255
176 208 255
176 208 255
176 208 255
176 208 255
176 208 255
176 208 255
177 208 255
177 208 255
177 208 255
177 208 255
177 208 255
177 208 255
177 208 255
177 208 255
177 208 255
177 208 255
177 208 255
177 208 255
177 209 255
177 209 255
177 209 255
177 209 255
177 209 255
177 209 255
178 209 255
178 209 255
178 209 255
178 209 255
178 209 255
178 209 255
178 209 255
178 209 255
178 209 255
178 209 255
177 209 255
177 209 255
177 209 255
177 209 255
177 209 255
177 209 255
177 209 255
177 208 255
177 208 255
177 208 255
177 208 255
177 208 255
177 208 255
177 208 255
177 208 255
177 208 255
177 208 255
177 208 255
177 208 255
176 208 255
176 208 255
176 208 255
176 208 255
176 208 255
176 208 255
176 208 255
176 208 255
176 208 255
176 208 255
176 208 255
176 208 255
176 208 255
176 208 255
176 208 255
176 208 255
175 207 255
175 207 255
175 207 255
175 207 255
175 207 255
175 207 255
175 207 255
175 207 255
175 207 255
175 207 255
175 207 255
175 207 255
175 207 255
175 207 255
175 207 255
174 207 255
174 207 255
174 207 255
174 207 255
174 207 255
174 207 255
174 207 255
174 207 255
174 207 255
174 207 255
174 206 255
174 206 255
174 206 255
174 206 255
174 206 255
173 206 255
173 206 255
173 206 255
173 206 255
173 206 255
173 206 255
173 206 255
173 206 255
173 206 255
173 206 255
173 206 255
173 206 255
173 206 255
172 206 255
172 206 255
172 206 255
172 206 255
172 206 255
172 205 255
172 205 255
172 205 255
172 205 255
172 205 255
172 205 255
172 205 255
172 205 255
171 205 255
171 205 255
171 205 255
171 205 255
171 205 255
171 205 255
171 205 255
171 205 255
171 205 255
171 205 255
171 205 255
171 205 255
170 204 255
170 204 255
170 204 255
170 204 255
170 204 255
170 204 255
170 204 255
170 204 255
170 204 255
170 204 255
170 204 255
170 204 255
170 204 255
169 204 255
169 204 255
169 204 255
169 204 255
169 204 255
169 204 255
169 204 255
169 204 255
169 203 255
169 203 255
169 203 255
169 203 255
168 203 255
168 203 255
168 203 255
168 203 255
168 203 255
168 203 255
168 203 255
168 203 255
168 203 255
168 203 255
168 203 255
168 203 255
168 203 255
168 203 255
167 203 255
167 203 255
167 203 255
167 203 255
167 203 255
167 202 255
167 202 255
167 202 255
166 201 254
122 146 183
83 101 127
77 93 118
82 99 124
79 96 121
77 95 121
81 98 124
83 100 125
83 100 125
82 98 123
80 97 123
82 97 121
81 96 120
80 96 121
78 95 121
77 94 121
78 95 120
81 98 122
78 95 121
78 94 120
77 93 118
78 94 119
76 94 120
78 95 120
82 99 124
78 95 121
80 96 119
79 95 118
79 95 120
78 94 119
75 91 116
79 96 121
79 95 119
82 99 124
74 91 116
80 96 120
81 97 123
80 97 122
79 96 121
76 93 117
78 94 118
78 95 120
81 97 121
78 94 119
75 92 117
79 96 120
79 95 121
79 96 121
79 95 119
81 99 125
80 97 123
78 94 119
78 96 122
79 95 119
77 93 119
78 95 121
78 95 119
80 97 123
78 94 119
81 97 120
76 92 116
80 95 119
80 96 121
80 97 121
82 99 123
78 95 120
81 97 121
81 98 124
80 95 119
81 97 121
82 99 124
79 96 123
80 97 123
79 96 122
78 95 120
78 94 119
81 97 122
81 99 125
78 95 120
79 96 122
82 98 123
82 99 124
83 101 126
127 153 192
167 202 255
167 202 255
167 202 255
167 202 255
167 203 255
167 203 255
167 203 255
167 203 255
167 203 255
167 203 255
168 203 255
168 203 255
168 203 255
168 203 255
168 203 255
168 203 255
168 203 255
168 203 255
168 203 255
168 203 255
168 203 255
168 203 255
168 203 255
169 203 255
169 203 255
169 203 255
169 203 255
169 204 255
169 204 255
169 204 255
169 204 255
169 204 255
169 204 255
169 204 255
169 204 255
170 204 255
170 204 255
170 204 255
170 204 255
170 204 255
170 204 255
170 204 255
170 204 255
170 204 255
170 204 255
170 204 255
170 204 255
170 204 255
171 205 255
171 205 255
171 205 255
171 205 255
171 205 255
171 205 255
171 205 255
171 205 255
171 205 255
171 205 255
171 205 255
171 205 255
172 205 255
172 205 255
172 205 255
172 205 255
172 205 255
172 205 255
172 205 255
172 205 255
172 206 255
172 206 255
172 206 255
172 206 255
172 206 255
173 206 255
173 206 255
173 206 255
173 206 255
173 206 255
173 206 255
173 206 255
173 206 255
173 206 255
173 206 255
173 206 255
173 206 255
173 206 255
174 206 255
174 206 255
174 206 255
174 206 255
174 206 255
174 207 255
174 207 255
174 207 255
174 207 255
174 207 255
174 207 255
174 207 255
174 207 255
174 207 255
175 207 255
175 207 255
175 207 255
175 207 255
175 207 255
175 207 255
175 207 255
175 207 255
175 207 255
175 207 255
175 207 255
175 207 255
175 207 255
175 207 255
175 207 255
176 208 255
176 208 255
176 208 255
176 208 255
176 208 255
176 208 255
176 208 255
176 208 255
176 208 255
176 208 255
176 208 255
176 208 255
176 208 255
176 208 255
176 208 255
176 208 255
176 208 255
177 208 255
177 208 255
177 208 255
177 208 255
177 208 255
177 208 255
177 208 255
177 208 255
177 208 255
177 208 255
177 208 255
177 208 255
177 209 255
177 209 255
177 209 255
177 209 255
177 209 255
177 209 255
178 209 255
178 209 255
178 209 255
178 209 255
178 209 255
178 209 255
178 209 255
178 209 255
178 209 255
178 209 255
178 209 255
178 209 255
178 209 255
178 209 255
178 209 255
178 209 255
178 209 255
178 209 255
178 209 255
178 209 255
178 209 255
177 209 255
177 209 255
177 209 255
177 209 255
177 209 255
177 209 255
177 208 255
177 208 255
177 208 255
177 208 255
177 208 255
177 208 255
177 208 255
177 208 255
177 208 255
177 208 255
177 208 255
177 208 255
176 208 255
176 208 255
176 208 255
176 208 255
176 208 255
176 208 255
176 208 255
176 208 255
176 208 255
176 208 255
176 208 255
176 208 255
176 208 255
176 208 255
176 208 255
176 208 255
175 207 255
175 207 255
175 207 255
175 207 255
175 207 255
175 207 255
175 207 255
175 207 255
175 207 255
175 207 255
175 207 255
175 207 255
175 207 255
175 207 255
175 207 255
174 207 255
174 207 255
174 207 255
174 207 255
174 207 255
174 207 255
174 207 255
174 207 255
174 207 255
174 207 255
174 206 255
174 206 255
174 206 255
174 206 255
174 206 255
173 206 255
173 206 255
173 206 255
173 206 255
173 206 255
173 206 255
173 206 255
173 206 255
173 206 255
173 206 255
173 206 255
173 206 255
173 206 255
172 206 255
172 206 255
172 206 255
172 206 255
172 205 255
172 205 255
172 205 255
172 205 255
172 205 255
172 205 255
172 205 255
172 205 255
171 205 255
171 205 255
171 205 255
171 205 255
171 205 255
171 205 255
171 205 255
171 205 255
171 205 255
171 205 255
171 205 255
171 205 255
171 205 255
170 204 255
170 204 255
170 204 255
170 204 255
170 204 255
170 204 255
170 204 255
170 204 255
170 204 255
170 204 255
170 204 255
170 204 255
169 204 255
169 204 255
169 204 255
169 204 255
169 204 255
169 204 255
169 204 255
169 204 255
169 204 255
169 203 255
169 203 255
169 203 255
169 203 255
168 203 255
168 203 255
168 203 255
168 203 255
168 203 255
168 203 255
168 203 255
168 203 255
168 203 255
168 203 255
168 203 255
168 203 255
168 203 255
168 203 255
168 203 255
167 203 255
166 201 253
111 134 169
81 99 126
79 96 122
80 97 124
77 94 119
81 98 124
80 98 124
78 95 121
79 96 120
78 96 123
78 95 120
79 96 123
80 97 121
76 94 119
80 96 120
78 95 120
77 93 118
78 94 119
76 92 115
79 95 119
76 93 118
78 95 120
77 94 118
78 95 120
81 98 123
74 91 115
81 98 123
78 94 118
82 99 124
75 89 111
77 94 119
81 97 120
78 95 119
79 95 119
80 96 122
78 94 117
80 96 119
77 93 117
82 98 122
76 92 118
77 93 116
81 98 122
78 93 116
76 93 120
81 96 119
77 92 115
81 97 122
78 94 118
77 93 117
81 98 123
80 95 118
83 99 123
80 96 120
77 93 118
77 93 117
80 96 121
77 94 119
79 96 120
76 93 118
75 92 119
80 96 120
76 94 119
79 96 123
78 95 120
78 95 119
80 97 122
77 93 118
76 92 116
78 93 117
79 95 118
79 96 121
79 96 120
80 97 121
80 96 120
75 92 117
76 94 120
78 95 120
79 96 123
78 96 122
80 95 118
78 95 121
81 97 121
82 99 124
83 99 124
81 98 125
118 143 181
166 201 253
167 203 255
168 203 255
168 203 255
168 203 255
168 203 255
168 203 255
168 203 255
168 203 255
168 203 255
168 203 255
168 203 255
168 203 255
168 203 255
168 203 255
168 203 255
169 203 255
169 203 255
169 203 255
169 203 255
169 203 255
169 204 255
169 204 255
169 204 255
169 204 255
169 204 255
169 204 255
169 204 255
169 204 255
169 204 255
170 204 255
170 204 255
170 204 255
170 204 255
170 204 255
170 204 255
170 204 255
170 204 255
170 204 255
170 204 255
170 204 255
170 204 255
171 205 255
171 205 255
171 205 255
171 205 255
171 205 255
171 205 255
171 205 255
171 205 255
171 205 255
171 205 255
171 205 255
171 205 255
171 205 255
172 205 255
172 205 255
172 205 255
172 205 255
172 205 255
172 205 255
172 205 255
172 205 255
172 206 255
172 206 255
172 206 255
172 206 255
173 206 255
173 206 255
173 206 255
173 206 255
173 206 255
173 206 255
173 206 255
173 206 255
173 206 255
173 206 255
173 206 255
173 206 255
173 206 255
173 206 255
174 206 255
174 206 255
174 206 255
174 206 255
174 206 255
174 207 255
174 207 255
174 207 255
174 207 255
174 207 255
174 207 255
174 207 255
174 207 255
174 207 255
175 207 255
175 207 255
175 207 255
175 207 255
175 207 255
175 207 255
175 207 255
175 207 255
175 207 255
175 207 255
175 207 255
175 207 255
175 207 255
175 207 255
175 207 255
176 208 255
176 208 255
176 208 255
176 208 255
176 208 255
176 208 255
176 208 255
176 208 255
176 208 255
176 208 255
176 208 255
176 208 255
176 208 255
176 208 255
176 208 255
176 208 255
177 208 255
177 208 255
177 208 255
177 208 255
177 208 255
177 208 255
177 208 255
177 208 255
177 208 255
177 208 255
177 208 255
177 208 255
177 209 255
177 209 255
177 209 255
177 209 255
177 209 255
177 209 255
177 209 255
178 209 255
178 209 255
178 209 255
178 209 255
178 209 255
178 209 255
178 209 255
178 209 255
178 209 255
178 209 255
178 209 255
178 209 255
178 209 255
178 209 255
178 209 255
178 209 255
178 209 255
178 209 255
178 209 255
178 209 255
178 209 255
178 209 255
178 209 255
178 209 255
178 209 255
178 209 255
178 209 255
178 209 255
178 209 255
178 209 255
177 209 255
177 209 255
177 209 255
177 209 255
177 209 255
177 209 255
177 208 255
177 208 255
177 208 255
177 208 255
177 208 255
177 208 255
177 208 255
177 208 255
177 208 255
177 208 255
177 208 255
177 208 255
176 208 255
176 208 255
176 208 255
176 208 255
176 208 255
176 208 255
176 208 255
176 208 255
176 208 255
176 208 255
176 208 255
176 208 255
176 208 255
176 208 255
176 208 255
176 208 255
175 207 255
175 207 255
175 207 255
175 207 255
175 207 255
175 207 255
175 207 255
175 207 255
175 207 255
175 207 255
175 207 255
175 207 255
175 207 255
175 207 255
175 207 255
174 207 255
174 207 255
174 207 255
174 207 255
174 207 255
174 207 255
174 207 255
174 207 255
174 207 255
174 206 255
174 206 255
174 206 255
174 206 255
174 206 255
173 206 255
173 206 255
173 206 255
173 206 255
173 206 255
173 206 255
173 206 255
173 206 255
173 206 255
173 206 255
173 206 255
173 206 255
173 206 255
172 206 255
172 206 255
172 206 255
172 206 255
172 206 255
172 205 255
172 205 255
172 205 255
172 205 255
172 205 255
172 205 255
172 205 255
172 205 255
171 205 255
171 205 255
171 205 255
171 205 255
171 205 255
171 205 255
171 205 255
171 205 255
171 205 255
171 205 255
171 205 255
171 205 255
171 205 255
170 204 255
170 204 255
170 204 255
170 204 255
170 204 255
170 204 255
170 204 255
170 204 255
170 204 255
170 204 255
170 204 255
170 204 255
170 204 255
169 204 255
169 204 255
169 204 255
169 204 255
169 204 255
169 204 255
169 204 255
169 204 255
169 204 255
169 203 255
169 203 255
169 203 255
169 203 255
168 203 255
168 203 255
168 203 255
168 203 255
168 203 255
168 203 255
168 203 255
168 203 255
168 203 255
164 199 250
105 127 160
81 97 122
79 96 121
82 98 122
77 95 120
80 97 123
80 97 122
82 99 124
82 98 123
80 96 121
74 90 115
75 92 116
80 96 120
79 95 119
77 95 120
81 97 120
81 97 122
78 94 119
82 98 123
81 97 121
82 99 124
80 96 121
82 98 123
75 92 118
79 94 118
79 96 121
77 93 117
77 94 120
80 97 122
78 95 121
78 96 123
78 94 118
76 91 115
76 93 117
75 91 116
80 97 122
77 94 119
82 97 120
78 95 120
77 94 120
77 94 119
81 97 122
78 93 117
79 96 121
78 94 118
80 98 124
81 97 120
81 97 122
80 96 120
80 95 118
76 92 117
78 94 118
76 93 120
80 97 122
78 94 119
76 92 115
79 95 119
79 95 119
76 94 120
75 92 118
76 92 118
81 98 123
80 97 122
76 92 116
80 96 121
77 93 117
78 96 121
80 96 121
77 95 121
80 97 122
82 98 120
80 97 122
80 96 121
81 97 121
80 97 122
79 95 119
80 96 121
78 95 120
77 92 116
77 94 119
79 97 124
85 101 125
78 95 121
79 97 123
81 97 123
81 98 124
79 96 122
102 124 158
164 199 250
168 203 255
168 203 255
168 203 255
168 203 255
168 203 255
168 203 255
168 203 255
168 203 255
168 203 255
169 203 255
169 203 255
169 203 255
169 203 255
169 204 255
169 204 255
169 204 255
169 204 255
169 204 255
169 204 255
169 204 255
169 204 255
169 204 255
170 204 255
170 204 255
170 204 255
170 204 255
170 204 255
170 204 255
170 204 255
170 204 255
170 204 255
170 204 255
170 204 255
170 204 255
170 204 255
171 205 255
171 205 255
171 205 255
171 205 255
171 205 255
171 205 255
171 205 255
171 205 255
171 205 255
171 205 255
171 205 255
171 205 255
171 205 255
172 205 255
172 205 255
172 205 255
172 205 255
172 205 255
172 205 255
172 205 255
172 205 255
172 206 255
172 206 255
172 206 255
172 206 255
172 206 255
173 206 255
173 206 255
173 206 255
173 206 255
173 206 255
173 206 255
173 206 255
173 206 255
173 206 255
173 206 255
173 206 255
173 206 255
173 206 255
174 206 255
174 206 255
174 206 255
174 206 255
174 206 255
174 207 255
174 207 255
174 207 255
174 207 255
174 207 255
174 207 255
174 207 255
174 207 255
174 207 255
175 207 255
175 207 255
175 207 255
175 207 255
175 207 255
175 207 255
175 207 255
175 207 255
175 207 255
175 207 255
175 207 255
175 207 255
175 207 255
175 207 255
175 207 255
176 208 255
176 208 255
176 208 255
176 208 255
176 208 255
176 208 255
176 208 255
176 208 255
176 208 255
176 208 255
176 208 255
176 208 255
176 208 255
176 208 255
176 208 255
176 208 255
177 208 255
177 208 255
177 208 255
177 208 255
177 208 255
177 208 255
177 208 255
177 208 255
177 208 255
177 208 255
177 208 255
177 208 255
177 209 255
177 209 255
177 209 255
177 209 255
177 209 255
177 209 255
178 209 255
178 209 255
178 209 255
178 209 255
178 209 255
178 209 255
178 209 255
178 209 255
178 209 255
178 209 255
178 209 255
178 209 255
178 209 255
178 209 255
178 209 255
178 209 255
178 209 255
178 209 255
179 209 255
179 209 255
179 209 255
178 209 255
178 209 255
178 209 255
178 209 255
178 209 255
178 209 255
178 209 255
178 209 255
178 209 255
178 209 255
178 209 255
178 209 255
178 209 255
178 209 255
178 209 255
178 209 255
178 209 255
178 209 255
178 209 255
178 209 255
177 209 255
177 209 255
177 209 255
177 209 255
177 209 255
177 209 255
177 208 255
177 208 255
177 208 255
177 208 255
177 208 255
177 208 255
177 208 255
177 208 255
177 208 255
177 208 255
177 208 255
177 208 255
176 208 255
176 208 255
176 208 255
176 208 255
176 208 255
176 208 255
176 208 255
176 208 255
176 208 255
176 208 255
176 208 255
176 208 255
176 208 255
176 208 255
176 208 255
176 208 255
175 207 255
175 207 255
175 207 255
175 207 255
175 207 255
175 207 255
175 207 255
175 207 255
175 207 255
175 207 255
175 207 255
175 207 255
175 207 255
175 207 255
175 207 255
174 207 255
174 207 255
174 207 255
174 207 255
174 207 255
174 207 255
174 207 255
174 207 255
174 207 255
174 206 255
174 206 255
174 206 255
174 206 255
174 206 255
173 206 255
173 206 255
173 206 255
173 206 255
173 206 255
173 206 255
173 206 255
173 206 255
173 206 255
173 206 255
173 206 255
173 206 255
173 206 255
172 206 255
172 206 255
172 206 255
172 206 255
172 205 255
172 205 255
172 205 255
172 205 255
172 205 255
172 205 255
172 205 255
172 205 255
172 205 255
171 205 255
171 205 255
171 205 255
171 205 255
171 205 255
171 205 255
171 205 255
171 205 255
171 205 255
171 205 255
171 205 255
171 205 255
171 205 255
170 204 255
170 204 255
170 204 255
170 204 255
170 204 255
170 204 255
170 204 255
170 204 255
170 204 255
170 204 255
170 204 255
170 204 255
170 204 255
169 204 255
169 204 255
169 204 255
169 204 255
169 204 255
169 204 255
169 204 255
169 204 255
169 204 255
169 203 255
169 203 255
169 203 255
169 203 255
169 203 255
169 203 255
168 203 255
160 193 243
109 131 165
80 96 119
84 101 127
78 95 120
80 97 121
82 98 122
77 95 122
82 98 121
81 98 125
80 97 124
80 96 120
79 95 120
82 98 120
82 98 123
81 96 120
77 93 119
79 96 120
80 97 123
76 93 118
78 95 121
78 94 119
78 94 120
79 95 120
79 95 120
79 95 118
81 97 121
78 96 122
79 95 121
78 94 118
82 98 122
82 98 122
75 92 119
78 94 119
79 95 119
79 94 116
78 94 118
76 92 116
81 97 120
76 93 119
80 97 122
76 93 118
77 94 121
76 92 116
78 94 119
79 95 119
80 96 120
78 96 122
80 96 121
77 94 119
77 93 117
80 96 119
77 93 116
77 94 120
77 95 122
75 92 116
75 91 116
79 95 118
78 95 119
77 94 119
79 96 122
79 95 119
78 94 118
79 96 121
76 93 118
78 94 119
76 93 118
78 94 119
77 93 116
78 94 117
79 96 122
76 92 117
79 95 121
79 95 120
80 97 122
79 95 120
77 95 121
80 96 120
83 100 125
79 94 118
76 92 116
81 98 123
80 96 120
77 94 120
80 96 119
79 94 118
80 96 120
79 96 121
80 97 122
79 96 120
106 128 161
158 191 240
168 203 255
169 203 255
169 203 255
169 203 255
169 203 255
169 203 255
169 204 255
169 204 255
169 204 255
169 204 255
169 204 255
169 204 255
169 204 255
169 204 255
169 204 255
169 204 255
170 204 255
170 204 255
170 204 255
170 204 255
170 204 255
170 204 255
170 204 255
170 204 255
170 204 255
170 204 255
170 204 255
170 204 255
170 204 255
171 205 255
171 205 255
171 205 255
171 205 255
171 205 255
171 205 255
171 205 255
171 205 255
171 205 255
171 205 255
171 205 255
171 205 255
171 205 255
172 205 255
172 205 255
172 205 255
172 205 255
172 205 255
172 205 255
172 205 255
172 205 255
172 206 255
172 206 255
172 206 255
172 206 255
172 206 255
173 206 255
173 206 255
173 206 255
173 206 255
173 206 255
173 206 255
173 206 255
173 206 255
173 206 255
173 206 255
173 206 255
173 206 255
173 206 255
174 206 255
174 206 255
174 206 255
174 206 255
174 206 255
174 207 255
174 207 255
174 207 255
174 207 255
174 207 255
174 207 255
174 207 255
174 207 255
174 207 255
175 207 255
175 207 255
175 207 255
175 207 255
175 207 255
175 207 255
175 207 255
175 207 255
175 207 255
175 207 255
175 207 255
175 207 255
175 207 255
175 207 255
175 207 255
176 208 255
176 208 255
176 208 255
176 208 255
176 208 255
176 208 255
176 208 255
176 208 255
176 208 255
176 208 255
176 208 255
176 208 255
176 208 255
176 208 255
176 208 255
176 208 255
177 208 255
177 208 255
177 208 255
177 208 255
177 208 255
177 208 255
177 208 255
177 208 255
177 208 255
177 208 255
177 208 255
177 208 255
177 209 255
177 209 255
177 209 255
177 209 255
177 209 255
177 209 255
178 209 255
178 209 255
178 209 255
178 209 255
178 209 255
178 209 255
178 209 255
178 209 255
178 209 255
178 209 255
178 209 255
178 209 255
178 209 255
178 209 255
178 209 255
178 209 255
178 209 255
178 209 255
178 209 255
178 209 255
179 209 255
179 209 255
179 209 255
179 210 255
179 210 255
179 209 255
179 209 255
179 209 255
179 209 255
179 209 255
179 209 255
179 209 255
178 209 255
178 209 255
178 209 255
178 209 255
178 209 255
178 209 255
178 209 255
178 209 255
178 209 255
178 209 255
178 209 255
178 209 255
178 209 255
178 209 255
178 209 255
178 209 255
178 209 255
178 209 255
178 209 255
177 209 255
177 209 255
177 209 255
177 209 255
177 209 255
177 209 255
177 208 255
177 208 255
177 208 255
177 208 255
177 208 255
177 208 255
177 208 255
177 208 255
177 208 255
177 208 255
177 208 255
177 208 255
176 208 255
176 208 255
176 208 255
176 208 255
176 208 255
176 208 255
176 208 255
176 208 255
176 208 255
176 208 255
176 208 255
176 208 255
176 208 255
176 208 255
176 208 255
176 208 255
175 207 255
175 207 255
175 207 255
175 207 255
175 207 255
175 207 255
175 207 255
175 207 255
175 207 255
175 207 255
175 207 255
175 207 255
175 207 255
175 207 255
174 207 255
174 207 255
174 207 255
174 207 255
174 207 255
174 207 255
174 207 255
174 207 255
174 207 255
174 207 255
174 206 255
174 206 255
174 206 255
174 206 255
174 206 255
173 206 255
173 206 255
173 206 255
173 206 255
173 206 255
173 206 255
173 206 255
173 206 255
173 206 255
173 206 255
173 206 255
173 206 255
173 206 255
172 206 255
172 206 255
172 206 255
172 206 255
172 205 255
172 205 255
172 205 255
172 205 255
172 205 255
172 205 255
172 205 255
172 205 255
172 205 255
171 205 255
171 205 255
171 205 255
171 205 255
171 205 255
171 205 255
171 205 255
171 205 255
171 205 255
171 205 255
171 205 255
171 205 255
171 205 255
170 204 255
170 204 255
170 204 255
170 204 255
170 204 255
170 204 255
170 204 255
170 204 255
170 204 255
170 204 255
170 204 255
170 204 255
170 204 255
170 204 255
169 204 255
169 204 255
169 204 255
169 204 255
169 204 255
169 204 255
169 204 255
169 204 255
169 204 255
166 200 251
101 123 156
78 95 120
80 97 123
80 96 122
80 97 123
79 96 121
79 96 120
81 98 123
79 95 120
80 97 122
83 98 121
78 94 119
79 94 118
75 91 115
79 95 120
80 97 121
79 95 119
81 97 121
76 92 116
77 93 118
81 97 120
77 94 120
79 94 117
77 94 119
77 93 118
77 94 118
80 96 120
78 94 118
77 93 117
78 94 118
78 94 119
77 93 118
77 94 120
81 97 120
80 97 122
76 92 117
79 95 120
80 97 122
78 93 116
80 96 120
79 95 120
78 95 120
78 94 119
78 95 119
82 98 123
78 95 122
79 93 115
77 94 119
77 94 118
77 94 120
75 92 117
74 91 117
78 96 122
79 96 121
77 92 114
81 97 122
81 98 122
77 94 119
83 99 124
78 95 120
75 92 117
76 93 118
76 92 116
77 94 120
79 96 121
76 92 117
78 94 119
77 93 116
75 93 119
77 95 121
76 93 118
77 92 116
77 92 114
79 95 120
78 95 120
80 97 122
76 93 118
79 96 121
81 97 122
79 95 120
79 95 120
81 97 120
78 94 119
76 93 118
76 92 116
79 96 121
83 99 123
76 92 116
80 97 122
77 95 122
80 98 123
96 117 148
161 194 243
169 204 255
169 204 255
169 204 255
169 204 255
169 204 255
169 204 255
169 204 255
169 204 255
169 204 255
170 204 255
170 204 255
170 204 255
170 204 255
170 204 255
170 204 255
170 204 255
170 204 255
170 204 255
170 204 255
170 204 255
170 204 255
170 204 255
170 204 255
171 205 255
171 205 255
171 205 255
171 205 255
171 205 255
171 205 255
171 205 255
171 205 255
171 205 255
171 205 255
171 205 255
171 205 255
171 205 255
172 205 255
172 205 255
172 205 255
172 205 255
172 205 255
172 205 255
172 205 255
172 205 255
172 205 255
172 206 255
172 206 255
172 206 255
172 206 255
173 206 255
173 206 255
173 206 255
173 206 255
173 206 255
173 206 255
173 206 255
173 206 255
173 206 255
173 206 255
173 206 255
173 206 255
173 206 255
174 206 255
174 206 255
174 206 255
174 206 255
174 206 255
174 207 255
174 207 255
174 207 255
174 207 255
174 207 255
174 207 255
174 207 255
174 207 255
174 207 255
175 207 255
175 207 255
175 207 255
175 207 255
175 207 255
175 207 255
175 207 255
175 207 255
175 207 255
175 207 255
175 207 255
175 207 255
175 207 255
175 207 255
175 207 255
176 208 255
176 208 255
176 208 255
176 208 255
176 208 255
176 208 255
176 208 255
176 208 255
176 208 255
176 208 255
176 208 255
176 208 255
176 208 255
176 208 255
176 208 255
176 208 255
177 208 255
177 208 255
177 208 255
177 208 255
177 208 255
177 208 255
177 208 255
177 208 255
177 208 255
177 208 255
177 208 255
177 208 255
177 209 255
177 209 255
177 209 255
177 209 255
177 209 255
177 209 255
178 209 255
178 209 255
178 209 255
178 209 255
178 209 255
178 209 255
178 209 255
178 209 255
178 209 255
178 209 255
178 209 255
178 209 255
178 209 255
178 209 255
178 209 255
178 209 255
178 209 255
178 209 255
178 209 255
179 209 255
179 209 255
179 209 255
179 209 255
179 209 255
179 209 255
179 209 255
179 210 255
179 210 255
179 210 255
179 210 255
179 210 255
179 210 255
179 210 255
179 210 255
179 210 255
179 210 255
179 209 255
179 209 255
179 209 255
179 209 255
179 209 255
179 209 255
178 209 255
178 209 255
178 209 255
178 209 255
178 209 255
178 209 255
178 209 255
178 209 255
178 209 255
178 209 255
178 209 255
178 209 255
178 209 255
178 209 255
178 209 255
178 209 255
178 209 255
178 209 255
178 209 255
178 209 255
177 209 255
177 209 255
177 209 255
177 209 255
177 209 255
177 209 255
177 208 255
177 208 255
177 208 255
177 208 255
177 208 255
177 208 255
177 208 255
177 208 255
177 208 255
177 208 255
177 208 255
176 208 255
176 208 255
176 208 255
176 208 255
176 208 255
176 208 255
176 208 255
176 208 255
176 208 255
176 208 255
176 208 255
176 208 255
176 208 255
176 208 255
176 208 255
176 208 255
175 207 255
175 207 255
175 207 255
175 207 255
175 207 255
175 207 255
175 207 255
175 207 255
175 207 255
175 207 255
175 207 255
175 207 255
175 207 255
175 207 255
175 207 255
174 207 255
174 207 255
174 207 255
174 207 255
174 207 255
174 207 255
174 207 255
174 207 255
174 207 255
174 206 255
174 206 255
174 206 255
174 206 255
174 206 255
173 206 255
173 206 255
173 206 255
173 206 255
173 206 255
173 206 255
173 206 255
173 206 255
173 206 255
173 206 255
173 206 255
173 206 255
173 206 255
172 206 255
172 206 255
172 206 255
172 206 255
172 205 255
172 205 255
172 205 255
172 205 255
172 205 255
172 205 255
172 205 255
172 205 255
172 205 255
171 205 255
171 205 255
171 205 255
171 205 255
171 205 255
171 205 255
171 205 255
171 205 255
171 205 255
171 205 255
171 205 255
171 205 255
171 205 255
171 205 255
170 204 255
170 204 255
170 204 255
170 204 255
170 204 255
170 204 255
170 204 255
170 204 255
170 204 255
170 204 255
170 204 255
170 204 255
170 204 255
170 204 255
169 204 255
169 204 255
166 200 250
95 116 146
83 100 125
81 98 123
85 100 122
82 98 122
80 96 120
79 96 122
79 95 120
81 97 122
79 97 123
78 94 119
75 91 115
79 96 121
77 93 117
78 93 116
78 95 119
78 94 119
77 94 119
79 95 119
77 93 118
77 95 121
81 97 122
81 97 121
80 96 120
80 97 122
77 93 119
81 97 122
79 96 120
80 96 120
77 94 120
79 95 118
75 91 116
82 99 124
78 96 121
82 99 123
80 97 123
79 95 118
82 98 121
75 92 118
80 97 123
81 97 121
77 93 118
81 97 122
81 97 122
79 96 121
77 95 120
78 94 119
78 94 118
74 90 114
77 93 117
82 98 122
80 95 119
79 95 120
79 96 122
81 97 120
76 92 116
81 98 123
77 94 118
78 94 118
78 95 121
79 95 120
79 96 122
78 94 118
79 95 119
78 94 119
78 95 119
75 91 116
81 97 122
80 97 121
80 96 121
78 95 119
76 92 117
79 96 121
80 97 123
81 97 121
79 96 120
77 94 120
81 98 124
79 95 119
75 92 118
77 92 115
77 93 119
78 95 120
79 95 120
79 95 120
76 92 116
79 96 120
76 93 119
80 97 122
82 99 124
77 94 120
80 97 123
82 99 125
87 107 136
165 198 248
169 204 255
170 204 255
170 204 255
170 204 255
170 204 255
170 204 255
170 204 255
170 204 255
170 204 255
170 204 255
170 204 255
170 204 255
170 204 255
170 204 255
170 204 255
170 204 255
171 205 255
171 205 255
171 205 255
171 205 255
171 205 255
171 205 255
171 205 255
171 205 255
171 205 255
171 205 255
171 205 255
171 205 255
171 205 255
171 205 255
172 205 255
172 205 255
172 205 255
172 205 255
172 205 255
172 205 255
172 205 255
172 205 255
172 205 255
172 206 255
172 206 255
172 206 255
172 206 255
173 206 255
173 206 255
173 206 255
173 206 255
173 206 255
173 206 255
173 206 255
173 206 255
173 206 255
173 206 255
173 206 255
173 206 255
173 206 255
174 206 255
174 206 255
174 206 255
174 206 255
174 206 255
174 207 255
174 207 255
174 207 255
174 207 255
174 207 255
174 207 255
174 207 255
174 207 255
174 207 255
175 207 255
175 207 255
175 207 255
175 207 255
175 207 255
175 207 255
175 207 255
175 207 255
175 207 255
175 207 255
175 207 255
175 207 255
175 207 255
175 207 255
175 207 255
176 208 255
176 208 255
176 208 255
176 208 255
176 208 255
176 208 255
176 208 255
176 208 255
176 208 255
176 208 255
176 208 255
176 208 255
176 208 255
176 208 255
176 208 255
176 208 255
177 208 255
177 208 255
177 208 255
177 208 255
177 208 255
177 208 255
177 208 255
177 208 255
177 208 255
177 208 255
177 208 255
177 209 255
177 209 255
177 209 255
177 209 255
177 209 255
177 209 255
178 209 255
178 209 255
178 209 255
178 209 255
178 209 255
178 209 255
178 209 255
178 209 255
178 209 255
178 209 255
178 209 255
178 209 255
178 209 255
178 209 255
178 209 255
178 209 255
178 209 255
178 209 255
178 209 255
179 209 255
179 209 255
179 209 255
179 209 255
179 209 255
179 209 255
179 209 255
179 210 255
179 210 255
179 210 255
179 210 255
179 210 255
179 210 255
179 210 255
179 210 255
179 210 255
179 210 255
179 210 255
179 210 255
179 210 255
179 210 255
179 210 255
179 210 255
179 210 255
179 210 255
179 210 255
179 210 255
179 210 255
179 209 255
179 209 255
179 209 255
179 209 255
179 209 255
179 209 255
179 209 255
178 209 255
178 209 255
178 209 255
178 209 255
178 209 255
178 209 255
178 209 255
178 209 255
178 209 255
178 209 255
178 209 255
178 209 255
178 209 255
178 209 255
178 209 255
178 209 255
178 209 255
178 209 255
178 209 255
177 209 255
177 209 255
177 209 255
177 209 255
177 209 255
177 209 255
177 208 255
177 208 255
177 208 255
177 208 255
177 208 255
177 208 255
177 208 255
177 208 255
177 208 255
177 208 255
177 208 255
177 208 255
176 208 255
176 208 255
176 208 255
176 208 255
176 208 255
176 208 255
176 208 255
176 208 255
176 208 255
176 208 255
176 208 255
176 208 255
176 208 255
176 208 255
176 208 255
175 207 255
175 207 255
175 207 255
175 207 255
175 207 255
175 207 255
175 207 255
175 207 255
175 207 255
175 207 255
175 207 255
175 207 255
175 207 255
175 207 255
175 207 255
174 207 255
174 207 255
174 207 255
174 207 255
174 207 255
174 207 255
174 207 255
174 207 255
174 207 255
174 206 255
174 206 255
174 206 255
174 206 255
173 206 255
173 206 255
173 206 255
173 206 255
173 206 255
173 206 255
173 206 255
173 206 255
173 206 255
173 206 255
173 206 255
173 206 255
173 206 255
173 206 255
172 206 255
172 206 255
172 206 255
172 206 255
172 206 255
172 205 255
172 205 255
172 205 255
172 205 255
172 205 255
172 205 255
172 205 255
172 205 255
172 205 255
171 205 255
171 205 255
171 205 255
171 205 255
171 205 255
171 205 255
171 205 255
171 205 255
171 205 255
171 205 255
171 205 255
171 205 255
171 205 255
171 205 255
170 204 255
170 204 255
170 204 255
170 204 255
170 204 255
170 204 255
170 204 255
170 204 255
170 204 255
167 200 251
103 124 155
76 92 117
77 95 121
79 96 121
75 92 117
80 97 122
76 92 116
77 93 118
80 97 123
80 95 119
78 94 118
78 95 120
83 99 124
80 96 121
78 93 117
78 94 118
80 96 119
80 95 118
76 92 116
82 98 122
78 95 120
76 92 117
77 94 120
75 92 118
81 97 121
74 90 115
80 96 119
77 93 118
81 97 121
76 93 119
80 96 120
77 94 119
78 94 117
77 92 115
80 96 120
80 97 122
78 94 118
80 96 121
78 94 118
79 96 120
74 91 116
78 94 118
79 95 120
78 94 119
83 99 123
79 96 121
74 90 113
80 96 120
79 95 120
79 95 119
75 92 117
76 92 115
78 94 118
80 96 119
72 88 112
76 91 115
77 92 115
77 93 117
81 97 122
78 94 119
76 93 118
78 94 119
80 97 122
76 92 116
72 89 114
77 94 119
78 94 118
77 94 118
80 95 117
75 91 116
76 93 119
80 96 120
76 93 117
79 95 120
79 95 118
78 96 123
79 96 120
77 94 120
76 93 119
77 94 119
79 96 121
80 97 124
82 98 121
77 94 118
80 96 121
75 91 117
78 94 119
78 95 120
78 94 118
78 95 120
78 96 123
76 93 119
79 95 119
79 95 120
76 93 118
99 119 148
167 201 252
170 204 255
170 204 255
170 204 255
170 204 255
170 204 255
170 204 255
170 204 255
170 204 255
170 204 255
170 204 255
171 205 255
171 205 255
171 205 255
171 205 255
171 205 255
171 205 255
171 205 255
171 205 255
171 205 255
171 205 255
171 205 255
171 205 255
171 205 255
172 205 255
172 205 255
172 205 255
172 205 255
172 205 255
172 205 255
172 205 255
172 205 255
172 205 255
172 205 255
172 206 255
172 206 255
172 206 255
172 206 255
173 206 255
173 206 255
173 206 255
173 206 255
173 206 255
173 206 255
173 206 255
173 206 255
173 206 255
173 206 255
173 206 255
173 206 255
173 206 255
174 206 255
174 206 255
174 206 255
174 206 255
174 206 255
174 207 255
174 207 255
174 207 255
174 207 255
174 207 255
174 207 255
174 207 255
174 207 255
174 207 255
175 207 255
175 207 255
175 207 255
175 207 255
175 207 255
175 207 255
175 207 255
175 207 255
175 207 255
175 207 255
175 207 255
175 207 255
175 207 255
175 207 255
175 207 255
176 208 255
176 208 255
176 208 255
176 208 255
176 208 255
176 208 255
176 208 255
176 208 255
176 208 255
176 208 255
176 208 255
176 208 255
176 208 255
176 208 255
176 208 255
176 208 255
177 208 255
177 208 255
177 208 255
177 208 255
177 208 255
177 208 255
177 208 255
177 208 255
177 208 255
177 208 255
177 208 255
177 209 255
177 209 255
177 209 255
177 209 255
177 209 255
177 209 255
178 209 255
178 209 255
178 209 255
178 209 255
178 209 255
178 209 255
178 209 255
178 209 255
178 209 255
178 209 255
178 209 255
178 209 255
178 209 255
178 209 255
178 209 255
178 209 255
178 209 255
178 209 255
178 209 255
179 209 255
179 209 255
179 209 255
179 209 255
179 209 255
179 209 255
179 209 255
179 210 255
179 210 255
179 210 255
179 210 255
179 210 255
179 210 255
179 210 255
179 210 255
179 210 255
179 210 255
179 210 255
179 210 255
179 210 255
180 210 255
180 210 255
180 210 255
180 210 255
180 210 255
179 210 255
179 210 255
179 210 255
179 210 255
179 210 255
179 210 255
179 210 255
179 210 255
179 210 255
179 210 255
179 210 255
179 210 255
179 210 255
179 210 255
179 209 255
179 209 255
179 209 255
179 209 255
179 209 255
179 209 255
179 209 255
178 209 255
178 209 255
178 209 255
178 209 255
178 209 255
178 209 255
178 209 255
178 209 255
178 209 255
178 209 255
178 209 255
178 209 255
178 209 255
178 209 255
178 209 255
178 209 255
178 209 255
178 209 255
178 209 255
177 209 255
177 209 255
177 209 255
177 209 255
177 209 255
177 208 255
177 208 255
177 208 255
177 208 255
177 208 255
177 208 255
177 208 255
177 208 255
177 208 255
177 208 255
177 208 255
176 208 255
176 208 255
176 208 255
176 208 255
176 208 255
176 208 255
176 208 255
176 208 255
176 208 255
176 208 255
176 208 255
176 208 255
176 208 255
176 208 255
176 208 255
176 208 255
175 207 255
175 207 255
175 207 255
175 207 255
175 207 255
175 207 255
175 207 255
175 207 255
175 207 255
175 207 255
175 207 255
175 207 255
175 207 255
175 207 255
175 207 255
174 207 255
174 207 255
174 207 255
174 207 255
174 207 255
174 207 255
174 207 255
174 207 255
174 207 255
174 206 255
174 206 255
174 206 255
174 206 255
174 206 255
173 206 255
173 206 255
173 206 255
173 206 255
173 206 255
173 206 255
173 206 255
173 206 255
173 206 255
173 206 255
173 206 255
173 206 255
173 206 255
172 206 255
172 206 255
172 206 255
172 206 255
172 206 255
172 205 255
172 205 255
172 205 255
172 205 255
172 205 255
172 205 255
172 205 255
172 205 255
172 205 255
171 205 255
171 205 255
171 205 255
171 205 255
171 205 255
171 205 255
171 205 255
171 205 255
171 205 255
171 205 255
171 205 255
171 205 255
171 205 255
171 205 255
171 205 255
170 204 255
170 204 255
168 202 253
108 130 164
80 96 121
82 98 122
80 96 121
77 94 120
81 99 124
78 94 118
80 97 123
78 93 116
81 97 122
75 91 114
75 91 116
81 97 122
80 95 119
82 98 123
81 96 120
74 91 116
83 100 125
77 92 115
79 95 120
78 94 119
77 93 117
79 96 120
78 94 119
81 97 122
83 99 122
75 92 116
78 95 120
73 90 115
76 93 119
78 93 116
76 93 117
77 94 119
75 90 114
75 91 115
79 94 116
81 97 120
75 91 114
79 94 117
79 94 117
78 95 119
76 92 117
77 94 119
77 92 115
76 92 117
80 96 120
77 93 116
77 93 118
80 97 121
77 93 117
79 95 120
78 94 118
75 91 115
76 92 116
76 92 115
74 90 114
77 93 118
80 97 122
76 92 116
73 89 113
75 91 116
79 95 120
80 95 117
75 91 116
79 94 118
78 95 119
76 94 120
80 96 122
79 95 120
78 94 117
77 93 118
77 93 116
73 89 113
80 96 119
75 92 117
77 93 117
75 92 117
81 96 119
80 96 120
79 96 122
79 95 120
78 95 120
77 93 118
79 95 120
81 98 123
78 95 119
79 96 120
81 97 121
79 97 124
78 95 120
77 93 117
81 97 120
74 89 112
80 97 123
78 94 119
82 97 120
78 96 122
109 132 166
167 201 251
170 204 255
170 204 255
171 205 255
171 205 255
171 205 255
171 205 255
171 205 255
171 205 255
171 205 255
171 205 255
171 205 255
171 205 255
171 205 255
171 205 255
171 205 255
171 205 255
171 205 255
172 205 255
172 205 255
172 205 255
172 205 255
172 205 255
172 205 255
172 205 255
172 205 255
172 205 255
172 206 255
172 206 255
172 206 255
172 206 255
173 206 255
173 206 255
173 206 255
173 206 255
173 206 255
173 206 255
173 206 255
173 206 255
173 206 255
173 206 255
173 206 255
173 206 255
173 206 255
173 206 255
174 206 255
174 206 255
174 206 255
174 206 255
174 206 255
174 207 255
174 207 255
174 207 255
174 207 255
174 207 255
174 207 255
174 207 255
174 207 255
174 207 255
175 207 255
175 207 255
175 207 255
175 207 255
175 207 255
175 207 255
175 207 255
175 207 255
175 207 255
175 207 255
175 207 255
175 207 255
175 207 255
175 207 255
175 207 255
176 208 255
176 208 255
176 208 255
176 208 255
176 208 255
176 208 255
176 208 255
176 208 255
176 208 255
176 208 255
176 208 255
176 208 255
176 208 255
176 208 255
176 208 255
177 208 255
177 208 255
177 208 255
177 208 255
177 208 255
177 208 255
177 208 255
177 208 255
177 208 255
177 208 255
177 208 255
177 208 255
177 209 255
177 209 255
177 209 255
177 209 255
177 209 255
178 209 255
178 209 255
178 209 255
178 209 255
178 209 255
178 209 255
178 209 255
178 209 255
178 209 255
178 209 255
178 209 255
178 209 255
178 209 255
178 209 255
178 209 255
178 209 255
178 209 255
178 209 255
178 209 255
179 209 255
179 209 255
179 209 255
179 209 255
179 209 255
179 209 255
179 209 255
179 210 255
179 210 255
179 210 255
179 210 255
179 210 255
179 210 255
179 210 255
179 210 255
179 210 255
179 210 255
179 210 255
179 210 255
179 210 255
179 210 255
180 210 255
180 210 255
180 210 255
180 210 255
180 210 255
180 210 255
180 210 255
180 210 255
180 210 255
180 210 255
180 210 255
180 210 255
180 210 255
180 210 255
180 210 255
180 210 255
179 210 255
179 210 255
179 210 255
179 210 255
179 210 255
179 210 255
179 210 255
179 210 255
179 210 255
179 210 255
179 210 255
179 210 255
179 210 255
179 210 255
179 209 255
179 209 255
179 209 255
179 209 255
179 209 255
179 209 255
179 209 255
178 209 255
178 209 255
178 209 255
178 209 255
178 209 255
178 209 255
178 209 255
178 209 255
178 209 255
178 209 255
178 209 255
178 209 255
178 209 255
178 209 255
178 209 255
178 209 255
178 209 255
178 209 255
177 209 255
177 209 255
177 209 255
177 209 255
177 209 255
177 209 255
177 208 255
177 208 255
177 208 255
177 208 255
177 208 255
177 208 255
177 208 255
177 208 255
177 208 255
177 208 255
177 208 255
176 208 255
176 208 255
176 208 255
176 208 255
176 208 255
176 208 255
176 208 255
176 208 255
176 208 255
176 208 255
176 208 255
176 208 255
176 208 255
176 208 255
176 208 255
176 208 255
175 207 255
175 207 255
175 207 255
175 207 255
175 207 255
175 207 255
175 207 255
175 207 255
175 207 255
175 207 255
175 207 255
175 207 255
175 207 255
175 207 255
174 207 255
174 207 255
174 207 255
174 207 255
174 207 255
174 207 255
174 207 255
174 207 255
174 207 255
174 207 255
174 206 255
174 206 255
174 206 255
174 206 255
173 206 255
173 206 255
173 206 255
173 206 255
173 206 255
173 206 255
173 206 255
173 206 255
173 206 255
173 206 255
173 206 255
173 206 255
173 206 255
173 206 255
172 206 255
172 206 255
172 206 255
172 206 255
172 206 255
172 205 255
172 205 255
172 205 255
172 205 255
172 205 255
172 205 255
172 205 255
172 205 255
172 205 255
172 205 255
171 205 255
171 205 255
171 205 255
171 205 255
171 205 255
171 205 255
171 205 255
171 205 255
171 205 255
171 205 255
117 141 178
78 95 120
76 92 116
76 93 117
78 95 120
83 99 123
80 96 121
76 92 116
78 93 116
79 96 121
78 94 119
81 97 121
79 95 120
78 94 118
79 95 120
75 92 116
81 97 121
82 98 123
75 92 119
78 94 118
79 96 121
77 93 117
80 96 120
78 93 115
80 96 119
76 93 118
78 93 117
75 91 115
78 95 120
77 93 118
79 95 119
77 94 118
78 95 120
77 94 118
77 93 119
79 96 122
79 95 118
81 97 121
75 92 119
78 94 117
76 92 114
77 94 119
78 93 116
76 92 116
73 90 115
81 97 121
79 95 119
76 91 115
80 95 119
78 94 118
80 96 120
74 90 114
81 97 121
79 94 117
78 94 118
77 93 117
79 96 122
76 91 114
74 90 115
78 94 119
77 93 118
77 93 117
78 93 117
81 97 121
78 95 120
75 91 115
77 93 117
76 93 117
76 92 115
80 97 123
81 96 120
78 94 118
78 94 117
78 93 116
79 96 120
77 93 118
76 91 115
78 94 119
79 94 118
78 95 120
80 95 119
76 91 115
75 92 118
76 93 117
77 94 119
77 95 122
78 94 118
75 91 114
79 95 119
78 94 118
78 94 120
78 94 118
73 89 113
77 94 118
78 94 118
80 97 121
80 97 122
79 97 122
79 95 120
117 141 177
171 205 255
171 205 255
171 205 255
171 205 255
171 205 255
171 205 255
171 205 255
171 205 255
171 205 255
171 205 255
172 205 255
172 205 255
172 205 255
172 205 255
172 205 255
172 205 255
172 205 255
172 205 255
172 205 255
172 205 255
172 206 255
172 206 255
172 206 255
172 206 255
172 206 255
173 206 255
173 206 255
173 206 255
173 206 255
173 206 255
173 206 255
173 206 255
173 206 255
173 206 255
173 206 255
173 206 255
173 206 255
173 206 255
173 206 255
174 206 255
174 206 255
174 206 255
174 206 255
174 207 255
174 207 255
174 207 255
174 207 255
174 207 255
174 207 255
174 207 255
174 207 255
174 207 255
174 207 255
175 207 255
175 207 255
175 207 255
175 207 255
175 207 255
175 207 255
175 207 255
175 207 255
175 207 255
175 207 255
175 207 255
175 207 255
175 207 255
175 207 255
175 207 255
176 208 255
176 208 255
176 208 255
176 208 255
176 208 255
176 208 255
176 208 255
176 208 255
176 208 255
176 208 255
176 208 255
176 208 255
176 208 255
176 208 255
176 208 255
177 208 255
177 208 255
177 208 255
177 208 255
177 208 255
177 208 255
177 208 255
177 208 255
177 208 255
177 208 255
177 208 255
177 209 255
177 209 255
177 209 255
177 209 255
177 209 255
177 209 255
178 209 255
178 209 255
178 209 255
178 209 255
178 209 255
178 209 255
178 209 255
178 209 255
178 209 255
178 209 255
178 209 255
178 209 255
178 209 255
178 209 255
178 209 255
178 209 255
178 209 255
178 209 255
179 209 255
179 209 255
179 209 255
179 209 255
179 209 255
179 209 255
179 209 255
179 210 255
179 210 255
179 210 255
179 210 255
179 210 255
179 210 255
179 210 255
179 210 255
179 210 255
179 210 255
179 210 255
179 210 255
179 210 255
179 210 255
180 210 255
180 210 255
180 210 255
180 210 255
180 210 255
180 210 255
180 210 255
180 210 255
180 210 255
180 210 255
180 210 255
180 210 255
180 210 255
180 210 255
180 210 255
180 210 255
180 210 255
180 210 255
180 210 255
180 210 255
180 210 255
180 210 255
180 210 255
180 210 255
180 210 255
180 210 255
180 210 255
180 210 255
179 210 255
179 210 255
179 210 255
179 210 255
179 210 255
179 210 255
179 210 255
179 210 255
179 210 255
179 210 255
179 210 255
179 210 255
179 210 255
179 210 255
179 209 255
179 209 255
179 209 255
179 209 255
179 209 255
179 209 255
179 209 255
178 209 255
178 209 255
178 209 255
178 209 255
178 209 255
178 209 255
178 209 255
178 209 255
178 209 255
178 209 255
178 209 255
178 209 255
178 209 255
178 209 255
178 209 255
178 209 255
178 209 255
178 209 255
177 209 255
177 209 255
177 209 255
177 209 255
177 209 255
177 209 255
177 208 255
177 208 255
177 208 255
177 208 255
177 208 255
177 208 255
177 208 255
177 208 255
177 208 255
177 208 255
176 208 255
176 208 255
176 208 255
176 208 255
176 208 255
176 208 255
176 208 255
176 208 255
176 208 255
176 208 255
176 208 255
176 208 255
176 208 255
176 208 255
176 208 255
176 208 255
175 207 255
175 207 255
175 207 255
175 207 255
175 207 255
175 207 255
175 207 255
175 207 255
175 207 255
175 207 255
175 207 255
175 207 255
175 207 255
175 207 255
175 207 255
174 207 255
174 207 255
174 207 255
174 207 255
174 207 255
174 207 255
174 207 255
174 207 255
174 207 255
174 206 255
174 206 255
174 206 255
174 206 255
174 206 255
173 206 255
173 206 255
173 206 255
173 206 255
173 206 255
173 206 255
173 206 255
173 206 255
173 206 255
173 206 255
173 206 255
173 206 255
173 206 255
173 206 255
172 206 255
172 206 255
172 206 255
172 206 255
172 206 255
172 205 255
172 205 255
172 205 255
172 205 255
172 205 255
172 205 255
172 205 255
172 205 255
172 205 255
172 205 255
171 205 255
171 205 255
171 205 255
143 172 215
81 97 121
77 94 119
78 94 119
83 99 122
77 94 119
77 93 116
79 95 120
80 95 119
77 93 117
78 94 119
77 93 119
78 94 119
76 93 117
75 91 116
81 97 122
77 93 116
77 94 118
76 92 116
76 92 116
77 93 117
79 94 117
74 91 116
75 91 116
76 92 116
77 93 116
80 96 120
77 94 118
81 96 120
81 97 121
78 93 117
78 94 117
75 91 115
80 96 120
77 93 116
74 90 114
74 91 116
78 95 119
77 94 119
77 94 119
77 93 117
78 94 119
77 93 117
80 96 120
76 93 117
78 95 120
75 91 115
79 95 119
77 94 120
75 90 113
78 95 120
77 92 116
78 95 120
73 89 112
76 92 115
79 95 119
74 90 114
76 91 114
80 96 120
76 92 117
78 94 118
77 93 116
76 92 118
77 93 119
77 92 116
77 93 116
78 95 119
74 92 118
75 91 116
80 96 120
76 92 117
71 88 113
77 93 118
77 93 117
78 94 118
78 94 118
76 91 114
78 94 118
84 100 123
78 94 119
75 91 115
80 96 119
78 94 118
73 89 113
78 94 117
78 94 117
79 97 122
80 96 120
79 95 118
76 93 118
78 94 118
75 90 114
80 96 121
78 94 118
76 93 118
80 97 122
80 96 120
80 96 120
83 98 120
80 96 121
81 97 122
152 182 226
171 205 255
171 205 255
171 205 255
172 205 255
172 205 255
172 205 255
172 205 255
172 205 255
172 205 255
172 205 255
172 205 255
172 205 255
172 205 255
172 206 255
172 206 255
172 206 255
172 206 255
172 206 255
173 206 255
173 206 255
173 206 255
173 206 255
173 206 255
173 206 255
173 206 255
173 206 255
173 206 255
173 206 255
173 206 255
173 206 255
173 206 255
173 206 255
174 206 255
174 206 255
174 206 255
174 206 255
174 206 255
174 207 255
174 207 255
174 207 255
174 207 255
174 207 255
174 207 255
174 207 255
174 207 255
174 207 255
175 207 255
175 207 255
175 207 255
175 207 255
175 207 255
175 207 255
175 207 255
175 207 255
175 207 255
175 207 255
175 207 255
175 207 255
175 207 255
175 207 255
175 207 255
176 208 255
176 208 255
176 208 255
176 208 255
176 208 255
176 208 255
176 208 255
176 208 255
176 208 255
176 208 255
176 208 255
176 208 255
176 208 255
176 208 255
176 208 255
177 208 255
177 208 255
177 208 255
177 208 255
177 208 255
177 208 255
177 208 255
177 208 255
177 208 255
177 208 255
177 208 255
177 208 255
177 209 255
177 209 255
177 209 255
177 209 255
177 209 255
178 209 255
178 209 255
178 209 255
178 209 255
178 209 255
178 209 255
178 209 255
178 209 255
178 209 255
178 209 255
178 209 255
178 209 255
178 209 255
178 209 255
178 209 255
178 209 255
178 209 255
178 209 255
179 209 255
179 209 255
179 209 255
179 209 255
179 209 255
179 209 255
179 209 255
179 210 255
179 210 255
179 210 255
179 210 255
179 210 255
179 210 255
179 210 255
179 210 255
179 210 255
179 210 255
179 210 255
179 210 255
179 210 255
179 210 255
180 210 255
180 210 255
180 210 255
180 210 255
180 210 255
180 210 255
180 210 255
180 210 255
180 210 255
180 210 255
180 210 255
180 210 255
180 210 255
180 210 255
180 210 255
180 210 255
180 210 255
180 210 255
180 210 255
180 210 255
180 210 255
180 210 255
180 210 255
180 210 255
180 210 255
180 210 255
180 210 255
180 210 255
180 210 255
180 210 255
180 210 255
180 210 255
180 210 255
180 210 255
180 210 255
180 210 255
180 210 255
180 210 255
180 210 255
180 210 255
179 210 255
179 210 255
179 210 255
179 210 255
179 210 255
179 210 255
179 210 255
179 210 255
179 210 255
179 210 255
179 210 255
179 210 255
179 210 255
179 210 255
179 209 255
179 209 255
179 209 255
179 209 255
179 209 255
179 209 255
178 209 255
178 209 255
178 209 255
178 209 255
178 209 255
178 209 255
178 209 255
178 209 255
178 209 255
178 209 255
178 209 255
178 209 255
178 209 255
178 209 255
178 209 255
178 209 255
178 209 255
178 209 255
178 209 255
177 209 255
177 209 255
177 209 255
177 209 255
177 209 255
177 208 255
177 208 255
177 208 255
177 208 255
177 208 255
177 208 255
177 208 255
177 208 255
177 208 255
177 208 255
177 208 255
176 208 255
176 208 255
176 208 255
176 208 255
176 208 255
176 208 255
176 208 255
176 208 255
176 208 255
176 208 255
176 208 255
176 208 255
176 208 255
176 208 255
176 208 255
175 207 255
175 207 255
175 207 255
175 207 255
175 207 255
175 207 255
175 207 255
175 207 255
175 207 255
175 207 255
175 207 255
175 207 255
175 207 255
175 207 255
175 207 255
174 207 255
174 207 255
174 207 255
174 207 255
174 207 255
174 207 255
174 207 255
174 207 255
174 207 255
174 207 255
174 206 255
174 206 255
174 206 255
174 206 255
174 206 255
173 206 255
173 206 255
173 206 255
173 206 255
173 206 255
173 206 255
173 206 255
173 206 255
173 206 255
173 206 255
173 206 255
173 206 255
173 206 255
173 206 255
173 206 255
172 206 255
172 206 255
172 206 255
172 206 255
172 206 255
172 205 255
172 205 255
172 205 255
172 205 255
172 205 255
150 180 225
82 99 125
77 94 118
76 92 115
80 96 121
83 99 123
77 92 115
80 97 122
77 94 119
79 94 117
79 95 120
74 91 116
78 93 116
77 93 117
76 93 119
81 97 122
76 91 114
80 96 120
75 92 116
76 91 115
76 92 117
79 95 119
77 92 115
75 91 115
76 92 115
72 88 112
75 91 116
75 92 117
76 93 118
77 92 116
79 96 122
76 92 115
75 91 115
77 93 116
73 89 113
78 93 115
78 94 119
78 94 117
76 91 114
80 95 118
75 91 116
78 94 119
74 90 113
79 95 119
74 90 114
83 99 124
75 90 112
76 92 115
78 93 116
75 90 113
80 96 121
77 93 116
78 94 118
81 97 121
75 92 116
75 90 113
72 87 110
79 93 115
78 95 121
74 90 114
73 89 114
80 96 121
77 93 118
77 93 117
77 94 118
78 92 114
77 91 113
75 91 116
75 92 118
74 90 112
76 91 113
80 95 118
77 93 117
77 93 117
79 96 122
78 93 117
83 98 120
73 89 112
74 90 115
76 92 117
78 95 119
78 94 118
78 95 119
78 93 116
76 92 116
77 93 118
80 96 120
76 92 116
77 94 118
77 93 116
81 97 122
81 97 121
78 94 119
80 96 120
76 92 116
79 94 117
76 93 117
78 94 119
79 95 119
77 94 120
78 93 115
78 94 117
79 96 122
151 180 224
172 205 255
172 205 255
172 205 255
172 205 255
172 205 255
172 206 255
172 206 255
172 206 255
172 206 255
172 206 255
172 206 255
173 206 255
173 206 255
173 206 255
173 206 255
173 206 255
173 206 255
173 206 255
173 206 255
173 206 255
173 206 255
173 206 255
173 206 255
173 206 255
173 206 255
174 206 255
174 206 255
174 206 255
174 206 255
174 206 255
174 207 255
174 207 255
174 207 255
174 207 255
174 207 255
174 207 255
174 207 255
174 207 255
174 207 255
174 207 255
175 207 255
175 207 255
175 207 255
175 207 255
175 207 255
175 207 255
175 207 255
175 207 255
175 207 255
175 207 255
175 207 255
175 207 255
175 207 255
175 207 255
176 208 255
176 208 255
176 208 255
176 208 255
176 208 255
176 208 255
176 208 255
176 208 255
176 208 255
176 208 255
176 208 255
176 208 255
176 208 255
176 208 255
176 208 255
176 208 255
177 208 255
177 208 255
177 208 255
177 208 255
177 208 255
177 208 255
177 208 255
177 208 255
177 208 255
177 208 255
177 208 255
177 209 255
177 209 255
177 209 255
177 209 255
177 209 255
178 209 255
178 209 255
178 209 255
178 209 255
178 209 255
178 209 255
178 209 255
178 209 255
178 209 255
178 209 255
178 209 255
178 209 255
178 209 255
178 209 255
178 209 255
178 209 255
178 209 255
178 209 255
178 209 255
179 209 255
179 209 255
179 209 255
179 209 255
179 209 255
179 209 255
179 210 255
179 210 255
179 210 255
179 210 255
179 210 255
179 210 255
179 210 255
179 210 255
179 210 255
179 210 255
179 210 255
179 210 255
179 210 255
179 210 255
180 210 255
180 210 255
180 210 255
180 210 255
180 210 255
180 210 255
180 210 255
180 210 255
180 210 255
180 210 255
180 210 255
180 210 255
180 210 255
180 210 255
180 210 255
180 210 255
180 210 255
180 210 255
180 210 255
180 210 255
180 210 255
180 210 255
180 210 255
181 211 255
181 211 255
181 211 255
181 211 255
181 211 255
181 211 255
181 211 255
180 210 255
180 210 255
180 210 255
180 210 255
180 210 255
180 210 255
180 210 255
180 210 255
180 210 255
180 210 255
180 210 255
180 210 255
180 210 255
180 210 255
180 210 255
180 210 255
180 210 255
180 210 255
180 210 255
180 210 255
180 210 255
180 210 255
179 210 255
179 210 255
179 210 255
179 210 255
179 210 255
179 210 255
179 210 255
179 210 255
179 210 255
179 210 255
179 210 255
179 210 255
179 210 255
179 210 255
179 209 255
179 209 255
179 209 255
179 209 255
179 209 255
179 209 255
178 209 255
178 209 255
178 209 255
178 209 255
178 209 255
178 209 255
178 209 255
178 209 255
178 209 255
178 209 255
178 209 255
178 209 255
178 209 255
178 209 255
178 209 255
178 209 255
178 209 255
178 209 255
177 209 255
177 209 255
177 209 255
177 209 255
177 209 255
177 209 255
177 208 255
177 208 255
177 208 255
177 208 255
177 208 255
177 208 255
177 208 255
177 208 255
177 208 255
177 208 255
177 208 255
176 208 255
176 208 255
176 208 255
176 208 255
176 208 255
176 208 255
176 208 255
176 208 255
176 208 255
176 208 255
176 208 255
176 208 255
176 208 255
176 208 255
176 208 255
175 207 255
175 207 255
175 207 255
175 207 255
175 207 255
175 207 255
175 207 255
175 207 255
175 207 255
175 207 255
175 207 255
175 207 255
175 207 255
175 207 255
175 207 255
174 207 255
174 207 255
174 207 255
174 207 255
174 207 255
174 207 255
174 207 255
174 207 255
174 207 255
174 207 255
174 206 255
174 206 255
174 206 255
174 206 255
174 206 255
173 206 255
173 206 255
173 206 255
173 206 255
173 206 255
173 206 255
173 206 255
173 206 255
173 206 255
173 206 255
173 206 255
173 206 255
173 206 255
173 206 255
173 206 255
173 206 255
172 206 255
172 206 255
164 195 243
92 112 142
79 96 121
77 94 118
80 96 120
78 95 121
76 93 119
75 91 115
76 92 116
77 92 116
79 95 119
78 95 119
78 95 121
78 94 120
79 95 119
77 93 117
78 94 117
77 93 117
79 95 120
76 93 119
76 93 119
79 95 120
77 94 118
76 92 117
79 95 118
75 91 115
78 94 119
76 91 114
80 96 120
76 93 118
77 94 118
82 98 122
74 91 116
75 92 117
79 95 119
79 95 118
77 93 119
77 94 120
81 97 120
77 93 117
76 92 116
79 94 117
77 92 115
76 93 118
77 93 118
77 92 116
78 94 118
72 87 111
75 91 115
71 88 112
73 88 112
79 95 117
73 90 114
76 92 116
81 97 121
76 92 117
79 96 120
76 91 115
79 94 118
76 92 117
72 87 110
75 91 114
76 92 115
83 98 121
77 92 116
75 91 116
77 92 116
77 93 117
76 93 118
78 93 117
78 94 119
77 93 118
74 92 118
73 89 113
78 93 116
75 91 114
73 89 113
77 94 120
78 95 120
76 92 115
75 91 115
79 93 115
79 96 121
74 90 115
75 90 113
77 92 115
80 97 123
74 90 115
79 94 117
81 97 121
80 95 119
70 86 109
80 97 121
73 90 117
77 93 117
75 91 116
77 94 120
81 98 122
76 94 120
77 94 119
81 97 122
76 93 119
78 95 120
80 96 120
92 111 140
172 206 255
172 206 255
172 206 255
173 206 255
173 206 255
173 206 255
173 206 255
173 206 255
173 206 255
173 206 255
173 206 255
173 206 255
173 206 255
173 206 255
173 206 255
173 206 255
173 206 255
173 206 255
173 206 255
174 206 255
174 206 255
174 206 255
174 206 255
174 206 255
174 207 255
174 207 255
174 207 255
174 207 255
174 207 255
174 207 255
174 207 255
174 207 255
174 207 255
174 207 255
175 207 255
175 207 255
175 207 255
175 207 255
175 207 255
175 207 255
175 207 255
175 207 255
175 207 255
175 207 255
175 207 255
175 207 255
175 207 255
175 207 255
175 207 255
176 208 255
176 208 255
176 208 255
176 208 255
176 208 255
176 208 255
176 208 255
176 208 255
176 208 255
176 208 255
176 208 255
176 208 255
176 208 255
176 208 255
176 208 255
177 208 255
177 208 255
177 208 255
177 208 255
177 208 255
177 208 255
177 208 255
177 208 255
177 208 255
177 208 255
177 208 255
177 209 255
177 209 255
177 209 255
177 209 255
177 209 255
177 209 255
178 209 255
178 209 255
178 209 255
178 209 255
178 209 255
178 209 255
178 209 255
178 209 255
178 209 255
178 209 255
178 209 255
178 209 255
178 209 255
178 209 255
178 209 255
178 209 255
178 209 255
178 209 255
179 209 255
179 209 255
179 209 255
179 209 255
179 209 255
179 209 255
179 210 255
179 210 255
179 210 255
179 210 255
179 210 255
179 210 255
179 210 255
179 210 255
179 210 255
179 210 255
179 210 255
179 210 255
179 210 255
179 210 255
180 210 255
180 210 255
180 210 255
180 210 255
180 210 255
180 210 255
180 210 255
180 210 255
180 210 255
180 210 255
180 210 255
180 210 255
180 210 255
180 210 255
180 210 255
180 210 255
180 210 255
180 210 255
180 210 255
180 210 255
180 210 255
180 210 255
181 211 255
181 211 255
181 211 255
181 211 255
181 211 255
181 211 255
181 211 255
181 211 255
181 211 255
181 211 255
181 211 255
181 211 255
181 211 255
181 211 255
181 211 255
181 211 255
181 211 255
181 211 255
181 211 255
181 211 255
181 211 255
180 210 255
180 210 255
180 210 255
180 210 255
180 210 255
180 210 255
180 210 255
180 210 255
180 210 255
180 210 255
180 210 255
180 210 255
180 210 255
180 210 255
180 210 255
180 210 255
180 210 255
180 210 255
180 210 255
180 210 255
180 210 255
180 210 255
179 210 255
179 210 255
179 210 255
179 210 255
179 210 255
179 210 255
179 210 255
179 210 255
179 210 255
179 210 255
179 210 255
179 210 255
179 210 255
179 209 255
179 209 255
179 209 255
179 209 255
179 209 255
179 209 255
178 209 255
178 209 255
178 209 255
178 209 255
178 209 255
178 209 255
178 209 255
178 209 255
178 209 255
178 209 255
178 209 255
178 209 255
178 209 255
178 209 255
178 209 255
178 209 255
178 209 255
178 209 255
177 209 255
177 209 255
177 209 255
177 209 255
177 209 255
177 209 255
177 208 255
177 208 255
177 208 255
177 208 255
177 208 255
177 208 255
177 208 255
177 208 255
177 208 255
177 208 255
177 208 255
176 208 255
176 208 255
176 208 255
176 208 255
176 208 255
176 208 255
176 208 255
176 208 255
176 208 255
176 208 255
176 208 255
176 208 255
176 208 255
176 208 255
176 208 255
175 207 255
175 207 255
175 207 255
175 207 255
175 207 255
175 207 255
175 207 255
175 207 255
175 207 255
175 207 255
175 207 255
175 207 255
175 207 255
175 207 255
175 207 255
174 207 255
174 207 255
174 207 255
174 207 255
174 207 255
174 207 255
174 207 255
174 207 255
174 207 255
174 207 255
174 206 255
174 206 255
174 206 255
174 206 255
174 206 255
173 206 255
173 206 255
173 206 255
173 206 255
173 206 255
173 206 255
173 206 255
173 206 255
173 206 255
173 206 255
173 206 255
173 206 255
102 122 153
79 95 119
78 94 117
78 94 118
75 91 116
78 95 121
79 95 120
77 93 117
81 97 121
76 92 116
73 90 116
78 94 117
76 92 116
79 95 119
75 90 114
79 96 120
78 94 119
79 94 118
80 96 120
74 90 113
76 92 116
78 94 119
74 90 113
78 95 119
78 94 118
77 92 116
76 91 114
80 97 122
77 94 120
75 90 113
78 94 119
74 89 112
74 89 113
78 94 120
77 92 115
76 91 114
78 94 117
80 96 119
76 92 117
79 95 119
77 92 116
74 91 116
76 92 117
79 95 118
76 91 114
74 91 115
81 97 120
78 94 117
77 93 117
77 94 119
77 92 115
79 95 119
74 90 114
78 94 117
76 92 116
76 91 113
74 90 114
76 92 116
75 90 112
79 95 120
77 93 116
81 96 118
76 91 115
80 95 119
73 89 113
79 93 115
79 96 121
79 94 117
76 92 116
76 93 118
74 90 113
76 93 117
77 94 119
77 93 117
78 94 118
74 90 113
80 96 119
73 89 114
74 91 116
72 89 115
74 89 111
77 93 117
77 92 114
76 92 116
80 96 121
78 94 118
81 97 121
76 91 115
81 97 121
77 94 119
77 93 118
79 95 120
79 95 120
74 90 115
77 93 118
79 95 120
76 93 117
77 94 120
78 93 117
77 94 120
79 96 121
78 94 117
78 94 119
79 96 120
78 94 118
105 126 158
173 206 255
173 206 255
173 206 255
173 206 255
173 206 255
173 206 255
173 206 255
173 206 255
173 206 255
173 206 255
173 206 255
173 206 255
174 206 255
174 206 255
174 206 255
174 206 255
174 207 255
174 207 255
174 207 255
174 207 255
174 207 255
174 207 255
174 207 255
174 207 255
174 207 255
174 207 255
175 207 255
175 207 255
175 207 255
175 207 255
175 207 255
175 207 255
175 207 255
175 207 255
175 207 255
175 207 255
175 207 255
175 207 255
175 207 255
175 207 255
175 207 255
175 207 255
176 208 255
176 208 255
176 208 255
176 208 255
176 208 255
176 208 255
176 208 255
176 208 255
176 208 255
176 208 255
176 208 255
176 208 255
176 208 255
176 208 255
176 208 255
177 208 255
177 208 255
177 208 255
177 208 255
177 208 255
177 208 255
177 208 255
177 208 255
177 208 255
177 208 255
177 208 255
177 209 255
177 209 255
177 209 255
177 209 255
177 209 255
177 209 255
178 209 255
178 209 255
178 209 255
178 209 255
178 209 255
178 209 255
178 209 255
178 209 255
178 209 255
178 209 255
178 209 255
178 209 255
178 209 255
178 209 255
178 209 255
178 209 255
178 209 255
178 209 255
179 209 255
179 209 255
179 209 255
179 209 255
179 209 255
179 209 255
179 210 255
179 210 255
179 210 255
179 210 255
179 210 255
179 210 255
179 210 255
179 210 255
179 210 255
179 210 255
179 210 255
179 210 255
179 210 255
180 210 255
180 210 255
180 210 255
180 210 255
180 210 255
180 210 255
180 210 255
180 210 255
180 210 255
180 210 255
180 210 255
180 210 255
180 210 255
180 210 255
180 210 255
180 210 255
180 210 255
180 210 255
180 210 255
180 210 255
180 210 255
180 210 255
181 211 255
181 211 255
181 211 255
181 211 255
181 211 255
181 211 255
181 211 255
181 211 255
181 211 255
181 211 255
181 211 255
181 211 255
181 211 255
181 211 255
181 211 255
181 211 255
181 211 255
181 211 255
181 211 255
181 211 255
181 211 255
181 211 255
181 211 255
181 211 255
181 211 255
181 211 255
181 211 255
181 211 255
181 211 255
181 211 255
181 211 255
181 211 255
181 211 255
181 211 255
180 210 255
180 210 255
180 210 255
180 210 255
180 210 255
180 210 255
180 210 255
180 210 255
180 210 255
180 210 255
180 210 255
180 210 255
180 210 255
180 210 255
180 210 255
180 210 255
180 210 255
180 210 255
180 210 255
180 210 255
180 210 255
180 210 255
179 210 255
179 210 255
179 210 255
179 210 255
179 210 255
179 210 255
179 210 255
179 210 255
179 210 255
179 210 255
179 210 255
179 210 255
179 210 255
179 209 255
179 209 255
179 209 255
179 209 255
179 209 255
179 209 255
178 209 255
178 209 255
178 209 255
178 209 255
178 209 255
178 209 255
178 209 255
178 209 255
178 209 255
178 209 255
178 209 255
178 209 255
178 209 255
178 209 255
178 209 255
178 209 255
178 209 255
178 209 255
177 209 255
177 209 255
177 209 255
177 209 255
177 209 255
177 209 255
177 208 255
177 208 255
177 208 255
177 208 255
177 208 255
177 208 255
177 208 255
177 208 255
177 208 255
177 208 255
176 208 255
176 208 255
176 208 255
176 208 255
176 208 255
176 208 255
176 208 255
176 208 255
176 208 255
176 208 255
176 208 255
176 208 255
176 208 255
176 208 255
176 208 255
176 208 255
175 207 255
175 207 255
175 207 255
175 207 255
175 207 255
175 207 255
175 207 255
175 207 255
175 207 255
175 207 255
175 207 255
175 207 255
175 207 255
175 207 255
175 207 255
175 207 255
174 207 255
174 207 255
174 207 255
174 207 255
174 207 255
174 207 255
174 207 255
174 207 255
174 207 255
174 207 255
174 206 255
174 206 255
174 206 255
174 206 255
174 206 255
174 206 255
173 206 255
173 206 255
173 206 255
126 151 188
77 93 118
78 95 119
79 96 122
78 95 120
76 92 116
77 93 117
73 90 115
78 93 117
73 89 114
77 92 115
73 90 117
78 94 119
78 94 118
79 95 120
79 94 117
78 93 116
75 91 115
77 93 117
76 92 115
76 92 115
79 95 120
80 96 120
77 92 116
76 93 117
77 93 117
76 92 116
79 95 120
77 93 118
75 91 115
77 93 117
77 92 114
75 91 115
73 89 113
76 92 117
76 90 112
75 91 114
77 93 116
74 90 113
75 91 115
73 89 113
74 90 115
78 94 117
78 95 119
77 93 118
76 92 117
80 95 118
78 95 121
78 94 118
77 94 120
75 92 119
78 94 120
77 93 116
76 93 118
78 94 118
76 91 113
77 94 118
75 92 117
74 91 116
76 92 116
76 92 117
76 92 116
71 87 111
78 94 117
77 93 116
73 89 112
78 95 119
77 93 116
78 93 117
78 94 120
77 93 117
77 93 118
75 91 115
79 95 119
75 90 113
80 95 118
75 93 119
77 93 117
72 86 108
74 89 113
77 93 117
75 90 114
76 91 115
78 93 117
73 90 114
76 91 113
77 93 117
75 92 117
75 92 117
75 91 116
81 97 120
80 97 121
81 97 120
75 92 117
77 93 117
79 95 119
76 93 117
77 93 117
78 94 118
78 93 115
77 94 120
79 95 119
78 95 121
77 92 115
77 94 120
78 95 121
82 97 120
136 164 205
173 206 255
173 206 255
173 206 255
174 206 255
174 206 255
174 206 255
174 206 255
174 206 255
174 207 255
174 207 255
174 207 255
174 207 255
174 207 255
174 207 255
174 207 255
174 207 255
174 207 255
174 207 255
174 207 255
174 207 255
175 207 255
175 207 255
175 207 255
175 207 255
175 207 255
175 207 255
175 207 255
175 207 255
175 207 255
175 207 255
175 207 255
175 207 255
175 207 255
175 207 255
175 207 255
176 208 255
176 208 255
176 208 255
176 208 255
176 208 255
176 208 255
176 208 255
176 208 255
176 208 255
176 208 255
176 208 255
176 208 255
176 208 255
176 208 255
176 208 255
177 208 255
177 208 255
177 208 255
177 208 255
177 208 255
177 208 255
177 208 255
177 208 255
177 208 255
177 208 255
177 208 255
177 209 255
177 209 255
177 209 255
177 209 255
177 209 255
177 209 255
178 209 255
178 209 255
178 209 255
178 209 255
178 209 255
178 209 255
178 209 255
178 209 255
178 209 255
178 209 255
178 209 255
178 209 255
178 209 255
178 209 255
178 209 255
178 209 255
178 209 255
178 209 255
179 209 255
179 209 255
179 209 255
179 209 255
179 209 255
179 209 255
179 210 255
179 210 255
179 210 255
179 210 255
179 210 255
179 210 255
179 210 255
179 210 255
179 210 255
179 210 255
179 210 255
179 210 255
179 210 255
180 210 255
180 210 255
180 210 255
180 210 255
180 210 255
180 210 255
180 210 255
180 210 255
180 210 255
180 210 255
180 210 255
180 210 255
180 210 255
180 210 255
180 210 255
180 210 255
180 210 255
180 210 255
180 210 255
180 210 255
180 210 255
181 211 255
181 211 255
181 211 255
181 211 255
181 211 255
181 211 255
181 211 255
181 211 255
181 211 255
181 211 255
181 211 255
181 211 255
181 211 255
181 211 255
181 211 255
181 211 255
181 211 255
181 211 255
181 211 255
181 211 255
181 211 255
182 211 255
182 211 255
181 211 255
181 211 255
181 211 255
181 211 255
181 211 255
181 211 255
181 211 255
181 211 255
181 211 255
181 211 255
181 211 255
181 211 255
181 211 255
181 211 255
181 211 255
181 211 255
181 211 255
181 211 255
181 211 255
181 211 255
181 211 255
181 211 255
181 211 255
181 211 255
181 211 255
180 210 255
180 210 255
180 210 255
180 210 255
180 210 255
180 210 255
180 210 255
180 210 255
180 210 255
180 210 255
180 210 255
180 210 255
180 210 255
180 210 255
180 210 255
180 210 255
180 210 255
180 210 255
180 210 255
180 210 255
180 210 255
179 210 255
179 210 255
179 210 255
179 210 255
179 210 255
179 210 255
179 210 255
179 210 255
179 210 255
179 210 255
179 210 255
179 210 255
179 210 255
179 209 255
179 209 255
179 209 255
179 209 255
179 209 255
179 209 255
179 209 255
178 209 255
178 209 255
178 209 255
178 209 255
178 209 255
178 209 255
178 209 255
178 209 255
178 209 255
178 209 255
178 209 255
178 209 255
178 209 255
178 209 255
178 209 255
178 209 255
178 209 255
177 209 255
177 209 255
177 209 255
177 209 255
177 209 255
177 209 255
177 208 255
177 208 255
177 208 255
177 208 255
177 208 255
177 208 255
177 208 255
177 208 255
177 208 255
177 208 255
177 208 255
176 208 255
176 208 255
176 208 255
176 208 255
176 208 255
176 208 255
176 208 255
176 208 255
176 208 255
176 208 255
176 208 255
176 208 255
176 208 255
176 208 255
176 208 255
175 207 255
175 207 255
175 207 255
175 207 255
175 207 255
175 207 255
175 207 255
175 207 255
175 207 255
175 207 255
175 207 255
175 207 255
175 207 255
175 207 255
175 207 255
175 207 255
174 207 255
174 207 255
174 207 255
174 207 255
174 207 255
174 207 255
174 207 255
174 207 255
174 207 255
174 207 255
174 207 255
174 206 255
163 195 241
85 101 126
77 92 116
79 94 117
78 95 120
80 96 120
77 92 114
75 91 116
80 96 119
78 95 119
75 91 114
76 93 119
72 88 113
81 97 120
79 95 118
74 91 116
76 92 116
75 89 111
73 90 115
79 95 119
77 93 118
77 93 117
76 91 114
78 94 117
75 91 116
76 92 117
76 91 113
75 91 116
77 93 117
77 92 115
75 91 114
76 93 117
74 90 114
76 91 114
73 90 116
76 91 115
76 92 116
74 91 115
79 94 117
76 91 115
77 93 116
75 90 114
75 91 114
74 90 115
75 89 110
75 90 114
75 92 116
77 92 114
78 93 115
75 91 115
76 92 115
79 94 118
72 88 112
78 94 117
76 92 115
75 90 114
69 86 110
77 93 117
74 88 111
77 93 117
79 94 117
76 91 115
74 89 113
73 88 111
74 89 112
74 90 114
79 95 119
75 90 113
75 90 113
73 89 112
75 92 117
77 92 116
76 92 117
78 93 115
78 93 116
77 92 115
77 93 116
75 92 117
75 92 117
76 92 116
75 91 114
76 92 117
77 93 117
78 93 115
75 90 114
76 92 116
74 89 112
75 90 113
79 95 119
76 92 116
71 88 112
78 94 118
71 87 112
77 93 118
76 91 114
76 92 116
78 93 116
77 94 119
77 92 116
81 97 122
75 91 114
77 92 115
79 96 122
78 93 116
78 94 118
81 97 120
81 96 119
75 92 116
88 106 133
161 191 237
174 207 255
174 207 255
174 207 255
174 207 255
174 207 255
174 207 255
174 207 255
174 207 255
174 207 255
174 207 255
174 207 255
175 207 255
175 207 255
175 207 255
175 207 255
175 207 255
175 207 255
175 207 255
175 207 255
175 207 255
175 207 255
175 207 255
175 207 255
175 207 255
175 207 255
175 207 255
175 207 255
176 208 255
176 208 255
176 208 255
176 208 255
176 208 255
176 208 255
176 208 255
176 208 255
176 208 255
176 208 255
176 208 255
176 208 255
176 208 255
176 208 255
176 208 255
176 208 255
177 208 255
177 208 255
177 208 255
177 208 255
177 208 255
177 208 255
177 208 255
177 208 255
177 208 255
177 208 255
177 208 255
177 209 255
177 209 255
177 209 255
177 209 255
177 209 255
178 209 255
178 209 255
178 209 255
178 209 255
178 209 255
178 209 255
178 209 255
178 209 255
178 209 255
178 209 255
178 209 255
178 209 255
178 209 255
178 209 255
178 209 255
178 209 255
178 209 255
178 209 255
179 209 255
179 209 255
179 209 255
179 209 255
179 209 255
179 209 255
179 209 255
179 210 255
179 210 255
179 210 255
179 210 255
179 210 255
179 210 255
179 210 255
179 210 255
179 210 255
179 210 255
179 210 255
179 210 255
180 210 255
180 210 255
180 210 255
180 210 255
180 210 255
180 210 255
180 210 255
180 210 255
180 210 255
180 210 255
180 210 255
180 210 255
180 210 255
180 210 255
180 210 255
180 210 255
180 210 255
180 210 255
180 210 255
180 210 255
180 210 255
180 210 255
181 211 255
181 211 255
181 211 255
181 211 255
181 211 255
181 211 255
181 211 255
181 211 255
181 211 255
181 211 255
181 211 255
181 211 255
181 211 255
181 211 255
181 211 255
181 211 255
181 211 255
181 211 255
181 211 255
181 211 255
181 211 255
181 211 255
181 211 255
181 211 255
181 211 255
182 211 255
182 211 255
182 211 255
182 211 255
182 211 255
182 211 255
182 211 255
182 211 255
182 211 255
182 211 255
182 211 255
181 211 255
181 211 255
181 211 255
181 211 255
181 211 255
181 211 255
181 211 255
181 211 255
181 211 255
181 211 255
181 211 255
181 211 255
181 211 255
181 211 255
181 211 255
181 211 255
181 211 255
181 211 255
181 211 255
181 211 255
181 211 255
181 211 255
181 211 255
181 211 255
181 211 255
180 210 255
180 210 255
180 210 255
180 210 255
180 210 255
180 210 255
180 210 255
180 210 255
180 210 255
180 210 255
180 210 255
180 210 255
180 210 255
180 210 255
180 210 255
180 210 255
180 210 255
180 210 255
180 210 255
180 210 255
180 210 255
179 210 255
179 210 255
179 210 255
179 210 255
179 210 255
179 210 255
179 210 255
179 210 255
179 210 255
179 210 255
179 210 255
179 210 255
179 210 255
179 209 255
179 209 255
179 209 255
179 209 255
179 209 255
179 209 255
178 209 255
178 209 255
178 209 255
178 209 255
178 209 255
178 209 255
178 209 255
178 209 255
178 209 255
178 209 255
178 209 255
178 209 255
178 209 255
178 209 255
178 209 255
178 209 255
178 209 255
178 209 255
177 209 255
177 209 255
177 209 255
177 209 255
177 209 255
177 208 255
177 208 255
177 208 255
177 208 255
177 208 255
177 208 255
177 208 255
177 208 255
177 208 255
177 208 255
177 208 255
176 208 255
176 208 255
176 208 255
176 208 255
176 208 255
176 208 255
176 208 255
176 208 255
176 208 255
176 208 255
176 208 255
176 208 255
176 208 255
176 208 255
176 208 255
176 208 255
175 207 255
175 207 255
175 207 255
175 207 255
175 207 255
175 207 255
175 207 255
175 207 255
175 207 255
175 207 255
175 207 255
175 207 255
175 207 255
175 207 255
175 207 255
175 207 255
175 207 255
174 207 255
174 207 255
174 207 255
174 207 255
110 132 164
78 94 118
74 90 113
78 94 118
75 91 115
77 93 118
79 95 120
72 88 111
77 93 116
76 92 116
78 93 116
79 95 119
76 91 113
79 94 116
77 92 114
77 92 115
76 92 115
76 91 114
75 91 116
74 91 115
74 89 113
76 91 113
75 91 115
75 89 112
73 90 115
80 96 119
76 90 112
78 94 117
79 94 117
76 90 111
80 97 122
71 87 112
77 92 114
76 92 116
77 93 118
77 92 114
72 87 111
76 91 115
77 93 116
75 91 114
77 94 120
76 91 114
74 90 112
74 90 113
78 93 117
75 92 118
75 91 114
76 92 117
74 90 114
74 91 116
76 91 114
75 90 113
74 89 112
78 94 117
71 87 111
76 91 114
77 93 116
73 90 115
77 93 118
76 91 115
73 89 113
80 96 120
76 91 113
76 92 115
76 91 113
77 93 117
75 90 112
75 90 113
74 90 113
77 92 116
77 92 115
77 93 117
76 92 116
75 91 114
81 96 120
73 88 111
77 93 117
78 94 118
74 90 115
76 92 115
74 91 117
83 98 121
75 91 114
75 90 113
74 89 113
77 92 114
76 92 116
77 92 114
77 93 116
75 90 113
74 91 116
76 92 115
74 88 111
79 96 120
78 93 115
79 97 123
77 92 115
74 90 113
75 91 115
79 96 121
74 90 114
75 91 114
77 93 117
76 91 113
78 93 117
78 93 116
78 94 119
77 93 116
77 93 117
98 119 150
174 207 255
174 207 255
174 207 255
174 207 255
175 207 255
175 207 255
175 207 255
175 207 255
175 207 255
175 207 255
175 207 255
175 207 255
175 207 255
175 207 255
175 207 255
175 207 255
175 207 255
175 207 255
175 207 255
175 207 255
175 207 255
176 208 255
176 208 255
176 208 255
176 208 255
176 208 255
176 208 255
176 208 255
176 208 255
176 208 255
176 208 255
176 208 255
176 208 255
176 208 255
176 208 255
176 208 255
176 208 255
177 208 255
177 208 255
177 208 255
177 208 255
177 208 255
177 208 255
177 208 255
177 208 255
177 208 255
177 208 255
177 209 255
177 209 255
177 209 255
177 209 255
177 209 255
177 209 255
178 209 255
178 209 255
178 209 255
178 209 255
178 209 255
178 209 255
178 209 255
178 209 255
178 209 255
178 209 255
178 209 255
178 209 255
178 209 255
178 209 255
178 209 255
178 209 255
178 209 255
178 209 255
179 209 255
179 209 255
179 209 255
179 209 255
179 209 255
179 209 255
179 210 255
179 210 255
179 210 255
179 210 255
179 210 255
179 210 255
179 210 255
179 210 255
179 210 255
179 210 255
179 210 255
179 210 255
179 210 255
180 210 255
180 210 255
180 210 255
180 210 255
180 210 255
180 210 255
180 210 255
180 210 255
180 210 255
180 210 255
180 210 255
180 210 255
180 210 255
180 210 255
180 210 255
180 210 255
180 210 255
180 210 255
180 210 255
180 210 255
180 210 255
181 211 255
181 211 255
181 211 255
181 211 255
181 211 255
181 211 255
181 211 255
181 211 255
181 211 255
181 211 255
181 211 255
181 211 255
181 211 255
181 211 255
181 211 255
181 211 255
181 211 255
181 211 255
181 211 255
181 211 255
181 211 255
181 211 255
181 211 255
181 211 255
181 211 255
182 211 255
182 211 255
182 211 255
182 211 255
182 211 255
182 211 255
182 211 255
182 211 255
182 211 255
182 211 255
182 211 255
182 211 255
182 211 255
182 211 255
182 211 255
182 211 255
182 211 255
182 211 255
182 211 255
182 211 255
182 211 255
182 211 255
182 211 255
182 211 255
182 211 255
182 211 255
181 211 255
181 211 255
181 211 255
181 211 255
181 211 255
181 211 255
181 211 255
181 211 255
181 211 255
181 211 255
181 211 255
181 211 255
181 211 255
181 211 255
181 211 255
181 211 255
181 211 255
181 211 255
181 211 255
181 211 255
181 211 255
181 211 255
181 211 255
181 211 255
180 210 255
180 210 255
180 210 255
180 210 255
180 210 255
180 210 255
180 210 255
180 210 255
180 210 255
180 210 255
180 210 255
180 210 255
180 210 255
180 210 255
180 210 255
180 210 255
180 210 255
180 210 255
180 210 255
180 210 255
180 210 255
179 210 255
179 210 255
179 210 255
179 210 255
179 210 255
179 210 255
179 210 255
179 210 255
179 210 255
179 210 255
179 210 255
179 210 255
179 210 255
179 209 255
179 209 255
179 209 255
179 209 255
179 209 255
179 209 255
178 209 255
178 209 255
178 209 255
178 209 255
178 209 255
178 209 255
178 209 255
178 209 255
178 209 255
178 209 255
178 209 255
178 209 255
178 209 255
178 209 255
178 209 255
178 209 255
178 209 255
177 209 255
177 209 255
177 209 255
177 209 255
177 209 255
177 209 255
177 208 255
177 208 255
177 208 255
177 208 255
177 208 255
177 208 255
177 208 255
177 208 255
177 208 255
177 208 255
177 208 255
176 208 255
176 208 255
176 208 255
176 208 255
176 208 255
176 208 255
176 208 255
176 208 255
176 208 255
176 208 255
176 208 255
176 208 255
176 208 255
176 208 255
176 208 255
176 208 255
176 208 255
175 207 255
175 207 255
175 207 255
175 207 255
175 207 255
175 207 255
175 207 255
175 207 255
175 207 255
175 207 255
175 207 255
175 207 255
133 158 196
78 94 117
79 96 120
76 93 118
78 95 120
71 88 112
76 91 115
77 92 115
78 94 119
74 90 114
76 92 117
73 89 114
77 93 117
75 92 117
76 93 118
79 95 119
78 93 115
78 95 119
77 93 118
76 93 117
76 92 115
77 93 118
77 93 117
78 94 117
76 92 115
75 91 115
73 90 114
76 92 116
74 90 114
76 92 116
82 97 120
75 91 116
76 92 116
76 91 114
76 91 114
76 91 113
77 93 117
77 94 119
75 92 116
76 91 115
77 93 116
74 90 114
73 89 112
75 92 119
75 91 114
77 92 114
74 90 112
76 92 115
75 90 113
76 92 115
76 92 115
76 92 116
78 93 116
75 91 115
75 91 115
78 94 117
74 91 115
76 92 115
76 91 115
73 88 110
74 90 114
75 91 115
75 91 115
75 91 115
78 94 118
75 91 114
75 91 115
80 95 119
78 93 116
75 91 114
73 88 110
78 93 116
77 92 113
77 92 116
77 93 118
72 87 109
76 93 118
77 93 118
74 89 112
77 92 116
75 91 115
72 88 113
76 93 118
75 91 114
75 91 116
78 94 119
77 92 115
75 92 116
71 87 110
75 91 115
77 93 116
79 95 119
75 92 118
74 89 112
74 89 112
76 92 116
76 93 118
76 93 119
75 92 117
76 91 114
79 94 117
80 95 118
76 92 117
79 95 119
75 90 113
80 96 120
77 94 120
76 93 118
79 96 120
77 94 118
78 94 119
139 166 205
175 207 255
175 207 255
175 207 255
175 207 255
175 207 255
175 207 255
175 207 255
175 207 255
175 207 255
175 207 255
175 207 255
175 207 255
175 207 255
176 208 255
176 208 255
176 208 255
176 208 255
176 208 255
176 208 255
176 208 255
176 208 255
176 208 255
176 208 255
176 208 255
176 208 255
176 208 255
176 208 255
176 208 255
176 208 255
177 208 255
177 208 255
177 208 255
177 208 255
177 208 255
177 208 255
177 208 255
177 208 255
177 208 255
177 208 255
177 208 255
177 209 255
177 209 255
177 209 255
177 209 255
177 209 255
178 209 255
178 209 255
178 209 255
178 209 255
178 209 255
178 209 255
178 209 255
178 209 255
178 209 255
178 209 255
178 209 255
178 209 255
178 209 255
178 209 255
178 209 255
178 209 255
178 209 255
178 209 255
179 209 255
179 209 255
179 209 255
179 209 255
179 209 255
179 209 255
179 210 255
179 210 255
179 210 255
179 210 255
179 210 255
179 210 255
179 210 255
179 210 255
179 210 255
179 210 255
179 210 255
179 210 255
179 210 255
180 210 255
180 210 255
180 210 255
180 210 255
180 210 255
180 210 255
180 210 255
180 210 255
180 210 255
180 210 255
180 210 255
180 210 255
180 210 255
180 210 255
180 210 255
180 210 255
180 210 255
180 210 255
180 210 255
180 210 255
180 210 255
181 211 255
181 211 255
181 211 255
181 211 255
181 211 255
181 211 255
181 211 255
181 211 255
181 211 255
181 211 255
181 211 255
181 211 255
181 211 255
181 211 255
181 211 255
181 211 255
181 211 255
181 211 255
181 211 255
181 211 255
181 211 255
181 211 255
181 211 255
181 211 255
182 211 255
182 211 255
182 211 255
182 211 255
182 211 255
182 211 255
182 211 255
182 211 255
182 211 255
182 211 255
182 211 255
182 211 255
182 211 255
182 211 255
182 211 255
182 211 255
182 211 255
182 212 255
182 212 255
182 212 255
182 212 255
182 212 255
182 212 255
182 212 255
182 211 255
182 211 255
182 211 255
182 211 255
182 211 255
182 211 255
182 211 255
182 211 255
182 211 255
182 211 255
182 211 255
182 211 255
182 211 255
182 211 255
182 211 255
182 211 255
182 211 255
181 211 255
181 211 255
181 211 255
181 211 255
181 211 255
181 211 255
181 211 255
181 211 255
181 211 255
181 211 255
181 211 255
181 211 255
181 211 255
181 211 255
181 211 255
181 211 255
181 211 255
181 211 255
181 211 255
181 211 255
181 211 255
181 211 255
181 211 255
181 211 255
180 210 255
180 210 255
180 210 255
180 210 255
180 210 255
180 210 255
180 210 255
180 210 255
180 210 255
180 210 255
180 210 255
180 210 255
180 210 255
180 210 255
180 210 255
180 210 255
180 210 255
180 210 255
180 210 255
180 210 255
180 210 255
179 210 255
179 210 255
179 210 255
179 210 255
179 210 255
179 210 255
179 210 255
179 210 255
179 210 255
179 210 255
179 210 255
179 210 255
179 210 255
179 209 255
179 209 255
179 209 255
179 209 255
179 209 255
179 209 255
178 209 255
178 209 255
178 209 255
178 209 255
178 209 255
178 209 255
178 209 255
178 209 255
178 209 255
178 209 255
178 209 255
178 209 255
178 209 255
178 209 255
178 209 255
178 209 255
178 209 255
177 209 255
177 209 255
177 209 255
177 209 255
177 209 255
177 209 255
177 208 255
177 208 255
177 208 255
177 208 255
177 208 255
177 208 255
177 208 255
177 208 255
177 208 255
177 208 255
177 208 255
176 208 255
176 208 255
176 208 255
176 208 255
176 208 255
176 208 255
176 208 255
176 208 255
176 208 255
176 208 255
176 208 255
176 208 255
176 208 255
176 208 255
176 208 255
176 208 255
176 208 255
175 207 255
175 207 255
175 207 255
175 207 255
168 199 247
84 101 128
77 93 117
73 89 114
78 93 117
76 92 116
79 95 119
76 91 114
73 89 113
73 88 110
76 91 113
79 95 119
75 92 118
76 92 116
76 91 113
78 94 118
75 91 116
77 92 114
74 91 116
79 94 116
79 95 119
75 91 115
74 88 109
77 93 118
75 91 115
75 91 115
76 91 114
78 94 116
72 88 112
75 90 112
76 91 115
80 97 123
74 89 112
73 87 109
69 84 107
75 90 112
75 91 115
79 95 119
74 89 112
79 95 120
72 88 111
68 83 107
78 94 118
75 91 116
77 93 118
73 89 112
75 92 117
72 90 116
75 89 112
79 96 121
74 90 114
73 89 113
77 93 117
72 89 113
79 95 120
73 88 110
76 92 115
72 87 110
75 91 115
72 87 111
78 95 120
72 87 109
76 93 118
72 87 111
79 95 118
78 94 117
75 91 116
76 91 114
75 90 114
73 89 112
79 94 116
79 94 117
75 91 115
75 91 114
72 88 113
72 88 111
74 89 111
73 88 110
75 90 113
74 89 112
73 88 111
78 94 118
76 91 113
71 86 109
77 93 118
75 90 114
76 91 114
78 93 117
73 88 111
74 90 114
74 90 115
80 94 116
78 94 118
78 94 118
75 90 112
77 92 114
78 93 115
75 90 113
78 94 117
75 92 116
75 91 114
75 91 114
76 91 115
74 91 115
75 91 116
76 93 119
80 95 118
77 92 115
79 93 115
75 91 114
77 93 117
76 92 116
82 101 129
171 202 249
175 207 255
175 207 255
175 207 255
175 207 255
176 208 255
176 208 255
176 208 255
176 208 255
176 208 255
176 208 255
176 208 255
176 208 255
176 208 255
176 208 255
176 208 255
176 208 255
176 208 255
176 208 255
176 208 255
176 208 255
176 208 255
177 208 255
177 208 255
177 208 255
177 208 255
177 208 255
177 208 255
177 208 255
177 208 255
177 208 255
177 208 255
177 208 255
177 209 255
177 209 255
177 209 255
177 209 255
177 209 255
177 209 255
178 209 255
178 209 255
178 209 255
178 209 255
178 209 255
178 209 255
178 209 255
178 209 255
178 209 255
178 209 255
178 209 255
178 209 255
178 209 255
178 209 255
178 209 255
178 209 255
178 209 255
179 209 255
179 209 255
179 209 255
179 209 255
179 209 255
179 209 255
179 210 255
179 210 255
179 210 255
179 210 255
179 210 255
179 210 255
179 210 255
179 210 255
179 210 255
179 210 255
179 210 255
179 210 255
179 210 255
180 210 255
180 210 255
180 210 255
180 210 255
180 210 255
180 210 255
180 210 255
180 210 255
180 210 255
180 210 255
180 210 255
180 210 255
180 210 255
180 210 255
180 210 255
180 210 255
180 210 255
180 210 255
180 210 255
180 210 255
180 210 255
181 211 255
181 211 255
181 211 255
181 211 255
181 211 255
181 211 255
181 211 255
181 211 255
181 211 255
181 211 255
181 211 255
181 211 255
181 211 255
181 211 255
181 211 255
181 211 255
181 211 255
181 211 255
181 211 255
181 211 255
181 211 255
181 211 255
181 211 255
181 211 255
182 211 255
182 211 255
182 211 255
182 211 255
182 211 255
182 211 255
182 211 255
182 211 255
182 211 255
182 211 255
182 211 255
182 211 255
182 211 255
182 211 255
182 211 255
182 211 255
182 211 255
182 212 255
182 212 255
182 212 255
182 212 255
182 212 255
182 212 255
182 212 255
183 212 255
183 212 255
183 212 255
183 212 255
183 212 255
182 212 255
182 212 255
182 212 255
182 212 255
182 212 255
182 212 255
182 212 255
182 212 255
182 212 255
182 211 255
182 211 255
182 211 255
182 211 255
182 211 255
182 211 255
182 211 255
182 211 255
182 211 255
182 211 255
182 211 255
182 211 255
182 211 255
182 211 255
182 211 255
182 211 255
182 211 255
182 211 255
181 211 255
181 211 255
181 211 255
181 211 255
181 211 255
181 211 255
181 211 255
181 211 255
181 211 255
181 211 255
181 211 255
181 211 255
181 211 255
181 211 255
181 211 255
181 211 255
181 211 255
181 211 255
181 211 255
181 211 255
181 211 255
181 211 255
181 211 255
180 210 255
180 210 255
180 210 255
180 210 255
180 210 255
180 210 255
180 210 255
180 210 255
180 210 255
180 210 255
180 210 255
180 210 255
180 210 255
180 210 255
180 210 255
180 210 255
180 210 255
180 210 255
180 210 255
180 210 255
180 210 255
179 210 255
179 210 255
179 210 255
179 210 255
179 210 255
179 210 255
179 210 255
179 210 255
179 210 255
179 210 255
179 210 255
179 210 255
179 209 255
179 209 255
179 209 255
179 209 255
179 209 255
179 209 255
178 209 255
178 209 255
178 209 255
178 209 255
178 209 255
178 209 255
178 209 255
178 209 255
178 209 255
178 209 255
178 209 255
178 209 255
178 209 255
178 209 255
178 209 255
178 209 255
178 209 255
178 209 255
177 209 255
177 209 255
177 209 255
177 209 255
177 209 255
177 209 255
177 208 255
177 208 255
177 208 255
177 208 255
177 208 255
177 208 255
177 208 255
177 208 255
177 208 255
177 208 255
177 208 255
177 208 255
176 208 255
176 208 255
176 208 255
176 208 255
176 208 255
176 208 255
176 208 255
176 208 255
176 208 255
176 208 255
176 208 255
176 208 255
176 208 255
130 155 192
78 94 117
75 90 112
77 93 118
79 96 121
81 97 120
77 93 117
76 91 114
72 87 111
77 94 120
79 94 117
77 93 117
75 90 113
76 91 114
75 90 113
75 90 113
77 93 117
79 96 120
74 89 113
72 88 111
77 94 118
72 87 110
77 93 118
77 92 114
78 93 116
78 92 114
73 90 114
79 93 115
76 91 113
77 93 116
72 88 111
74 89 112
74 89 111
77 93 116
79 94 118
80 95 118
72 86 108
72 89 113
78 94 119
76 91 115
68 83 106
74 90 113
74 91 115
75 89 112
72 87 111
76 92 115
78 94 117
72 86 108
74 90 113
74 88 111
76 93 117
78 94 118
74 88 110
75 91 115
75 89 112
75 90 113
72 87 110
78 93 115
73 89 112
78 93 115
77 92 115
74 90 114
79 94 116
74 89 113
72 88 111
72 88 112
77 93 117
77 92 114
75 92 117
78 93 117
76 92 116
77 94 118
71 87 110
80 95 117
77 92 114
75 90 112
76 92 117
75 91 116
80 95 119
79 94 117
74 90 113
75 91 114
78 95 120
71 87 110
77 92 115
76 92 116
74 88 111
74 90 115
73 89 113
76 91 115
74 90 114
76 91 115
75 91 115
80 96 120
74 90 115
72 86 108
74 90 115
77 94 119
79 94 117
75 92 117
76 92 116
76 91 114
74 90 114
80 96 120
71 85 107
77 93 117
77 93 118
71 86 109
77 93 116
78 93 117
74 90 113
79 94 118
75 92 117
131 156 194
176 208 255
176 208 255
176 208 255
176 208 255
176 208 255
176 208 255
176 208 255
176 208 255
176 208 255
176 208 255
176 208 255
176 208 255
176 208 255
176 208 255
177 208 255
177 208 255
177 208 255
177 208 255
177 208 255
177 208 255
177 208 255
177 208 255
177 208 255
177 208 255
177 208 255
177 209 255
177 209 255
177 209 255
177 209 255
177 209 255
177 209 255
178 209 255
178 209 255
178 209 255
178 209 255
178 209 255
178 209 255
178 209 255
178 209 255
178 209 255
178 209 255
178 209 255
178 209 255
178 209 255
178 209 255
178 209 255
178 209 255
178 209 255
178 209 255
179 209 255
179 209 255
179 209 255
179 209 255
179 209 255
179 209 255
179 210 255
179 210 255
179 210 255
179 210 255
179 210 255
179 210 255
179 210 255
179 210 255
179 210 255
179 210 255
179 210 255
179 210 255
180 210 255
180 210 255
180 210 255
180 210 255
180 210 255
180 210 255
180 210 255
180 210 255
180 210 255
180 210 255
180 210 255
180 210 255
180 210 255
180 210 255
180 210 255
180 210 255
180 210 255
180 210 255
180 210 255
180 210 255
180 210 255
181 211 255
181 211 255
181 211 255
181 211 255
181 211 255
181 211 255
181 211 255
181 211 255
181 211 255
181 211 255
181 211 255
181 211 255
181 211 255
181 211 255
181 211 255
181 211 255
181 211 255
181 211 255
181 211 255
181 211 255
181 211 255
181 211 255
181 211 255
182 211 255
182 211 255
182 211 255
182 211 255
182 211 255
182 211 255
182 211 255
182 211 255
182 211 255
182 211 255
182 211 255
182 211 255
182 211 255
182 211 255
182 211 255
182 211 255
182 211 255
182 211 255
182 212 255
182 212 255
182 212 255
182 212 255
182 212 255
182 212 255
182 212 255
182 212 255
182 212 255
183 212 255
183 212 255
183 212 255
183 212 255
183 212 255
183 212 255
183 212 255
183 212 255
183 212 255
183 212 255
183 212 255
183 212 255
183 212 255
183 212 255
183 212 255
183 212 255
183 212 255
183 212 255
182 212 255
182 212 255
182 212 255
182 212 255
182 212 255
182 212 255
182 212 255
182 212 255
182 212 255
182 211 255
182 211 255
182 211 255
182 211 255
182 211 255
182 211 255
182 211 255
182 211 255
182 211 255
182 211 255
182 211 255
182 211 255
182 211 255
182 211 255
182 211 255
182 211 255
182 211 255
181 211 255
181 211 255
181 211 255
181 211 255
181 211 255
181 211 255
181 211 255
181 211 255
181 211 255
181 211 255
181 211 255
181 211 255
181 211 255
181 211 255
181 211 255
181 211 255
181 211 255
181 211 255
181 211 255
181 211 255
181 211 255
181 211 255
181 211 255
180 210 255
180 210 255
180 210 255
180 210 255
180 210 255
180 210 255
180 210 255
180 210 255
180 210 255
180 210 255
180 210 255
180 210 255
180 210 255
180 210 255
180 210 255
180 210 255
180 210 255
180 210 255
180 210 255
180 210 255
180 210 255
179 210 255
179 210 255
179 210 255
179 210 255
179 210 255
179 210 255
179 210 255
179 210 255
179 210 255
179 210 255
179 210 255
179 210 255
179 209 255
179 209 255
179 209 255
179 209 255
179 209 255
179 209 255
179 209 255
178 209 255
178 209 255
178 209 255
178 209 255
178 209 255
178 209 255
178 209 255
178 209 255
178 209 255
178 209 255
178 209 255
178 209 255
178 209 255
178 209 255
178 209 255
178 209 255
178 209 255
177 209 255
177 209 255
177 209 255
177 209 255
177 209 255
177 209 255
177 209 255
177 208 255
177 208 255
177 208 255
177 208 255
177 208 255
177 208 255
177 208 255
177 208 255
177 208 255
177 208 255
177 208 255
177 208 255
176 208 255
176 208 255
176 208 255
176 208 255
166 196 241
81 97 121
73 89 111
78 94 117
75 90 113
75 90 112
75 90 113
80 96 120
74 90 113
81 97 120
77 92 115
75 91 114
78 92 112
76 91 113
75 91 115
77 93 118
79 94 118
75 91 114
71 87 111
72 87 110
75 90 113
79 94 117
74 90 113
70 85 108
78 93 115
76 91 114
75 90 114
75 91 113
74 90 114
76 93 119
73 88 110
77 92 115
72 87 110
76 92 116
78 93 116
74 90 114
75 91 114
77 92 114
74 90 112
74 89 113
74 89 111
76 91 114
76 91 114
75 90 113
75 91 114
75 90 112
75 90 113
74 90 114
77 92 115
76 92 116
74 90 113
76 93 118
73 89 113
75 91 114
66 81 102
78 94 119
74 90 114
74 88 110
77 93 117
77 92 115
79 95 119
77 94 119
77 92 115
75 90 112
72 88 113
76 92 116
71 87 110
75 91 114
78 94 118
76 92 115
74 89 112
74 89 112
75 91 114
78 94 118
77 92 116
76 92 117
71 87 110
75 93 119
77 94 118
72 87 110
74 88 110
76 93 118
78 93 116
75 91 114
74 90 115
74 90 113
73 89 112
74 90 114
72 89 113
74 89 113
78 94 118
76 90 112
71 86 108
80 95 119
77 92 116
78 93 115
77 92 116
75 91 116
76 92 117
78 94 117
75 91 115
74 90 113
74 89 111
74 89 111
73 89 112
77 94 119
76 92 115
73 89 113
74 90 114
75 90 114
75 91 115
74 89 113
75 90 113
72 88 113
78 96 122
166 196 240
176 208 255
176 208 255
176 208 255
176 208 255
177 208 255
177 208 255
177 208 255
177 208 255
177 208 255
177 208 255
177 208 255
177 208 255
177 208 255
177 208 255
177 208 255
177 208 255
177 209 255
177 209 255
177 209 255
177 209 255
177 209 255
177 209 255
178 209 255
178 209 255
178 209 255
178 209 255
178 209 255
178 209 255
178 209 255
178 209 255
178 209 255
178 209 255
178 209 255
178 209 255
178 209 255
178 209 255
178 209 255
178 209 255
178 209 255
178 209 255
179 209 255
179 209 255
179 209 255
179 209 255
179 209 255
179 209 255
179 210 255
179 210 255
179 210 255
179 210 255
179 210 255
179 210 255
179 210 255
179 210 255
179 210 255
179 210 255
179 210 255
179 210 255
179 210 255
180 210 255
180 210 255
180 210 255
180 210 255
180 210 255
180 210 255
180 210 255
180 210 255
180 210 255
180 210 255
180 210 255
180 210 255
180 210 255
180 210 255
180 210 255
180 210 255
180 210 255
180 210 255
180 210 255
180 210 255
181 211 255
181 211 255
181 211 255
181 211 255
181 211 255
181 211 255
181 211 255
181 211 255
181 211 255
181 211 255
181 211 255
181 211 255
181 211 255
181 211 255
181 211 255
181 211 255
181 211 255
181 211 255
181 211 255
181 211 255
181 211 255
181 211 255
181 211 255
181 211 255
182 211 255
182 211 255
182 211 255
182 211 255
182 211 255
182 211 255
182 211 255
182 211 255
182 211 255
182 211 255
182 211 255
182 211 255
182 211 255
182 211 255
182 211 255
182 211 255
182 212 255
182 212 255
182 212 255
182 212 255
182 212 255
182 212 255
182 212 255
182 212 255
182 212 255
182 212 255
183 212 255
183 212 255
183 212 255
183 212 255
183 212 255
183 212 255
183 212 255
183 212 255
183 212 255
183 212 255
183 212 255
183 212 255
183 212 255
183 212 255
183 212 255
183 212 255
183 212 255
183 212 255
183 212 255
183 212 255
183 212 255
183 212 255
183 212 255
183 212 255
183 212 255
183 212 255
183 212 255
183 212 255
183 212 255
183 212 255
183 212 255
183 212 255
183 212 255
183 212 255
182 212 255
182 212 255
182 212 255
182 212 255
182 212 255
182 212 255
182 212 255
182 212 255
182 212 255
182 212 255
182 211 255
182 211 255
182 211 255
182 211 255
182 211 255
182 211 255
182 211 255
182 211 255
182 211 255
182 211 255
182 211 255
182 211 255
182 211 255
182 211 255
182 211 255
182 211 255
182 211 255
181 211 255
181 211 255
181 211 255
181 211 255
181 211 255
181 211 255
181 211 255
181 211 255
181 211 255
181 211 255
181 211 255
181 211 255
181 211 255
181 211 255
181 211 255
181 211 255
181 211 255
181 211 255
181 211 255
181 211 255
181 211 255
181 211 255
180 210 255
180 210 255
180 210 255
180 210 255
180 210 255
180 210 255
180 210 255
180 210 255
180 210 255
180 210 255
180 210 255
180 210 255
180 210 255
180 210 255
180 210 255
180 210 255
180 210 255
180 210 255
180 210 255
180 210 255
179 210 255
179 210 255
179 210 255
179 210 255
179 210 255
179 210 255
179 210 255
179 210 255
179 210 255
179 210 255
179 210 255
179 210 255
179 210 255
179 209 255
179 209 255
179 209 255
179 209 255
179 209 255
179 209 255
178 209 255
178 209 255
178 209 255
178 209 255
178 209 255
178 209 255
178 209 255
178 209 255
178 209 255
178 209 255
178 209 255
178 209 255
178 209 255
178 209 255
178 209 255
178 209 255
178 209 255
178 209 255
177 209 255
177 209 255
177 209 255
177 209 255
177 209 255
177 209 255
177 209 255
177 208 255
177 208 255
177 208 255
177 208 255
177 208 255
177 208 255
177 208 255
177 208 255
117 139 173
76 92 116
73 89 112
75 91 114
78 94 119
74 90 114
79 95 119
72 88 110
79 95 119
76 93 118
74 90 115
77 93 116
76 92 115
77 93 116
73 89 113
75 90 114
74 89 112
70 85 107
77 93 117
73 88 111
75 92 117
74 90 115
75 91 115
74 89 112
74 89 113
78 95 120
74 90 113
77 94 120
72 87 110
72 88 111
78 94 119
75 91 114
74 89 112
74 89 112
76 92 116
71 85 108
73 88 112
72 89 113
77 92 116
73 90 116
76 92 116
73 89 112
75 91 115
75 90 112
73 88 111
75 91 115
77 93 117
76 92 116
71 87 112
75 91 115
78 94 117
74 89 111
75 90 114
69 84 108
76 91 113
75 90 113
69 84 107
77 93 117
78 93 116
72 87 108
74 90 114
76 92 116
78 93 116
74 90 113
75 90 113
73 88 110
73 89 113
76 92 116
76 92 116
75 91 116
74 89 112
72 88 112
71 87 110
73 89 113
76 92 117
73 88 111
72 87 111
78 93 117
79 94 118
75 91 115
74 88 110
73 88 112
78 94 119
69 86 110
75 90 114
76 92 116
75 91 114
71 87 111
73 89 113
78 93 115
77 93 116
73 89 114
77 92 116
74 89 111
74 90 115
77 92 114
76 91 115
79 94 118
78 94 117
75 90 113
74 90 114
73 89 113
75 92 116
77 94 118
75 91 115
75 90 112
76 92 115
77 93 116
77 92 115
73 88 111
74 90 114
74 90 114
74 90 114
77 93 116
80 96 121
105 125 156
177 208 255
177 208 255
177 208 255
177 208 255
177 208 255
177 208 255
177 208 255
177 208 255
177 209 255
177 209 255
177 209 255
177 209 255
177 209 255
177 209 255
178 209 255
178 209 255
178 209 255
178 209 255
178 209 255
178 209 255
178 209 255
178 209 255
178 209 255
178 209 255
178 209 255
178 209 255
178 209 255
178 209 255
178 209 255
178 209 255
178 209 255
178 209 255
178 209 255
179 209 255
179 209 255
179 209 255
179 209 255
179 209 255
179 209 255
179 210 255
179 210 255
179 210 255
179 210 255
179 210 255
179 210 255
179 210 255
179 210 255
179 210 255
179 210 255
179 210 255
179 210 255
179 210 255
180 210 255
180 210 255
180 210 255
180 210 255
180 210 255
180 210 255
180 210 255
180 210 255
180 210 255
180 210 255
180 210 255
180 210 255
180 210 255
180 210 255
180 210 255
180 210 255
180 210 255
180 210 255
180 210 255
180 210 255
181 211 255
181 211 255
181 211 255
181 211 255
181 211 255
181 211 255
181 211 255
181 211 255
181 211 255
181 211 255
181 211 255
181 211 255
181 211 255
181 211 255
181 211 255
181 211 255
181 211 255
181 211 255
181 211 255
181 211 255
181 211 255
181 211 255
181 211 255
182 211 255
182 211 255
182 211 255
182 211 255
182 211 255
182 211 255
182 211 255
182 211 255
182 211 255
182 211 255
182 211 255
182 211 255
182 211 255
182 211 255
182 211 255
182 211 255
182 212 255
182 212 255
182 212 255
182 212 255
182 212 255
182 212 255
182 212 255
182 212 255
182 212 255
182 212 255
183 212 255
183 212 255
183 212 255
183 212 255
183 212 255
183 212 255
183 212 255
183 212 255
183 212 255
183 212 255
183 212 255
183 212 255
183 212 255
183 212 255
183 212 255
183 212 255
183 212 255
183 212 255
183 212 255
183 212 255
183 212 255
183 212 255
183 212 255
183 212 255
183 212 255
183 212 255
183 212 255
183 212 255
183 212 255
183 212 255
183 212 255
183 212 255
183 212 255
183 212 255
183 212 255
183 212 255
183 212 255
183 212 255
183 212 255
183 212 255
183 212 255
183 212 255
183 212 255
183 212 255
183 212 255
183 212 255
183 212 255
183 212 255
183 212 255
183 212 255
182 212 255
182 212 255
182 212 255
182 212 255
182 212 255
182 212 255
182 212 255
182 212 255
182 212 255
182 211 255
182 211 255
182 211 255
182 211 255
182 211 255
182 211 255
182 211 255
182 211 255
182 211 255
182 211 255
182 211 255
182 211 255
182 211 255
182 211 255
182 211 255
182 211 255
182 211 255
181 211 255
181 211 255
181 211 255
181 211 255
181 211 255
181 211 255
181 211 255
181 211 255
181 211 255
181 211 255
181 211 255
181 211 255
181 211 255
181 211 255
181 211 255
181 211 255
181 211 255
181 211 255
181 211 255
181 211 255
181 211 255
181 211 255
181 211 255
180 210 255
180 210 255
180 210 255
180 210 255
180 210 255
180 210 255
180 210 255
180 210 255
180 210 255
180 210 255
180 210 255
180 210 255
180 210 255
180 210 255
180 210 255
180 210 255
180 210 255
180 210 255
180 210 255
180 210 255
179 210 255
179 210 255
179 210 255
179 210 255
179 210 255
179 210 255
179 210 255
179 210 255
179 210 255
179 210 255
179 210 255
179 210 255
179 210 255
179 209 255
179 209 255
179 209 255
179 209 255
179 209 255
179 209 255
178 209 255
178 209 255
178 209 255
178 209 255
178 209 255
178 209 255
178 209 255
178 209 255
178 209 255
178 209 255
178 209 255
178 209 255
178 209 255
178 209 255
178 209 255
178 209 255
178 209 255
178 209 255
178 209 255
177 209 255
177 209 255
177 209 255
177 209 255
177 209 255
168 198 243
78 94 117
76 92 117
75 92 117
77 91 113
74 89 113
77 94 119
77 92 114
73 88 111
80 95 117
72 87 110
75 90 112
73 88 109
75 92 117
79 95 120
73 89 113
75 90 112
71 86 109
77 93 116
76 91 114
75 89 109
74 89 112
72 88 112
76 92 115
75 91 114
75 91 115
73 89 112
76 91 114
72 89 113
72 87 109
72 88 111
75 90 113
76 92 116
76 91 115
71 88 112
71 87 111
76 92 117
70 86 109
74 89 112
78 94 119
75 91 114
75 90 113
73 90 116
71 87 110
71 85 108
72 87 109
73 88 110
72 87 110
74 89 113
78 93 117
73 89 114
75 90 113
75 91 114
76 92 115
77 92 116
71 86 109
75 91 114
75 90 112
77 93 117
73 88 112
73 89 112
74 90 113
75 92 117
72 86 108
74 90 113
72 88 111
75 91 115
76 91 114
73 88 111
76 92 115
74 90 113
72 88 110
73 90 114
73 90 114
79 94 118
70 86 110
78 93 116
71 86 108
73 89 113
75 91 115
73 88 112
77 93 118
77 91 113
82 98 121
75 91 116
78 95 120
76 92 116
73 89 112
77 92 115
80 95 119
74 90 115
77 92 115
73 89 113
71 86 108
72 87 111
73 88 110
74 89 112
77 92 116
75 91 115
73 88 112
79 95 119
75 91 114
75 91 114
79 95 119
76 92 116
73 89 113
76 91 114
74 90 113
79 94 117
79 95 118
77 94 119
75 91 114
73 89 113
74 90 113
80 96 119
75 90 113
78 95 120
162 191 235
177 209 255
177 209 255
177 209 255
177 209 255
177 209 255
178 209 255
178 209 255
178 209 255
178 209 255
178 209 255
178 209 255
178 209 255
178 209 255
178 209 255
178 209 255
178 209 255
178 209 255
178 209 255
178 209 255
178 209 255
178 209 255
178 209 255
178 209 255
178 209 255
179 209 255
179 209 255
179 209 255
179 209 255
179 209 255
179 209 255
179 210 255
179 210 255
179 210 255
179 210 255
179 210 255
179 210 255
179 210 255
179 210 255
179 210 255
179 210 255
179 210 255
179 210 255
179 210 255
180 210 255
180 210 255
180 210 255
180 210 255
180 210 255
180 210 255
180 210 255
180 210 255
180 210 255
180 210 255
180 210 255
180 210 255
180 210 255
180 210 255
180 210 255
180 210 255
180 210 255
180 210 255
180 210 255
180 210 255
180 210 255
181 211 255
181 211 255
181 211 255
181 211 255
181 211 255
181 211 255
181 211 255
181 211 255
181 211 255
181 211 255
181 211 255
181 211 255
181 211 255
181 211 255
181 211 255
181 211 255
181 211 255
181 211 255
181 211 255
181 211 255
181 211 255
181 211 255
182 211 255
182 211 255
182 211 255
182 211 255
182 211 255
182 211 255
182 211 255
182 211 255
182 211 255
182 211 255
182 211 255
182 211 255
182 211 255
182 211 255
182 211 255
182 211 255
182 212 255
182 212 255
182 212 255
182 212 255
182 212 255
182 212 255
182 212 255
182 212 255
182 212 255
183 212 255
183 212 255
183 212 255
183 212 255
183 212 255
183 212 255
183 212 255
183 212 255
183 212 255
183 212 255
183 212 255
183 212 255
183 212 255
183 212 255
183 212 255
183 212 255
183 212 255
183 212 255
183 212 255
183 212 255
183 212 255
183 212 255
183 212 255
183 212 255
183 212 255
183 212 255
183 212 255
183 212 255
183 212 255
183 212 255
184 212 255
184 212 255
184 212 255
184 212 255
184 212 255
184 212 255
184 212 255
184 212 255
183 212 255
183 212 255
183 212 255
183 212 255
183 212 255
183 212 255
183 212 255
183 212 255
183 212 255
183 212 255
183 212 255
183 212 255
183 212 255
183 212 255
183 212 255
183 212 255
183 212 255
183 212 255
183 212 255
183 212 255
183 212 255
183 212 255
183 212 255
183 212 255
183 212 255
183 212 255
183 212 255
183 212 255
183 212 255
183 212 255
182 212 255
182 212 255
182 212 255
182 212 255
182 212 255
182 212 255
182 212 255
182 212 255
182 212 255
182 211 255
182 211 255
182 211 255
182 211 255
182 211 255
182 211 255
182 211 255
182 211 255
182 211 255
182 211 255
182 211 255
182 211 255
182 211 255
182 211 255
182 211 255
182 211 255
181 211 255
181 211 255
181 211 255
181 211 255
181 211 255
181 211 255
181 211 255
181 211 255
181 211 255
181 211 255
181 211 255
181 211 255
181 211 255
181 211 255
181 211 255
181 211 255
181 211 255
181 211 255
181 211 255
181 211 255
181 211 255
181 211 255
181 211 255
180 210 255
180 210 255
180 210 255
180 210 255
180 210 255
180 210 255
180 210 255
180 210 255
180 210 255
180 210 255
180 210 255
180 210 255
180 210 255
180 210 255
180 210 255
180 210 255
180 210 255
180 210 255
180 210 255
180 210 255
179 210 255
179 210 255
179 210 255
179 210 255
179 210 255
179 210 255
179 210 255
179 210 255
179 210 255
179 210 255
179 210 255
179 210 255
179 210 255
179 209 255
179 209 255
179 209 255
179 209 255
179 209 255
179 209 255
178 209 255
178 209 255
178 209 255
178 209 255
178 209 255
178 209 255
178 209 255
178 209 255
178 209 255
178 209 255
178 209 255
178 209 255
178 209 255
178 209 255
178 209 255
178 209 255
124 146 180
75 91 115
74 90 113
74 89 111
76 92 117
79 95 119
75 90 114
73 90 115
81 97 120
73 89 111
74 90 114
73 88 111
76 91 115
77 92 116
74 91 117
73 89 113
71 86 109
74 89 112
75 90 112
70 84 106
73 89 112
72 89 114
73 88 111
71 88 112
78 93 117
77 92 115
75 90 113
71 88 112
78 94 116
73 88 112
75 91 116
76 91 115
75 90 113
77 92 114
69 84 107
72 88 112
75 90 114
76 92 115
80 96 120
74 89 111
73 89 114
75 91 115
76 90 112
76 92 117
71 86 107
76 91 113
74 90 113
71 87 109
73 88 111
75 91 115
73 89 113
77 92 115
74 90 112
79 94 117
72 86 108
74 90 113
78 93 117
77 93 118
74 89 112
73 88 111
75 90 113
72 88 111
74 90 113
75 92 117
74 90 113
76 92 115
73 87 109
73 89 112
73 89 114
72 87 109
75 91 114
75 91 115
74 90 115
73 88 110
74 90 113
72 87 108
73 88 111
69 86 110
71 86 109
74 89 111
75 92 117
73 88 111
74 90 113
76 91 113
76 91 113
76 90 111
76 91 114
74 89 113
77 93 117
76 92 115
71 88 113
70 86 110
76 92 117
72 87 111
76 91 115
72 89 114
75 92 117
74 89 112
74 89 112
75 91 116
72 87 110
78 94 119
76 92 117
72 88 111
75 90 114
71 87 111
75 91 115
76 92 115
76 92 116
75 91 115
74 90 114
74 89 111
76 92 116
76 92 117
74 90 115
77 92 115
78 94 119
113 135 168
178 209 255
178 209 255
178 209 255
178 209 255
178 209 255
178 209 255
178 209 255
178 209 255
178 209 255
178 209 255
178 209 255
178 209 255
178 209 255
178 209 255
178 209 255
178 209 255
179 209 255
179 209 255
179 209 255
179 209 255
179 209 255
179 209 255
179 210 255
179 210 255
179 210 255
179 210 255
179 210 255
179 210 255
179 210 255
179 210 255
179 210 255
179 210 255
179 210 255
179 210 255
179 210 255
180 210 255
180 210 255
180 210 255
180 210 255
180 210 255
180 210 255
180 210 255
180 210 255
180 210 255
180 210 255
180 210 255
180 210 255
180 210 255
180 210 255
180 210 255
180 210 255
180 210 255
180 210 255
180 210 255
180 210 255
181 211 255
181 211 255
181 211 255
181 211 255
181 211 255
181 211 255
181 211 255
181 211 255
181 211 255
181 211 255
181 211 255
181 211 255
181 211 255
181 211 255
181 211 255
181 211 255
181 211 255
181 211 255
181 211 255
181 211 255
181 211 255
181 211 255
181 211 255
182 211 255
182 211 255
182 211 255
182 211 255
182 211 255
182 211 255
182 211 255
182 211 255
182 211 255
182 211 255
182 211 255
182 211 255
182 211 255
182 211 255
182 211 255
182 211 255
182 212 255
182 212 255
182 212 255
182 212 255
182 212 255
182 212 255
182 212 255
182 212 255
182 212 255
183 212 255
183 212 255
183 212 255
183 212 255
183 212 255
183 212 255
183 212 255
183 212 255
183 212 255
183 212 255
183 212 255
183 212 255
183 212 255
183 212 255
183 212 255
183 212 255
183 212 255
183 212 255
183 212 255
183 212 255
183 212 255
183 212 255
183 212 255
183 212 255
183 212 255
183 212 255
183 212 255
183 212 255
183 212 255
183 212 255
184 212 255
184 212 255
184 212 255
184 212 255
184 212 255
184 212 255
184 212 255
184 212 255
184 213 255
184 213 255
184 213 255
184 213 255
184 213 255
184 213 255
184 213 255
184 212 255
184 212 255
184 212 255
184 212 255
184 212 255
184 212 255
184 212 255
184 212 255
184 212 255
184 212 255
184 212 255
183 212 255
183 212 255
183 212 255
183 212 255
183 212 255
183 212 255
183 212 255
183 212 255
183 212 255
183 212 255
183 212 255
183 212 255
183 212 255
183 212 255
183 212 255
183 212 255
183 212 255
183 212 255
183 212 255
183 212 255
183 212 255
183 212 255
183 212 255
183 212 255
183 212 255
183 212 255
183 212 255
183 212 255
183 212 255
182 212 255
182 212 255
182 212 255
182 212 255
182 212 255
182 212 255
182 212 255
182 212 255
182 212 255
182 211 255
182 211 255
182 211 255
182 211 255
182 211 255
182 211 255
182 211 255
182 211 255
182 211 255
182 211 255
182 211 255
182 211 255
182 211 255
182 211 255
182 211 255
181 211 255
181 211 255
181 211 255
181 211 255
181 211 255
181 211 255
181 211 255
181 211 255
181 211 255
181 211 255
181 211 255
181 211 255
181 211 255
181 211 255
181 211 255
181 211 255
181 211 255
181 211 255
181 211 255
181 211 255
181 211 255
181 211 255
181 211 255
180 210 255
180 210 255
180 210 255
180 210 255
180 210 255
180 210 255
180 210 255
180 210 255
180 210 255
180 210 255
180 210 255
180 210 255
180 210 255
180 210 255
180 210 255
180 210 255
180 210 255
180 210 255
180 210 255
180 210 255
179 210 255
179 210 255
179 210 255
179 210 255
179 210 255
179 210 255
179 210 255
179 210 255
179 210 255
179 210 255
179 210 255
179 210 255
179 210 255
179 210 255
179 209 255
179 209 255
179 209 255
179 209 255
179 209 255
179 209 255
179 209 255
178 209 255
178 209 255
178 209 255
178 209 255
178 209 255
167 196 240
78 94 119
75 92 117
74 88 111
75 90 113
75 90 114
76 92 116
70 86 109
76 92 116
75 91 114
74 90 114
76 92 115
73 89 112
69 84 106
76 92 117
76 91 114
74 90 114
74 90 113
75 92 116
74 89 112
74 90 115
75 89 111
74 89 111
71 86 109
75 91 115
77 92 114
74 91 116
74 90 113
76 93 118
75 89 110
73 88 111
75 90 113
71 86 108
71 87 112
74 89 112
71 86 108
76 93 119
76 92 115
74 89 110
74 89 110
76 91 114
79 96 120
73 89 113
77 93 118
74 89 112
70 86 110
74 90 113
74 88 110
74 90 114
68 84 108
72 88 112
74 88 111
75 91 115
71 86 109
76 92 116
74 89 112
74 91 115
74 90 114
74 89 112
71 86 108
72 87 109
76 90 112
72 86 107
74 90 115
76 93 119
71 86 108
75 90 112
73 88 110
75 91 115
75 90 113
78 94 118
74 89 112
70 85 107
73 88 111
74 89 111
76 92 117
76 92 115
74 89 112
76 91 114
69 83 104
73 88 112
74 89 112
71 86 109
77 93 116
74 89 112
72 89 115
76 91 114
75 91 115
70 85 108
70 85 107
70 85 107
72 86 106
75 91 114
73 89 113
73 88 112
74 91 116
76 91 112
72 87 109
70 85 106
74 90 113
75 91 114
80 95 118
77 93 116
76 92 115
67 83 105
73 89 113
73 89 113
74 90 113
75 91 116
72 87 110
76 92 117
75 90 112
75 90 112
75 90 113
76 92 114
78 93 116
76 91 113
76 93 117
76 92 116
167 197 240
178 209 255
178 209 255
178 209 255
178 209 255
178 209 255
178 209 255
179 209 255
179 209 255
179 209 255
179 209 255
179 209 255
179 209 255
179 210 255
179 210 255
179 210 255
179 210 255
179 210 255
179 210 255
179 210 255
179 210 255
179 210 255
179 210 255
179 210 255
179 210 255
179 210 255
179 210 255
180 210 255
180 210 255
180 210 255
180 210 255
180 210 255
180 210 255
180 210 255
180 210 255
180 210 255
180 210 255
180 210 255
180 210 255
180 210 255
180 210 255
180 210 255
180 210 255
180 210 255
180 210 255
180 210 255
180 210 255
181 211 255
181 211 255
181 211 255
181 211 255
181 211 255
181 211 255
181 211 255
181 211 255
181 211 255
181 211 255
181 211 255
181 211 255
181 211 255
181 211 255
181 211 255
181 211 255
181 211 255
181 211 255
181 211 255
181 211 255
181 211 255
181 211 255
182 211 255
182 211 255
182 211 255
182 211 255
182 211 255
182 211 255
182 211 255
182 211 255
182 211 255
182 211 255
182 211 255
182 211 255
182 211 255
182 211 255
182 211 255
182 211 255
182 212 255
182 212 255
182 212 255
182 212 255
182 212 255
182 212 255
182 212 255
182 212 255
182 212 255
183 212 255
183 212 255
183 212 255
183 212 255
183 212 255
183 212 255
183 212 255
183 212 255
183 212 255
183 212 255
183 212 255
183 212 255
183 212 255
183 212 255
183 212 255
183 212 255
183 212 255
183 212 255
183 212 255
183 212 255
183 212 255
183 212 255
183 212 255
183 212 255
183 212 255
183 212 255
183 212 255
183 212 255
183 212 255
183 212 255
184 212 255
184 212 255
184 212 255
184 212 255
184 212 255
184 212 255
184 212 255
184 212 255
184 212 255
184 212 255
184 212 255
184 213 255
184 213 255
184 213 255
184 213 255
184 213 255
184 213 255
184 213 255
184 213 255
184 213 255
184 213 255
184 213 255
184 213 255
184 213 255
184 213 255
184 213 255
184 213 255
184 213 255
184 213 255
184 213 255
184 213 255
184 213 255
184 213 255
184 212 255
184 212 255
184 212 255
184 212 255
184 212 255
184 212 255
184 212 255
184 212 255
184 212 255
184 212 255
184 212 255
183 212 255
183 212 255
183 212 255
183 212 255
183 212 255
183 212 255
183 212 255
183 212 255
183 212 255
183 212 255
183 212 255
183 212 255
183 212 255
183 212 255
183 212 255
183 212 255
183 212 255
183 212 255
183 212 255
183 212 255
183 212 255
183 212 255
183 212 255
183 212 255
183 212 255
183 212 255
183 212 255
183 212 255
182 212 255
182 212 255
182 212 255
182 212 255
182 212 255
182 212 255
182 212 255
182 212 255
182 212 255
182 211 255
182 211 255
182 211 255
182 211 255
182 211 255
182 211 255
182 211 255
182 211 255
182 211 255
182 211 255
182 211 255
182 211 255
182 211 255
182 211 255
182 211 255
182 211 255
181 211 255
181 211 255
181 211 255
181 211 255
181 211 255
181 211 255
181 211 255
181 211 255
181 211 255
181 211 255
181 211 255
181 211 255
181 211 255
181 211 255
181 211 255
181 211 255
181 211 255
181 211 255
181 211 255
181 211 255
181 211 255
181 211 255
180 210 255
180 210 255
180 210 255
180 210 255
180 210 255
180 210 255
180 210 255
180 210 255
180 210 255
180 210 255
180 210 255
180 210 255
180 210 255
180 210 255
180 210 255
180 210 255
180 210 255
180 210 255
180 210 255
180 210 255
180 210 255
180 210 255
179 210 255
179 210 255
179 210 255
179 210 255
179 210 255
179 210 255
179 210 255
179 210 255
179 210 255
179 210 255
179 210 255
179 210 255
179 210 255
179 209 255
179 209 255
179 209 255
129 152 187
74 90 113
74 91 116
71 88 112
73 88 112
73 89 113
74 89 113
75 90 113
74 89 112
71 87 111
72 88 111
80 95 117
71 87 111
75 91 114
76 92 117
70 85 108
74 89 111
75 89 112
71 86 109
74 90 114
73 89 113
76 91 115
72 88 112
74 89 112
76 92 115
75 91 114
71 87 110
73 88 110
77 94 119
74 90 114
76 91 113
77 92 115
71 86 108
74 89 113
67 82 105
72 88 112
75 90 112
76 91 114
74 91 116
76 92 115
69 84 107
76 93 117
69 87 112
76 91 113
76 90 112
74 90 114
74 89 111
77 93 116
71 86 109
76 91 115
76 92 117
75 90 112
68 83 106
73 87 109
74 89 112
70 84 106
69 84 107
72 87 110
73 88 112
71 88 113
74 89 113
76 90 113
70 86 109
77 92 115
77 93 117
72 87 111
74 90 113
72 86 107
71 86 109
73 88 111
73 88 110
76 92 116
72 87 110
74 89 111
75 91 115
77 93 118
68 83 105
77 92 116
71 87 110
76 91 114
72 87 111
73 88 109
76 91 114
77 92 115
77 93 115
71 85 107
67 82 105
70 85 109
73 88 111
70 85 108
75 90 113
73 89 114
76 91 113
73 88 112
74 89 113
72 87 108
73 89 112
76 91 114
73 88 110
73 90 114
75 91 116
75 90 113
74 90 114
78 93 115
75 90 112
71 85 108
74 91 116
76 92 115
76 90 112
73 88 111
74 89 111
78 94 118
73 89 112
78 93 116
75 90 114
73 88 112
73 88 112
72 88 112
77 91 113
119 141 175
179 209 255
179 209 255
179 210 255
179 210 255
179 210 255
179 210 255
179 210 255
179 210 255
179 210 255
179 210 255
179 210 255
179 210 255
179 210 255
179 210 255
179 210 255
179 210 255
179 210 255
180 210 255
180 210 255
180 210 255
180 210 255
180 210 255
180 210 255
180 210 255
180 210 255
180 210 255
180 210 255
180 210 255
180 210 255
180 210 255
180 210 255
180 210 255
180 210 255
180 210 255
180 210 255
180 210 255
180 210 255
180 210 255
181 211 255
181 211 255
181 211 255
181 211 255
181 211 255
181 211 255
181 211 255
181 211 255
181 211 255
181 211 255
181 211 255
181 211 255
181 211 255
181 211 255
181 211 255
181 211 255
181 211 255
181 211 255
181 211 255
181 211 255
181 211 255
181 211 255
182 211 255
182 211 255
182 211 255
182 211 255
182 211 255
182 211 255
182 211 255
182 211 255
182 211 255
182 211 255
182 211 255
182 211 255
182 211 255
182 211 255
182 211 255
182 211 255
182 212 255
182 212 255
182 212 255
182 212 255
182 212 255
182 212 255
182 212 255
182 212 255
183 212 255
183 212 255
183 212 255
183 212 255
183 212 255
183 212 255
183 212 255
183 212 255
183 212 255
183 212 255
183 212 255
183 212 255
183 212 255
183 212 255
183 212 255
183 212 255
183 212 255
183 212 255
183 212 255
183 212 255
183 212 255
183 212 255
183 212 255
183 212 255
183 212 255
183 212 255
183 212 255
183 212 255
183 212 255
184 212 255
184 212 255
184 212 255
184 212 255
184 212 255
184 212 255
184 212 255
184 212 255
184 212 255
184 212 255
184 212 255
184 213 255
184 213 255
184 213 255
184 213 255
184 213 255
184 213 255
184 213 255
184 213 255
184 213 255
184 213 255
184 213 255
184 213 255
184 213 255
184 213 255
184 213 255
184 213 255
185 213 255
185 213 255
184 213 255
184 213 255
184 213 255
184 213 255
184 213 255
184 213 255
184 213 255
184 213 255
184 213 255
184 213 255
184 213 255
184 213 255
184 213 255
184 213 255
184 213 255
184 213 255
184 213 255
184 213 255
184 213 255
184 213 255
184 213 255
184 213 255
184 213 255
184 213 255
184 212 255
184 212 255
184 212 255
184 212 255
184 212 255
184 212 255
184 212 255
184 212 255
184 212 255
184 212 255
183 212 255
183 212 255
183 212 255
183 212 255
183 212 255
183 212 255
183 212 255
183 212 255
183 212 255
183 212 255
183 212 255
183 212 255
183 212 255
183 212 255
183 212 255
183 212 255
183 212 255
183 212 255
183 212 255
183 212 255
183 212 255
183 212 255
183 212 255
183 212 255
183 212 255
183 212 255
183 212 255
183 212 255
182 212 255
182 212 255
182 212 255
182 212 255
182 212 255
182 212 255
182 212 255
182 212 255
182 212 255
182 211 255
182 211 255
182 211 255
182 211 255
182 211 255
182 211 255
182 211 255
182 211 255
182 211 255
182 211 255
182 211 255
182 211 255
182 211 255
182 211 255
182 211 255
182 211 255
181 211 255
181 211 255
181 211 255
181 211 255
181 211 255
181 211 255
181 211 255
181 211 255
181 211 255
181 211 255
181 211 255
181 211 255
181 211 255
181 211 255
181 211 255
181 211 255
181 211 255
181 211 255
181 211 255
181 211 255
181 211 255
181 211 255
180 210 255
180 210 255
180 210 255
180 210 255
180 210 255
180 210 255
180 210 255
180 210 255
180 210 255
180 210 255
180 210 255
180 210 255
180 210 255
180 210 255
180 210 255
180 210 255
180 210 255
180 210 255
180 210 255
180 210 255
180 210 255
180 210 255
179 210 255
179 210 255
179 210 255
179 210 255
179 210 255
179 210 255
178 208 254
78 94 119
74 89 112
78 95 119
73 88 111
75 90 113
77 92 116
75 90 112
77 92 114
76 92 115
77 94 118
77 94 120
77 94 118
75 90 114
73 88 111
74 89 111
79 95 119
71 87 112
74 89 112
78 93 115
75 91 115
72 87 111
70 86 110
76 92 115
72 88 112
74 89 111
71 87 110
71 86 109
73 88 110
69 84 106
71 86 108
75 90 113
72 87 110
78 93 115
73 88 110
75 90 113
74 88 110
77 93 116
75 90 112
76 91 114
72 87 109
76 91 113
71 87 111
72 87 109
73 88 110
72 88 111
75 90 112
74 90 112
75 89 111
73 89 113
70 85 107
70 85 107
72 87 110
75 90 113
77 92 115
72 88 113
74 89 111
74 90 114
73 88 109
72 87 109
69 84 105
74 90 115
71 87 110
71 86 107
73 88 110
73 87 109
67 83 107
72 87 110
75 90 112
75 91 115
75 91 113
73 90 115
70 84 106
71 87 110
75 91 115
75 91 115
75 91 114
75 89 111
75 90 113
73 88 111
76 91 115
77 92 115
77 93 116
74 89 112
73 88 111
72 88 112
76 92 115
68 84 107
74 90 113
75 89 112
74 90 115
74 89 111
77 93 116
70 85 107
75 90 114
79 94 117
73 88 110
72 88 111
66 81 104
77 94 119
73 88 112
72 88 112
74 89 111
71 86 109
76 92 115
72 87 110
75 90 111
78 93 115
78 95 119
72 86 107
73 88 111
76 92 115
75 91 115
77 92 116
73 89 113
73 89 112
74 90 113
74 89 111
77 94 119
78 93 115
89 106 133
173 203 247
179 210 255
179 210 255
179 210 255
179 210 255
179 210 255
179 210 255
179 210 255
180 210 255
180 210 255
180 210 255
180 210 255
180 210 255
180 210 255
180 210 255
180 210 255
180 210 255
180 210 255
180 210 255
180 210 255
180 210 255
180 210 255
180 210 255
180 210 255
180 210 255
180 210 255
180 210 255
180 210 255
180 210 255
181 211 255
181 211 255
181 211 255
181 211 255
181 211 255
181 211 255
181 211 255
181 211 255
181 211 255
181 211 255
181 211 255
181 211 255
181 211 255
181 211 255
181 211 255
181 211 255
181 211 255
181 211 255
181 211 255
181 211 255
181 211 255
181 211 255
182 211 255
182 211 255
182 211 255
182 211 255
182 211 255
182 211 255
182 211 255
182 211 255
182 211 255
182 211 255
182 211 255
182 211 255
182 211 255
182 211 255
182 211 255
182 211 255
182 212 255
182 212 255
182 212 255
182 212 255
182 212 255
182 212 255
182 212 255
182 212 255
182 212 255
183 212 255
183 212 255
183 212 255
183 212 255
183 212 255
183 212 255
183 212 255
183 212 255
183 212 255
183 212 255
183 212 255
183 212 255
183 212 255
183 212 255
183 212 255
183 212 255
183 212 255
183 212 255
183 212 255
183 212 255
183 212 255
183 212 255
183 212 255
183 212 255
183 212 255
183 212 255
183 212 255
183 212 255
184 212 255
184 212 255
184 212 255
184 212 255
184 212 255
184 212 255
184 212 255
184 212 255
184 212 255
184 212 255
184 213 255
184 213 255
184 213 255
184 213 255
184 213 255
184 213 255
184 213 255
184 213 255
184 213 255
184 213 255
184 213 255
184 213 255
184 213 255
184 213 255
184 213 255
184 213 255
184 213 255
184 213 255
184 213 255
184 213 255
184 213 255
184 213 255
184 213 255
185 213 255
185 213 255
185 213 255
185 213 255
185 213 255
185 213 255
185 213 255
185 213 255
185 213 255
185 213 255
185 213 255
185 213 255
185 213 255
185 213 255
185 213 255
185 213 255
185 213 255
184 213 255
184 213 255
184 213 255
184 213 255
184 213 255
184 213 255
184 213 255
184 213 255
184 213 255
184 213 255
184 213 255
184 213 255
184 213 255
184 213 255
184 213 255
184 213 255
184 213 255
184 213 255
184 213 255
184 213 255
184 213 255
184 213 255
184 212 255
184 212 255
184 212 255
184 212 255
184 212 255
184 212 255
184 212 255
184 212 255
184 212 255
184 212 255
183 212 255
183 212 255
183 212 255
183 212 255
183 212 255
183 212 255
183 212 255
183 212 255
183 212 255
183 212 255
183 212 255
183 212 255
183 212 255
183 212 255
183 212 255
183 212 255
183 212 255
183 212 255
183 212 255
183 212 255
183 212 255
183 212 255
183 212 255
183 212 255
183 212 255
183 212 255
183 212 255
183 212 255
182 212 255
182 212 255
182 212 255
182 212 255
182 212 255
182 212 255
182 212 255
182 212 255
182 212 255
182 211 255
182 211 255
182 211 255
182 211 255
182 211 255
182 211 255
182 211 255
182 211 255
182 211 255
182 211 255
182 211 255
182 211 255
182 211 255
182 211 255
182 211 255
182 211 255
181 211 255
181 211 255
181 211 255
181 211 255
181 211 255
181 211 255
181 211 255
181 211 255
181 211 255
181 211 255
181 211 255
181 211 255
181 211 255
181 211 255
181 211 255
181 211 255
181 211 255
181 211 255
181 211 255
181 211 255
181 211 255
181 211 255
180 210 255
180 210 255
180 210 255
180 210 255
180 210 255
180 210 255
180 210 255
180 210 255
180 210 255
180 210 255
180 210 255
180 210 255
180 210 255
180 210 255
180 210 255
180 210 255
180 210 255
180 210 255
151 177 216
74 91 116
74 90 114
76 91 113
71 88 114
73 88 111
75 90 113
73 87 108
69 85 108
73 87 109
73 89 112
73 88 110
74 89 112
74 89 111
76 91 114
75 90 113
72 87 110
73 89 113
67 83 106
76 91 114
77 93 116
76 92 116
71 87 111
76 93 117
80 96 119
76 91 115
77 92 114
74 88 110
75 90 112
69 84 107
75 90 112
74 89 112
71 86 108
70 85 106
75 89 110
76 91 114
76 92 115
75 91 114
75 90 113
72 87 109
72 86 108
72 87 110
73 88 110
72 87 110
76 92 115
71 86 108
74 89 112
80 95 117
75 91 115
74 89 112
74 90 114
71 85 107
70 85 107
74 90 114
70 86 109
75 91 115
75 90 112
76 92 116
75 91 114
72 86 107
73 87 109
71 86 108
70 85 108
71 86 109
74 90 114
73 87 110
74 90 114
74 89 111
70 85 108
72 87 109
73 89 113
73 88 112
74 88 109
73 88 109
72 87 110
74 88 110
74 89 110
74 90 113
73 88 111
73 88 112
76 92 117
74 89 113
70 85 107
75 90 112
71 86 109
74 89 113
70 86 109
74 90 113
74 89 111
71 86 108
69 85 108
75 91 115
73 88 111
72 87 110
80 95 118
76 91 114
71 85 107
76 91 113
74 90 113
74 89 112
72 88 111
74 89 112
74 90 115
73 89 114
75 90 112
71 86 109
74 89 111
72 86 108
74 90 113
75 91 115
76 92 115
76 91 114
73 88 110
76 92 115
77 92 116
76 92 116
73 87 110
79 94 117
72 87 111
76 91 113
80 95 119
154 180 220
180 210 255
180 210 255
180 210 255
180 210 255
180 210 255
180 210 255
180 210 255
180 210 255
180 210 255
180 210 255
180 210 255
180 210 255
180 210 255
180 210 255
180 210 255
180 210 255
180 210 255
180 210 255
181 211 255
181 211 255
181 211 255
181 211 255
181 211 255
181 211 255
181 211 255
181 211 255
181 211 255
181 211 255
181 211 255
181 211 255
181 211 255
181 211 255
181 211 255
181 211 255
181 211 255
181 211 255
181 211 255
181 211 255
181 211 255
181 211 255
182 211 255
182 211 255
182 211 255
182 211 255
182 211 255
182 211 255
182 211 255
182 211 255
182 211 255
182 211 255
182 211 255
182 211 255
182 211 255
182 211 255
182 211 255
182 211 255
182 211 255
182 212 255
182 212 255
182 212 255
182 212 255
182 212 255
182 212 255
182 212 255
182 212 255
183 212 255
183 212 255
183 212 255
183 212 255
183 212 255
183 212 255
183 212 255
183 212 255
183 212 255
183 212 255
183 212 255
183 212 255
183 212 255
183 212 255
183 212 255
183 212 255
183 212 255
183 212 255
183 212 255
183 212 255
183 212 255
183 212 255
183 212 255
183 212 255
183 212 255
183 212 255
183 212 255
183 212 255
184 212 255
184 212 255
184 212 255
184 212 255
184 212 255
184 212 255
184 212 255
184 212 255
184 212 255
184 212 255
184 213 255
184 213 255
184 213 255
184 213 255
184 213 255
184 213 255
184 213 255
184 213 255
184 213 255
184 213 255
184 213 255
184 213 255
184 213 255
184 213 255
184 213 255
184 213 255
184 213 255
184 213 255
184 213 255
184 213 255
184 213 255
184 213 255
184 213 255
185 213 255
185 213 255
185 213 255
185 213 255
185 213 255
185 213 255
185 213 255
185 213 255
185 213 255
185 213 255
185 213 255
185 213 255
185 213 255
185 213 255
185 213 255
185 213 255
185 213 255
185 213 255
185 213 255
185 213 255
185 213 255
185 213 255
185 213 255
185 213 255
185 213 255
185 213 255
185 213 255
185 213 255
185 213 255
185 213 255
185 213 255
185 213 255
185 213 255
185 213 255
185 213 255
185 213 255
185 213 255
184 213 255
184 213 255
184 213 255
184 213 255
184 213 255
184 213 255
184 213 255
184 213 255
184 213 255
184 213 255
184 213 255
184 213 255
184 213 255
184 213 255
184 213 255
184 213 255
184 213 255
184 213 255
184 213 255
184 213 255
184 213 255
184 213 255
184 212 255
184 212 255
184 212 255
184 212 255
184 212 255
184 212 255
184 212 255
184 212 255
184 212 255
184 212 255
183 212 255
183 212 255
183 212 255
183 212 255
183 212 255
183 212 255
183 212 255
183 212 255
183 212 255
183 212 255
183 212 255
183 212 255
183 212 255
183 212 255
183 212 255
183 212 255
183 212 255
183 212 255
183 212 255
183 212 255
183 212 255
183 212 255
183 212 255
183 212 255
183 212 255
183 212 255
183 212 255
183 212 255
182 212 255
182 212 255
182 212 255
182 212 255
182 212 255
182 212 255
182 212 255
182 212 255
182 211 255
182 211 255
182 211 255
182 211 255
182 211 255
182 211 255
182 211 255
182 211 255
182 211 255
182 211 255
182 211 255
182 211 255
182 211 255
182 211 255
182 211 255
182 211 255
182 211 255
181 211 255
181 211 255
181 211 255
181 211 255
181 211 255
181 211 255
181 211 255
181 211 255
181 211 255
181 211 255
181 211 255
181 211 255
181 211 255
181 211 255
181 211 255
181 211 255
181 211 255
181 211 255
181 211 255
181 211 255
181 211 255
181 211 255
180 210 255
180 210 255
180 210 255
180 210 255
180 210 255
180 210 255
180 210 255
180 210 255
102 121 150
73 88 111
73 88 110
75 91 115
73 88 111
77 93 117
75 91 115
77 92 116
74 91 115
74 90 115
73 88 110
75 90 114
68 85 109
72 87 109
76 91 114
72 86 108
73 90 115
71 86 109
74 90 113
75 90 112
71 87 109
68 82 104
78 94 117
74 89 111
72 88 112
76 91 115
78 93 116
72 88 112
76 91 114
77 91 114
73 88 111
69 85 108
71 87 110
72 88 112
73 88 111
72 87 110
73 88 112
71 86 108
76 91 114
70 86 108
73 87 109
73 88 111
78 94 118
73 89 112
74 89 111
71 86 108
73 89 112
76 91 114
72 87 111
77 92 115
69 84 107
74 90 114
77 92 115
76 91 114
67 80 101
72 87 109
76 91 113
72 87 110
70 84 105
72 87 109
69 83 104
74 89 112
70 85 108
68 82 104
73 87 109
71 86 110
73 89 113
75 89 111
72 89 114
75 90 113
77 92 114
74 90 115
72 87 110
74 89 111
75 90 113
75 90 113
76 91 114
75 90 112
71 86 109
74 89 112
73 88 110
73 88 111
70 85 108
75 89 110
72 88 113
68 82 103
69 83 105
75 91 116
70 85 108
75 91 114
73 89 111
75 90 113
74 89 112
77 92 114
76 92 115
72 87 110
72 87 110
70 85 108
75 91 115
72 87 111
71 86 110
72 87 109
72 87 110
73 88 111
73 87 108
72 88 111
69 84 106
71 87 111
70 86 110
73 88 112
76 90 111
70 85 107
74 89 111
74 90 113
74 88 110
75 91 115
70 84 106
71 86 108
74 89 112
77 92 116
78 93 115
98 118 148
180 210 255
180 210 255
180 210 255
180 210 255
180 210 255
180 210 255
180 210 255
180 210 255
181 211 255
181 211 255
181 211 255
181 211 255
181 211 255
181 211 255
181 211 255
181 211 255
181 211 255
181 211 255
181 211 255
181 211 255
181 211 255
181 211 255
181 211 255
181 211 255
181 211 255
181 211 255
181 211 255
181 211 255
181 211 255
181 211 255
182 211 255
182 211 255
182 211 255
182 211 255
182 211 255
182 211 255
182 211 255
182 211 255
182 211 255
182 211 255
182 211 255
182 211 255
182 211 255
182 211 255
182 211 255
182 211 255
182 211 255
182 212 255
182 212 255
182 212 255
182 212 255
182 212 255
182 212 255
182 212 255
182 212 255
183 212 255
183 212 255
183 212 255
183 212 255
183 212 255
183 212 255
183 212 255
183 212 255
183 212 255
183 212 255
183 212 255
183 212 255
183 212 255
183 212 255
183 212 255
183 212 255
183 212 255
183 212 255
183 212 255
183 212 255
183 212 255
183 212 255
183 212 255
183 212 255
183 212 255
183 212 255
183 212 255
183 212 255
184 212 255
184 212 255
184 212 255
184 212 255
184 212 255
184 212 255
184 212 255
184 212 255
184 212 255
184 213 255
184 213 255
184 213 255
184 213 255
184 213 255
184 213 255
184 213 255
184 213 255
184 213 255
184 213 255
184 213 255
184 213 255
184 213 255
184 213 255
184 213 255
184 213 255
184 213 255
184 213 255
184 213 255
184 213 255
184 213 255
184 213 255
184 213 255
185 213 255
185 213 255
185 213 255
185 213 255
185 213 255
185 213 255
185 213 255
185 213 255
185 213 255
185 213 255
185 213 255
185 213 255
185 213 255
185 213 255
185 213 255
185 213 255
185 213 255
185 213 255
185 213 255
185 213 255
185 213 255
185 213 255
185 213 255
185 213 255
185 213 255
185 213 255
185 213 255
185 213 255
185 213 255
185 213 255
185 213 255
185 213 255
185 213 255
185 213 255
185 213 255
185 213 255
185 213 255
185 213 255
185 213 255
185 213 255
185 213 255
185 213 255
185 213 255
185 213 255
185 213 255
185 213 255
185 213 255
185 213 255
185 213 255
185 213 255
185 213 255
185 213 255
185 213 255
185 213 255
185 213 255
185 213 255
185 213 255
185 213 255
185 213 255
184 213 255
184 213 255
184 213 255
184 213 255
184 213 255
184 213 255
184 213 255
184 213 255
184 213 255
184 213 255
184 213 255
184 213 255
184 213 255
184 213 255
184 213 255
184 213 255
184 213 255
184 213 255
184 213 255
184 213 255
184 213 255
184 212 255
184 212 255
184 212 255
184 212 255
184 212 255
184 212 255
184 212 255
184 212 255
184 212 255
184 212 255
183 212 255
183 212 255
183 212 255
183 212 255
183 212 255
183 212 255
183 212 255
183 212 255
183 212 255
183 212 255
183 212 255
183 212 255
183 212 255
183 212 255
183 212 255
183 212 255
183 212 255
183 212 255
183 212 255
183 212 255
183 212 255
183 212 255
183 212 255
183 212 255
183 212 255
183 212 255
183 212 255
183 212 255
182 212 255
182 212 255
182 212 255
182 212 255
182 212 255
182 212 255
182 212 255
182 212 255
182 211 255
182 211 255
182 211 255
182 211 255
182 211 255
182 211 255
182 211 255
182 211 255
182 211 255
182 211 255
182 211 255
182 211 255
182 211 255
182 211 255
182 211 255
182 211 255
181 211 255
181 211 255
181 211 255
181 211 255
181 211 255
181 211 255
181 211 255
181 211 255
181 211 255
181 211 255
181 211 255
181 211 255
181 211 255
181 211 255
181 211 255
181 211 255
181 211 255
181 211 255
181 211 255
181 211 255
165 193 234
74 89 113
78 93 117
72 88 111
73 89 113
73 88 110
75 89 109
76 90 111
72 87 109
75 91 114
73 89 111
73 88 111
75 90 114
72 86 107
74 90 114
73 88 112
72 87 110
72 87 111
75 91 116
73 89 112
72 87 110
72 88 111
76 91 113
73 89 113
74 88 110
76 92 115
66 81 103
72 87 109
72 88 112
72 87 108
74 90 113
69 84 106
73 88 110
77 92 115
75 91 115
76 90 112
74 89 113
76 92 115
73 89 113
71 86 109
75 90 113
72 86 108
75 90 113
73 87 109
76 90 111
75 90 113
74 89 111
72 86 107
72 88 111
75 90 113
73 87 109
73 88 111
73 89 113
71 86 108
68 82 103
74 89 112
72 87 110
72 85 106
73 89 112
69 84 107
76 90 111
73 87 109
78 93 116
73 88 110
74 90 113
76 93 118
72 87 110
73 88 110
74 89 112
74 89 112
72 87 110
72 87 109
74 89 113
74 89 112
72 87 110
72 87 109
73 88 111
68 83 105
75 89 111
71 87 110
70 84 107
74 88 108
74 90 114
73 88 112
72 87 109
78 92 114
71 86 109
75 91 116
68 84 107
72 86 108
73 88 110
72 87 111
71 85 107
72 87 109
75 91 115
69 83 105
71 87 110
69 84 107
75 90 112
69 84 108
75 91 116
69 85 107
73 88 110
74 89 112
69 85 108
75 92 117
73 88 111
72 89 113
74 90 113
73 88 110
69 84 107
73 89 112
73 90 115
76 92 117
72 86 108
74 90 115
75 90 113
75 91 114
79 94 118
72 87 109
71 87 111
76 91 114
77 92 114
163 190 232
181 211 255
181 211 255
181 211 255
181 211 255
181 211 255
181 211 255
181 211 255
181 211 255
181 211 255
181 211 255
181 211 255
181 211 255
181 211 255
181 211 255
181 211 255
181 211 255
181 211 255
181 211 255
181 211 255
181 211 255
182 211 255
182 211 255
182 211 255
182 211 255
182 211 255
182 211 255
182 211 255
182 211 255
182 211 255
182 211 255
182 211 255
182 211 255
182 211 255
182 211 255
182 211 255
182 211 255
182 212 255
182 212 255
182 212 255
182 212 255
182 212 255
182 212 255
182 212 255
182 212 255
182 212 255
183 212 255
183 212 255
183 212 255
183 212 255
183 212 255
183 212 255
183 212 255
183 212 255
183 212 255
183 212 255
183 212 255
183 212 255
183 212 255
183 212 255
183 212 255
183 212 255
183 212 255
183 212 255
183 212 255
183 212 255
183 212 255
183 212 255
183 212 255
183 212 255
183 212 255
183 212 255
184 212 255
184 212 255
184 212 255
184 212 255
184 212 255
184 212 255
184 212 255
184 212 255
184 212 255
184 212 255
184 213 255
184 213 255
184 213 255
184 213 255
184 213 255
184 213 255
184 213 255
184 213 255
184 213 255
184 213 255
184 213 255
184 213 255
184 213 255
184 213 255
184 213 255
184 213 255
184 213 255
184 213 255
184 213 255
184 213 255
184 213 255
184 213 255
185 213 255
185 213 255
185 213 255
185 213 255
185 213 255
185 213 255
185 213 255
185 213 255
185 213 255
185 213 255
185 213 255
185 213 255
185 213 255
185 213 255
185 213 255
185 213 255
185 213 255
185 213 255
185 213 255
185 213 255
185 213 255
185 213 255
185 213 255
185 213 255
185 213 255
185 213 255
185 213 255
185 213 255
185 213 255
185 213 255
185 213 255
185 213 255
185 213 255
185 213 255
185 213 255
186 214 255
186 214 255
186 214 255
186 214 255
186 214 255
186 214 255
186 214 255
186 214 255
185 213 255
185 213 255
185 213 255
185 213 255
185 213 255
185 213 255
185 213 255
185 213 255
185 213 255
185 213 255
185 213 255
185 213 255
185 213 255
185 213 255
185 213 255
185 213 255
185 213 255
185 213 255
185 213 255
185 213 255
185 213 255
185 213 255
185 213 255
185 213 255
185 213 255
185 213 255
185 213 255
185 213 255
185 213 255
185 213 255
185 213 255
185 213 255
185 213 255
185 213 255
185 213 255
185 213 255
185 213 255
185 213 255
185 213 255
184 213 255
184 213 255
184 213 255
184 213 255
184 213 255
184 213 255
184 213 255
184 213 255
184 213 255
184 213 255
184 213 255
184 213 255
184 213 255
184 213 255
184 213 255
184 213 255
184 213 255
184 213 255
184 213 255
184 213 255
184 212 255
184 212 255
184 212 255
184 212 255
184 212 255
184 212 255
184 212 255
184 212 255
184 212 255
184 212 255
183 212 255
183 212 255
183 212 255
183 212 255
183 212 255
183 212 255
183 212 255
183 212 255
183 212 255
183 212 255
183 212 255
183 212 255
183 212 255
183 212 255
183 212 255
183 212 255
183 212 255
183 212 255
183 212 255
183 212 255
183 212 255
183 212 255
183 212 255
183 212 255
183 212 255
183 212 255
183 212 255
182 212 255
182 212 255
182 212 255
182 212 255
182 212 255
182 212 255
182 212 255
182 212 255
182 212 255
182 211 255
182 211 255
182 211 255
182 211 255
182 211 255
182 211 255
182 211 255
182 211 255
182 211 255
182 211 255
182 211 255
182 211 255
182 211 255
182 211 255
182 211 255
182 211 255
182 211 255
181 211 255
181 211 255
181 211 255
181 211 255
181 211 255
181 211 255
181 211 255
181 211 255
129 152 186
74 89 112
71 86 108
72 87 110
75 91 115
72 89 114
71 86 109
71 87 110
73 89 111
72 87 110
71 86 108
73 88 111
73 87 109
73 87 108
76 91 113
74 89 110
71 86 109
72 87 108
71 87 111
78 94 118
77 92 113
70 85 108
68 83 106
73 88 110
68 82 105
72 86 108
71 87 112
76 91 114
70 85 108
75 90 112
69 85 109
70 84 106
72 86 108
68 82 104
76 91 114
69 84 105
72 86 108
73 88 110
71 85 108
73 88 110
70 84 105
70 85 107
72 87 109
70 84 106
71 86 108
75 89 110
68 83 106
72 87 110
74 90 113
70 85 107
66 81 104
73 88 111
68 83 105
76 91 114
76 92 116
73 87 109
71 87 110
76 91 114
72 88 112
73 88 111
73 89 112
75 89 111
73 89 112
73 88 112
72 87 110
71 87 110
72 87 110
73 88 111
72 87 109
72 87 108
70 84 106
73 88 110
70 85 108
71 85 107
74 89 112
74 89 112
70 86 108
71 86 108
74 88 109
70 87 111
78 94 118
67 81 101
74 88 110
70 85 109
72 88 112
69 84 107
72 88 112
72 88 110
72 87 109
71 87 111
71 86 108
75 90 113
69 85 108
73 88 110
69 83 104
72 88 111
73 89 114
75 89 110
73 89 114
74 90 113
75 90 114
69 83 104
72 87 110
76 91 113
72 87 109
76 91 115
73 88 110
78 93 116
74 90 114
70 84 107
76 92 117
75 91 115
74 89 112
74 89 113
73 88 111
71 87 110
73 89 113
74 90 113
76 91 113
74 89 113
75 91 115
74 89 110
76 92 115
137 161 197
181 211 255
181 211 255
181 211 255
181 211 255
181 211 255
181 211 255
181 211 255
181 211 255
182 211 255
182 211 255
182 211 255
182 211 255
182 211 255
182 211 255
182 211 255
182 211 255
182 211 255
182 211 255
182 211 255
182 211 255
182 211 255
182 211 255
182 211 255
182 211 255
182 211 255
182 212 255
182 212 255
182 212 255
182 212 255
182 212 255
182 212 255
182 212 255
182 212 255
182 212 255
183 212 255
183 212 255
183 212 255
183 212 255
183 212 255
183 212 255
183 212 255
183 212 255
183 212 255
183 212 255
183 212 255
183 212 255
183 212 255
183 212 255
183 212 255
183 212 255
183 212 255
183 212 255
183 212 255
183 212 255
183 212 255
183 212 255
183 212 255
183 212 255
183 212 255
183 212 255
183 212 255
184 212 255
184 212 255
184 212 255
184 212 255
184 212 255
184 212 255
184 212 255
184 212 255
184 212 255
184 212 255
184 213 255
184 213 255
184 213 255
184 213 255
184 213 255
184 213 255
184 213 255
184 213 255
184 213 255
184 213 255
184 213 255
184 213 255
184 213 255
184 213 255
184 213 255
184 213 255
184 213 255
184 213 255
184 213 255
184 213 255
184 213 255
185 213 255
185 213 255
185 213 255
185 213 255
185 213 255
185 213 255
185 213 255
185 213 255
185 213 255
185 213 255
185 213 255
185 213 255
185 213 255
185 213 255
185 213 255
185 213 255
185 213 255
185 213 255
185 213 255
185 213 255
185 213 255
185 213 255
185 213 255
185 213 255
185 213 255
185 213 255
185 213 255
185 213 255
185 213 255
185 213 255
185 213 255
185 213 255
185 213 255
185 213 255
185 213 255
185 213 255
185 213 255
185 213 255
185 213 255
186 214 255
186 214 255
186 214 255
186 214 255
186 214 255
186 214 255
186 214 255
186 214 255
186 214 255
186 214 255
186 214 255
186 214 255
186 214 255
186 214 255
186 214 255
186 214 255
186 214 255
186 214 255
186 214 255
186 214 255
186 214 255
186 214 255
186 214 255
186 214 255
186 214 255
186 214 255
186 214 255
185 213 255
185 213 255
185 213 255
185 213 255
185 213 255
185 213 255
185 213 255
185 213 255
185 213 255
185 213 255
185 213 255
185 213 255
185 213 255
185 213 255
185 213 255
185 213 255
185 213 255
185 213 255
185 213 255
185 213 255
185 213 255
185 213 255
185 213 255
185 213 255
185 213 255
185 213 255
185 213 255
185 213 255
185 213 255
185 213 255
185 213 255
185 213 255
185 213 255
185 213 255
185 213 255
185 213 255
185 213 255
185 213 255
184 213 255
184 213 255
184 213 255
184 213 255
184 213 255
184 213 255
184 213 255
184 213 255
184 213 255
184 213 255
184 213 255
184 213 255
184 213 255
184 213 255
184 213 255
184 213 255
184 213 255
184 213 255
184 213 255
184 213 255
184 212 255
184 212 255
184 212 255
184 212 255
184 212 255
184 212 255
184 212 255
184 212 255
184 212 255
184 212 255
183 212 255
183 212 255
183 212 255
183 212 255
183 212 255
183 212 255
183 212 255
183 212 255
183 212 255
183 212 255
183 212 255
183 212 255
183 212 255
183 212 255
183 212 255
183 212 255
183 212 255
183 212 255
183 212 255
183 212 255
183 212 255
183 212 255
183 212 255
183 212 255
183 212 255
183 212 255
183 212 255
182 212 255
182 212 255
182 212 255
182 212 255
182 212 255
182 212 255
182 212 255
182 212 255
182 212 255
182 211 255
182 211 255
182 211 255
182 211 255
182 211 255
182 211 255
182 211 255
182 211 255
182 211 255
182 211 255
182 211 255
182 211 255
182 211 255
182 211 255
94 113 140
76 92 116
73 89 112
73 87 109
72 88 111
73 88 110
75 88 108
74 89 111
72 86 108
70 85 108
71 86 109
71 85 107
73 88 111
77 91 113
73 88 111
72 87 109
69 85 108
74 89 112
71 86 108
71 86 109
71 86 108
72 87 109
72 87 109
75 91 114
72 88 111
75 90 112
73 88 111
72 86 107
73 88 111
73 89 111
74 90 113
76 91 113
69 82 103
73 89 113
73 89 114
72 87 109
72 87 108
72 88 111
65 78 99
69 84 106
75 90 112
72 88 111
76 90 112
74 89 112
74 88 110
74 90 113
73 88 112
73 87 109
71 85 107
72 87 110
70 85 109
75 90 114
77 92 114
68 83 106
72 85 106
70 84 105
72 87 109
70 84 106
75 91 114
73 87 109
72 86 107
70 85 108
73 88 110
76 91 113
73 88 111
68 84 107
72 87 109
75 91 114
70 85 107
73 87 108
72 87 110
73 88 111
68 83 106
71 86 108
74 90 113
74 90 113
76 90 112
70 85 108
67 82 104
70 85 107
72 88 111
73 88 111
72 87 109
69 83 103
73 89 113
72 88 111
69 84 107
74 89 112
73 89 113
73 88 112
71 87 111
70 84 105
74 89 112
74 90 113
73 88 111
73 88 111
75 90 114
72 87 109
73 88 111
72 86 108
75 89 111
70 85 106
76 91 115
73 89 113
71 85 106
70 85 108
73 88 110
70 84 106
76 91 113
76 92 115
70 85 108
73 88 110
76 91 114
72 87 109
73 88 110
70 84 106
77 91 112
74 90 114
75 90 112
72 88 112
71 87 111
78 94 117
74 91 117
89 107 133
182 211 255
182 211 255
182 211 255
182 211 255
182 211 255
182 211 255
182 211 255
182 211 255
182 211 255
182 211 255
182 211 255
182 211 255
182 211 255
182 211 255
182 212 255
182 212 255
182 212 255
182 212 255
182 212 255
182 212 255
182 212 255
182 212 255
182 212 255
183 212 255
183 212 255
183 212 255
183 212 255
183 212 255
183 212 255
183 212 255
183 212 255
183 212 255
183 212 255
183 212 255
183 212 255
183 212 255
183 212 255
183 212 255
183 212 255
183 212 255
183 212 255
183 212 255
183 212 255
183 212 255
183 212 255
183 212 255
183 212 255
183 212 255
183 212 255
183 212 255
184 212 255
184 212 255
184 212 255
184 212 255
184 212 255
184 212 255
184 212 255
184 212 255
184 212 255
184 212 255
184 213 255
184 213 255
184 213 255
184 213 255
184 213 255
184 213 255
184 213 255
184 213 255
184 213 255
184 213 255
184 213 255
184 213 255
184 213 255
184 213 255
184 213 255
184 213 255
184 213 255
184 213 255
184 213 255
184 213 255
185 213 255
185 213 255
185 213 255
185 213 255
185 213 255
185 213 255
185 213 255
185 213 255
185 213 255
185 213 255
185 213 255
185 213 255
185 213 255
185 213 255
185 213 255
185 213 255
185 213 255
185 213 255
185 213 255
185 213 255
185 213 255
185 213 255
185 213 255
185 213 255
185 213 255
185 213 255
185 213 255
185 213 255
185 213 255
185 213 255
185 213 255
185 213 255
185 213 255
185 213 255
185 213 255
185 213 255
185 213 255
185 213 255
186 214 255
186 214 255
186 214 255
186 214 255
186 214 255
186 214 255
186 214 255
186 214 255
186 214 255
186 214 255
186 214 255
186 214 255
186 214 255
186 214 255
186 214 255
186 214 255
186 214 255
186 214 255
186 214 255
186 214 255
186 214 255
186 214 255
186 214 255
186 214 255
186 214 255
186 214 255
186 214 255
186 214 255
186 214 255
186 214 255
186 214 255
186 214 255
186 214 255
186 214 255
186 214 255
186 214 255
186 214 255
186 214 255
186 214 255
186 214 255
186 214 255
186 214 255
186 214 255
186 214 255
186 214 255
186 214 255
186 214 255
186 214 255
186 214 255
186 214 255
186 214 255
186 214 255
186 214 255
185 213 255
185 213 255
185 213 255
185 213 255
185 213 255
185 213 255
185 213 255
185 213 255
185 213 255
185 213 255
185 213 255
185 213 255
185 213 255
185 213 255
185 213 255
185 213 255
185 213 255
185 213 255
185 213 255
185 213 255
185 213 255
185 213 255
185 213 255
185 213 255
185 213 255
185 213 255
185 213 255
185 213 255
185 213 255
185 213 255
185 213 255
185 213 255
185 213 255
185 213 255
185 213 255
185 213 255
184 213 255
184 213 255
184 213 255
184 213 255
184 213 255
184 213 255
184 213 255
184 213 255
184 213 255
184 213 255
184 213 255
184 213 255
184 213 255
184 213 255
184 213 255
184 213 255
184 213 255
184 213 255
184 213 255
184 213 255
184 213 255
184 212 255
184 212 255
184 212 255
184 212 255
184 212 255
184 212 255
184 212 255
184 212 255
184 212 255
184 212 255
183 212 255
183 212 255
183 212 255
183 212 255
183 212 255
183 212 255
183 212 255
183 212 255
183 212 255
183 212 255
183 212 255
183 212 255
183 212 255
183 212 255
183 212 255
183 212 255
183 212 255
183 212 255
183 212 255
183 212 255
183 212 255
183 212 255
183 212 255
183 212 255
183 212 255
183 212 255
183 212 255
183 212 255
182 212 255
182 212 255
182 212 255
182 212 255
182 212 255
182 212 255
182 212 255
182 212 255
182 212 255
169 197 238
74 90 115
74 89 110
70 85 107
73 89 113
74 89 112
71 85 107
74 89 112
72 87 111
72 86 107
72 88 111
73 88 111
74 89 112
75 90 113
73 88 112
71 87 110
71 86 109
74 89 111
75 90 114
70 85 108
72 87 109
71 84 105
75 90 112
72 87 110
73 87 109
72 87 110
73 88 111
68 83 105
74 87 108
71 85 106
75 90 112
70 84 106
70 86 109
69 84 107
72 86 109
73 88 110
69 84 106
69 84 106
69 84 107
68 83 106
72 88 112
70 84 105
72 87 110
70 84 106
73 88 111
70 85 107
70 85 108
74 90 113
68 83 106
70 85 108
70 85 108
69 84 106
72 87 110
73 87 109
72 87 109
72 87 109
71 86 109
76 91 114
66 82 105
70 85 108
69 84 106
71 86 109
74 90 113
70 84 106
76 92 116
71 86 108
71 86 109
70 84 104
73 87 109
74 89 110
67 81 103
69 83 105
69 85 108
70 86 110
75 89 110
71 87 112
70 86 109
76 90 112
71 87 110
70 85 107
70 85 109
72 87 110
73 88 110
72 86 108
71 87 111
74 89 112
71 84 103
66 80 101
69 84 106
68 83 106
71 85 107
75 91 114
71 87 112
72 86 109
72 87 111
75 90 113
76 91 113
72 86 108
68 83 106
76 91 113
71 87 111
68 82 104
75 91 115
72 87 110
73 88 110
74 88 110
70 86 109
77 92 115
76 91 115
72 87 110
72 87 108
70 86 109
68 83 106
68 83 105
72 87 108
76 91 114
74 90 113
71 86 110
74 88 110
76 91 114
71 87 110
73 89 113
75 92 116
74 90 113
76 91 114
175 203 245
182 212 255
182 212 255
182 212 255
182 212 255
182 212 255
182 212 255
182 212 255
182 212 255
182 212 255
183 212 255
183 212 255
183 212 255
183 212 255
183 212 255
183 212 255
183 212 255
183 212 255
183 212 255
183 212 255
183 212 255
183 212 255
183 212 255
183 212 255
183 212 255
183 212 255
183 212 255
183 212 255
183 212 255
183 212 255
183 212 255
183 212 255
183 212 255
183 212 255
183 212 255
183 212 255
183 212 255
183 212 255
184 212 255
184 212 255
184 212 255
184 212 255
184 212 255
184 212 255
184 212 255
184 212 255
184 212 255
184 212 255
184 213 255
184 213 255
184 213 255
184 213 255
184 213 255
184 213 255
184 213 255
184 213 255
184 213 255
184 213 255
184 213 255
184 213 255
184 213 255
184 213 255
184 213 255
184 213 255
184 213 255
184 213 255
184 213 255
184 213 255
184 213 255
185 213 255
185 213 255
185 213 255
185 213 255
185 213 255
185 213 255
185 213 255
185 213 255
185 213 255
185 213 255
185 213 255
185 213 255
185 213 255
185 213 255
185 213 255
185 213 255
185 213 255
185 213 255
185 213 255
185 213 255
185 213 255
185 213 255
185 213 255
185 213 255
185 213 255
185 213 255
185 213 255
185 213 255
185 213 255
185 213 255
185 213 255
185 213 255
185 213 255
185 213 255
185 213 255
185 213 255
185 213 255
186 214 255
186 214 255
186 214 255
186 214 255
186 214 255
186 214 255
186 214 255
186 214 255
186 214 255
186 214 255
186 214 255
186 214 255
186 214 255
186 214 255
186 214 255
186 214 255
186 214 255
186 214 255
186 214 255
186 214 255
186 214 255
186 214 255
186 214 255
186 214 255
186 214 255
186 214 255
186 214 255
186 214 255
186 214 255
186 214 255
186 214 255
186 214 255
186 214 255
186 214 255
186 214 255
186 214 255
186 214 255
186 214 255
186 214 255
186 214 255
186 214 255
186 214 255
186 214 255
186 214 255
186 214 255
186 214 255
186 214 255
186 214 255
186 214 255
186 214 255
186 214 255
186 214 255
186 214 255
186 214 255
186 214 255
186 214 255
186 214 255
186 214 255
186 214 255
186 214 255
186 214 255
186 214 255
186 214 255
186 214 255
186 214 255
186 214 255
186 214 255
186 214 255
186 214 255
186 214 255
186 214 255
186 214 255
186 214 255
186 214 255
186 214 255
186 214 255
186 214 255
186 214 255
185 213 255
185 213 255
185 213 255
185 213 255
185 213 255
185 213 255
185 213 255
185 213 255
185 213 255
185 213 255
185 213 255
185 213 255
185 213 255
185 213 255
185 213 255
185 213 255
185 213 255
185 213 255
185 213 255
185 213 255
185 213 255
185 213 255
185 213 255
185 213 255
185 213 255
185 213 255
185 213 255
185 213 255
185 213 255
185 213 255
185 213 255
185 213 255
185 213 255
185 213 255
185 213 255
184 213 255
184 213 255
184 213 255
184 213 255
184 213 255
184 213 255
184 213 255
184 213 255
184 213 255
184 213 255
184 213 255
184 213 255
184 213 255
184 213 255
184 213 255
184 213 255
184 213 255
184 213 255
184 213 255
184 213 255
184 213 255
184 212 255
184 212 255
184 212 255
184 212 255
184 212 255
184 212 255
184 212 255
184 212 255
184 212 255
184 212 255
183 212 255
183 212 255
183 212 255
183 212 255
183 212 255
183 212 255
183 212 255
183 212 255
183 212 255
183 212 255
183 212 255
183 212 255
183 212 255
183 212 255
183 212 255
183 212 255
183 212 255
183 212 255
183 212 255
183 212 255
183 212 255
183 212 255
183 212 255
183 212 255
183 212 255
140 164 199
72 87 108
76 91 113
72 88 113
67 83 106
76 92 117
77 93 117
75 90 114
73 88 110
74 89 112
69 84 107
72 87 109
72 87 110
73 87 108
70 85 107
77 91 111
74 89 111
70 85 108
72 86 107
69 84 106
72 86 108
71 85 106
75 91 114
76 92 116
72 87 111
69 85 108
73 87 110
72 87 110
71 86 109
76 91 114
67 81 104
74 89 112
71 86 108
69 84 106
69 85 108
69 84 106
79 94 117
73 88 110
73 89 112
68 82 103
71 87 110
75 90 113
79 96 120
71 86 109
74 89 111
71 87 111
71 86 108
73 88 111
73 88 111
71 86 108
73 88 111
70 85 107
72 87 110
67 82 103
68 82 104
75 91 115
72 87 111
69 83 105
66 80 100
69 85 108
74 90 113
70 84 106
63 77 99
71 86 108
72 86 108
76 91 113
62 77 98
74 89 111
69 84 107
67 82 104
75 88 108
72 87 109
70 86 109
71 87 111
70 84 105
76 92 116
72 86 108
71 85 106
70 84 106
73 88 111
75 89 111
73 89 112
70 85 107
77 93 116
76 91 113
72 88 113
70 85 107
70 84 106
70 85 107
74 90 113
72 87 110
75 90 112
77 92 115
72 87 110
72 88 110
80 95 118
73 87 110
74 89 111
73 88 110
72 87 110
73 89 112
73 89 112
73 87 108
73 88 111
75 91 114
72 86 108
71 86 109
72 89 114
78 94 118
70 85 106
70 85 108
76 90 113
71 86 108
66 79 99
69 85 108
75 91 115
71 87 110
72 86 108
74 89 112
73 88 111
77 93 116
71 86 109
76 91 115
78 94 119
72 88 112
138 162 198
183 212 255
183 212 255
183 212 255
183 212 255
183 212 255
183 212 255
183 212 255
183 212 255
183 212 255
183 212 255
183 212 255
183 212 255
183 212 255
183 212 255
183 212 255
183 212 255
183 212 255
183 212 255
183 212 255
183 212 255
183 212 255
183 212 255
183 212 255
183 212 255
183 212 255
184 212 255
184 212 255
184 212 255
184 212 255
184 212 255
184 212 255
184 212 255
184 212 255
184 212 255
184 212 255
184 213 255
184 213 255
184 213 255
184 213 255
184 213 255
184 213 255
184 213 255
184 213 255
184 213 255
184 213 255
184 213 255
184 213 255
184 213 255
184 213 255
184 213 255
184 213 255
184 213 255
184 213 255
184 213 255
184 213 255
184 213 255
185 213 255
185 213 255
185 213 255
185 213 255
185 213 255
185 213 255
185 213 255
185 213 255
185 213 255
185 213 255
185 213 255
185 213 255
185 213 255
185 213 255
185 213 255
185 213 255
185 213 255
185 213 255
185 213 255
185 213 255
185 213 255
185 213 255
185 213 255
185 213 255
185 213 255
185 213 255
185 213 255
185 213 255
185 213 255
185 213 255
185 213 255
185 213 255
185 213 255
185 213 255
185 213 255
185 213 255
186 214 255
186 214 255
186 214 255
186 214 255
186 214 255
186 214 255
186 214 255
186 214 255
186 214 255
186 214 255
186 214 255
186 214 255
186 214 255
186 214 255
186 214 255
186 214 255
186 214 255
186 214 255
186 214 255
186 214 255
186 214 255
186 214 255
186 214 255
186 214 255
186 214 255
186 214 255
186 214 255
186 214 255
186 214 255
186 214 255
186 214 255
186 214 255
186 214 255
186 214 255
186 214 255
186 214 255
186 214 255
186 214 255
186 214 255
186 214 255
186 214 255
186 214 255
186 214 255
186 214 255
186 214 255
187 214 255
187 214 255
187 214 255
187 214 255
187 214 255
187 214 255
187 214 255
187 214 255
187 214 255
187 214 255
187 214 255
187 214 255
187 214 255
187 214 255
187 214 255
186 214 255
186 214 255
186 214 255
186 214 255
186 214 255
186 214 255
186 214 255
186 214 255
186 214 255
186 214 255
186 214 255
186 214 255
186 214 255
186 214 255
186 214 255
186 214 255
186 214 255
186 214 255
186 214 255
186 214 255
186 214 255
186 214 255
186 214 255
186 214 255
186 214 255
186 214 255
186 214 255
186 214 255
186 214 255
186 214 255
186 214 255
186 214 255
186 214 255
186 214 255
186 214 255
186 214 255
186 214 255
186 214 255
186 214 255
186 214 255
186 214 255
186 214 255
186 214 255
186 214 255
185 213 255
185 213 255
185 213 255
185 213 255
185 213 255
185 213 255
185 213 255
185 213 255
185 213 255
185 213 255
185 213 255
185 213 255
185 213 255
185 213 255
185 213 255
185 213 255
185 213 255
185 213 255
185 213 255
185 213 255
185 213 255
185 213 255
185 213 255
185 213 255
185 213 255
185 213 255
185 213 255
185 213 255
185 213 255
185 213 255
185 213 255
185 213 255
185 213 255
185 213 255
185 213 255
184 213 255
184 213 255
184 213 255
184 213 255
184 213 255
184 213 255
184 213 255
184 213 255
184 213 255
184 213 255
184 213 255
184 213 255
184 213 255
184 213 255
184 213 255
184 213 255
184 213 255
184 213 255
184 213 255
184 213 255
184 213 255
184 212 255
184 212 255
184 212 255
184 212 255
184 212 255
184 212 255
184 212 255
184 212 255
184 212 255
184 212 255
183 212 255
183 212 255
183 212 255
183 212 255
183 212 255
183 212 255
183 212 255
183 212 255
183 212 255
183 212 255
183 212 255
183 212 255
103 122 150
74 88 109
72 87 110
82 97 120
75 90 113
69 84 107
69 84 107
77 93 118
75 91 115
73 87 109
74 88 109
72 87 110
71 87 109
73 88 111
75 89 111
74 90 114
69 84 106
73 88 111
73 88 110
72 87 110
74 90 115
68 82 104
64 78 97
70 84 106
69 83 104
73 88 110
74 88 110
77 92 115
72 85 106
69 84 107
71 86 109
67 81 103
69 83 104
69 85 108
72 87 110
69 84 107
71 87 109
74 89 112
71 87 110
72 85 106
68 82 103
68 82 103
73 87 109
69 85 108
64 77 98
71 86 109
74 89 112
74 89 112
70 86 110
72 87 110
73 86 106
72 87 108
71 86 108
74 90 113
70 84 106
70 85 107
73 88 111
76 90 112
72 87 110
75 89 111
71 86 107
73 88 110
71 85 107
75 90 113
72 87 109
70 85 107
72 87 111
70 85 107
72 86 108
71 86 109
73 90 114
69 84 107
72 86 109
75 91 114
72 87 110
67 82 105
71 85 106
74 90 113
76 91 114
73 87 110
73 88 111
70 85 107
74 88 110
72 86 107
69 83 105
71 85 107
71 85 107
72 86 108
70 84 105
72 87 110
72 87 110
68 82 104
72 87 110
69 84 107
73 86 107
72 87 110
71 86 109
71 87 111
74 89 112
66 78 98
69 83 105
75 90 113
70 85 107
74 89 111
70 85 108
75 89 112
72 86 108
72 87 110
74 89 110
74 89 111
72 88 111
69 82 101
70 86 108
69 84 106
72 88 112
73 88 110
74 89 112
72 87 110
72 87 109
69 84 106
73 88 110
73 88 111
72 88 112
73 88 112
72 87 110
106 125 153
183 212 255
183 212 255
183 212 255
183 212 255
183 212 255
183 212 255
183 212 255
183 212 255
183 212 255
183 212 255
183 212 255
183 212 255
184 212 255
184 212 255
184 212 255
184 212 255
184 212 255
184 212 255
184 212 255
184 212 255
184 212 255
184 212 255
184 213 255
184 213 255
184 213 255
184 213 255
184 213 255
184 213 255
184 213 255
184 213 255
184 213 255
184 213 255
184 213 255
184 213 255
184 213 255
184 213 255
184 213 255
184 213 255
184 213 255
184 213 255
184 213 255
184 213 255
184 213 255
185 213 255
185 213 255
185 213 255
185 213 255
185 213 255
185 213 255
185 213 255
185 213 255
185 213 255
185 213 255
185 213 255
185 213 255
185 213 255
185 213 255
185 213 255
185 213 255
185 213 255
185 213 255
185 213 255
185 213 255
185 213 255
185 213 255
185 213 255
185 213 255
185 213 255
185 213 255
185 213 255
185 213 255
185 213 255
185 213 255
185 213 255
185 213 255
185 213 255
185 213 255
185 213 255
186 214 255
186 214 255
186 214 255
186 214 255
186 214 255
186 214 255
186 214 255
186 214 255
186 214 255
186 214 255
186 214 255
186 214 255
186 214 255
186 214 255
186 214 255
186 214 255
186 214 255
186 214 255
186 214 255
186 214 255
186 214 255
186 214 255
186 214 255
186 214 255
186 214 255
186 214 255
186 214 255
186 214 255
186 214 255
186 214 255
186 214 255
186 214 255
186 214 255
186 214 255
186 214 255
186 214 255
186 214 255
186 214 255
186 214 255
186 214 255
186 214 255
186 214 255
186 214 255
186 214 255
186 214 255
187 214 255
187 214 255
187 214 255
187 214 255
187 214 255
187 214 255
187 214 255
187 214 255
187 214 255
187 214 255
187 214 255
187 214 255
187 214 255
187 214 255
187 214 255
187 214 255
187 214 255
187 214 255
187 214 255
187 214 255
187 214 255
187 214 255
187 214 255
187 214 255
187 214 255
187 214 255
187 214 255
187 214 255
187 214 255
187 214 255
187 214 255
187 214 255
187 214 255
187 214 255
187 214 255
187 214 255
187 214 255
187 214 255
187 214 255
187 214 255
187 214 255
187 214 255
187 214 255
187 214 255
186 214 255
186 214 255
186 214 255
186 214 255
186 214 255
186 214 255
186 214 255
186 214 255
186 214 255
186 214 255
186 214 255
186 214 255
186 214 255
186 214 255
186 214 255
186 214 255
186 214 255
186 214 255
186 214 255
186 214 255
186 214 255
186 214 255
186 214 255
186 214 255
186 214 255
186 214 255
186 214 255
186 214 255
186 214 255
186 214 255
186 214 255
186 214 255
186 214 255
186 214 255
186 214 255
186 214 255
186 214 255
186 214 255
186 214 255
186 214 255
186 214 255
186 214 255
186 214 255
185 213 255
185 213 255
185 213 255
185 213 255
185 213 255
185 213 255
185 213 255
185 213 255
185 213 255
185 213 255
185 213 255
185 213 255
185 213 255
185 213 255
185 213 255
185 213 255
185 213 255
185 213 255
185 213 255
185 213 255
185 213 255
185 213 255
185 213 255
185 213 255
185 213 255
185 213 255
185 213 255
185 213 255
185 213 255
185 213 255
185 213 255
185 213 255
185 213 255
185 213 255
185 213 255
184 213 255
184 213 255
184 213 255
184 213 255
184 213 255
184 213 255
184 213 255
184 213 255
184 213 255
184 213 255
184 213 255
184 213 255
184 213 255
184 213 255
184 213 255
184 213 255
184 213 255
184 213 255
184 213 255
184 213 255
184 213 255
184 213 255
184 212 255
184 212 255
184 212 255
184 212 255
184 212 255
184 212 255
182 210 253
81 97 120
73 89 113
75 90 112
71 86 107
70 85 107
72 87 110
74 90 113
72 86 107
68 83 106
74 88 109
75 90 113
71 86 107
75 90 113
68 84 106
74 90 113
72 87 111
73 88 110
69 84 107
65 81 104
68 83 106
74 89 111
72 86 107
74 90 113
72 87 108
71 87 110
71 86 108
68 83 105
69 85 109
68 82 102
75 90 112
67 82 104
72 88 111
67 82 104
77 92 113
68 83 106
72 86 108
71 87 110
75 90 112
71 85 107
73 89 113
67 82 105
69 83 103
72 87 109
73 89 112
71 86 109
70 86 109
71 86 108
71 86 109
72 85 105
73 88 110
73 88 111
70 84 105
71 87 109
71 85 108
71 86 109
71 86 109
66 80 102
72 86 108
75 90 113
67 82 104
71 87 110
70 85 108
73 89 113
67 82 105
68 83 105
74 88 110
71 85 107
70 84 107
70 85 107
73 87 110
70 86 110
68 83 105
66 80 102
72 87 110
70 85 108
74 88 110
71 86 108
69 84 106
74 89 111
72 87 110
65 80 102
75 91 114
72 88 111
71 85 107
72 88 111
70 84 106
67 82 104
69 83 105
76 92 114
74 89 112
69 82 103
72 87 110
70 85 108
75 91 115
69 82 102
73 89 112
68 83 105
73 88 110
70 85 106
74 89 111
70 84 104
74 89 111
62 75 95
73 87 108
72 87 110
71 85 106
69 84 106
75 90 112
73 88 111
71 86 109
71 85 106
69 83 104
70 84 106
71 86 108
68 82 102
69 85 108
76 91 113
72 87 110
67 82 104
73 88 110
77 93 117
69 83 104
75 91 114
75 89 110
72 89 113
77 93 117
181 210 252
184 212 255
184 212 255
184 212 255
184 212 255
184 212 255
184 213 255
184 213 255
184 213 255
184 213 255
184 213 255
184 213 255
184 213 255
184 213 255
184 213 255
184 213 255
184 213 255
184 213 255
184 213 255
184 213 255
184 213 255
184 213 255
184 213 255
184 213 255
184 213 255
184 213 255
184 213 255
184 213 255
184 213 255
185 213 255
185 213 255
185 213 255
185 213 255
185 213 255
185 213 255
185 213 255
185 213 255
185 213 255
185 213 255
185 213 255
185 213 255
185 213 255
185 213 255
185 213 255
185 213 255
185 213 255
185 213 255
185 213 255
185 213 255
185 213 255
185 213 255
185 213 255
185 213 255
185 213 255
185 213 255
185 213 255
185 213 255
185 213 255
185 213 255
185 213 255
185 213 255
185 213 255
185 213 255
185 213 255
186 214 255
186 214 255
186 214 255
186 214 255
186 214 255
186 214 255
186 214 255
186 214 255
186 214 255
186 214 255
186 214 255
186 214 255
186 214 255
186 214 255
186 214 255
186 214 255
186 214 255
186 214 255
186 214 255
186 214 255
186 214 255
186 214 255
186 214 255
186 214 255
186 214 255
186 214 255
186 214 255
186 214 255
186 214 255
186 214 255
186 214 255
186 214 255
186 214 255
186 214 255
186 214 255
186 214 255
186 214 255
186 214 255
186 214 255
186 214 255
186 214 255
186 214 255
186 214 255
187 214 255
187 214 255
187 214 255
187 214 255
187 214 255
187 214 255
187 214 255
187 214 255
187 214 255
187 214 255
187 214 255
187 214 255
187 214 255
187 214 255
187 214 255
187 214 255
187 214 255
187 214 255
187 214 255
187 214 255
187 214 255
187 214 255
187 214 255
187 214 255
187 214 255
187 214 255
187 214 255
187 214 255
187 214 255
187 214 255
187 215 255
187 215 255
187 215 255
187 215 255
187 215 255
187 215 255
187 215 255
187 215 255
187 215 255
187 215 255
187 214 255
187 214 255
187 214 255
187 214 255
187 214 255
187 214 255
187 214 255
187 214 255
187 214 255
187 214 255
187 214 255
187 214 255
187 214 255
187 214 255
187 214 255
187 214 255
187 214 255
187 214 255
187 214 255
187 214 255
187 214 255
187 214 255
187 214 255
187 214 255
187 214 255
187 214 255
187 214 255
187 214 255
187 214 255
187 214 255
187 214 255
187 214 255
187 214 255
187 214 255
187 214 255
187 214 255
186 214 255
186 214 255
186 214 255
186 214 255
186 214 255
186 214 255
186 214 255
186 214 255
186 214 255
186 214 255
186 214 255
186 214 255
186 214 255
186 214 255
186 214 255
186 214 255
186 214 255
186 214 255
186 214 255
186 214 255
186 214 255
186 214 255
186 214 255
186 214 255
186 214 255
186 214 255
186 214 255
186 214 255
186 214 255
186 214 255
186 214 255
186 214 255
186 214 255
186 214 255
186 214 255
186 214 255
186 214 255
186 214 255
186 214 255
186 214 255
186 214 255
185 213 255
185 213 255
185 213 255
185 213 255
185 213 255
185 213 255
185 213 255
185 213 255
185 213 255
185 213 255
185 213 255
185 213 255
185 213 255
185 213 255
185 213 255
185 213 255
185 213 255
185 213 255
185 213 255
185 213 255
185 213 255
185 213 255
185 213 255
185 213 255
185 213 255
185 213 255
185 213 255
185 213 255
185 213 255
185 213 255
185 213 255
185 213 255
185 213 255
185 213 255
185 213 255
185 213 255
184 213 255
184 213 255
184 213 255
184 213 255
184 213 255
184 213 255
184 213 255
184 213 255
184 213 255
184 213 255
184 213 255
184 213 255
184 213 255
165 192 232
70 86 109
72 86 109
73 88 112
74 91 116
72 87 108
64 78 100
68 82 104
73 89 113
67 82 104
70 86 110
72 86 106
75 91 115
70 86 110
69 84 107
73 88 110
71 87 111
70 84 106
68 82 103
73 88 111
73 88 110
76 92 116
74 89 113
72 87 111
75 90 113
67 80 100
71 86 110
69 83 104
71 85 107
78 94 117
70 86 109
66 81 104
71 85 107
70 83 102
71 85 107
68 82 103
76 90 111
66 81 103
71 85 107
70 85 106
71 87 109
71 85 106
68 83 105
71 86 107
70 86 109
74 89 112
70 85 108
72 87 111
75 89 112
70 84 105
71 86 108
71 86 108
70 85 106
70 85 107
72 87 109
68 82 104
69 85 108
71 86 108
75 90 112
72 88 111
70 85 106
77 91 112
66 80 102
72 86 108
68 83 105
72 87 110
71 86 109
74 89 113
68 83 107
68 83 105
75 90 113
74 88 110
69 84 105
71 86 110
73 88 112
67 81 102
71 85 106
71 86 108
72 86 108
73 88 111
75 90 113
72 87 108
70 85 106
67 82 105
68 84 107
72 88 111
73 87 109
74 89 112
72 88 112
71 86 108
73 87 109
69 83 105
68 83 106
75 90 112
72 87 109
72 87 109
76 90 112
68 82 102
66 82 104
74 89 110
74 90 114
69 84 106
72 87 110
69 84 107
72 87 109
72 87 110
77 91 113
75 90 112
74 89 111
70 85 109
68 83 106
72 88 111
70 84 105
74 89 113
69 84 107
73 88 110
68 82 104
69 84 107
67 81 102
70 84 106
72 87 111
68 82 104
70 85 109
70 85 109
74 89 112
74 89 112
75 90 113
161 186 225
184 213 255
184 213 255
184 213 255
184 213 255
184 213 255
184 213 255
184 213 255
184 213 255
184 213 255
184 213 255
184 213 255
184 213 255
184 213 255
185 213 255
185 213 255
185 213 255
185 213 255
185 213 255
185 213 255
185 213 255
185 213 255
185 213 255
185 213 255
185 213 255
185 213 255
185 213 255
185 213 255
185 213 255
185 213 255
185 213 255
185 213 255
185 213 255
185 213 255
185 213 255
185 213 255
185 213 255
185 213 255
185 213 255
185 213 255
185 213 255
185 213 255
185 213 255
185 213 255
185 213 255
185 213 255
185 213 255
185 213 255
185 213 255
185 213 255
186 214 255
186 214 255
186 214 255
186 214 255
186 214 255
186 214 255
186 214 255
186 214 255
186 214 255
186 214 255
186 214 255
186 214 255
186 214 255
186 214 255
186 214 255
186 214 255
186 214 255
186 214 255
186 214 255
186 214 255
186 214 255
186 214 255
186 214 255
186 214 255
186 214 255
186 214 255
186 214 255
186 214 255
186 214 255
186 214 255
186 214 255
186 214 255
186 214 255
186 214 255
186 214 255
186 214 255
186 214 255
186 214 255
186 214 255
186 214 255
186 214 255
186 214 255
187 214 255
187 214 255
187 214 255
187 214 255
187 214 255
187 214 255
187 214 255
187 214 255
187 214 255
187 214 255
187 214 255
187 214 255
187 214 255
187 214 255
187 214 255
187 214 255
187 214 255
187 214 255
187 214 255
187 214 255
187 214 255
187 214 255
187 214 255
187 214 255
187 214 255
187 214 255
187 214 255
187 214 255
187 214 255
187 214 255
187 214 255
187 214 255
187 214 255
187 214 255
187 214 255
187 214 255
187 215 255
187 215 255
187 215 255
187 215 255
187 215 255
187 215 255
187 215 255
187 215 255
187 215 255
188 215 255
188 215 255
188 215 255
188 215 255
188 215 255
188 215 255
188 215 255
187 215 255
187 215 255
187 215 255
187 215 255
187 215 255
187 215 255
187 215 255
187 215 255
187 215 255
187 215 255
187 215 255
187 215 255
187 215 255
187 215 255
187 215 255
187 215 255
187 215 255
187 215 255
187 215 255
187 215 255
187 214 255
187 214 255
187 214 255
187 214 255
187 214 255
187 214 255
187 214 255
187 214 255
187 214 255
187 214 255
187 214 255
187 214 255
187 214 255
187 214 255
187 214 255
187 214 255
187 214 255
187 214 255
187 214 255
187 214 255
187 214 255
187 214 255
187 214 255
187 214 255
187 214 255
187 214 255
187 214 255
187 214 255
187 214 255
187 214 255
187 214 255
187 214 255
187 214 255
187 214 255
187 214 255
186 214 255
186 214 255
186 214 255
186 214 255
186 214 255
186 214 255
186 214 255
186 214 255
186 214 255
186 214 255
186 214 255
186 214 255
186 214 255
186 214 255
186 214 255
186 214 255
186 214 255
186 214 255
186 214 255
186 214 255
186 214 255
186 214 255
186 214 255
186 214 255
186 214 255
186 214 255
186 214 255
186 214 255
186 214 255
186 214 255
186 214 255
186 214 255
186 214 255
186 214 255
186 214 255
186 214 255
186 214 255
186 214 255
186 214 255
186 214 255
186 214 255
185 213 255
185 213 255
185 213 255
185 213 255
185 213 255
185 213 255
185 213 255
185 213 255
185 213 255
185 213 255
185 213 255
185 213 255
185 213 255
185 213 255
185 213 255
185 213 255
185 213 255
185 213 255
185 213 255
185 213 255
185 213 255
185 213 255
185 213 255
185 213 255
185 213 255
185 213 255
185 213 255
185 213 255
185 213 255
185 213 255
185 213 255
185 213 255
185 213 255
138 161 195
72 87 110
72 87 111
69 83 104
71 86 109
72 86 109
65 79 100
70 86 109
70 85 108
72 87 109
71 86 107
69 83 105
73 87 109
72 87 109
72 87 109
72 88 111
71 86 108
73 88 110
69 83 106
72 87 109
73 88 111
73 88 110
70 85 107
69 84 105
70 84 104
69 83 104
70 86 111
73 87 108
71 85 107
73 88 111
70 85 108
72 86 108
73 89 112
69 82 103
65 79 101
73 89 112
73 88 111
76 91 113
74 90 113
69 83 105
73 88 110
74 89 112
72 87 110
74 90 113
71 85 108
70 84 105
70 86 109
71 85 105
70 84 106
77 92 116
74 90 114
74 88 110
67 81 103
72 87 109
69 84 107
70 85 107
70 85 108
70 84 104
67 82 106
71 85 107
71 85 107
66 81 104
75 90 113
76 92 115
75 89 110
70 85 107
69 84 106
68 83 106
76 91 114
73 88 110
75 89 111
76 91 114
66 80 100
73 89 112
67 81 101
67 80 101
71 85 105
67 82 104
68 83 105
72 86 108
69 84 107
71 87 110
70 85 108
73 89 112
76 91 113
67 82 104
72 87 110
69 84 107
73 87 109
73 89 112
73 88 111
70 86 108
73 88 111
72 86 108
72 87 110
71 86 110
71 85 108
68 82 104
73 86 107
72 87 110
66 81 102
73 90 114
68 83 105
71 85 106
74 89 113
69 83 104
71 86 108
72 86 107
72 87 111
67 82 105
65 78 98
70 85 108
74 89 111
72 88 112
77 92 115
69 85 109
70 85 108
73 87 109
69 83 104
68 82 105
70 84 106
68 82 104
71 86 109
72 88 111
74 88 110
68 82 103
73 88 111
135 157 191
185 213 255
185 213 255
185 213 255
185 213 255
185 213 255
185 213 255
185 213 255
185 213 255
185 213 255
185 213 255
185 213 255
185 213 255
185 213 255
185 213 255
185 213 255
185 213 255
185 213 255
185 213 255
185 213 255
185 213 255
185 213 255
185 213 255
185 213 255
185 213 255
185 213 255
185 213 255
185 213 255
185 213 255
185 213 255
185 213 255
185 213 255
185 213 255
185 213 255
186 214 255
186 214 255
186 214 255
186 214 255
186 214 255
186 214 255
186 214 255
186 214 255
186 214 255
186 214 255
186 214 255
186 214 255
186 214 255
186 214 255
186 214 255
186 214 255
186 214 255
186 214 255
186 214 255
186 214 255
186 214 255
186 214 255
186 214 255
186 214 255
186 214 255
186 214 255
186 214 255
186 214 255
186 214 255
186 214 255
186 214 255
186 214 255
186 214 255
186 214 255
186 214 255
186 214 255
186 214 255
186 214 255
186 214 255
186 214 255
186 214 255
186 214 255
187 214 255
187 214 255
187 214 255
187 214 255
187 214 255
187 214 255
187 214 255
187 214 255
187 214 255
187 214 255
187 214 255
187 214 255
187 214 255
187 214 255
187 214 255
187 214 255
187 214 255
187 214 255
187 214 255
187 214 255
187 214 255
187 214 255
187 214 255
187 214 255
187 214 255
187 214 255
187 214 255
187 214 255
187 214 255
187 214 255
187 214 255
187 214 255
187 214 255
187 214 255
187 215 255
187 215 255
187 215 255
187 215 255
187 215 255
187 215 255
187 215 255
187 215 255
187 215 255
187 215 255
187 215 255
187 215 255
187 215 255
187 215 255
187 215 255
187 215 255
187 215 255
187 215 255
187 215 255
187 215 255
187 215 255
188 215 255
188 215 255
188 215 255
188 215 255
188 215 255
188 215 255
188 215 255
188 215 255
188 215 255
188 215 255
188 215 255
188 215 255
188 215 255
188 215 255
188 215 255
188 215 255
188 215 255
188 215 255
188 215 255
188 215 255
188 215 255
188 215 255
188 215 255
188 215 255
188 215 255
188 215 255
188 215 255
188 215 255
188 215 255
188 215 255
188 215 255
188 215 255
187 215 255
187 215 255
187 215 255
187 215 255
187 215 255
187 215 255
187 215 255
187 215 255
187 215 255
187 215 255
187 215 255
187 215 255
187 215 255
187 215 255
187 215 255
187 215 255
187 215 255
187 215 255
187 215 255
187 214 255
187 214 255
187 214 255
187 214 255
187 214 255
187 214 255
187 214 255
187 214 255
187 214 255
187 214 255
187 214 255
187 214 255
187 214 255
187 214 255
187 214 255
187 214 255
187 214 255
187 214 255
187 214 255
187 214 255
187 214 255
187 214 255
187 214 255
187 214 255
187 214 255
187 214 255
187 214 255
187 214 255
187 214 255
187 214 255
187 214 255
187 214 255
187 214 255
186 214 255
186 214 255
186 214 255
186 214 255
186 214 255
186 214 255
186 214 255
186 214 255
186 214 255
186 214 255
186 214 255
186 214 255
186 214 255
186 214 255
186 214 255
186 214 255
186 214 255
186 214 255
186 214 255
186 214 255
186 214 255
186 214 255
186 214 255
186 214 255
186 214 255
186 214 255
186 214 255
186 214 255
186 214 255
186 214 255
186 214 255
186 214 255
186 214 255
186 214 255
186 214 255
186 214 255
186 214 255
186 214 255
186 214 255
186 214 255
186 214 255
186 214 255
185 213 255
185 213 255
185 213 255
185 213 255
185 213 255
185 213 255
185 213 255
185 213 255
185 213 255
185 213 255
185 213 255
185 213 255
185 213 255
185 213 255
185 213 255
185 213 255
116 136 166
72 87 111
67 82 105
71 85 106
71 86 110
74 89 111
73 88 109
69 83 105
71 86 109
71 87 111
73 88 110
73 87 109
73 87 110
75 89 112
73 87 107
73 88 110
68 82 104
73 87 109
70 85 108
74 89 112
68 83 105
71 85 107
69 84 105
68 82 104
73 89 112
73 88 111
73 88 111
72 87 109
65 79 100
68 82 102
71 86 110
70 84 105
72 88 112
69 83 105
70 85 108
71 86 109
70 85 106
70 84 106
69 84 107
71 86 107
69 84 106
74 89 111
71 86 108
73 88 109
71 86 108
72 86 108
69 85 108
65 79 100
70 84 105
73 88 111
70 85 107
65 79 100
67 81 101
73 87 108
74 88 110
70 84 106
67 82 104
74 89 112
69 83 106
71 85 106
73 87 110
64 78 100
69 83 103
70 86 108
73 88 111
73 87 110
66 79 99
69 84 106
70 85 107
67 82 104
69 84 106
69 83 105
76 90 111
73 87 108
69 84 106
69 85 109
66 81 102
69 85 108
69 84 106
67 79 98
70 84 104
73 87 109
69 82 103
74 88 110
75 89 111
69 84 106
66 81 104
68 83 105
71 85 107
69 84 105
75 90 114
71 86 108
72 87 110
67 80 101
73 88 111
71 86 107
69 85 108
73 87 108
73 88 109
72 87 109
72 87 108
75 90 113
72 87 109
77 92 114
70 85 109
71 85 106
70 85 107
72 87 109
73 87 109
74 88 111
67 82 104
71 87 110
72 87 109
71 86 109
70 86 110
71 85 108
72 87 110
75 90 113
73 88 110
67 82 103
69 83 105
69 84 106
71 86 109
73 88 110
71 86 110
71 85 106
70 85 108
115 135 165
185 213 255
185 213 255
185 213 255
185 213 255
185 213 255
185 213 255
185 213 255
185 213 255
185 213 255
185 213 255
185 213 255
185 213 255
185 213 255
185 213 255
185 213 255
185 213 255
186 214 255
186 214 255
186 214 255
186 214 255
186 214 255
186 214 255
186 214 255
186 214 255
186 214 255
186 214 255
186 214 255
186 214 255
186 214 255
186 214 255
186 214 255
186 214 255
186 214 255
186 214 255
186 214 255
186 214 255
186 214 255
186 214 255
186 214 255
186 214 255
186 214 255
186 214 255
186 214 255
186 214 255
186 214 255
186 214 255
186 214 255
186 214 255
186 214 255
186 214 255
186 214 255
186 214 255
186 214 255
186 214 255
186 214 255
186 214 255
186 214 255
186 214 255
187 214 255
187 214 255
187 214 255
187 214 255
187 214 255
187 214 255
187 214 255
187 214 255
187 214 255
187 214 255
187 214 255
187 214 255
187 214 255
187 214 255
187 214 255
187 214 255
187 214 255
187 214 255
187 214 255
187 214 255
187 214 255
187 214 255
187 214 255
187 214 255
187 214 255
187 214 255
187 214 255
187 214 255
187 214 255
187 214 255
187 214 255
187 214 255
187 214 255
187 214 255
187 215 255
187 215 255
187 215 255
187 215 255
187 215 255
187 215 255
187 215 255
187 215 255
187 215 255
187 215 255
187 215 255
187 215 255
187 215 255
187 215 255
187 215 255
187 215 255
187 215 255
187 215 255
187 215 255
188 215 255
188 215 255
188 215 255
188 215 255
188 215 255
188 215 255
188 215 255
188 215 255
188 215 255
188 215 255
188 215 255
188 215 255
188 215 255
188 215 255
188 215 255
188 215 255
188 215 255
188 215 255
188 215 255
188 215 255
188 215 255
188 215 255
188 215 255
188 215 255
188 215 255
188 215 255
188 215 255
188 215 255
188 215 255
188 215 255
188 215 255
188 215 255
188 215 255
188 215 255
188 215 255
188 215 255
188 215 255
188 215 255
188 215 255
188 215 255
188 215 255
188 215 255
188 215 255
188 215 255
188 215 255
188 215 255
188 215 255
188 215 255
188 215 255
188 215 255
188 215 255
188 215 255
188 215 255
188 215 255
188 215 255
188 215 255
188 215 255
188 215 255
188 215 255
188 215 255
188 215 255
188 215 255
188 215 255
188 215 255
188 215 255
188 215 255
188 215 255
188 215 255
188 215 255
188 215 255
187 215 255
187 215 255
187 215 255
187 215 255
187 215 255
187 215 255
187 215 255
187 215 255
187 215 255
187 215 255
187 215 255
187 215 255
187 215 255
187 215 255
187 215 255
187 215 255
187 215 255
187 215 255
187 215 255
187 214 255
187 214 255
187 214 255
187 214 255
187 214 255
187 214 255
187 214 255
187 214 255
187 214 255
187 214 255
187 214 255
187 214 255
187 214 255
187 214 255
187 214 255
187 214 255
187 214 255
187 214 255
187 214 255
187 214 255
187 214 255
187 214 255
187 214 255
187 214 255
187 214 255
187 214 255
187 214 255
187 214 255
187 214 255
187 214 255
187 214 255
187 214 255
186 214 255
186 214 255
186 214 255
186 214 255
186 214 255
186 214 255
186 214 255
186 214 255
186 214 255
186 214 255
186 214 255
186 214 255
186 214 255
186 214 255
186 214 255
186 214 255
186 214 255
186 214 255
186 214 255
186 214 255
186 214 255
186 214 255
186 214 255
186 214 255
186 214 255
186 214 255
186 214 255
186 214 255
186 214 255
186 214 255
186 214 255
186 214 255
186 214 255
186 214 255
186 214 255
186 214 255
186 214 255
186 214 255
186 214 255
186 214 255
89 105 130
71 86 108
71 86 108
74 90 113
74 90 114
74 88 109
68 82 103
71 85 106
69 83 105
74 88 110
73 88 111
71 86 109
69 84 107
73 88 110
69 84 106
65 79 100
72 88 111
73 87 108
67 81 103
73 88 111
69 84 107
73 88 110
71 86 108
72 88 111
69 83 103
74 89 111
72 87 109
65 80 102
70 85 107
72 85 105
71 85 106
73 88 110
73 88 110
73 89 113
75 90 112
70 85 107
72 87 109
64 79 100
73 87 107
71 86 107
67 81 101
65 80 103
75 91 114
70 85 107
70 85 108
73 88 111
68 83 104
72 87 109
68 83 106
66 80 100
71 85 107
75 90 112
71 86 109
69 83 105
69 83 104
70 85 107
72 87 109
62 76 97
66 81 104
68 83 105
70 84 107
72 88 110
64 79 101
72 87 109
70 86 109
63 76 96
72 85 106
72 87 111
69 83 106
71 85 106
66 81 103
70 86 109
73 88 111
74 88 111
69 84 106
74 89 111
71 87 110
72 86 107
72 87 110
71 87 109
68 84 108
74 88 110
68 83 107
73 88 110
69 84 106
64 78 99
66 80 101
71 87 110
70 85 107
72 87 110
68 84 106
69 84 106
66 81 102
70 84 106
68 83 104
73 88 111
70 84 106
69 83 104
64 78 98
67 80 101
73 89 112
71 85 107
72 87 110
69 84 107
71 85 107
67 80 99
72 86 108
68 83 106
73 87 109
70 85 107
68 84 108
69 84 106
71 86 108
68 82 104
70 85 107
71 85 107
67 82 105
70 85 108
68 82 104
71 86 108
67 82 103
70 85 108
68 84 107
69 83 106
67 82 104
72 88 112
74 89 111
76 91 114
186 214 255
186 214 255
186 214 255
186 214 255
186 214 255
186 214 255
186 214 255
186 214 255
186 214 255
186 214 255
186 214 255
186 214 255
186 214 255
186 214 255
186 214 255
186 214 255
186 214 255
186 214 255
186 214 255
186 214 255
186 214 255
186 214 255
186 214 255
186 214 255
186 214 255
186 214 255
186 214 255
186 214 255
186 214 255
186 214 255
186 214 255
186 214 255
186 214 255
186 214 255
186 214 255
186 214 255
186 214 255
186 214 255
186 214 255
186 214 255
187 214 255
187 214 255
187 214 255
187 214 255
187 214 255
187 214 255
187 214 255
187 214 255
187 214 255
187 214 255
187 214 255
187 214 255
187 214 255
187 214 255
187 214 255
187 214 255
187 214 255
187 214 255
187 214 255
187 214 255
187 214 255
187 214 255
187 214 255
187 214 255
187 214 255
187 214 255
187 214 255
187 214 255
187 214 255
187 214 255
187 214 255
187 214 255
187 214 255
187 215 255
187 215 255
187 215 255
187 215 255
187 215 255
187 215 255
187 215 255
187 215 255
187 215 255
187 215 255
187 215 255
187 215 255
187 215 255
187 215 255
187 215 255
187 215 255
187 215 255
187 215 255
188 215 255
188 215 255
188 215 255
188 215 255
188 215 255
188 215 255
188 215 255
188 215 255
188 215 255
188 215 255
188 215 255
188 215 255
188 215 255
188 215 255
188 215 255
188 215 255
188 215 255
188 215 255
188 215 255
188 215 255
188 215 255
188 215 255
188 215 255
188 215 255
188 215 255
188 215 255
188 215 255
188 215 255
188 215 255
188 215 255
188 215 255
188 215 255
188 215 255
188 215 255
188 215 255
188 215 255
188 215 255
188 215 255
188 215 255
188 215 255
188 215 255
188 215 255
188 215 255
188 215 255
188 215 255
188 215 255
188 215 255
188 215 255
188 215 255
188 215 255
188 215 255
188 215 255
188 215 255
188 215 255
188 215 255
188 215 255
188 215 255
188 215 255
188 215 255
188 215 255
188 215 255
188 215 255
188 215 255
188 215 255
188 215 255
188 215 255
188 215 255
188 215 255
188 215 255
188 215 255
188 215 255
188 215 255
188 215 255
188 215 255
188 215 255
188 215 255
188 215 255
188 215 255
188 215 255
188 215 255
188 215 255
188 215 255
188 215 255
188 215 255
188 215 255
188 215 255
188 215 255
188 215 255
188 215 255
188 215 255
188 215 255
188 215 255
188 215 255
188 215 255
188 215 255
188 215 255
188 215 255
188 215 255
188 215 255
188 215 255
188 215 255
188 215 255
188 215 255
188 215 255
188 215 255
188 215 255
188 215 255
188 215 255
188 215 255
188 215 255
187 215 255
187 215 255
187 215 255
187 215 255
187 215 255
187 215 255
187 215 255
187 215 255
187 215 255
187 215 255
187 215 255
187 215 255
187 215 255
187 215 255
187 215 255
187 215 255
187 215 255
187 215 255
187 215 255
187 214 255
187 214 255
187 214 255
187 214 255
187 214 255
187 214 255
187 214 255
187 214 255
187 214 255
187 214 255
187 214 255
187 214 255
187 214 255
187 214 255
187 214 255
187 214 255
187 214 255
187 214 255
187 214 255
187 214 255
187 214 255
187 214 255
187 214 255
187 214 255
187 214 255
187 214 255
187 214 255
187 214 255
187 214 255
187 214 255
187 214 255
187 214 255
186 214 255
186 214 255
186 214 255
186 214 255
186 214 255
186 214 255
186 214 255
186 214 255
186 214 255
186 214 255
186 214 255
186 214 255
186 214 255
186 214 255
186 214 255
186 214 255
186 214 255
186 214 255
186 214 255
183 210 252
79 96 120
73 87 109
70 85 107
70 85 107
76 91 114
70 85 107
68 83 104
74 89 111
73 88 111
67 82 105
67 81 103
72 87 110
70 85 107
70 84 105
72 86 108
75 90 112
66 81 103
72 87 109
69 83 105
64 77 97
70 85 108
71 86 109
65 79 99
66 81 103
73 86 107
70 85 109
71 85 108
69 83 104
68 83 104
67 82 104
71 85 106
74 89 111
72 86 106
68 83 104
70 84 106
76 91 114
70 85 107
67 81 102
69 84 106
65 78 99
70 85 108
66 80 101
74 89 110
67 82 105
69 83 104
69 83 104
67 81 102
72 87 109
72 86 108
70 84 105
67 81 102
69 83 104
69 82 103
73 89 112
69 84 106
68 82 103
67 81 102
70 85 108
71 86 109
72 87 109
65 80 103
63 77 98
74 89 111
70 85 108
67 81 103
64 78 99
73 89 113
68 82 103
70 85 107
73 88 110
71 85 106
67 81 102
72 86 108
71 85 107
72 87 111
68 83 105
69 85 109
69 84 106
69 84 106
68 83 104
70 86 109
69 84 107
72 87 109
71 86 108
75 90 113
72 86 107
66 79 100
68 83 106
74 88 110
69 82 103
71 85 106
70 85 107
68 82 104
69 83 105
63 77 98
71 88 112
67 81 102
70 84 105
67 80 100
72 87 110
68 83 105
66 80 100
73 87 109
72 87 110
71 86 108
70 86 109
70 86 110
69 84 107
68 82 103
72 86 107
69 84 107
68 82 104
69 84 105
64 78 100
69 84 105
70 85 106
73 88 111
73 87 109
69 83 105
73 87 108
71 86 108
74 89 113
73 88 112
69 85 107
75 90 112
65 79 100
70 84 105
74 89 113
183 210 251
186 214 255
186 214 255
186 214 255
186 214 255
186 214 255
186 214 255
186 214 255
186 214 255
186 214 255
186 214 255
186 214 255
186 214 255
186 214 255
186 214 255
186 214 255
186 214 255
186 214 255
186 214 255
186 214 255
186 214 255
187 214 255
187 214 255
187 214 255
187 214 255
187 214 255
187 214 255
187 214 255
187 214 255
187 214 255
187 214 255
187 214 255
187 214 255
187 214 255
187 214 255
187 214 255
187 214 255
187 214 255
187 214 255
187 214 255
187 214 255
187 214 255
187 214 255
187 214 255
187 214 255
187 214 255
187 214 255
187 214 255
187 214 255
187 214 255
187 214 255
187 214 255
187 215 255
187 215 255
187 215 255
187 215 255
187 215 255
187 215 255
187 215 255
187 215 255
187 215 255
187 215 255
187 215 255
187 215 255
187 215 255
187 215 255
187 215 255
187 215 255
187 215 255
187 215 255
187 215 255
188 215 255
188 215 255
188 215 255
188 215 255
188 215 255
188 215 255
188 215 255
188 215 255
188 215 255
188 215 255
188 215 255
188 215 255
188 215 255
188 215 255
188 215 255
188 215 255
188 215 255
188 215 255
188 215 255
188 215 255
188 215 255
188 215 255
188 215 255
188 215 255
188 215 255
188 215 255
188 215 255
188 215 255
188 215 255
188 215 255
188 215 255
188 215 255
188 215 255
188 215 255
188 215 255
188 215 255
188 215 255
188 215 255
188 215 255
188 215 255
188 215 255
188 215 255
188 215 255
188 215 255
188 215 255
188 215 255
188 215 255
188 215 255
188 215 255
188 215 255
188 215 255
188 215 255
188 215 255
188 215 255
188 215 255
188 215 255
188 215 255
188 215 255
188 215 255
188 215 255
188 215 255
188 215 255
188 215 255
188 215 255
188 215 255
189 215 255
189 215 255
189 215 255
189 215 255
189 215 255
189 215 255
189 215 255
189 215 255
189 215 255
189 215 255
189 215 255
189 215 255
189 215 255
189 215 255
189 215 255
189 215 255
189 215 255
189 215 255
189 215 255
188 215 255
188 215 255
188 215 255
188 215 255
188 215 255
188 215 255
188 215 255
188 215 255
188 215 255
188 215 255
188 215 255
188 215 255
188 215 255
188 215 255
188 215 255
188 215 255
188 215 255
188 215 255
188 215 255
188 215 255
188 215 255
188 215 255
188 215 255
188 215 255
188 215 255
188 215 255
188 215 255
188 215 255
188 215 255
188 215 255
188 215 255
188 215 255
188 215 255
188 215 255
188 215 255
188 215 255
188 215 255
188 215 255
188 215 255
188 215 255
188 215 255
188 215 255
188 215 255
188 215 255
188 215 255
188 215 255
188 215 255
188 215 255
188 215 255
188 215 255
188 215 255
188 215 255
188 215 255
188 215 255
188 215 255
188 215 255
188 215 255
188 215 255
188 215 255
188 215 255
188 215 255
188 215 255
188 215 255
188 215 255
188 215 255
188 215 255
188 215 255
188 215 255
187 215 255
187 215 255
187 215 255
187 215 255
187 215 255
187 215 255
187 215 255
187 215 255
187 215 255
187 215 255
187 215 255
187 215 255
187 215 255
187 215 255
187 215 255
187 215 255
187 215 255
187 214 255
187 214 255
187 214 255
187 214 255
187 214 255
187 214 255
187 214 255
187 214 255
187 214 255
187 214 255
187 214 255
187 214 255
187 214 255
187 214 255
187 214 255
187 214 255
187 214 255
187 214 255
187 214 255
187 214 255
187 214 255
187 214 255
187 214 255
187 214 255
187 214 255
187 214 255
187 214 255
187 214 255
187 214 255
187 214 255
187 214 255
166 192 230
72 85 106
64 79 101
70 84 106
70 85 107
65 80 103
70 85 107
73 88 110
67 81 104
70 83 104
65 79 99
68 82 102
66 80 103
73 88 110
74 88 110
68 83 105
69 84 106
70 85 109
74 89 113
72 88 113
69 83 104
71 85 105
64 78 98
76 91 113
66 80 102
72 87 109
70 85 107
70 84 105
72 87 110
72 87 110
71 86 109
67 81 102
69 84 106
71 86 109
66 80 100
71 86 108
71 86 108
74 89 111
68 82 102
69 84 106
69 84 106
71 86 108
75 89 111
69 84 106
69 83 104
74 88 110
69 84 106
66 81 104
74 89 110
68 83 105
65 80 103
64 78 99
71 85 106
67 82 104
66 80 102
68 81 102
74 90 113
69 84 106
70 84 106
62 76 96
66 80 102
66 80 101
69 83 105
65 80 103
69 83 104
68 82 103
71 86 109
70 85 107
64 78 100
71 85 106
68 82 104
72 86 107
70 86 110
70 85 106
66 81 102
70 86 108
70 85 108
71 85 106
70 85 109
72 87 109
71 87 110
70 84 104
71 85 108
64 79 101
69 83 104
69 83 104
64 78 100
68 81 102
70 84 105
65 80 101
67 81 102
64 77 97
69 84 105
67 81 104
68 82 103
72 86 107
69 84 107
67 81 102
70 85 107
70 85 107
69 84 106
69 83 104
72 86 107
74 89 112
69 82 103
67 81 103
71 85 107
71 86 109
70 85 107
69 82 102
71 86 109
71 85 107
70 85 108
66 80 101
68 83 106
75 91 114
73 87 109
66 80 100
69 83 105
67 82 104
70 85 106
70 84 106
66 81 102
69 83 104
71 85 107
68 82 104
70 85 107
70 83 103
72 87 110
163 188 226
187 214 255
187 214 255
187 214 255
187 214 255
187 214 255
187 214 255
187 214 255
187 214 255
187 214 255
187 214 255
187 214 255
187 214 255
187 214 255
187 214 255
187 214 255
187 214 255
187 214 255
187 214 255
187 214 255
187 214 255
187 214 255
187 214 255
187 214 255
187 214 255
187 214 255
187 214 255
187 214 255
187 214 255
187 214 255
187 214 255
187 214 255
187 215 255
187 215 255
187 215 255
187 215 255
187 215 255
187 215 255
187 215 255
187 215 255
187 215 255
187 215 255
187 215 255
187 215 255
187 215 255
187 215 255
187 215 255
187 215 255
187 215 255
188 215 255
188 215 255
188 215 255
188 215 255
188 215 255
188 215 255
188 215 255
188 215 255
188 215 255
188 215 255
188 215 255
188 215 255
188 215 255
188 215 255
188 215 255
188 215 255
188 215 255
188 215 255
188 215 255
188 215 255
188 215 255
188 215 255
188 215 255
188 215 255
188 215 255
188 215 255
188 215 255
188 215 255
188 215 255
188 215 255
188 215 255
188 215 255
188 215 255
188 215 255
188 215 255
188 215 255
188 215 255
188 215 255
188 215 255
188 215 255
188 215 255
188 215 255
188 215 255
188 215 255
188 215 255
188 215 255
188 215 255
188 215 255
188 215 255
188 215 255
188 215 255
188 215 255
188 215 255
188 215 255
188 215 255
188 215 255
188 215 255
188 215 255
188 215 255
188 215 255
188 215 255
188 215 255
188 215 255
188 215 255
188 215 255
188 215 255
188 215 255
188 215 255
189 215 255
189 215 255
189 215 255
189 215 255
189 215 255
189 215 255
189 215 255
189 215 255
189 215 255
189 215 255
189 215 255
189 215 255
189 215 255
189 215 255
189 215 255
189 215 255
189 215 255
189 215 255
189 215 255
189 216 255
189 216 255
189 216 255
189 216 255
189 216 255
189 216 255
189 216 255
189 216 255
189 216 255
189 216 255
189 216 255
189 216 255
189 216 255
189 216 255
189 216 255
189 216 255
189 215 255
189 215 255
189 215 255
189 215 255
189 215 255
189 215 255
189 215 255
189 215 255
189 215 255
189 215 255
189 215 255
189 215 255
189 215 255
189 215 255
189 215 255
189 215 255
189 215 255
189 215 255
189 215 255
189 215 255
189 215 255
189 215 255
189 215 255
189 215 255
189 215 255
189 215 255
189 215 255
189 215 255
189 215 255
188 215 255
188 215 255
188 215 255
188 215 255
188 215 255
188 215 255
188 215 255
188 215 255
188 215 255
188 215 255
188 215 255
188 215 255
188 215 255
188 215 255
188 215 255
188 215 255
188 215 255
188 215 255
188 215 255
188 215 255
188 215 255
188 215 255
188 215 255
188 215 255
188 215 255
188 215 255
188 215 255
188 215 255
188 215 255
188 215 255
188 215 255
188 215 255
188 215 255
188 215 255
188 215 255
188 215 255
188 215 255
188 215 255
188 215 255
188 215 255
188 215 255
188 215 255
188 215 255
188 215 255
188 215 255
188 215 255
188 215 255
188 215 255
188 215 255
188 215 255
188 215 255
188 215 255
188 215 255
188 215 255
188 215 255
188 215 255
188 215 255
188 215 255
188 215 255
188 215 255
188 215 255
188 215 255
188 215 255
188 215 255
188 215 255
188 215 255
187 215 255
187 215 255
187 215 255
187 215 255
187 215 255
187 215 255
187 215 255
187 215 255
187 215 255
187 215 255
187 215 255
187 215 255
187 215 255
187 215 255
187 215 255
187 215 255
187 215 255
187 215 255
187 215 255
187 214 255
187 214 255
187 214 255
187 214 255
187 214 255
148 171 206
70 85 106
70 85 107
71 85 107
62 76 97
67 83 106
70 85 108
70 85 107
69 84 105
68 83 106
73 87 109
70 84 105
69 83 104
68 83 106
64 78 99
65 80 102
70 84 106
65 80 102
70 84 105
70 84 106
72 88 110
72 87 110
67 81 103
71 86 108
71 86 108
73 88 111
68 81 102
66 80 102
66 81 104
69 84 106
68 83 105
70 84 105
67 82 103
73 87 109
72 87 110
69 84 105
67 81 102
69 84 106
71 85 106
69 83 104
70 85 107
68 81 101
74 90 114
77 92 115
71 85 107
70 85 108
71 86 108
69 83 105
67 82 104
68 83 105
66 82 105
62 76 98
71 85 106
71 85 106
73 87 108
67 82 104
65 80 102
67 81 102
66 80 101
71 85 107
73 89 113
68 82 104
63 77 100
67 81 102
68 83 106
67 81 102
65 79 101
62 77 99
69 82 102
66 80 102
68 83 106
74 89 113
68 83 106
70 85 106
70 84 105
67 81 101
69 84 107
70 83 102
67 82 104
66 80 102
67 82 103
66 81 103
70 84 106
72 89 113
67 80 101
74 88 111
70 85 108
76 90 111
70 85 107
75 90 113
65 79 100
70 85 108
67 81 101
71 86 107
70 85 107
71 86 108
70 85 106
71 85 107
66 81 102
67 82 104
72 86 108
69 82 103
68 82 103
69 84 107
69 85 109
65 79 101
71 87 110
70 84 105
65 79 99
68 84 107
70 84 105
64 78 100
73 88 110
72 87 109
69 83 105
70 85 107
65 79 99
69 83 103
71 85 106
72 87 110
69 83 105
67 81 102
70 84 106
66 81 102
67 82 104
71 86 109
69 84 107
73 88 111
75 89 110
145 168 202
187 214 255
187 214 255
187 214 255
187 214 255
187 214 255
187 215 255
187 215 255
187 215 255
187 215 255
187 215 255
187 215 255
187 215 255
187 215 255
187 215 255
187 215 255
187 215 255
187 215 255
187 215 255
187 215 255
187 215 255
187 215 255
187 215 255
187 215 255
187 215 255
187 215 255
188 215 255
188 215 255
188 215 255
188 215 255
188 215 255
188 215 255
188 215 255
188 215 255
188 215 255
188 215 255
188 215 255
188 215 255
188 215 255
188 215 255
188 215 255
188 215 255
188 215 255
188 215 255
188 215 255
188 215 255
188 215 255
188 215 255
188 215 255
188 215 255
188 215 255
188 215 255
188 215 255
188 215 255
188 215 255
188 215 255
188 215 255
188 215 255
188 215 255
188 215 255
188 215 255
188 215 255
188 215 255
188 215 255
188 215 255
188 215 255
188 215 255
188 215 255
188 215 255
188 215 255
188 215 255
188 215 255
188 215 255
188 215 255
188 215 255
188 215 255
188 215 255
188 215 255
188 215 255
188 215 255
188 215 255
188 215 255
188 215 255
188 215 255
188 215 255
188 215 255
188 215 255
188 215 255
188 215 255
188 215 255
188 215 255
188 215 255
189 215 255
189 215 255
189 215 255
189 215 255
189 215 255
189 215 255
189 215 255
189 215 255
189 215 255
189 215 255
189 215 255
189 215 255
189 215 255
189 215 255
189 215 255
189 215 255
189 215 255
189 215 255
189 215 255
189 215 255
189 215 255
189 215 255
189 215 255
189 215 255
189 215 255
189 215 255
189 215 255
189 215 255
189 216 255
189 216 255
189 216 255
189 216 255
189 216 255
189 216 255
189 216 255
189 216 255
189 216 255
189 216 255
189 216 255
189 216 255
189 216 255
189 216 255
189 216 255
189 216 255
189 216 255
189 216 255
189 216 255
189 216 255
189 216 255
189 216 255
189 216 255
189 216 255
189 216 255
189 216 255
189 216 255
189 216 255
189 216 255
189 216 255
189 216 255
189 216 255
189 216 255
189 216 255
189 216 255
189 216 255
189 216 255
189 216 255
189 216 255
189 216 255
189 216 255
189 216 255
189 216 255
189 216 255
189 216 255
189 216 255
189 216 255
189 216 255
189 216 255
189 216 255
189 216 255
189 216 255
189 216 255
189 216 255
189 216 255
189 216 255
189 216 255
189 216 255
189 216 255
189 216 255
189 216 255
189 216 255
189 215 255
189 215 255
189 215 255
189 215 255
189 215 255
189 215 255
189 215 255
189 215 255
189 215 255
189 215 255
189 215 255
189 215 255
189 215 255
189 215 255
189 215 255
189 215 255
189 215 255
189 215 255
189 215 255
189 215 255
189 215 255
189 215 255
189 215 255
189 215 255
189 215 255
189 215 255
188 215 255
188 215 255
188 215 255
188 215 255
188 215 255
188 215 255
188 215 255
188 215 255
188 215 255
188 215 255
188 215 255
188 215 255
188 215 255
188 215 255
188 215 255
188 215 255
188 215 255
188 215 255
188 215 255
188 215 255
188 215 255
188 215 255
188 215 255
188 215 255
188 215 255
188 215 255
188 215 255
188 215 255
188 215 255
188 215 255
188 215 255
188 215 255
188 215 255
188 215 255
188 215 255
188 215 255
188 215 255
188 215 255
188 215 255
188 215 255
188 215 255
188 215 255
188 215 255
188 215 255
188 215 255
188 215 255
188 215 255
188 215 255
188 215 255
188 215 255
188 215 255
188 215 255
188 215 255
188 215 255
188 215 255
188 215 255
188 215 255
188 215 255
188 215 255
188 215 255
188 215 255
188 215 255
188 215 255
135 157 188
67 82 104
70 85 107
71 85 106
69 83 104
70 84 105
74 89 112
66 80 101
70 86 109
70 85 108
73 89 112
66 80 101
68 82 104
67 82 104
72 88 111
70 85 107
70 84 105
71 86 109
69 85 108
67 81 100
66 80 102
68 83 104
69 83 104
70 85 108
69 84 106
69 83 104
73 88 109
64 79 102
72 88 110
69 84 107
66 80 102
73 88 109
64 77 97
64 79 101
68 83 105
72 87 110
69 85 109
70 85 107
66 80 101
69 84 107
71 85 107
72 87 108
69 84 105
62 76 98
64 79 101
71 85 106
66 81 103
71 86 108
71 87 110
69 84 105
69 83 104
68 82 104
70 86 109
73 87 108
69 84 106
68 83 106
70 85 107
65 78 98
67 81 102
69 84 106
67 80 101
67 81 102
69 83 104
66 81 102
72 88 112
69 82 103
71 85 105
71 86 108
70 85 107
70 84 106
67 82 104
69 83 105
69 83 103
72 87 111
66 79 98
69 84 107
66 80 102
62 75 95
69 83 105
67 81 104
67 83 106
68 82 103
76 91 114
69 83 104
71 86 110
67 82 103
66 81 104
69 84 106
70 84 106
70 83 104
69 84 108
66 80 102
65 79 101
68 83 105
66 79 98
68 83 105
68 82 102
66 80 102
67 80 100
69 84 106
68 83 105
69 83 105
69 85 107
68 82 103
68 83 105
69 83 105
70 84 105
71 86 108
73 88 110
69 85 107
69 85 109
71 86 108
71 87 111
73 87 108
71 86 109
75 91 115
71 85 106
69 84 107
67 82 105
68 82 103
68 82 103
77 90 111
66 81 102
72 87 111
67 81 103
68 82 104
69 83 105
61 74 93
72 86 106
144 166 200
188 215 255
188 215 255
188 215 255
188 215 255
188 215 255
188 215 255
188 215 255
188 215 255
188 215 255
188 215 255
188 215 255
188 215 255
188 215 255
188 215 255
188 215 255
188 215 255
188 215 255
188 215 255
188 215 255
188 215 255
188 215 255
188 215 255
188 215 255
188 215 255
188 215 255
188 215 255
188 215 255
188 215 255
188 215 255
188 215 255
188 215 255
188 215 255
188 215 255
188 215 255
188 215 255
188 215 255
188 215 255
188 215 255
188 215 255
188 215 255
188 215 255
188 215 255
188 215 255
188 215 255
188 215 255
188 215 255
188 215 255
188 215 255
188 215 255
188 215 255
188 215 255
188 215 255
188 215 255
188 215 255
188 215 255
188 215 255
188 215 255
188 215 255
188 215 255
188 215 255
188 215 255
188 215 255
188 215 255
189 215 255
189 215 255
189 215 255
189 215 255
189 215 255
189 215 255
189 215 255
189 215 255
189 215 255
189 215 255
189 215 255
189 215 255
189 215 255
189 215 255
189 215 255
189 215 255
189 215 255
189 215 255
189 215 255
189 215 255
189 215 255
189 215 255
189 215 255
189 215 255
189 215 255
189 215 255
189 215 255
189 216 255
189 215 255
189 216 255
189 216 255
189 216 255
189 216 255
189 216 255
189 216 255
189 216 255
189 216 255
189 216 255
189 216 255
189 216 255
189 216 255
189 216 255
189 216 255
189 216 255
189 216 255
189 216 255
189 216 255
189 216 255
189 216 255
189 216 255
189 216 255
189 216 255
189 216 255
189 216 255
189 216 255
189 216 255
189 216 255
189 216 255
189 216 255
189 216 255
189 216 255
189 216 255
189 216 255
189 216 255
189 216 255
189 216 255
189 216 255
189 216 255
189 216 255
189 216 255
189 216 255
189 216 255
190 216 255
190 216 255
190 216 255
190 216 255
190 216 255
189 216 255
190 216 255
189 216 255
189 216 255
189 216 255
189 216 255
189 216 255
189 216 255
189 216 255
189 216 255
189 216 255
189 216 255
189 216 255
189 216 255
189 216 255
189 216 255
189 216 255
189 216 255
189 216 255
189 216 255
189 216 255
189 216 255
189 216 255
189 216 255
189 216 255
189 216 255
189 216 255
189 216 255
189 216 255
189 216 255
189 216 255
189 216 255
189 216 255
189 216 255
189 216 255
189 216 255
189 216 255
189 216 255
189 216 255
189 216 255
189 216 255
189 216 255
189 216 255
189 216 255
189 216 255
189 216 255
189 216 255
189 216 255
189 216 255
189 216 255
189 216 255
189 216 255
189 216 255
189 216 255
189 216 255
189 216 255
189 216 255
189 216 255
189 216 255
189 216 255
189 216 255
189 216 255
189 216 255
189 216 255
189 216 255
189 216 255
189 216 255
189 216 255
189 216 255
189 216 255
189 215 255
189 215 255
189 215 255
189 215 255
189 215 255
189 215 255
189 215 255
189 215 255
189 215 255
189 215 255
189 215 255
189 215 255
189 215 255
189 215 255
189 215 255
189 215 255
189 215 255
189 215 255
189 215 255
189 215 255
189 215 255
189 215 255
189 215 255
189 215 255
189 215 255
189 215 255
188 215 255
189 215 255
188 215 255
188 215 255
188 215 255
188 215 255
188 215 255
188 215 255
188 215 255
188 215 255
188 215 255
188 215 255
188 215 255
188 215 255
188 215 255
188 215 255
188 215 255
188 215 255
188 215 255
188 215 255
188 215 255
188 215 255
188 215 255
188 215 255
188 215 255
188 215 255
188 215 255
188 215 255
188 215 255
188 215 255
188 215 255
188 215 255
188 215 255
188 215 255
128 149 180
65 79 101
64 78 98
69 84 105
68 83 105
70 85 107
67 82 104
72 86 106
67 82 104
69 84 108
68 82 104
69 84 107
73 88 109
70 85 107
71 86 109
70 85 108
66 81 103
71 86 109
67 79 98
61 75 95
66 80 100
70 84 106
70 84 105
70 84 105
72 88 112
67 82 104
65 79 99
68 81 101
63 78 99
68 81 102
69 82 101
68 82 102
70 85 107
72 86 107
71 86 109
70 83 104
68 82 102
67 82 104
64 79 100
66 80 101
72 86 108
71 85 107
68 81 101
68 82 103
71 85 108
70 85 107
64 77 96
66 79 100
70 84 106
65 80 101
69 84 107
63 77 98
64 78 101
69 85 109
66 79 99
70 84 105
64 77 97
67 81 102
70 84 105
70 84 105
68 82 104
65 79 99
68 82 104
68 81 102
67 83 106
68 82 104
67 81 103
68 83 106
66 80 101
73 89 112
69 83 105
63 78 100
67 81 100
60 75 96
68 83 105
70 84 105
69 83 104
69 82 103
70 85 107
66 81 104
72 88 111
65 80 103
65 80 103
68 82 102
65 80 103
65 79 100
66 79 100
69 83 104
66 81 102
65 79 99
68 83 106
67 81 102
69 83 105
70 85 108
69 84 106
71 86 108
69 84 107
66 80 102
66 79 100
63 77 97
64 79 101
68 81 102
65 79 100
70 85 107
71 86 108
72 86 108
65 79 99
71 86 107
66 82 105
68 82 103
73 87 108
70 84 104
66 81 102
77 91 113
70 85 107
68 82 104
68 81 102
65 78 98
69 84 107
72 87 109
68 83 106
66 81 103
70 85 107
73 87 109
70 84 106
69 84 106
66 80 101
69 84 106
71 86 109
120 139 169
188 215 255
188 215 255
188 215 255
188 215 255
188 215 255
188 215 255
188 215 255
188 215 255
188 215 255
188 215 255
188 215 255
188 215 255
188 215 255
188 215 255
188 215 255
188 215 255
188 215 255
188 215 255
188 215 255
188 215 255
188 215 255
188 215 255
188 215 255
188 215 255
188 215 255
188 215 255
188 215 255
188 215 255
188 215 255
188 215 255
188 215 255
188 215 255
189 215 255
189 215 255
189 215 255
189 215 255
189 215 255
189 215 255
189 215 255
189 215 255
189 215 255
189 215 255
189 215 255
189 215 255
189 215 255
189 215 255
189 215 255
189 215 255
189 215 255
189 215 255
189 215 255
189 215 255
189 215 255
189 215 255
189 215 255
189 215 255
189 215 255
189 215 255
189 216 255
189 216 255
189 216 255
189 216 255
189 216 255
189 216 255
189 216 255
189 216 255
189 216 255
189 216 255
189 216 255
189 216 255
189 216 255
189 216 255
189 216 255
189 216 255
189 216 255
189 216 255
189 216 255
189 216 255
189 216 255
189 216 255
189 216 255
189 216 255
189 216 255
189 216 255
189 216 255
189 216 255
189 216 255
189 216 255
189 216 255
189 216 255
189 216 255
189 216 255
189 216 255
189 216 255
189 216 255
189 216 255
189 216 255
189 216 255
189 216 255
189 216 255
189 216 255
189 216 255
189 216 255
189 216 255
189 216 255
189 216 255
189 216 255
189 216 255
189 216 255
189 216 255
189 216 255
189 216 255
189 216 255
189 216 255
189 216 255
189 216 255
189 216 255
189 216 255
189 216 255
189 216 255
189 216 255
189 216 255
189 216 255
189 216 255
189 216 255
189 216 255
189 216 255
189 216 255
190 216 255
190 216 255
190 216 255
190 216 255
190 216 255
190 216 255
190 216 255
190 216 255
190 216 255
190 216 255
190 216 255
190 216 255
190 216 255
190 216 255
190 216 255
190 216 255
190 216 255
190 216 255
190 216 255
190 216 255
190 216 255
190 216 255
190 216 255
190 216 255
190 216 255
190 216 255
190 216 255
190 216 255
190 216 255
190 216 255
190 216 255
190 216 255
190 216 255
190 216 255
190 216 255
190 216 255
190 216 255
190 216 255
190 216 255
190 216 255
190 216 255
190 216 255
190 216 255
190 216 255
190 216 255
190 216 255
190 216 255
190 216 255
190 216 255
190 216 255
190 216 255
190 216 255
189 216 255
189 216 255
189 216 255
189 216 255
189 216 255
189 216 255
189 216 255
189 216 255
189 216 255
189 216 255
189 216 255
189 216 255
189 216 255
189 216 255
189 216 255
189 216 255
189 216 255
189 216 255
189 216 255
189 216 255
189 216 255
189 216 255
189 216 255
189 216 255
189 216 255
189 216 255
189 216 255
189 216 255
189 216 255
189 216 255
189 216 255
189 216 255
189 216 255
189 216 255
189 216 255
189 216 255
189 216 255
189 216 255
189 216 255
189 216 255
189 216 255
189 216 255
189 216 255
189 216 255
189 216 255
189 216 255
189 216 255
189 216 255
189 216 255
189 216 255
189 216 255
189 216 255
189 216 255
189 216 255
189 216 255
189 216 255
189 216 255
189 216 255
189 216 255
189 216 255
189 216 255
189 216 255
189 216 255
189 216 255
189 216 255
189 215 255
189 216 255
189 215 255
189 215 255
189 215 255
189 215 255
189 215 255
189 215 255
189 215 255
189 215 255
189 215 255
189 215 255
189 215 255
189 215 255
189 215 255
189 215 255
189 215 255
189 215 255
189 215 255
189 215 255
189 215 255
189 215 255
189 215 255
189 215 255
189 215 255
109 127 154
68 82 103
65 79 100
70 84 106
67 80 99
70 85 107
72 87 109
65 80 103
70 85 108
68 83 105
69 84 105
66 79 100
71 86 109
67 82 103
67 81 103
65 80 101
69 85 108
67 82 103
68 82 103
68 83 104
69 83 105
68 83 106
66 80 102
71 85 106
67 81 101
70 85 108
67 81 101
72 86 107
68 82 104
64 78 98
65 79 99
69 85 107
60 73 92
61 74 95
70 85 108
68 82 104
72 85 106
69 83 105
63 77 98
71 85 105
68 82 103
72 87 110
68 83 105
67 80 99
65 79 101
66 81 103
68 82 103
71 86 107
67 82 103
67 81 103
69 84 107
66 80 101
65 78 99
71 86 107
67 81 101
67 82 104
71 85 107
71 86 108
71 85 107
73 89 112
64 78 98
59 72 92
64 78 99
66 80 102
67 80 100
71 86 108
72 85 106
70 84 106
72 88 110
70 84 106
68 83 104
70 84 105
70 84 105
67 81 101
67 81 102
65 79 101
66 80 100
67 81 102
65 79 100
67 81 101
70 85 107
69 83 105
70 84 105
66 80 102
70 85 107
72 87 109
65 78 99
66 79 99
66 80 101
72 87 108
73 87 109
64 78 99
73 88 111
62 76 96
65 79 101
60 75 97
68 82 103
64 77 97
67 81 101
65 78 98
68 83 104
73 88 109
73 87 109
71 85 107
66 81 104
67 82 105
65 80 101
65 78 98
73 88 110
70 84 106
69 83 103
67 81 103
65 78 99
72 87 111
70 85 106
68 81 102
66 79 100
66 80 102
65 79 99
66 80 100
68 82 104
66 81 103
68 82 104
72 86 108
68 82 103
68 83 105
65 78 98
69 83 104
69 84 105
106 125 153
189 215 255
189 215 255
189 215 255
189 215 255
189 215 255
189 215 255
189 215 255
189 215 255
189 215 255
189 215 255
189 215 255
189 215 255
189 215 255
189 215 255
189 215 255
189 215 255
189 215 255
189 215 255
189 215 255
189 215 255
189 215 255
189 215 255
189 215 255
189 215 255
189 215 255
189 215 255
189 216 255
189 216 255
189 216 255
189 216 255
189 216 255
189 216 255
189 216 255
189 216 255
189 216 255
189 216 255
189 216 255
189 216 255
189 216 255
189 216 255
189 216 255
189 216 255
189 216 255
189 216 255
189 216 255
189 216 255
189 216 255
189 216 255
189 216 255
189 216 255
189 216 255
189 216 255
189 216 255
189 216 255
189 216 255
189 216 255
189 216 255
189 216 255
189 216 255
189 216 255
189 216 255
189 216 255
189 216 255
189 216 255
189 216 255
189 216 255
189 216 255
189 216 255
189 216 255
189 216 255
189 216 255
189 216 255
189 216 255
189 216 255
189 216 255
189 216 255
189 216 255
189 216 255
189 216 255
189 216 255
189 216 255
189 216 255
189 216 255
189 216 255
189 216 255
189 216 255
189 216 255
189 216 255
189 216 255
189 216 255
189 216 255
190 216 255
190 216 255
190 216 255
190 216 255
190 216 255
190 216 255
190 216 255
190 216 255
190 216 255
190 216 255
190 216 255
190 216 255
190 216 255
190 216 255
190 216 255
190 216 255
190 216 255
190 216 255
190 216 255
190 216 255
190 216 255
190 216 255
190 216 255
190 216 255
190 216 255
190 216 255
190 216 255
190 216 255
190 216 255
190 216 255
190 216 255
190 216 255
190 216 255
190 216 255
190 216 255
190 216 255
190 216 255
190 216 255
190 216 255
190 216 255
190 216 255
190 216 255
190 216 255
190 216 255
190 216 255
190 216 255
190 216 255
190 216 255
190 216 255
190 216 255
190 216 255
190 216 255
190 216 255
190 216 255
190 216 255
190 216 255
190 216 255
190 216 255
190 216 255
190 216 255
190 216 255
190 216 255
190 216 255
190 216 255
190 216 255
190 216 255
190 216 255
190 216 255
190 216 255
190 216 255
190 216 255
190 216 255
190 216 255
190 216 255
190 216 255
190 216 255
190 216 255
190 216 255
190 216 255
190 216 255
190 216 255
190 216 255
190 216 255
190 216 255
190 216 255
190 216 255
190 216 255
190 216 255
190 216 255
190 216 255
190 216 255
190 216 255
190 216 255
190 216 255
190 216 255
190 216 255
190 216 255
190 216 255
190 216 255
190 216 255
190 216 255
190 216 255
190 216 255
190 216 255
190 216 255
190 216 255
190 216 255
190 216 255
190 216 255
190 216 255
190 216 255
190 216 255
190 216 255
190 216 255
190 216 255
190 216 255
190 216 255
190 216 255
190 216 255
190 216 255
190 216 255
190 216 255
190 216 255
190 216 255
190 216 255
190 216 255
190 216 255
190 216 255
189 216 255
190 216 255
190 216 255
189 216 255
189 216 255
189 216 255
189 216 255
189 216 255
189 216 255
189 216 255
189 216 255
189 216 255
189 216 255
189 216 255
189 216 255
189 216 255
189 216 255
189 216 255
189 216 255
189 216 255
189 216 255
189 216 255
189 216 255
189 216 255
189 216 255
189 216 255
189 216 255
189 216 255
189 216 255
189 216 255
189 216 255
189 216 255
189 216 255
189 216 255
189 216 255
189 216 255
189 216 255
189 216 255
189 216 255
189 216 255
189 216 255
189 216 255
189 216 255
189 216 255
189 216 255
189 216 255
189 216 255
189 216 255
189 216 255
189 216 255
189 216 255
106 125 152
68 82 104
69 83 104
69 83 105
69 84 107
68 82 103
70 84 105
60 74 94
65 80 103
68 82 103
69 83 105
67 80 99
66 79 100
72 87 110
70 84 106
68 82 104
69 84 105
71 85 107
67 82 104
69 83 105
70 84 105
67 82 103
68 83 105
63 77 98
72 86 107
73 87 109
66 81 103
68 81 102
66 79 99
69 83 105
67 82 103
71 85 106
68 82 103
67 81 103
69 85 108
68 82 104
66 81 103
65 79 100
72 87 109
70 83 104
67 81 102
69 84 106
74 89 111
65 79 100
64 78 98
72 85 106
66 79 100
68 81 102
66 80 101
70 84 105
60 74 95
65 79 101
66 81 105
67 82 104
69 83 104
70 85 108
64 78 99
67 80 99
67 82 104
67 81 103
63 76 96
71 85 106
63 77 97
69 83 104
67 81 102
70 84 106
68 82 105
63 77 98
70 85 107
69 83 104
70 85 106
66 82 105
70 85 107
66 81 103
68 82 103
68 82 103
60 74 95
67 81 103
68 82 104
68 82 104
66 81 103
66 80 101
66 80 101
65 78 98
66 80 101
69 84 105
69 84 107
72 88 111
69 83 103
68 82 104
70 83 103
68 82 102
65 79 99
67 81 101
65 78 98
70 85 108
73 88 110
64 78 98
66 80 102
59 73 94
62 76 98
69 82 102
68 81 101
72 85 106
70 85 107
67 81 101
70 84 106
69 84 106
68 82 102
70 84 105
74 87 108
67 82 104
66 79 99
65 78 98
71 85 108
70 85 107
69 84 106
67 82 105
68 83 105
67 81 101
68 84 107
70 84 105
65 78 99
66 81 103
66 79 98
63 77 98
68 83 106
65 78 99
67 81 103
89 105 130
189 216 255
189 216 255
189 216 255
189 216 255
189 216 255
189 216 255
189 216 255
189 216 255
189 216 255
189 216 255
189 216 255
189 216 255
189 216 255
189 216 255
189 216 255
189 216 255
189 216 255
189 216 255
189 216 255
189 216 255
189 216 255
189 216 255
189 216 255
189 216 255
189 216 255
189 216 255
189 216 255
189 216 255
189 216 255
189 216 255
189 216 255
189 216 255
189 216 255
189 216 255
189 216 255
189 216 255
189 216 255
189 216 255
189 216 255
189 216 255
189 216 255
189 216 255
189 216 255
189 216 255
189 216 255
189 216 255
189 216 255
189 216 255
190 216 255
189 216 255
190 216 255
190 216 255
190 216 255
190 216 255
190 216 255
190 216 255
190 216 255
190 216 255
190 216 255
190 216 255
190 216 255
190 216 255
190 216 255
190 216 255
190 216 255
190 216 255
190 216 255
190 216 255
190 216 255
190 216 255
190 216 255
190 216 255
190 216 255
190 216 255
190 216 255
190 216 255
190 216 255
190 216 255
190 216 255
190 216 255
190 216 255
190 216 255
190 216 255
190 216 255
190 216 255
190 216 255
190 216 255
190 216 255
190 216 255
190 216 255
190 216 255
190 216 255
190 216 255
190 216 255
190 216 255
190 216 255
190 216 255
190 216 255
190 216 255
190 216 255
190 216 255
190 216 255
190 216 255
190 216 255
190 216 255
190 216 255
190 216 255
190 216 255
190 216 255
190 216 255
190 216 255
190 216 255
190 216 255
190 216 255
190 216 255
190 216 255
190 216 255
190 216 255
190 216 255
190 216 255
190 216 255
190 216 255
190 216 255
190 216 255
190 216 255
190 216 255
190 216 255
190 216 255
190 216 255
190 216 255
190 216 255
190 216 255
190 216 255
190 216 255
190 216 255
190 216 255
190 216 255
190 216 255
190 216 255
190 216 255
190 216 255
190 216 255
190 216 255
190 216 255
190 216 255
190 216 255
190 216 255
190 216 255
190 216 255
190 216 255
190 216 255
190 216 255
190 216 255
190 216 255
190 216 255
190 216 255
190 216 255
190 216 255
190 216 255
190 216 255
190 216 255
190 216 255
190 216 255
190 216 255
190 216 255
190 216 255
190 216 255
190 216 255
190 216 255
190 216 255
190 216 255
190 216 255
190 216 255
190 216 255
190 216 255
190 216 255
190 216 255
190 216 255
190 216 255
190 216 255
190 216 255
190 216 255
190 216 255
190 216 255
190 216 255
190 216 255
190 216 255
190 216 255
190 216 255
190 216 255
190 216 255
190 216 255
190 216 255
190 216 255
190 216 255
190 216 255
190 216 255
190 216 255
190 216 255
190 216 255
190 216 255
190 216 255
190 216 255
190 216 255
190 216 255
190 216 255
190 216 255
190 216 255
190 216 255
190 216 255
190 216 255
190 216 255
190 216 255
190 216 255
190 216 255
190 216 255
190 216 255
190 216 255
190 216 255
190 216 255
190 216 255
190 216 255
190 216 255
190 216 255
190 216 255
190 216 255
190 216 255
190 216 255
190 216 255
190 216 255
190 216 255
190 216 255
190 216 255
190 216 255
190 216 255
190 216 255
190 216 255
190 216 255
190 216 255
190 216 255
190 216 255
190 216 255
190 216 255
190 216 255
190 216 255
190 216 255
190 216 255
190 216 255
190 216 255
190 216 255
190 216 255
190 216 255
190 216 255
190 216 255
190 216 255
190 216 255
190 216 255
190 216 255
190 216 255
190 216 255
190 216 255
190 216 255
190 216 255
190 216 255
190 216 255
190 216 255
190 216 255
190 216 255
190 216 255
190 216 255
98 115 142
70 86 109
67 82 103
69 84 105
69 83 105
65 80 101
66 80 101
65 79 100
64 79 100
65 79 100
72 87 110
66 80 102
67 82 103
65 79 100
62 77 99
66 80 100
69 83 105
64 77 97
67 81 102
62 75 96
69 83 104
73 88 110
63 77 98
70 85 108
69 84 107
67 82 104
69 83 105
71 86 109
69 84 106
67 83 106
65 80 101
65 78 98
65 79 99
73 89 113
64 78 99
67 82 104
63 77 97
67 81 101
62 74 93
66 81 102
64 77 98
61 75 96
69 83 104
71 86 108
66 80 102
66 81 103
68 82 102
69 84 106
65 79 101
73 88 110
67 82 105
68 82 104
64 77 97
65 79 99
65 80 102
71 87 110
66 80 101
66 81 102
67 82 105
74 89 111
67 81 103
70 85 107
66 81 103
65 79 99
67 81 102
71 86 108
69 84 106
68 82 103
67 81 102
68 82 102
65 79 100
68 84 107
69 83 104
68 83 107
68 81 102
70 85 107
67 80 100
65 79 101
66 80 101
70 84 105
66 80 101
65 79 101
64 77 98
69 83 104
67 81 101
64 78 100
66 82 105
66 81 104
64 78 98
68 82 103
63 77 96
68 83 105
66 80 101
69 84 107
68 83 105
68 81 102
68 82 103
65 79 101
68 82 103
71 85 108
73 88 112
63 76 96
68 81 101
70 85 107
67 82 104
69 84 107
73 88 110
67 82 103
66 80 101
66 81 102
68 82 103
70 83 103
64 77 97
71 86 110
65 79 100
69 83 104
64 76 95
66 81 102
65 79 100
65 78 98
68 82 104
68 83 107
66 81 103
62 75 95
69 84 105
68 82 104
64 78 100
64 78 100
65 78 98
85 101 125
190 216 255
190 216 255
190 216 255
190 216 255
190 216 255
190 216 255
190 216 255
190 216 255
190 216 255
190 216 255
190 216 255
190 216 255
190 216 255
190 216 255
190 216 255
190 216 255
190 216 255
190 216 255
190 216 255
190 216 255
190 216 255
190 216 255
190 216 255
190 216 255
190 216 255
190 216 255
190 216 255
190 216 255
190 216 255
190 216 255
190 216 255
190 216 255
190 216 255
190 216 255
190 216 255
190 216 255
190 216 255
190 216 255
190 216 255
190 216 255
190 216 255
190 216 255
190 216 255
190 216 255
190 216 255
190 216 255
190 216 255
190 216 255
190 216 255
190 216 255
190 216 255
190 216 255
190 216 255
190 216 255
190 216 255
190 216 255
190 216 255
190 216 255
190 216 255
190 216 255
190 216 255
190 216 255
190 216 255
190 216 255
190 216 255
190 216 255
190 216 255
190 216 255
190 216 255
190 216 255
190 216 255
190 216 255
190 216 255
190 216 255
190 216 255
190 216 255
190 216 255
190 216 255
190 216 255
190 216 255
190 216 255
190 216 255
190 216 255
190 216 255
190 216 255
190 216 255
190 216 255
190 216 255
190 216 255
190 216 255
190 216 255
190 216 255
190 216 255
190 216 255
190 216 255
190 216 255
190 216 255
190 216 255
190 216 255
190 216 255
190 216 255
190 216 255
190 216 255
190 216 255
190 216 255
190 216 255
190 216 255
190 216 255
190 216 255
190 216 255
190 216 255
190 216 255
190 216 255
190 216 255
190 216 255
190 216 255
190 216 255
190 216 255
190 216 255
190 216 255
190 216 255
190 216 255
190 216 255
190 216 255
190 216 255
190 216 255
190 216 255
190 216 255
190 216 255
190 216 255
190 216 255
190 216 255
190 216 255
190 216 255
190 216 255
191 217 255
191 217 255
191 217 255
191 217 255
191 217 255
191 217 255
191 217 255
191 217 255
191 217 255
191 217 255
191 217 255
191 217 255
191 217 255
191 217 255
191 217 255
191 217 255
191 217 255
191 217 255
191 217 255
191 217 255
191 217 255
191 217 255
191 217 255
191 217 255
191 217 255
191 217 255
191 217 255
191 217 255
191 217 255
191 217 255
191 217 255
191 217 255
191 217 255
191 217 255
191 217 255
191 217 255
191 217 255
191 217 255
191 217 255
191 217 255
191 217 255
191 217 255
191 217 255
191 217 255
191 217 255
190 216 255
190 216 255
190 216 255
190 216 255
190 216 255
190 216 255
190 216 255
190 216 255
190 216 255
190 216 255
190 216 255
190 216 255
190 216 255
190 216 255
190 216 255
190 216 255
190 216 255
190 216 255
190 216 255
190 216 255
190 216 255
190 216 255
190 216 255
190 216 255
190 216 255
190 216 255
190 216 255
190 216 255
190 216 255
190 216 255
190 216 255
190 216 255
190 216 255
190 216 255
190 216 255
190 216 255
190 216 255
190 216 255
190 216 255
190 216 255
190 216 255
190 216 255
190 216 255
190 216 255
190 216 255
190 216 255
190 216 255
190 216 255
190 216 255
190 216 255
190 216 255
190 216 255
190 216 255
190 216 255
190 216 255
190 216 255
190 216 255
190 216 255
190 216 255
190 216 255
190 216 255
190 216 255
190 216 255
190 216 255
190 216 255
190 216 255
190 216 255
190 216 255
190 216 255
190 216 255
190 216 255
190 216 255
190 216 255
190 216 255
190 216 255
190 216 255
190 216 255
190 216 255
190 216 255
190 216 255
190 216 255
190 216 255
190 216 255
190 216 255
190 216 255
190 216 255
190 216 255
190 216 255
190 216 255
190 216 255
82 98 122
66 80 100
68 83 105
68 83 104
66 80 100
62 76 97
69 82 103
68 82 102
70 84 106
69 83 104
63 77 97
69 83 103
66 81 103
63 78 99
67 82 105
68 81 102
67 82 103
69 83 105
68 82 103
65 79 100
62 76 96
65 79 101
65 80 102
70 84 106
69 83 104
62 75 94
70 84 106
69 84 107
66 80 101
68 83 106
65 79 100
66 81 103
66 81 103
69 83 105
64 79 100
63 77 98
61 75 96
68 82 104
63 77 98
70 84 106
65 79 100
67 81 101
71 86 109
65 79 100
69 84 106
63 77 98
69 84 105
69 84 107
64 79 101
65 78 98
70 85 107
67 81 102
63 77 98
69 83 104
67 82 103
68 84 107
63 77 98
67 80 101
60 73 93
67 82 103
69 84 105
70 84 105
67 81 102
70 85 106
62 75 94
68 83 105
70 85 108
67 81 101
68 82 104
64 78 98
68 83 104
69 83 105
67 80 99
69 84 106
65 80 101
68 83 104
69 84 105
70 85 108
70 85 107
71 86 108
68 82 103
70 85 106
63 77 98
67 82 105
70 85 107
63 76 96
63 76 95
70 86 108
66 79 99
65 80 102
67 82 103
68 82 103
65 79 100
71 85 106
70 83 104
66 81 103
67 82 104
64 77 98
65 78 98
64 78 99
67 82 105
66 81 103
69 85 107
73 88 110
68 82 103
69 83 104
66 80 101
65 79 101
65 78 98
66 79 99
60 75 96
67 81 102
65 79 100
66 80 101
62 76 97
64 77 98
63 76 96
68 83 105
68 83 104
69 84 107
63 77 98
68 83 105
68 82 103
68 82 103
65 78 98
66 81 103
67 81 102
66 81 103
70 86 108
82 97 120
190 216 255
190 216 255
190 216 255
190 216 255
190 216 255
190 216 255
190 216 255
190 216 255
190 216 255
190 216 255
190 216 255
190 216 255
190 216 255
190 216 255
190 216 255
190 216 255
190 216 255
190 216 255
190 216 255
190 216 255
190 216 255
190 216 255
190 216 255
190 216 255
190 216 255
190 216 255
190 216 255
190 216 255
190 216 255
190 216 255
190 216 255
190 216 255
190 216 255
190 216 255
190 216 255
190 216 255
190 216 255
190 216 255
190 216 255
190 216 255
190 216 255
190 216 255
190 216 255
190 216 255
190 216 255
190 216 255
190 216 255
190 216 255
190 216 255
190 216 255
190 216 255
190 216 255
190 216 255
190 216 255
190 216 255
190 216 255
190 216 255
190 216 255
190 216 255
190 216 255
190 216 255
190 216 255
190 216 255
190 216 255
190 216 255
190 216 255
190 216 255
190 216 255
190 216 255
190 216 255
190 216 255
190 216 255
190 216 255
190 216 255
190 216 255
190 216 255
190 216 255
190 216 255
190 216 255
190 216 255
190 216 255
190 216 255
190 216 255
190 216 255
190 216 255
190 216 255
190 216 255
190 216 255
190 216 255
191 217 255
190 216 255
191 217 255
190 216 255
191 217 255
191 217 255
191 217 255
191 217 255
191 217 255
191 217 255
191 217 255
191 217 255
191 217 255
191 217 255
191 217 255
191 217 255
191 217 255
191 217 255
191 217 255
191 217 255
191 217 255
191 217 255
191 217 255
191 217 255
191 217 255
191 217 255
191 217 255
191 217 255
191 217 255
191 217 255
191 217 255
191 217 255
191 217 255
191 217 255
191 217 255
191 217 255
191 217 255
191 217 255
191 217 255
191 217 255
191 217 255
191 217 255
191 217 255
191 217 255
191 217 255
191 217 255
191 217 255
191 217 255
191 217 255
191 217 255
191 217 255
191 217 255
191 217 255
191 217 255
191 217 255
191 217 255
191 217 255
191 217 255
191 217 255
191 217 255
191 217 255
191 217 255
191 217 255
191 217 255
191 217 255
191 217 255
191 217 255
191 217 255
191 217 255
191 217 255
191 217 255
191 217 255
191 217 255
191 217 255
191 217 255
191 217 255
191 217 255
191 217 255
191 217 255
191 217 255
191 217 255
191 217 255
191 217 255
191 217 255
191 217 255
191 217 255
191 217 255
191 217 255
191 217 255
191 217 255
191 217 255
191 217 255
191 217 255
191 217 255
191 217 255
191 217 255
191 217 255
191 217 255
191 217 255
191 217 255
191 217 255
191 217 255
191 217 255
191 217 255
191 217 255
191 217 255
191 217 255
191 217 255
191 217 255
191 217 255
191 217 255
191 217 255
191 217 255
191 217 255
191 217 255
191 217 255
191 217 255
191 217 255
191 217 255
191 217 255
191 217 255
191 217 255
191 217 255
191 217 255
191 217 255
191 217 255
191 217 255
191 217 255
191 217 255
191 217 255
191 217 255
191 217 255
191 217 255
191 217 255
191 217 255
191 217 255
191 217 255
191 217 255
191 217 255
191 217 255
191 217 255
191 217 255
191 217 255
191 217 255
191 217 255
191 217 255
191 217 255
191 217 255
191 217 255
191 217 255
191 217 255
191 217 255
191 217 255
191 217 255
191 217 255
191 217 255
191 217 255
191 217 255
191 217 255
191 217 255
191 217 255
191 217 255
191 217 255
191 217 255
191 217 255
191 217 255
191 217 255
191 217 255
191 217 255
191 217 255
191 217 255
191 217 255
191 217 255
191 217 255
191 217 255
191 217 255
191 217 255
191 217 255
191 217 255
191 217 255
191 217 255
67 81 102
68 82 101
66 80 100
67 81 103
64 78 99
62 76 97
67 81 102
67 81 102
67 80 101
66 80 100
65 80 101
62 76 98
70 84 106
70 85 108
64 78 99
65 79 101
65 80 103
68 83 105
67 81 102
68 83 105
69 83 105
62 76 97
68 81 102
70 84 105
63 78 100
62 75 95
65 79 99
68 82 104
70 85 107
67 82 104
65 79 101
66 81 103
66 80 100
66 80 101
68 83 104
67 82 104
60 74 94
67 82 104
64 78 99
65 79 100
65 78 99
69 83 105
63 76 97
69 84 106
68 82 102
61 74 94
67 81 102
66 81 102
65 79 101
63 76 96
63 78 99
69 82 103
68 82 103
65 79 99
65 79 98
66 79 99
69 84 107
64 79 100
70 84 106
65 79 99
60 73 93
67 81 102
67 81 103
64 78 100
67 81 102
60 74 95
63 77 99
71 86 109
67 81 102
69 83 105
65 79 100
63 77 99
63 77 99
59 71 90
65 79 100
61 75 95
69 83 105
65 79 100
63 77 99
69 83 105
70 84 106
66 80 101
64 78 99
63 77 97
69 83 105
66 80 101
64 78 99
69 83 105
68 81 100
64 78 99
69 84 105
69 83 104
67 81 102
63 76 96
69 84 107
64 77 97
65 80 102
70 83 103
67 82 105
65 78 99
66 79 100
65 80 103
64 77 96
71 86 107
63 77 98
68 83 106
67 82 104
65 80 103
67 81 103
69 84 106
64 78 98
71 86 108
69 83 104
69 84 107
70 85 108
65 80 102
69 83 103
68 83 105
66 80 100
67 82 105
61 74 95
64 78 99
65 80 102
62 77 99
67 81 102
65 80 102
67 82 105
69 83 104
62 76 97
79 93 115
191 217 255
191 217 255
191 217 255
191 217 255
191 217 255
191 217 255
191 217 255
191 217 255
191 217 255
191 217 255
191 217 255
191 217 255
191 217 255
191 217 255
191 217 255
191 217 255
191 217 255
191 217 255
191 217 255
191 217 255
191 217 255
191 217 255
191 217 255
191 217 255
191 217 255
191 217 255
191 217 255
191 217 255
191 217 255
191 217 255
191 217 255
191 217 255
191 217 255
191 217 255
191 217 255
191 217 255
191 217 255
191 217 255
191 217 255
191 217 255
191 217 255
191 217 255
191 217 255
191 217 255
191 217 255
191 217 255
191 217 255
191 217 255
191 217 255
191 217 255
191 217 255
191 217 255
191 217 255
191 217 255
191 217 255
191 217 255
191 217 255
191 217 255
191 217 255
191 217 255
191 217 255
191 217 255
191 217 255
191 217 255
191 217 255
191 217 255
191 217 255
191 217 255
191 217 255
191 217 255
191 217 255
191 217 255
191 217 255
191 217 255
191 217 255
191 217 255
191 217 255
191 217 255
191 217 255
191 217 255
191 217 255
191 217 255
191 217 255
191 217 255
191 217 255
191 217 255
191 217 255
191 217 255
191 217 255
191 217 255
191 217 255
191 217 255
191 217 255
191 217 255
191 217 255
191 217 255
191 217 255
191 217 255
191 217 255
191 217 255
191 217 255
191 217 255
191 217 255
191 217 255
191 217 255
191 217 255
191 217 255
191 217 255
191 217 255
191 217 255
191 217 255
191 217 255
191 217 255
191 217 255
191 217 255
191 217 255
191 217 255
191 217 255
191 217 255
191 217 255
191 217 255
191 217 255
191 217 255
191 217 255
191 217 255
191 217 255
191 217 255
191 217 255
191 217 255
191 217 255
191 217 255
191 217 255
191 217 255
191 217 255
191 217 255
191 217 255
191 217 255
191 217 255
191 217 255
191 217 255
191 217 255
191 217 255
191 217 255
191 217 255
191 217 255
191 217 255
191 217 255
191 217 255
191 217 255
191 217 255
191 217 255
191 217 255
191 217 255
191 217 255
191 217 255
191 217 255
191 217 255
191 217 255
191 217 255
191 217 255
191 217 255
191 217 255
191 217 255
191 217 255
191 217 255
191 217 255
191 217 255
191 217 255
191 217 255
191 217 255
191 217 255
191 217 255
191 217 255
191 217 255
191 217 255
191 217 255
191 217 255
191 217 255
191 217 255
191 217 255
191 217 255
191 217 255
191 217 255
191 217 255
191 217 255
191 217 255
191 217 255
191 217 255
191 217 255
191 217 255
191 217 255
191 217 255
191 217 255
191 217 255
191 217 255
191 217 255
191 217 255
191 217 255
191 217 255
191 217 255
191 217 255
191 217 255
191 217 255
191 217 255
191 217 255
191 217 255
191 217 255
191 217 255
191 217 255
191 217 255
191 217 255
191 217 255
191 217 255
191 217 255
191 217 255
191 217 255
191 217 255
191 217 255
191 217 255
191 217 255
191 217 255
191 217 255
191 217 255
191 217 255
191 217 255
191 217 255
191 217 255
191 217 255
191 217 255
191 217 255
191 217 255
191 217 255
191 217 255
191 217 255
191 217 255
191 217 255
191 217 255
191 217 255
191 217 255
191 217 255
191 217 255
191 217 255
191 217 255
191 217 255
191 217 255
191 217 255
191 217 255
191 217 255
191 217 255
191 217 255
191 217 255
191 217 255
191 217 255
191 217 255
191 217 255
191 217 255
191 217 255
191 217 255
191 217 255
191 217 255
191 217 255
191 217 255
191 217 255
191 217 255
191 217 255
191 217 255
191 217 255
191 217 255
191 217 255
191 217 255
76 91 114
67 82 103
66 80 102
64 78 100
66 80 102
63 77 99
64 77 97
59 73 93
67 81 101
61 75 95
69 83 105
65 79 100
65 78 98
65 78 98
65 79 100
71 86 108
62 76 97
68 82 104
60 73 92
65 79 100
63 78 99
63 76 96
67 81 102
66 80 102
67 81 102
66 81 103
68 82 103
69 83 105
67 81 101
68 83 104
67 80 101
72 87 108
62 75 95
64 78 98
65 79 99
70 85 107
70 84 106
68 82 104
61 75 96
67 82 104
62 74 94
66 80 102
67 81 103
61 74 93
65 78 97
60 73 93
65 79 99
63 77 98
59 73 94
65 80 101
63 77 97
67 82 103
67 81 101
66 79 99
67 81 103
67 81 103
62 76 96
66 79 100
68 83 105
65 79 99
60 74 96
64 78 99
62 76 97
66 79 100
69 84 106
63 77 97
67 81 102
63 77 98
66 80 101
66 80 100
64 78 98
66 80 101
66 80 102
61 74 94
69 84 106
65 80 101
66 79 100
68 83 105
62 74 93
66 79 100
63 78 100
67 82 103
67 80 101
65 79 100
66 81 102
67 81 102
72 88 111
65 79 100
62 76 97
70 84 105
68 83 104
68 81 101
69 83 103
63 77 97
66 81 103
66 80 101
66 80 101
67 80 100
69 84 106
67 81 102
63 77 98
68 81 101
61 76 97
65 79 100
62 75 94
69 85 109
69 84 105
67 81 102
70 84 103
65 79 99
67 81 103
68 83 105
68 82 104
63 77 96
67 82 103
67 82 104
69 83 103
65 78 98
60 74 95
65 78 98
66 79 100
66 79 98
68 82 103
65 78 98
71 86 110
68 83 105
65 79 100
66 79 99
68 82 102
70 85 108
191 217 255
191 217 255
191 217 255
191 217 255
191 217 255
191 217 255
191 217 255
191 217 255
191 217 255
191 217 255
191 217 255
191 217 255
191 217 255
191 217 255
191 217 255
191 217 255
191 217 255
191 217 255
191 217 255
191 217 255
191 217 255
191 217 255
191 217 255
191 217 255
191 217 255
191 217 255
191 217 255
191 217 255
191 217 255
191 217 255
191 217 255
191 217 255
191 217 255
191 217 255
191 217 255
191 217 255
191 217 255
191 217 255
191 217 255
191 217 255
191 217 255
191 217 255
191 217 255
191 217 255
191 217 255
191 217 255
191 217 255
191 217 255
191 217 255
191 217 255
191 217 255
191 217 255
191 217 255
191 217 255
191 217 255
191 217 255
191 217 255
191 217 255
191 217 255
191 217 255
191 217 255
191 217 255
191 217 255
191 217 255
191 217 255
191 217 255
191 217 255
191 217 255
191 217 255
191 217 255
191 217 255
191 217 255
191 217 255
191 217 255
191 217 255
191 217 255
191 217 255
191 217 255
191 217 255
191 217 255
191 217 255
191 217 255
191 217 255
191 217 255
191 217 255
191 217 255
191 217 255
191 217 255
191 217 255
191 217 255
191 217 255
191 217 255
191 217 255
191 217 255
191 217 255
191 217 255
191 217 255
191 217 255
191 217 255
191 217 255
191 217 255
191 217 255
191 217 255
191 217 255
191 217 255
191 217 255
191 217 255
191 217 255
191 217 255
191 217 255
191 217 255
191 217 255
191 217 255
191 217 255
191 217 255
191 217 255
191 217 255
191 217 255
191 217 255
191 217 255
191 217 255
191 217 255
191 217 255
191 217 255
191 217 255
191 217 255
191 217 255
191 217 255
191 217 255
191 217 255
191 217 255
191 217 255
191 217 255
191 217 255
191 217 255
191 217 255
192 217 255
192 217 255
192 217 255
192 217 255
191 217 255
192 217 255
191 217 255
192 217 255
192 217 255
192 217 255
192 217 255
191 217 255
192 217 255
191 217 255
192 217 255
191 217 255
192 217 255
191 217 255
192 217 255
192 217 255
191 217 255
192 217 255
192 217 255
191 217 255
191 217 255
192 217 255
191 217 255
192 217 255
191 217 255
191 217 255
191 217 255
192 217 255
191 217 255
192 217 255
192 217 255
192 217 255
191 217 255
191 217 255
191 217 255
191 217 255
192 217 255
191 217 255
192 217 255
192 217 255
192 217 255
191 217 255
192 217 255
191 217 255
192 217 255
192 217 255
191 217 255
191 217 255
192 217 255
191 217 255
191 217 255
191 217 255
192 217 255
192 217 255
191 217 255
192 217 255
191 217 255
192 217 255
191 217 255
192 217 255
191 217 255
191 217 255
192 217 255
191 217 255
192 217 255
192 217 255
192 217 255
191 217 255
191 217 255
192 217 255
192 217 255
191 217 255
192 217 255
192 217 255
191 217 255
191 217 255
192 217 255
191 217 255
191 217 255
192 217 255
191 217 255
191 217 255
192 217 255
191 217 255
191 217 255
192 217 255
191 217 255
192 217 255
192 217 255
192 217 255
192 217 255
191 217 255
192 217 255
191 217 255
192 217 255
192 217 255
191 217 255
191 217 255
191 217 255
191 217 255
191 217 255
191 217 255
192 217 255
192 217 255
192 217 255
192 217 255
191 217 255
192 217 255
191 217 255
191 217 255
192 217 255
192 217 255
191 217 255
192 217 255
192 217 255
191 217 255
191 217 255
191 217 255
192 217 255
191 217 255
192 217 255
191 217 255
191 217 255
192 217 255
191 217 255
192 217 255
191 217 255
192 217 255
191 217 255
191 217 255
73 88 111
66 80 101
64 78 99
61 75 97
69 83 105
67 82 105
66 80 102
66 81 102
71 85 106
65 79 98
60 74 94
65 79 101
70 84 105
67 81 103
60 73 93
72 87 109
62 76 97
63 77 98
63 78 100
67 80 101
66 80 101
63 77 98
71 85 106
66 80 101
64 78 100
70 84 106
64 78 99
66 79 100
67 80 98
64 77 97
68 81 101
67 81 102
65 79 99
65 79 98
63 78 99
67 82 104
67 81 103
62 77 100
63 76 96
60 72 91
63 76 96
66 80 102
69 83 105
64 79 100
65 79 100
71 86 110
69 82 103
64 78 99
63 77 96
64 78 98
62 76 97
63 77 98
63 77 97
66 80 102
71 86 109
66 80 102
66 79 99
64 77 97
58 72 93
65 78 98
65 79 99
63 77 99
65 79 100
65 80 102
67 82 104
68 82 103
64 77 97
62 76 96
64 78 99
61 74 94
59 72 92
67 81 102
65 78 98
67 82 105
64 78 99
65 79 101
64 78 99
64 78 99
65 78 98
69 83 104
62 75 94
61 74 94
67 83 105
67 81 102
66 79 99
66 78 97
73 88 111
67 81 103
62 75 95
59 72 91
63 77 97
68 82 104
64 78 100
70 84 105
66 79 100
64 78 99
64 77 98
66 80 101
63 76 94
68 83 106
62 75 95
70 85 107
66 80 101
65 78 99
66 80 101
67 82 103
70 85 106
65 80 101
66 80 102
66 79 100
65 78 99
72 87 110
61 74 95
65 79 100
68 84 107
64 77 98
64 79 100
69 83 104
66 79 97
61 75 95
71 85 106
69 84 106
61 75 96
62 75 95
64 78 99
61 74 94
67 80 99
68 83 104
62 76 98
62 75 94
191 217 255
192 217 255
191 217 255
192 217 255
191 217 255
191 217 255
191 217 255
191 217 255
192 217 255
192 217 255
191 217 255
192 217 255
192 217 255
191 217 255
192 217 255
191 217 255
191 217 255
192 217 255
192 217 255
191 217 255
192 217 255
192 217 255
192 217 255
192 217 255
191 217 255
191 217 255
191 217 255
192 217 255
191 217 255
192 217 255
192 217 255
191 217 255
191 217 255
192 217 255
191 217 255
191 217 255
191 217 255
191 217 255
191 217 255
192 217 255
192 217 255
192 217 255
191 217 255
191 217 255
191 217 255
192 217 255
191 217 255
191 217 255
192 217 255
191 217 255
192 217 255
191 217 255
191 217 255
192 217 255
191 217 255
191 217 255
192 217 255
192 217 255
191 217 255
192 217 255
191 217 255
192 217 255
192 217 255
192 217 255
191 217 255
191 217 255
192 217 255
192 217 255
192 217 255
192 217 255
192 217 255
191 217 255
191 217 255
192 217 255
191 217 255
192 217 255
192 217 255
192 217 255
192 217 255
192 217 255
191 217 255
191 217 255
192 217 255
192 217 255
191 217 255
191 217 255
192 217 255
192 217 255
191 217 255
191 217 255
191 217 255
191 217 255
191 217 255
192 217 255
191 217 255
191 217 255
191 217 255
192 217 255
192 217 255
192 217 255
191 217 255
191 217 255
191 217 255
192 217 255
192 217 255
191 217 255
191 217 255
191 217 255
192 217 255
191 217 255
192 217 255
191 217 255
192 217 255
191 217 255
192 217 255
192 217 255
192 217 255
192 217 255
192 217 255
191 217 255
192 217 255
192 217 255
191 217 255
192 217 255
192 217 255
191 217 255
191 217 255
192 217 255
192 217 255
191 217 255
191 217 255
192 217 255
191 217 255
192 217 255
192 217 255
192 217 255
192 217 255
192 217 255
192 217 255
192 217 255
192 217 255
192 217 255
192 217 255
192 217 255
192 217 255
192 217 255
192 217 255
192 217 255
192 217 255
192 217 255
192 217 255
192 217 255
192 217 255
192 217 255
192 217 255
192 217 255
192 217 255
192 217 255
192 217 255
192 217 255
192 217 255
192 217 255
192 217 255
192 217 255
192 217 255
192 217 255
192 217 255
192 217 255
192 217 255
192 217 255
192 217 255
192 217 255
192 217 255
192 217 255
192 217 255
192 217 255
192 217 255
192 217 255
192 217 255
192 217 255
192 217 255
192 217 255
192 217 255
192 217 255
192 217 255
192 217 255
192 217 255
192 217 255
192 217 255
192 217 255
192 217 255
192 217 255
192 217 255
192 217 255
192 217 255
192 217 255
192 217 255
192 217 255
192 217 255
192 217 255
192 217 255
192 217 255
192 217 255
192 217 255
192 217 255
192 217 255
192 217 255
192 217 255
192 217 255
192 217 255
192 217 255
192 217 255
192 217 255
192 217 255
192 217 255
192 217 255
192 217 255
192 217 255
192 217 255
192 217 255
192 217 255
192 217 255
192 217 255
192 217 255
192 217 255
192 217 255
192 217 255
192 217 255
192 217 255
192 217 255
192 217 255
192 217 255
192 217 255
192 217 255
192 217 255
192 217 255
192 217 255
192 217 255
192 217 255
192 217 255
192 217 255
192 217 255
192 217 255
192 217 255
192 217 255
192 217 255
192 217 255
192 217 255
192 217 255
192 217 255
192 217 255
192 217 255
192 217 255
192 217 255
192 217 255
192 217 255
192 217 255
192 217 255
192 217 255
192 217 255
192 217 255
192 217 255
192 217 255
192 217 255
192 217 255
192 217 255
192 217 255
192 217 255
192 217 255
192 217 255
72 86 108
60 74 95
68 83 105
61 75 96
67 81 101
68 83 105
69 83 105
64 78 100
68 82 104
64 77 98
67 82 103
69 83 105
66 81 102
65 79 100
66 79 99
66 80 101
62 75 95
63 76 97
66 80 102
63 76 97
62 75 94
66 79 99
64 78 99
62 76 96
63 77 97
61 73 92
63 77 99
65 79 100
66 80 101
63 76 96
67 81 101
68 81 100
65 78 98
68 82 103
61 75 95
68 82 103
66 81 103
63 77 99
62 76 96
68 82 102
64 79 100
63 76 96
63 77 98
62 76 96
68 82 102
66 80 101
68 82 103
69 84 105
66 79 100
65 79 99
67 81 103
67 81 102
65 80 101
66 81 103
62 75 96
70 84 105
68 82 103
68 82 103
64 78 99
70 84 105
70 84 105
64 78 99
70 84 106
68 83 105
63 77 98
64 78 99
64 78 99
64 79 101
67 82 104
63 77 97
65 77 96
64 78 99
70 85 108
66 81 103
63 77 98
60 73 92
61 74 94
61 74 95
62 75 95
66 81 103
67 81 102
65 78 99
68 83 105
67 80 100
65 79 100
64 77 97
67 80 101
70 84 105
70 84 105
63 78 99
62 76 96
65 79 101
65 79 101
61 74 93
62 75 96
67 82 104
62 75 95
63 77 98
64 78 100
64 80 102
67 81 103
68 83 107
64 78 98
67 80 100
66 79 100
61 75 96
69 83 105
65 80 102
62 76 96
66 80 101
63 77 98
64 78 99
63 77 98
63 76 95
63 75 94
65 79 102
67 81 101
63 77 97
64 76 95
63 76 96
65 78 99
64 79 100
64 78 100
60 73 93
65 79 100
62 75 95
65 79 100
65 79 100
67 81 103
74 88 109
192 217 255
192 217 255
192 217 255
192 217 255
192 217 255
192 217 255
192 217 255
192 217 255
192 217 255
192 217 255
192 217 255
192 217 255
192 217 255
192 217 255
192 217 255
192 217 255
192 217 255
192 217 255
192 217 255
192 217 255
192 217 255
192 217 255
192 217 255
192 217 255
192 217 255
192 217 255
192 217 255
192 217 255
192 217 255
192 217 255
192 217 255
192 217 255
192 217 255
192 217 255
192 217 255
192 217 255
192 217 255
192 217 255
192 217 255
192 217 255
192 217 255
192 217 255
192 217 255
192 217 255
192 217 255
192 217 255
192 217 255
192 217 255
192 217 255
192 217 255
192 217 255
192 217 255
192 217 255
192 217 255
192 217 255
192 217 255
192 217 255
192 217 255
192 217 255
192 217 255
192 217 255
192 217 255
192 217 255
192 217 255
192 217 255
192 217 255
192 217 255
192 217 255
192 217 255
192 217 255
192 217 255
192 217 255
192 217 255
192 217 255
192 217 255
192 217 255
192 217 255
192 217 255
192 217 255
192 217 255
192 217 255
192 217 255
192 217 255
192 217 255
192 217 255
192 217 255
192 217 255
192 217 255
192 217 255
192 217 255
192 217 255
192 217 255
192 217 255
192 217 255
192 217 255
192 217 255
192 217 255
192 217 255
192 217 255
192 217 255
192 217 255
192 217 255
192 217 255
192 217 255
192 217 255
192 217 255
192 217 255
192 217 255
192 217 255
192 217 255
192 217 255
192 217 255
192 217 255
192 217 255
192 217 255
192 217 255
192 217 255
192 217 255
192 217 255
192 217 255
192 217 255
192 217 255
192 217 255
192 217 255
192 217 255
192 217 255
192 217 255
192 217 255
192 217 255
192 217 255
192 217 255
192 217 255
192 217 255
192 217 255
192 217 255
192 217 255
192 217 255
192 217 255
192 217 255
192 217 255
192 217 255
192 217 255
192 217 255
192 217 255
192 217 255
192 217 255
192 217 255
192 217 255
192 217 255
192 217 255
192 217 255
192 217 255
192 217 255
192 217 255
192 217 255
192 217 255
192 217 255
192 217 255
192 217 255
192 217 255
192 217 255
192 217 255
192 217 255
192 217 255
192 217 255
192 217 255
192 217 255
192 217 255
192 217 255
192 217 255
192 217 255
192 217 255
192 217 255
192 217 255
192 217 255
192 217 255
192 217 255
192 218 255
192 217 255
192 218 255
192 217 255
192 218 255
192 217 255
192 218 255
192 218 255
192 218 255
192 218 255
192 218 255
192 218 255
192 218 255
192 218 255
192 218 255
192 218 255
192 218 255
192 218 255
192 218 255
192 218 255
192 218 255
192 218 255
192 218 255
192 218 255
192 218 255
192 218 255
192 218 255
192 218 255
192 218 255
192 218 255
192 218 255
192 218 255
192 218 255
192 218 255
192 218 255
192 218 255
192 218 255
192 218 255
192 218 255
192 218 255
192 218 255
192 218 255
192 218 255
192 218 255
192 218 255
192 218 255
192 218 255
192 218 255
192 218 255
192 218 255
192 218 255
192 218 255
192 218 255
192 218 255
192 218 255
192 218 255
192 218 255
192 218 255
192 218 255
192 218 255
192 218 255
192 218 255
192 218 255
192 218 255
192 218 255
192 218 255
192 218 255
192 218 255
192 218 255
192 218 255
192 218 255
192 218 255
192 218 255
192 218 255
192 218 255
192 218 255
192 218 255
192 218 255
192 218 255
192 218 255
192 218 255
192 218 255
192 218 255
192 218 255
192 218 255
192 218 255
192 218 255
192 218 255
192 218 255
192 218 255
192 218 255
192 218 255
192 218 255
74 88 109
62 76 95
64 78 98
65 78 98
63 76 97
64 77 97
67 82 104
60 73 93
62 75 94
61 75 96
66 80 102
63 76 95
64 78 99
66 81 102
69 84 105
62 76 97
63 77 99
66 80 101
68 82 103
64 77 95
68 82 103
64 78 99
63 76 97
64 76 96
60 74 94
60 73 93
66 80 101
61 74 93
68 82 104
63 76 96
67 81 103
60 73 92
65 79 100
69 84 106
62 76 97
67 81 102
63 75 95
65 79 101
63 76 96
63 77 98
60 73 93
66 80 103
66 81 103
67 81 103
64 79 100
65 79 100
66 80 102
65 78 98
63 77 98
68 81 102
65 80 102
65 79 99
62 76 97
64 77 96
63 78 100
69 83 104
58 71 89
67 82 105
59 72 91
64 79 100
65 79 101
57 69 88
66 80 100
64 78 100
62 74 93
62 76 96
61 74 94
63 77 97
64 77 96
63 76 96
69 83 105
63 76 97
60 73 93
67 80 100
63 76 96
63 77 98
67 80 100
64 77 98
65 79 101
63 75 95
69 82 102
57 70 88
66 80 102
65 79 100
63 76 97
63 77 97
65 78 99
64 78 98
64 79 101
59 72 91
69 83 104
63 77 99
65 78 97
66 81 103
69 85 107
64 78 98
66 80 100
68 82 103
66 79 100
66 79 99
62 76 97
62 77 98
67 81 102
65 79 100
64 78 98
61 75 95
64 78 99
63 76 97
64 77 96
59 73 94
64 78 98
61 74 94
64 77 97
64 77 98
64 77 97
64 79 102
68 83 105
62 76 96
61 74 93
64 77 98
69 83 103
68 82 104
65 79 101
63 77 98
67 81 102
66 80 101
64 77 98
62 75 95
67 82 104
78 94 119
192 218 255
192 218 255
192 218 255
192 218 255
192 218 255
192 218 255
192 218 255
192 218 255
192 218 255
192 218 255
192 218 255
192 218 255
192 218 255
192 218 255
192 218 255
192 218 255
192 218 255
192 218 255
192 218 255
192 218 255
192 218 255
192 218 255
192 218 255
192 218 255
192 218 255
192 218 255
192 218 255
192 218 255
192 218 255
192 218 255
192 218 255
192 218 255
192 218 255
192 218 255
192 218 255
192 218 255
192 218 255
192 218 255
192 218 255
192 218 255
192 218 255
192 218 255
192 218 255
192 218 255
192 218 255
192 218 255
192 218 255
192 218 255
192 218 255
192 218 255
192 218 255
192 218 255
192 218 255
192 218 255
192 218 255
192 218 255
192 218 255
192 218 255
192 218 255
192 218 255
192 218 255
192 218 255
192 218 255
192 218 255
192 218 255
192 218 255
192 218 255
192 218 255
192 218 255
192 218 255
192 218 255
192 218 255
192 218 255
192 218 255
192 218 255
192 218 255
192 218 255
192 218 255
192 218 255
192 218 255
192 218 255
192 218 255
192 218 255
192 218 255
192 218 255
192 218 255
192 217 255
192 218 255
192 217 255
192 217 255
192 218 255
192 217 255
192 217 255
192 217 255
192 217 255
192 217 255
192 217 255
192 217 255
192 217 255
192 217 255
192 217 255
192 217 255
192 217 255
192 217 255
192 217 255
192 217 255
192 217 255
192 217 255
192 217 255
192 217 255
192 217 255
192 217 255
192 217 255
192 217 255
192 217 255
192 217 255
192 217 255
192 217 255
192 217 255
192 217 255
192 217 255
192 217 255
192 217 255
192 217 255
192 217 255
192 217 255
192 217 255
192 217 255
192 217 255
192 217 255
192 217 255
192 217 255
192 217 255
192 217 255
192 217 255
192 218 255
192 218 255
192 218 255
192 218 255
192 218 255
192 218 255
192 218 255
192 218 255
192 218 255
192 218 255
192 218 255
192 218 255
192 218 255
192 218 255
192 218 255
192 218 255
192 218 255
192 218 255
192 218 255
192 218 255
192 218 255
192 218 255
192 218 255
192 218 255
192 218 255
192 218 255
192 218 255
192 218 255
192 218 255
192 218 255
192 218 255
192 218 255
192 218 255
192 218 255
192 218 255
192 218 255
192 218 255
192 218 255
192 218 255
192 218 255
192 218 255
192 218 255
192 218 255
193 218 255
193 218 255
193 218 255
193 218 255
193 218 255
193 218 255
193 218 255
193 218 255
193 218 255
193 218 255
193 218 255
193 218 255
193 218 255
193 218 255
193 218 255
193 218 255
193 218 255
193 218 255
193 218 255
193 218 255
193 218 255
193 218 255
193 218 255
193 218 255
193 218 255
193 218 255
193 218 255
193 218 255
193 218 255
193 218 255
193 218 255
193 218 255
193 218 255
193 218 255
193 218 255
193 218 255
193 218 255
193 218 255
193 218 255
193 218 255
193 218 255
193 218 255
193 218 255
193 218 255
193 218 255
193 218 255
193 218 255
193 218 255
193 218 255
193 218 255
193 218 255
193 218 255
193 218 255
193 218 255
193 218 255
193 218 255
193 218 255
193 218 255
193 218 255
193 218 255
193 218 255
193 218 255
193 218 255
193 218 255
193 218 255
193 218 255
193 218 255
193 218 255
193 218 255
193 218 255
193 218 255
193 218 255
193 218 255
193 218 255
193 218 255
193 218 255
193 218 255
193 218 255
193 218 255
193 218 255
193 218 255
193 218 255
193 218 255
193 218 255
193 218 255
193 218 255
193 218 255
193 218 255
193 218 255
193 218 255
193 218 255
193 218 255
76 91 114
64 77 97
64 77 97
62 76 98
63 75 94
64 78 99
65 79 100
62 75 96
62 74 94
61 75 95
63 75 94
65 78 98
63 77 97
60 74 94
65 79 100
63 76 97
60 73 92
64 78 98
63 77 97
62 76 97
61 74 94
64 77 97
64 76 96
67 81 101
66 80 101
61 74 93
66 80 100
66 79 100
65 79 100
64 77 97
67 82 103
65 79 99
59 73 93
66 81 103
65 80 101
64 78 98
63 75 94
69 83 104
65 79 99
66 79 100
60 74 95
65 79 100
65 78 98
63 77 99
63 76 97
63 77 99
65 80 101
63 76 96
65 79 100
69 83 104
59 72 91
65 78 98
60 72 92
59 73 92
64 78 99
63 77 99
67 81 103
60 74 95
62 76 96
65 80 101
63 77 99
60 72 90
62 75 95
67 81 102
60 74 95
62 76 97
64 78 99
64 78 100
68 83 105
63 77 97
58 71 91
59 73 92
66 81 102
58 71 90
66 81 103
68 82 103
66 80 102
64 79 100
63 76 96
65 78 99
66 81 102
64 78 98
63 76 95
62 75 95
66 79 100
65 78 99
62 76 96
64 77 96
59 72 91
67 81 103
65 79 100
66 80 102
69 84 105
65 79 101
65 79 100
68 83 104
67 81 102
63 77 98
63 77 97
64 78 100
61 74 94
61 75 96
61 74 94
67 80 101
64 78 99
63 76 96
66 79 100
62 75 96
64 78 99
61 75 95
67 82 103
60 73 93
67 82 104
64 79 100
58 72 92
62 76 97
69 85 108
67 82 103
59 72 92
64 78 99
69 83 104
60 73 93
64 80 104
63 76 96
63 75 94
64 79 102
59 72 92
61 74 94
64 78 98
74 87 106
193 218 255
193 218 255
193 218 255
193 218 255
193 218 255
193 218 255
193 218 255
193 218 255
193 218 255
193 218 255
193 218 255
193 218 255
193 218 255
193 218 255
193 218 255
193 218 255
193 218 255
193 218 255
193 218 255
193 218 255
193 218 255
193 218 255
193 218 255
193 218 255
193 218 255
193 218 255
193 218 255
193 218 255
193 218 255
193 218 255
193 218 255
193 218 255
193 218 255
193 218 255
193 218 255
193 218 255
193 218 255
193 218 255
193 218 255
193 218 255
193 218 255
193 218 255
193 218 255
193 218 255
193 218 255
193 218 255
193 218 255
193 218 255
193 218 255
193 218 255
193 218 255
193 218 255
193 218 255
193 218 255
193 218 255
193 218 255
193 218 255
193 218 255
193 218 255
193 218 255
193 218 255
193 218 255
193 218 255
193 218 255
193 218 255
193 218 255
193 218 255
193 218 255
193 218 255
193 218 255
193 218 255
193 218 255
193 218 255
193 218 255
193 218 255
193 218 255
193 218 255
193 218 255
193 218 255
193 218 255
193 218 255
193 218 255
193 218 255
193 218 255
193 218 255
193 218 255
193 218 255
193 218 255
193 218 255
192 218 255
192 218 255
192 218 255
192 218 255
192 218 255
192 218 255
192 218 255
192 218 255
192 218 255
192 218 255
192 218 255
192 218 255
192 218 255
192 218 255
192 218 255
192 218 255
192 218 255
192 218 255
192 218 255
192 218 255
192 218 255
192 218 255
192 218 255
192 218 255
192 218 255
192 218 255
192 218 255
192 218 255
192 218 255
192 218 255
192 218 255
192 218 255
192 218 255
192 218 255
192 218 255
192 218 255
192 218 255
192 218 255
192 218 255
192 218 255
192 218 255
192 218 255
192 218 255
192 218 255
192 218 255
192 218 255
193 218 255
193 218 255
193 218 255
193 218 255
193 218 255
193 218 255
193 218 255
193 218 255
193 218 255
193 218 255
193 218 255
193 218 255
193 218 255
193 218 255
193 218 255
193 218 255
193 218 255
193 218 255
193 218 255
193 218 255
193 218 255
193 218 255
193 218 255
193 218 255
193 218 255
193 218 255
193 218 255
193 218 255
193 218 255
193 218 255
193 218 255
193 218 255
193 218 255
193 218 255
193 218 255
193 218 255
193 218 255
193 218 255
193 218 255
193 218 255
193 218 255
193 218 255
193 218 255
193 218 255
193 218 255
193 218 255
193 218 255
193 218 255
193 218 255
193 218 255
193 218 255
193 218 255
193 218 255
193 218 255
193 218 255
193 218 255
193 218 255
193 218 255
193 218 255
193 218 255
193 218 255
193 218 255
193 218 255
193 218 255
193 218 255
193 218 255
193 218 255
193 218 255
193 218 255
193 218 255
193 218 255
193 218 255
193 218 255
193 218 255
193 218 255
193 218 255
193 218 255
193 218 255
193 218 255
193 218 255
193 218 255
193 218 255
193 218 255
193 218 255
193 218 255
193 218 255
193 218 255
193 218 255
193 218 255
193 218 255
193 218 255
193 218 255
193 218 255
193 218 255
193 218 255
193 218 255
193 218 255
193 218 255
193 218 255
193 218 255
193 218 255
193 218 255
193 218 255
193 218 255
193 218 255
193 218 255
193 218 255
193 218 255
193 218 255
193 218 255
193 218 255
193 218 255
193 218 255
193 218 255
193 218 255
193 218 255
193 218 255
193 218 255
193 218 255
193 218 255
193 218 255
193 218 255
193 218 255
193 218 255
193 218 255
193 218 255
193 218 255
193 218 255
193 218 255
193 218 255
193 218 255
193 218 255
193 218 255
193 218 255
193 218 255
75 89 110
67 82 104
61 74 93
65 79 99
59 72 93
61 75 96
59 72 91
56 68 87
65 79 100
64 79 101
65 80 102
61 75 96
65 80 102
63 78 99
64 78 98
63 76 96
63 76 96
60 74 94
61 74 95
61 74 94
58 72 92
70 84 104
59 71 90
57 69 87
63 77 98
58 70 89
61 76 97
61 75 95
63 77 98
61 75 96
66 79 99
63 76 95
61 74 95
63 76 96
63 76 97
67 81 101
61 74 93
65 79 100
64 78 99
68 82 103
63 76 96
63 78 99
58 71 91
66 80 102
60 73 93
64 78 98
63 77 99
59 72 92
68 82 103
62 75 95
61 74 95
64 78 98
64 78 98
64 78 99
63 77 97
68 83 105
64 78 100
66 80 102
64 78 99
62 76 96
65 78 98
63 76 96
62 75 95
66 81 104
59 73 93
61 75 95
62 76 97
65 78 99
61 75 96
63 76 95
64 77 97
66 80 99
58 72 92
62 76 97
66 80 101
61 75 95
58 71 90
62 75 95
63 77 97
69 84 107
66 81 103
66 79 100
65 79 99
65 78 97
64 78 98
63 77 97
67 82 105
65 79 100
63 77 99
64 77 98
65 79 100
64 76 95
67 80 100
66 81 102
64 78 99
62 75 94
66 81 103
65 78 99
61 75 95
58 71 91
60 73 92
62 75 95
64 77 97
60 74 94
67 80 101
61 74 94
61 74 93
63 77 98
65 80 102
63 77 98
61 74 94
63 76 95
62 75 95
56 68 86
63 76 96
54 67 86
59 72 92
59 73 94
67 81 102
64 78 98
63 77 97
60 74 94
59 71 90
65 78 97
61 75 96
63 76 97
61 74 93
65 79 99
63 76 96
94 111 135
193 218 255
193 218 255
193 218 255
193 218 255
193 218 255
193 218 255
193 218 255
193 218 255
193 218 255
193 218 255
193 218 255
193 218 255
193 218 255
193 218 255
193 218 255
193 218 255
193 218 255
193 218 255
193 218 255
193 218 255
193 218 255
193 218 255
193 218 255
193 218 255
193 218 255
193 218 255
193 218 255
193 218 255
193 218 255
193 218 255
193 218 255
193 218 255
193 218 255
193 218 255
193 218 255
193 218 255
193 218 255
193 218 255
193 218 255
193 218 255
193 218 255
193 218 255
193 218 255
193 218 255
193 218 255
193 218 255
193 218 255
193 218 255
193 218 255
193 218 255
193 218 255
193 218 255
193 218 255
193 218 255
193 218 255
193 218 255
193 218 255
193 218 255
193 218 255
193 218 255
193 218 255
193 218 255
193 218 255
193 218 255
193 218 255
193 218 255
193 218 255
193 218 255
193 218 255
193 218 255
193 218 255
193 218 255
193 218 255
193 218 255
193 218 255
193 218 255
193 218 255
193 218 255
193 218 255
193 218 255
193 218 255
193 218 255
193 218 255
193 218 255
193 218 255
193 218 255
193 218 255
193 218 255
193 218 255
193 218 255
193 218 255
193 218 255
193 218 255
193 218 255
193 218 255
193 218 255
193 218 255
193 218 255
193 218 255
193 218 255
193 218 255
193 218 255
193 218 255
193 218 255
193 218 255
193 218 255
193 218 255
193 218 255
193 218 255
193 218 255
193 218 255
193 218 255
193 218 255
193 218 255
193 218 255
193 218 255
193 218 255
193 218 255
193 218 255
193 218 255
193 218 255
193 218 255
193 218 255
193 218 255
193 218 255
193 218 255
193 218 255
193 218 255
193 218 255
193 218 255
193 218 255
193 218 255
193 218 255
193 218 255
193 218 255
193 218 255
193 218 255
193 218 255
193 218 255
193 218 255
193 218 255
193 218 255
193 218 255
193 218 255
193 218 255
193 218 255
193 218 255
193 218 255
193 218 255
193 218 255
193 218 255
193 218 255
193 218 255
193 218 255
193 218 255
193 218 255
193 218 255
193 218 255
193 218 255
193 218 255
193 218 255
193 218 255
193 218 255
193 218 255
193 218 255
193 218 255
193 218 255
193 218 255
193 218 255
193 218 255
193 218 255
193 218 255
193 218 255
193 218 255
193 218 255
193 218 255
193 218 255
193 218 255
193 218 255
193 218 255
193 218 255
193 218 255
193 218 255
193 218 255
193 218 255
193 218 255
193 218 255
193 218 255
193 218 255
193 218 255
193 218 255
193 218 255
193 218 255
193 218 255
193 218 255
193 218 255
193 218 255
193 218 255
193 218 255
193 218 255
193 218 255
193 218 255
193 218 255
193 218 255
193 218 255
193 218 255
193 218 255
193 218 255
193 218 255
193 218 255
193 218 255
193 218 255
193 218 255
193 218 255
193 218 255
193 218 255
193 218 255
193 218 255
193 218 255
193 218 255
193 218 255
194 218 255
194 218 255
194 218 255
194 218 255
194 218 255
194 218 255
194 218 255
194 218 255
194 218 255
194 218 255
194 218 255
194 218 255
194 218 255
194 218 255
194 218 255
194 218 255
194 218 255
194 218 255
194 218 255
194 218 255
194 218 255
194 218 255
194 218 255
194 218 255
194 218 255
194 218 255
194 218 255
194 218 255
194 218 255
194 218 255
194 218 255
194 218 255
194 218 255
194 218 255
194 219 255
194 218 255
194 219 255
194 219 255
194 219 255
194 219 255
194 219 255
194 219 255
194 219 255
194 219 255
194 219 255
194 219 255
194 219 255
194 219 255
194 219 255
98 114 138
59 72 92
64 77 96
57 70 90
58 70 88
65 78 97
51 63 81
61 75 95
61 74 94
60 73 93
65 79 100
60 73 94
63 75 94
64 78 99
62 76 96
69 84 108
59 73 94
61 74 94
62 76 97
66 79 100
63 77 98
61 74 94
62 75 95
64 78 98
64 77 97
60 72 91
62 76 97
64 77 97
64 78 98
63 76 96
63 76 96
61 75 97
64 78 98
62 76 97
65 78 99
61 75 95
60 73 92
62 75 95
62 76 96
63 77 97
66 81 104
65 78 98
59 72 91
64 78 98
67 80 99
65 78 98
64 79 101
63 77 97
60 72 92
64 79 100
64 78 99
64 78 99
62 75 94
59 73 93
62 76 96
65 79 99
57 70 89
59 72 92
66 80 101
61 75 95
62 76 96
60 73 93
61 75 95
66 80 102
59 73 92
67 82 103
62 75 96
61 75 95
65 78 98
57 69 87
63 76 96
66 81 104
64 78 99
59 72 91
65 78 98
62 77 98
66 81 103
63 77 98
61 74 94
58 71 90
62 77 98
62 75 95
66 81 104
68 83 105
60 73 92
60 74 94
58 71 91
64 78 99
65 79 101
64 78 99
63 76 97
65 78 98
61 74 94
61 75 96
64 77 97
63 76 96
67 81 101
63 76 96
63 77 97
61 75 95
65 80 101
62 75 95
64 79 101
64 78 99
63 77 97
61 74 94
63 75 94
58 71 91
65 78 98
65 79 101
60 74 95
60 72 91
67 82 106
64 78 99
62 75 93
57 68 86
58 70 89
61 74 93
69 82 102
57 70 89
62 76 98
58 70 90
66 80 101
63 78 100
62 76 97
59 72 91
61 74 94
63 78 99
58 71 90
89 105 129
194 219 255
194 219 255
194 219 255
194 219 255
194 219 255
194 219 255
194 219 255
194 219 255
194 219 255
194 219 255
194 219 255
194 218 255
194 218 255
194 218 255
194 219 255
194 218 255
194 218 255
194 218 255
194 218 255
194 218 255
194 218 255
194 218 255
194 218 255
194 218 255
194 218 255
194 218 255
194 218 255
194 218 255
194 218 255
194 218 255
194 218 255
194 218 255
194 218 255
194 218 255
194 218 255
194 218 255
194 218 255
194 218 255
194 218 255
194 218 255
194 218 255
194 218 255
194 218 255
194 218 255
194 218 255
194 218 255
194 218 255
194 218 255
193 218 255
193 218 255
193 218 255
193 218 255
193 218 255
193 218 255
193 218 255
193 218 255
193 218 255
193 218 255
193 218 255
193 218 255
193 218 255
193 218 255
193 218 255
193 218 255
193 218 255
193 218 255
193 218 255
193 218 255
193 218 255
193 218 255
193 218 255
193 218 255
193 218 255
193 218 255
193 218 255
193 218 255
193 218 255
193 218 255
193 218 255
193 218 255
193 218 255
193 218 255
193 218 255
193 218 255
193 218 255
193 218 255
193 218 255
193 218 255
193 218 255
193 218 255
193 218 255
193 218 255
193 218 255
193 218 255
193 218 255
193 218 255
193 218 255
193 218 255
193 218 255
193 218 255
193 218 255
193 218 255
193 218 255
193 218 255
193 218 255
193 218 255
193 218 255
193 218 255
193 218 255
193 218 255
193 218 255
193 218 255
193 218 255
193 218 255
193 218 255
193 218 255
193 218 255
193 218 255
193 218 255
193 218 255
193 218 255
193 218 255
193 218 255
193 218 255
193 218 255
193 218 255
193 218 255
193 218 255
193 218 255
193 218 255
193 218 255
193 218 255
193 218 255
193 218 255
193 218 255
193 218 255
193 218 255
193 218 255
193 218 255
193 218 255
193 218 255
193 218 255
193 218 255
193 218 255
193 218 255
193 218 255
193 218 255
193 218 255
193 218 255
193 218 255
193 218 255
193 218 255
193 218 255
193 218 255
193 218 255
193 218 255
193 218 255
193 218 255
193 218 255
193 218 255
193 218 255
193 218 255
193 218 255
193 218 255
193 218 255
193 218 255
193 218 255
193 218 255
193 218 255
193 218 255
193 218 255
193 218 255
193 218 255
193 218 255
193 218 255
193 218 255
193 218 255
193 218 255
193 218 255
194 218 255
194 218 255
194 218 255
194 218 255
194 218 255
194 218 255
194 218 255
194 218 255
194 218 255
194 218 255
194 218 255
194 218 255
194 218 255
194 218 255
194 218 255
194 218 255
194 218 255
194 218 255
194 218 255
194 218 255
194 218 255
194 218 255
194 218 255
194 218 255
194 218 255
194 218 255
194 218 255
194 218 255
194 218 255
194 218 255
194 218 255
194 218 255
194 218 255
194 218 255
194 219 255
194 218 255
194 218 255
194 219 255
194 219 255
194 219 255
194 219 255
194 219 255
194 219 255
194 219 255
194 219 255
194 219 255
194 219 255
194 219 255
194 219 255
194 219 255
194 219 255
194 219 255
194 219 255
194 219 255
194 219 255
194 219 255
194 219 255
194 219 255
194 219 255
194 219 255
194 219 255
194 219 255
194 219 255
194 219 255
194 219 255
194 219 255
194 219 255
194 219 255
194 219 255
194 219 255
194 219 255
194 219 255
194 219 255
194 219 255
194 219 255
194 219 255
194 219 255
194 219 255
194 219 255
194 219 255
194 219 255
194 219 255
194 219 255
194 219 255
194 219 255
194 219 255
194 219 255
190 214 250
169 192 226
151 172 204
128 147 175
75 90 113
61 75 95
63 76 95
60 74 95
59 72 92
62 74 93
62 76 97
64 78 99
59 72 90
62 76 96
58 71 89
63 77 99
58 71 90
65 79 99
63 76 96
60 73 94
60 74 95
58 70 89
63 78 101
61 74 93
60 73 93
57 70 89
69 82 103
64 78 98
65 79 100
63 76 96
66 80 101
61 75 97
61 74 93
62 76 96
61 74 94
58 71 91
64 78 98
58 70 89
57 69 88
63 76 97
60 73 92
62 75 95
62 76 96
64 77 98
61 75 96
62 77 98
64 78 100
64 78 99
59 71 90
56 68 87
60 73 93
64 77 96
61 73 92
56 69 90
63 77 98
62 76 98
63 77 98
57 70 90
67 82 103
65 79 100
64 78 99
62 76 97
61 74 94
58 71 91
61 75 96
65 80 102
60 74 94
68 81 101
61 74 95
62 75 95
61 75 95
59 73 93
66 81 102
63 77 98
60 73 92
61 74 95
59 72 91
59 71 88
58 71 91
61 74 92
66 79 98
62 76 97
60 73 93
62 77 99
60 74 94
64 78 99
64 78 100
62 75 94
63 76 95
60 73 93
65 78 99
61 75 95
58 71 91
60 73 93
58 70 89
63 78 99
63 77 97
60 73 93
61 74 95
61 74 94
63 76 96
63 77 98
59 72 92
67 82 103
59 73 92
68 81 102
58 70 89
62 75 94
57 70 89
64 78 100
59 72 92
66 79 99
55 67 85
63 77 98
65 79 99
56 68 85
52 63 80
61 75 96
59 72 92
60 74 95
62 75 96
63 77 97
63 77 99
65 80 102
59 72 92
60 74 94
58 71 89
56 69 89
62 75 94
63 77 97
61 74 94
63 78 101
63 77 98
69 83 105
112 129 155
139 159 190
176 199 233
185 209 245
194 219 255
194 219 255
194 219 255
194 219 255
194 219 255
194 219 255
194 219 255
194 219 255
194 219 255
194 219 255
194 219 255
194 219 255
194 219 255
194 219 255
194 219 255
194 219 255
194 219 255
194 219 255
194 219 255
194 219 255
194 219 255
194 219 255
194 219 255
194 219 255
194 219 255
194 219 255
194 219 255
194 219 255
194 219 255
194 219 255
194 219 255
194 219 255
194 219 255
194 219 255
194 219 255
194 219 255
194 219 255
194 219 255
194 219 255
194 219 255
194 219 255
194 219 255
194 219 255
194 219 255
194 219 255
194 219 255
194 219 255
194 219 255
194 219 255
194 218 255
194 219 255
194 219 255
194 218 255
194 218 255
194 218 255
194 218 255
194 218 255
194 218 255
194 218 255
194 218 255
194 218 255
194 218 255
194 218 255
194 218 255
194 218 255
194 218 255
194 218 255
194 218 255
194 218 255
194 218 255
194 218 255
194 218 255
194 218 255
194 218 255
194 218 255
194 218 255
194 218 255
194 218 255
194 218 255
194 218 255
194 218 255
194 218 255
194 218 255
194 218 255
194 218 255
194 218 255
193 218 255
193 218 255
193 218 255
193 218 255
193 218 255
193 218 255
193 218 255
193 218 255
193 218 255
193 218 255
193 218 255
193 218 255
193 218 255
193 218 255
193 218 255
193 218 255
193 218 255
193 218 255
193 218 255
193 218 255
193 218 255
193 218 255
193 218 255
193 218 255
193 218 255
193 218 255
193 218 255
193 218 255
193 218 255
193 218 255
193 218 255
193 218 255
193 218 255
193 218 255
193 218 255
193 218 255
193 218 255
193 218 255
193 218 255
193 218 255
193 218 255
193 218 255
193 218 255
193 218 255
193 218 255
193 218 255
193 218 255
193 218 255
193 218 255
193 218 255
193 218 255
194 218 255
194 218 255
194 218 255
194 218 255
194 218 255
194 218 255
194 218 255
194 218 255
194 218 255
194 218 255
194 218 255
194 218 255
194 218 255
194 218 255
194 218 255
194 218 255
194 218 255
194 218 255
194 218 255
194 218 255
194 218 255
194 218 255
194 218 255
194 218 255
194 218 255
194 218 255
194 218 255
194 218 255
194 218 255
194 218 255
194 218 255
194 218 255
194 218 255
194 218 255
194 218 255
194 218 255
194 218 255
194 218 255
194 218 255
194 219 255
194 219 255
194 219 255
194 219 255
194 219 255
194 219 255
194 219 255
194 219 255
194 219 255
194 219 255
194 219 255
194 219 255
194 219 255
194 219 255
194 219 255
194 219 255
194 219 255
194 219 255
194 219 255
194 219 255
194 219 255
194 219 255
194 219 255
194 219 255
194 219 255
194 219 255
194 219 255
194 219 255
194 219 255
194 219 255
194 219 255
194 219 255
194 219 255
194 219 255
194 219 255
194 219 255
194 219 255
194 219 255
194 219 255
194 219 255
194 219 255
194 219 255
194 219 255
194 219 255
194 219 255
194 219 255
194 219 255
194 219 255
194 219 255
194 219 255
194 219 255
194 219 255
194 219 255
194 219 255
194 219 255
194 219 255
194 219 255
194 219 255
195 219 255
195 219 255
195 219 255
195 219 255
195 219 255
195 219 255
195 219 255
195 219 255
195 219 255
195 219 255
195 219 255
195 219 255
195 219 255
195 219 255
195 219 255
195 219 255
195 219 255
195 219 255
195 219 255
195 219 255
195 219 255
195 219 255
195 219 255
173 195 230
155 176 208
135 155 185
112 131 160
73 88 110
61 76 99
68 84 107
57 71 92
64 79 101
58 70 89
57 71 92
50 62 79
53 65 83
56 69 88
57 69 88
56 70 90
57 69 88
61 74 92
62 76 95
63 77 97
63 77 99
59 72 92
64 77 96
57 70 89
59 72 91
63 76 96
59 73 93
56 69 89
62 76 97
59 72 92
57 69 88
58 71 92
56 69 88
59 73 94
62 76 97
60 73 92
65 79 101
60 73 92
63 76 96
61 74 94
58 71 91
60 72 91
59 72 92
55 68 87
60 72 91
60 73 94
58 72 93
63 76 96
53 65 83
66 80 100
58 71 91
59 72 90
59 72 91
62 76 97
61 74 95
61 75 95
67 82 104
65 79 100
64 77 97
64 76 95
58 70 88
69 84 105
60 72 92
62 76 96
66 80 100
63 77 97
57 70 89
62 76 97
57 71 92
67 80 100
57 70 89
64 78 100
60 74 94
55 67 86
63 77 98
56 69 87
57 69 88
59 73 93
61 73 92
58 70 88
60 72 91
61 74 95
58 71 91
62 76 96
59 71 90
58 71 90
62 76 96
61 75 95
62 75 94
60 72 92
62 74 93
62 75 95
56 68 86
61 74 94
65 78 97
57 69 87
58 71 90
59 71 90
60 73 92
57 70 89
61 75 96
60 73 93
62 76 97
60 72 90
65 79 100
61 74 94
62 75 95
63 76 96
58 72 93
65 78 98
58 72 92
56 68 86
66 81 102
59 73 92
62 75 95
61 74 94
59 71 90
61 74 93
56 68 87
62 76 96
55 68 87
57 70 89
56 69 88
58 71 90
61 73 93
57 69 87
62 76 96
55 68 87
60 72 91
59 72 91
65 78 99
56 69 87
55 68 87
57 69 89
51 63 80
64 78 99
56 69 89
57 71 92
59 71 90
62 76 97
62 76 98
61 76 98
59 73 95
83 100 125
116 135 163
131 151 180
151 172 204
176 199 233
192 217 253
195 219 255
195 219 255
195 219 255
195 219 255
195 219 255
195 219 255
195 219 255
195 219 255
195 219 255
195 219 255
195 219 255
195 219 255
195 219 255
195 219 255
195 219 255
195 219 255
195 219 255
195 219 255
195 219 255
195 219 255
195 219 255
195 219 255
195 219 255
195 219 255
195 219 255
194 219 255
194 219 255
194 219 255
194 219 255
194 219 255
194 219 255
194 219 255
194 219 255
194 219 255
194 219 255
194 219 255
194 219 255
194 219 255
194 219 255
194 219 255
194 219 255
194 219 255
194 219 255
194 219 255
194 219 255
194 219 255
194 219 255
194 219 255
194 219 255
194 219 255
194 219 255
194 219 255
194 219 255
194 219 255
194 219 255
194 219 255
194 219 255
194 219 255
194 219 255
194 219 255
194 219 255
194 219 255
194 219 255
194 219 255
194 219 255
194 219 255
194 219 255
194 219 255
194 219 255
194 219 255
194 219 255
194 219 255
194 219 255
194 219 255
194 219 255
194 219 255
194 219 255
194 219 255
194 219 255
194 219 255
194 218 255
194 218 255
194 218 255
194 218 255
194 218 255
194 218 255
194 218 255
194 218 255
194 218 255
194 218 255
194 218 255
194 218 255
194 218 255
194 218 255
194 218 255
194 218 255
194 218 255
194 218 255
194 218 255
194 218 255
194 218 255
194 218 255
194 218 255
194 218 255
194 218 255
194 218 255
194 218 255
194 218 255
194 218 255
194 218 255
194 218 255
194 218 255
194 218 255
194 218 255
194 218 255
194 218 255
194 218 255
194 218 255
194 218 255
193 218 255
193 218 255
193 218 255
193 218 255
193 218 255
193 218 255
194 218 255
194 218 255
194 218 255
194 218 255
194 218 255
194 218 255
194 218 255
194 218 255
194 218 255
194 218 255
194 218 255
194 218 255
194 218 255
194 219 255
194 219 255
194 219 255
194 219 255
194 219 255
194 219 255
194 219 255
194 219 255
194 219 255
194 219 255
194 219 255
194 219 255
194 219 255
194 219 255
194 219 255
194 219 255
194 219 255
194 219 255
194 219 255
194 219 255
194 219 255
194 219 255
194 219 255
194 219 255
194 219 255
194 219 255
194 219 255
194 219 255
194 219 255
194 219 255
194 219 255
194 219 255
194 219 255
194 219 255
194 219 255
194 219 255
194 219 255
194 219 255
194 219 255
194 219 255
194 219 255
194 219 255
194 219 255
194 219 255
194 219 255
194 219 255
194 219 255
194 219 255
194 219 255
194 219 255
194 219 255
194 219 255
194 219 255
194 219 255
194 219 255
194 219 255
194 219 255
194 219 255
195 219 255
194 219 255
195 219 255
195 219 255
195 219 255
195 219 255
195 219 255
195 219 255
195 219 255
195 219 255
195 219 255
195 219 255
195 219 255
195 219 255
195 219 255
195 219 255
195 219 255
195 219 255
195 219 255
195 219 255
195 219 255
195 219 255
195 219 255
195 219 255
195 219 255
195 219 255
195 219 255
195 219 255
195 219 255
195 219 255
195 219 255
195 219 255
195 219 255
195 219 255
195 219 255
195 219 255
195 219 255
195 219 255
195 219 255
195 219 255
195 219 255
195 219 255
195 219 255
195 219 255
195 219 255
195 219 255
195 219 255
195 219 255
195 219 255
192 216 252
179 203 238
139 159 189
137 157 186
97 114 140
72 88 113
68 83 105
68 85 109
65 81 104
64 79 101
65 79 100
64 79 102
60 74 94
65 80 103
65 80 101
62 76 96
56 69 88
63 77 99
63 78 100
66 82 105
58 72 91
60 74 95
57 70 90
55 67 86
58 71 92
60 73 93
56 69 87
63 77 98
58 71 91
50 62 79
50 61 79
56 69 90
52 63 81
54 66 85
60 73 93
52 65 84
56 68 86
58 70 88
62 75 95
56 68 87
61 75 95
59 72 92
54 67 85
61 74 94
57 70 90
60 74 94
60 74 94
62 75 95
59 72 91
56 69 87
60 73 92
61 75 95
61 74 93
58 70 87
56 67 84
59 72 91
57 70 90
61 74 93
61 75 94
55 68 88
63 75 95
65 79 101
63 77 98
63 76 97
57 70 89
60 73 93
60 73 93
59 72 92
59 72 92
58 72 92
58 71 91
61 75 95
54 66 84
64 79 100
61 75 96
61 74 93
54 66 85
59 72 91
60 74 94
61 74 93
62 76 96
60 74 94
56 68 85
63 76 96
60 73 93
58 70 89
60 74 95
58 72 92
58 71 91
62 74 93
62 75 95
66 80 102
62 75 96
61 75 95
59 71 90
52 64 83
60 73 92
56 69 90
60 73 92
62 75 96
63 77 97
60 74 95
57 70 89
57 70 91
59 72 92
54 65 82
61 74 93
61 74 93
58 72 92
63 76 97
59 72 92
59 72 92
59 73 94
57 70 89
61 75 96
58 70 89
62 76 96
64 77 97
58 70 89
60 74 94
60 72 91
57 69 87
55 67 85
57 69 86
52 64 83
57 69 87
50 61 77
58 71 91
51 63 80
59 71 90
59 73 93
48 59 75
50 62 80
57 70 90
56 69 88
60 73 94
56 69 87
63 77 97
60 74 94
61 75 95
59 74 96
64 78 100
66 82 105
65 79 101
63 78 101
65 80 102
66 80 102
62 77 100
67 82 105
64 79 102
65 79 101
65 81 104
68 85 110
66 81 104
74 91 116
99 117 145
114 133 161
149 170 202
168 190 224
194 218 254
195 219 255
195 219 255
195 219 255
195 219 255
195 219 255
195 219 255
195 219 255
195 219 255
195 219 255
195 219 255
195 219 255
195 219 255
195 219 255
195 219 255
195 219 255
195 219 255
195 219 255
195 219 255
195 219 255
195 219 255
195 219 255
195 219 255
195 219 255
195 219 255
195 219 255
195 219 255
195 219 255
195 219 255
195 219 255
195 219 255
195 219 255
195 219 255
195 219 255
195 219 255
195 219 255
195 219 255
195 219 255
195 219 255
195 219 255
195 219 255
195 219 255
195 219 255
195 219 255
195 219 255
195 219 255
195 219 255
195 219 255
194 219 255
195 219 255
194 219 255
194 219 255
194 219 255
194 219 255
194 219 255
194 219 255
194 219 255
194 219 255
194 219 255
194 219 255
194 219 255
194 219 255
194 219 255
194 219 255
194 219 255
194 219 255
194 219 255
194 219 255
194 219 255
194 219 255
194 219 255
194 219 255
194 219 255
194 219 255
194 219 255
194 219 255
194 219 255
194 219 255
194 219 255
194 219 255
194 219 255
194 219 255
194 219 255
194 219 255
194 219 255
194 219 255
194 219 255
194 219 255
194 219 255
194 219 255
194 219 255
194 219 255
194 219 255
194 219 255
194 219 255
194 219 255
194 219 255
194 219 255
194 219 255
194 219 255
194 219 255
194 219 255
194 219 255
194 219 255
194 219 255
194 219 255
194 219 255
194 219 255
194 219 255
194 219 255
194 218 255
194 218 255
194 218 255
194 218 255
194 218 255
194 218 255
194 218 255
194 218 255
194 218 255
194 218 255
194 218 255
194 219 255
194 219 255
194 219 255
194 219 255
194 219 255
194 219 255
194 219 255
194 219 255
194 219 255
194 219 255
194 219 255
194 219 255
194 219 255
194 219 255
194 219 255
194 219 255
194 219 255
194 219 255
194 219 255
194 219 255
194 219 255
194 219 255
194 219 255
194 219 255
194 219 255
194 219 255
194 219 255
194 219 255
194 219 255
194 219 255
194 219 255
194 219 255
194 219 255
194 219 255
194 219 255
194 219 255
194 219 255
194 219 255
194 219 255
194 219 255
194 219 255
194 219 255
194 219 255
194 219 255
195 219 255
195 219 255
195 219 255
195 219 255
195 219 255
195 219 255
195 219 255
195 219 255
195 219 255
195 219 255
195 219 255
195 219 255
195 219 255
195 219 255
195 219 255
195 219 255
195 219 255
195 219 255
195 219 255
195 219 255
195 219 255
195 219 255
195 219 255
195 219 255
195 219 255
195 219 255
195 219 255
195 219 255
195 219 255
195 219 255
195 219 255
195 219 255
195 219 255
195 219 255
195 219 255
195 219 255
195 219 255
195 219 255
195 219 255
195 219 255
195 219 255
195 219 255
195 219 255
195 219 255
195 219 255
195 219 255
195 219 255
195 219 255
195 219 255
195 219 255
195 219 255
195 219 255
195 219 255
195 219 255
195 219 255
195 219 255
195 219 255
195 219 255
195 219 255
195 219 255
195 219 255
195 219 255
195 219 255
195 219 255
195 219 255
195 219 255
196 220 255
196 220 255
196 220 255
196 220 255
196 220 255
194 218 254
170 193 227
146 167 199
123 142 170
92 109 135
74 91 116
68 85 111
65 81 104
71 88 113
69 85 109
71 88 113
66 81 104
65 80 103
64 79 101
69 84 107
66 82 105
66 82 105
65 82 106
64 78 99
65 79 101
65 80 102
68 84 109
65 79 101
66 81 104
62 77 99
64 79 102
66 82 105
64 80 105
61 75 96
59 73 93
61 75 96
60 74 95
61 76 98
68 83 106
62 78 101
65 79 101
61 74 94
61 75 96
62 76 96
64 79 102
66 81 105
58 71 91
65 79 101
53 65 84
56 71 92
57 70 90
61 74 94
56 69 89
58 71 91
61 74 94
57 69 88
59 72 92
61 75 96
58 71 90
60 74 95
62 75 96
56 67 85
57 71 91
60 73 93
54 66 83
50 62 80
62 76 96
56 69 87
55 67 85
54 66 86
60 73 94
55 67 86
58 71 90
60 72 90
57 71 91
57 69 88
56 68 86
55 68 87
56 68 87
55 68 87
54 66 84
57 70 90
59 73 93
55 67 85
56 69 88
51 63 81
49 61 77
56 69 88
54 66 84
52 64 82
61 74 94
59 72 92
55 67 85
53 65 83
55 67 85
58 70 90
52 64 82
53 65 83
54 65 82
56 68 86
60 73 93
58 71 90
57 70 90
56 69 88
50 62 80
54 67 85
56 67 84
56 69 89
55 68 86
57 70 89
54 67 85
55 68 87
62 75 95
57 69 89
59 73 93
55 66 83
61 75 97
51 63 80
58 70 89
59 72 92
56 68 87
59 73 93
60 72 92
51 62 80
51 64 82
56 69 87
55 69 89
60 74 94
60 74 93
55 67 86
58 71 92
56 70 91
54 66 84
68 84 108
60 73 94
63 77 98
64 79 101
64 79 102
63 78 99
63 77 99
66 81 104
61 76 99
61 75 96
61 75 97
64 78 100
63 77 98
65 81 103
61 75 96
65 81 104
64 79 102
62 76 97
69 85 110
64 79 101
68 84 107
65 81 105
65 81 104
65 82 106
64 79 102
66 83 107
65 80 103
70 87 111
66 83 107
65 80 104
70 86 110
75 91 116
70 87 112
69 85 110
69 86 110
69 85 109
72 89 114
99 118 147
112 130 159
154 176 209
169 191 224
188 211 246
196 220 255
196 220 255
196 220 255
196 220 255
195 219 255
195 219 255
195 219 255
195 219 255
195 219 255
195 219 255
195 219 255
195 219 255
195 219 255
195 219 255
195 219 255
195 219 255
195 219 255
195 219 255
195 219 255
195 219 255
195 219 255
195 219 255
195 219 255
195 219 255
195 219 255
195 219 255
195 219 255
195 219 255
195 219 255
195 219 255
195 219 255
195 219 255
195 219 255
195 219 255
195 219 255
195 219 255
195 219 255
195 219 255
195 219 255
195 219 255
195 219 255
195 219 255
195 219 255
195 219 255
195 219 255
195 219 255
195 219 255
195 219 255
195 219 255
195 219 255
195 219 255
195 219 255
195 219 255
195 219 255
195 219 255
195 219 255
195 219 255
195 219 255
195 219 255
195 219 255
195 219 255
195 219 255
195 219 255
195 219 255
195 219 255
195 219 255
195 219 255
195 219 255
195 219 255
195 219 255
194 219 255
194 219 255
194 219 255
194 219 255
194 219 255
194 219 255
194 219 255
194 219 255
194 219 255
194 219 255
194 219 255
194 219 255
194 219 255
194 219 255
194 219 255
194 219 255
194 219 255
194 219 255
194 219 255
194 219 255
194 219 255
194 219 255
194 219 255
194 219 255
194 219 255
194 219 255
194 219 255
194 219 255
194 219 255
194 219 255
194 219 255
194 219 255
194 219 255
194 219 255
194 219 255
194 219 255
194 219 255
194 219 255
194 219 255
194 219 255
194 219 255
194 219 255
194 219 255
194 219 255
194 219 255
194 219 255
194 219 255
194 219 255
194 219 255
194 219 255
194 219 255
194 219 255
194 219 255
194 219 255
194 219 255
194 219 255
194 219 255
194 219 255
194 219 255
194 219 255
194 219 255
194 219 255
194 219 255
194 219 255
195 219 255
195 219 255
195 219 255
195 219 255
195 219 255
195 219 255
195 219 255
195 219 255
195 219 255
195 219 255
195 219 255
195 219 255
195 219 255
195 219 255
195 219 255
195 219 255
195 219 255
195 219 255
195 219 255
195 219 255
195 219 255
195 219 255
195 219 255
195 219 255
195 219 255
195 219 255
195 219 255
195 219 255
195 219 255
195 219 255
195 219 255
195 219 255
195 219 255
195 219 255
195 219 255
195 219 255
195 219 255
195 219 255
195 219 255
195 219 255
195 219 255
195 219 255
195 219 255
195 219 255
195 219 255
195 219 255
195 219 255
195 219 255
195 219 255
195 219 255
195 219 255
195 219 255
195 219 255
195 219 255
195 219 255
195 219 255
195 219 255
195 219 255
195 219 255
195 219 255
195 219 255
195 219 255
195 219 255
195 219 255
195 219 255
195 219 255
195 219 255
195 219 255
196 220 255
196 220 255
196 220 255
196 220 255
196 220 255
196 220 255
196 220 255
196 220 255
196 220 255
196 220 255
196 220 255
196 220 255
196 220 255
196 220 255
196 220 255
196 220 255
196 220 255
196 220 255
196 220 255
196 220 255
196 220 255
196 220 255
196 220 255
195 219 254
179 202 236
156 178 210
121 141 170
100 119 146
76 93 119
69 85 110
70 85 107
68 84 108
69 86 110
66 82 105
73 90 115
67 83 108
68 84 107
69 86 111
67 82 103
64 79 102
70 87 113
68 84 108
71 87 113
69 86 110
65 81 104
65 80 104
65 81 104
63 78 100
67 84 108
67 83 106
67 83 107
67 83 107
67 82 104
66 80 102
69 85 109
66 82 105
64 79 101
69 85 108
66 81 103
67 83 108
65 79 101
61 75 96
69 86 111
64 80 103
67 82 105
63 78 100
64 79 102
64 79 103
60 75 97
66 82 105
66 81 105
63 77 98
66 81 103
66 81 104
61 75 96
62 77 100
63 78 99
65 79 101
60 74 95
67 82 104
64 78 99
64 78 98
62 76 97
63 78 99
59 73 95
65 80 103
63 78 99
61 76 98
56 70 92
62 77 99
60 74 96
61 75 96
60 74 95
66 81 104
66 80 102
60 74 96
62 75 96
59 72 92
60 74 96
63 78 99
61 76 98
63 77 98
63 77 97
65 80 102
64 78 99
60 74 94
61 75 96
61 75 96
59 74 95
64 79 101
64 79 100
62 76 98
55 66 84
58 72 93
60 73 94
60 74 95
68 83 105
64 78 99
63 77 98
62 77 100
63 77 100
59 72 93
63 78 101
63 76 96
65 79 100
64 79 103
61 76 98
58 72 95
57 70 90
64 79 101
64 79 102
62 77 99
63 77 99
63 78 99
64 79 101
67 81 103
60 75 96
61 75 97
64 80 103
62 76 98
64 78 100
67 82 106
62 76 96
61 75 96
63 77 98
59 73 94
63 78 101
63 78 101
64 80 104
62 76 97
62 76 96
67 83 107
66 82 104
61 75 96
59 73 94
67 83 106
70 84 107
61 75 95
65 80 103
60 75 97
64 78 100
65 80 102
66 81 104
67 83 106
69 85 109
70 86 108
65 80 102
61 76 97
66 81 104
65 80 103
69 85 109
66 82 106
65 81 105
69 84 107
63 78 101
68 83 107
68 85 110
72 88 112
67 83 107
68 84 107
66 83 107
67 83 107
69 86 110
72 87 111
66 81 104
68 84 108
70 86 111
71 88 113
60 75 96
68 85 111
68 84 108
68 84 108
69 86 110
75 92 117
69 85 110
71 88 113
69 85 109
75 92 118
114 133 162
129 149 179
148 169 200
178 202 236
193 217 253
196 220 255
196 220 255
196 220 255
196 220 255
196 220 255
196 220 255
196 220 255
196 220 255
196 220 255
196 220 255
196 220 255
196 220 255
196 220 255
196 220 255
196 220 255
196 220 255
196 220 255
196 220 255
196 220 255
196 220 255
196 220 255
196 220 255
196 220 255
195 219 255
195 219 255
195 219 255
195 219 255
195 219 255
195 219 255
195 219 255
195 219 255
195 219 255
195 219 255
195 219 255
195 219 255
195 219 255
195 219 255
195 219 255
195 219 255
195 219 255
195 219 255
195 219 255
195 219 255
195 219 255
195 219 255
195 219 255
195 219 255
195 219 255
195 219 255
195 219 255
195 219 255
195 219 255
195 219 255
195 219 255
195 219 255
195 219 255
195 219 255
195 219 255
195 219 255
195 219 255
195 219 255
195 219 255
195 219 255
195 219 255
195 219 255
195 219 255
195 219 255
195 219 255
195 219 255
195 219 255
195 219 255
195 219 255
195 219 255
195 219 255
195 219 255
195 219 255
195 219 255
195 219 255
195 219 255
195 219 255
195 219 255
195 219 255
195 219 255
195 219 255
195 219 255
195 219 255
195 219 255
195 219 255
195 219 255
195 219 255
194 219 255
194 219 255
194 219 255
194 219 255
194 219 255
194 219 255
194 219 255
194 219 255
194 219 255
194 219 255
194 219 255
194 219 255
194 219 255
194 219 255
194 219 255
194 219 255
194 219 255
194 219 255
194 219 255
194 219 255
195 219 255
195 219 255
195 219 255
195 219 255
195 219 255
195 219 255
195 219 255
195 219 255
195 219 255
195 219 255
195 219 255
195 219 255
195 219 255
195 219 255
195 219 255
195 219 255
195 219 255
195 219 255
195 219 255
195 219 255
195 219 255
195 219 255
195 219 255
195 219 255
195 219 255
195 219 255
195 219 255
195 219 255
195 219 255
195 219 255
195 219 255
195 219 255
195 219 255
195 219 255
195 219 255
195 219 255
195 219 255
195 219 255
195 219 255
195 219 255
195 219 255
195 219 255
195 219 255
195 219 255
195 219 255
195 219 255
195 219 255
195 219 255
195 219 255
195 219 255
195 219 255
195 219 255
195 219 255
195 219 255
195 219 255
195 219 255
195 219 255
195 219 255
195 219 255
195 219 255
195 219 255
195 219 255
195 219 255
195 219 255
195 219 255
196 220 255
196 220 255
196 220 255
196 220 255
196 220 255
196 220 255
196 220 255
196 220 255
196 220 255
196 220 255
196 220 255
196 220 255
196 220 255
196 220 255
196 220 255
196 220 255
196 220 255
196 220 255
196 220 255
196 220 255
196 220 255
196 220 255
196 220 255
196 220 255
196 220 255
196 220 255
196 220 255
196 220 255
196 220 255
196 220 255
196 220 255
196 220 255
196 220 255
196 220 255
196 220 255
196 220 255
196 220 255
196 220 255
196 220 255
196 220 255
196 220 255
187 210 245
156 178 212
133 154 184
104 123 150
78 95 120
71 89 115
69 85 109
69 85 109
69 86 112
67 84 109
71 89 114
70 87 113
68 85 109
70 87 113
70 86 111
70 87 111
72 88 112
73 89 113
69 86 111
67 83 108
69 86 110
73 90 116
70 86 111
64 80 103
67 83 107
63 78 100
65 80 103
69 85 108
71 88 113
69 86 111
70 86 110
72 88 111
67 83 106
69 86 111
65 81 106
69 85 110
71 88 113
63 79 101
64 79 102
65 81 104
67 83 108
68 83 106
66 81 104
67 83 107
69 87 113
65 81 103
64 79 102
68 84 108
65 80 104
64 79 103
65 80 103
68 83 106
60 74 96
65 80 103
67 83 107
71 87 110
63 78 101
69 85 108
69 84 108
65 81 105
65 81 104
66 81 103
66 81 105
66 82 105
65 80 102
60 74 95
64 78 99
62 77 99
64 77 98
67 82 105
69 84 107
66 82 106
65 81 105
65 81 104
63 77 98
63 78 100
64 80 103
67 82 104
65 80 102
66 81 104
66 81 104
61 76 98
66 81 105
63 77 100
63 78 101
67 82 105
64 80 103
68 84 108
60 75 97
64 79 101
65 79 100
62 76 97
65 82 106
68 84 107
65 79 100
67 82 105
68 83 107
63 78 101
62 77 100
62 77 99
63 78 101
68 84 107
65 80 103
60 74 96
65 81 105
64 79 102
68 84 107
66 82 106
64 79 101
67 82 104
68 83 105
63 78 100
64 79 103
65 80 102
66 81 104
67 82 105
65 80 103
65 82 106
62 77 98
63 78 101
63 79 103
70 86 111
64 79 103
64 79 102
69 84 107
70 85 109
63 77 99
65 81 106
67 82 104
70 86 109
63 78 100
63 78 99
68 84 108
66 82 105
64 78 99
67 82 106
73 89 113
67 83 108
66 81 104
71 87 111
68 85 109
67 84 108
72 88 111
69 86 111
69 85 109
69 84 107
66 82 105
70 87 112
66 82 106
71 87 111
67 83 105
69 84 108
70 86 109
71 86 109
68 84 107
73 90 115
68 84 108
65 81 104
63 79 102
65 81 105
68 84 109
70 87 111
70 85 108
70 85 107
71 87 111
69 85 110
69 85 110
69 85 109
71 87 112
68 84 107
71 87 112
66 82 105
71 88 114
72 88 112
67 82 104
75 92 118
72 88 113
65 81 105
76 94 121
69 84 108
69 86 111
71 89 115
74 92 118
75 93 119
103 121 148
131 151 181
160 182 215
193 216 252
196 220 255
196 220 255
196 220 255
196 220 255
196 220 255
196 220 255
196 220 255
196 220 255
196 220 255
196 220 255
196 220 255
196 220 255
196 220 255
196 220 255
196 220 255
196 220 255
196 220 255
196 220 255
196 220 255
196 220 255
196 220 255
196 220 255
196 220 255
196 220 255
196 220 255
196 220 255
196 220 255
196 220 255
196 220 255
196 220 255
196 220 255
196 220 255
196 220 255
196 220 255
196 220 255
196 220 255
196 220 255
196 220 255
196 220 255
196 220 255
196 220 255
196 220 255
195 219 255
195 219 255
195 219 255
195 219 255
195 219 255
195 219 255
195 219 255
195 219 255
195 219 255
195 219 255
195 219 255
195 219 255
195 219 255
195 219 255
195 219 255
195 219 255
195 219 255
195 219 255
195 219 255
195 219 255
195 219 255
195 219 255
195 219 255
195 219 255
195 219 255
195 219 255
195 219 255
195 219 255
195 219 255
195 219 255
195 219 255
195 219 255
195 219 255
195 219 255
195 219 255
195 219 255
195 219 255
195 219 255
195 219 255
195 219 255
195 219 255
195 219 255
195 219 255
195 219 255
195 219 255
195 219 255
195 219 255
195 219 255
195 219 255
195 219 255
195 219 255
195 219 255
195 219 255
195 219 255
195 219 255
195 219 255
195 219 255
195 219 255
195 219 255
195 219 255
195 219 255
195 219 255
195 219 255
195 219 255
195 219 255
195 219 255
195 219 255
195 219 255
195 219 255
195 219 255
195 219 255
195 219 255
195 219 255
195 219 255
195 219 255
195 219 255
195 219 255
195 219 255
195 219 255
195 219 255
195 219 255
195 219 255
195 219 255
195 219 255
195 219 255
195 219 255
195 219 255
195 219 255
195 219 255
195 219 255
195 219 255
195 219 255
195 219 255
195 219 255
195 219 255
195 219 255
195 219 255
195 219 255
195 219 255
195 219 255
195 219 255
195 219 255
195 219 255
195 219 255
195 219 255
195 219 255
195 219 255
195 219 255
195 219 255
196 220 255
196 220 255
196 220 255
196 220 255
196 220 255
196 220 255
196 220 255
196 220 255
196 220 255
196 220 255
196 220 255
196 220 255
196 220 255
196 220 255
196 220 255
196 220 255
196 220 255
196 220 255
196 220 255
196 220 255
196 220 255
196 220 255
196 220 255
196 220 255
196 220 255
196 220 255
196 220 255
196 220 255
196 220 255
196 220 255
196 220 255
196 220 255
196 220 255
196 220 255
196 220 255
196 220 255
196 220 255
196 220 255
196 220 255
196 220 255
196 220 255
196 220 255
196 220 255
196 220 255
196 220 255
196 220 255
196 220 255
196 220 255
196 220 255
196 220 255
197 220 255
196 220 255
197 220 255
197 220 255
197 220 255
197 220 255
194 217 252
167 189 222
150 170 201
111 131 160
84 102 129
70 87 113
71 87 112
74 91 116
70 87 114
72 88 113
72 88 112
69 86 110
72 89 115
68 84 109
73 90 116
73 90 117
69 86 111
70 87 113
71 88 113
71 88 114
66 82 106
68 84 109
67 83 107
65 81 106
69 85 110
71 88 115
67 84 108
68 84 108
71 87 112
74 91 118
71 88 114
69 86 110
72 89 115
68 84 109
70 87 113
67 83 108
66 83 107
68 84 108
73 89 114
67 82 106
69 85 109
65 80 103
70 87 112
69 85 110
69 86 111
71 89 115
70 86 110
66 82 105
66 82 105
66 80 102
62 78 101
67 83 108
69 86 110
72 88 112
67 83 106
70 87 111
70 85 108
63 78 100
66 81 105
70 85 109
68 84 108
70 86 111
62 77 100
64 79 101
67 82 106
67 83 108
69 84 107
64 80 104
69 84 107
67 82 106
68 84 108
66 81 104
72 88 113
69 84 108
68 84 109
64 80 104
65 80 103
69 86 111
68 84 107
63 77 100
68 84 107
65 80 103
67 82 105
71 86 108
66 83 108
65 81 105
69 85 109
68 83 107
70 87 113
68 84 107
68 84 108
69 84 108
70 86 110
67 83 107
67 83 106
67 81 104
68 83 104
66 81 104
68 84 109
65 80 103
67 83 106
65 80 102
66 82 104
68 84 109
64 79 100
65 81 104
68 83 106
70 87 112
71 88 113
67 84 108
70 86 111
68 85 111
66 81 103
65 81 105
68 84 108
66 82 106
68 84 108
66 82 106
65 82 106
66 82 106
64 78 100
63 79 102
62 77 100
64 79 101
65 79 101
67 83 107
69 84 106
68 84 108
64 80 104
66 81 103
66 82 106
69 84 107
68 84 109
71 86 110
69 85 109
66 82 107
65 80 103
67 82 105
71 88 114
68 83 105
65 80 102
65 80 102
66 81 104
71 87 112
66 82 105
70 86 110
67 83 108
68 85 111
69 84 106
65 81 104
67 83 108
67 82 106
68 83 105
69 85 109
68 83 106
64 80 103
68 84 108
72 88 112
68 84 108
69 86 112
71 88 114
70 85 108
67 83 107
70 86 111
70 87 113
69 86 110
68 85 109
67 84 110
67 84 110
69 84 107
73 89 112
69 86 111
71 87 110
71 89 115
72 89 114
72 87 110
71 88 113
71 88 113
73 89 113
70 86 111
74 91 116
71 87 112
71 88 113
71 88 114
71 87 112
70 87 113
75 92 118
75 92 118
73 91 117
71 88 114
73 89 115
72 88 112
72 89 114
89 107 136
119 139 168
138 159 191
180 203 238
195 219 254
197 220 255
197 220 255
197 220 255
197 220 255
197 220 255
196 220 255
196 220 255
196 220 255
196 220 255
196 220 255
196 220 255
196 220 255
196 220 255
196 220 255
196 220 255
196 220 255
196 220 255
196 220 255
196 220 255
196 220 255
196 220 255
196 220 255
196 220 255
196 220 255
196 220 255
196 220 255
196 220 255
196 220 255
196 220 255
196 220 255
196 220 255
196 220 255
196 220 255
196 220 255
196 220 255
196 220 255
196 220 255
196 220 255
196 220 255
196 220 255
196 220 255
196 220 255
196 220 255
196 220 255
196 220 255
196 220 255
196 220 255
196 220 255
196 220 255
196 220 255
196 220 255
196 220 255
196 220 255
196 220 255
196 220 255
196 220 255
195 219 255
195 219 255
195 219 255
195 219 255
195 219 255
195 219 255
195 219 255
195 219 255
195 219 255
195 219 255
195 219 255
195 219 255
195 219 255
195 219 255
195 219 255
195 219 255
195 219 255
195 219 255
195 219 255
195 219 255
195 219 255
195 219 255
195 219 255
195 219 255
195 219 255
195 219 255
195 219 255
195 219 255
195 219 255
195 219 255
195 219 255
195 219 255
195 219 255
195 219 255
195 219 255
195 219 255
195 219 255
195 219 255
195 219 255
195 219 255
195 219 255
195 219 255
195 219 255
195 219 255
195 219 255
195 219 255
195 219 255
195 219 255
195 219 255
195 219 255
195 219 255
195 219 255
195 219 255
195 219 255
195 219 255
195 219 255
195 219 255
195 219 255
195 219 255
195 219 255
195 219 255
195 219 255
195 219 255
195 219 255
195 219 255
195 219 255
195 219 255
195 219 255
195 219 255
195 219 255
195 219 255
196 220 255
196 220 255
196 220 255
196 220 255
196 220 255
196 220 255
196 220 255
196 220 255
196 220 255
196 220 255
196 220 255
196 220 255
196 220 255
196 220 255
196 220 255
196 220 255
196 220 255
196 220 255
196 220 255
196 220 255
196 220 255
196 220 255
196 220 255
196 220 255
196 220 255
196 220 255
196 220 255
196 220 255
196 220 255
196 220 255
196 220 255
196 220 255
196 220 255
196 220 255
196 220 255
196 220 255
196 220 255
196 220 255
196 220 255
196 220 255
196 220 255
196 220 255
196 220 255
196 220 255
196 220 255
196 220 255
196 220 255
196 220 255
196 220 255
196 220 255
196 220 255
196 220 255
197 220 255
197 220 255
197 220 255
197 220 255
197 220 255
197 220 255
197 220 255
197 220 255
197 220 255
197 220 255
197 220 255
197 220 255
197 220 255
197 220 255
197 220 255
197 220 255
197 220 255
197 220 255
197 220 255
187 210 245
170 192 224
135 154 184
104 123 152
82 99 125
74 91 117
72 89 115
74 92 120
77 95 121
65 81 104
74 91 117
72 90 117
68 84 108
72 90 116
71 88 113
69 87 113
69 85 109
73 89 114
70 87 112
74 90 114
72 88 112
69 85 109
69 87 112
70 88 113
70 88 115
72 89 113
68 85 111
71 87 111
72 89 113
70 87 112
70 87 112
70 86 110
72 89 114
70 86 110
71 89 115
68 85 110
70 86 110
71 89 114
73 90 115
67 83 106
69 86 111
68 84 108
68 83 106
69 85 110
72 89 114
69 86 112
75 92 117
72 89 114
73 89 113
69 87 113
65 81 104
65 81 106
70 86 110
69 84 108
63 78 100
67 83 106
70 87 112
73 89 113
72 89 114
71 88 114
72 89 115
68 85 110
67 82 105
68 84 108
66 82 106
69 85 109
68 84 108
67 83 107
65 81 105
67 84 110
70 87 111
68 84 107
67 84 108
64 79 103
70 85 108
64 80 104
68 84 107
64 78 101
70 87 113
68 84 109
71 87 111
68 85 110
69 86 111
64 79 103
62 77 101
68 84 108
64 78 100
69 85 110
72 89 114
71 87 111
69 86 111
72 88 112
68 84 107
64 79 102
70 86 111
67 84 108
69 84 107
69 85 109
69 85 110
70 87 111
69 85 108
72 88 114
68 84 109
67 83 107
63 78 100
67 84 110
67 83 106
70 86 111
64 79 101
71 88 113
70 86 111
66 81 105
64 79 102
67 83 107
68 84 107
66 82 105
67 82 106
64 79 102
68 83 105
69 85 108
71 88 113
67 82 105
66 83 110
65 81 105
70 86 111
65 80 102
61 76 99
69 85 110
71 88 114
69 87 113
68 85 111
68 84 109
71 88 114
70 87 113
70 86 112
72 88 112
71 87 111
67 82 105
68 83 107
69 85 109
70 87 112
65 82 107
70 87 113
70 86 111
68 83 107
73 89 113
69 85 110
71 87 111
67 83 105
69 85 110
68 84 107
71 88 113
74 90 114
68 84 108
70 87 111
71 88 113
67 83 108
68 84 109
69 86 111
70 87 113
70 86 110
72 89 116
70 86 111
72 89 115
69 86 111
66 83 107
70 86 110
69 85 110
72 88 113
71 87 110
71 89 115
73 89 113
70 87 112
70 86 110
68 84 108
70 88 114
75 92 118
73 90 117
68 85 110
73 90 116
69 86 110
73 90 117
73 91 118
67 83 106
72 90 116
74 91 116
70 87 113
76 92 118
74 91 117
72 89 116
71 88 113
71 87 111
74 91 117
75 93 119
71 89 115
72 89 115
73 91 117
74 92 118
69 86 111
78 93 116
72 90 117
79 96 122
96 115 144
126 146 176
170 193 226
184 207 241
197 220 255
197 220 255
197 220 255
197 220 255
197 220 255
197 220 255
197 220 255
197 220 255
197 220 255
197 220 255
197 220 255
197 220 255
197 220 255
197 220 255
197 220 255
197 220 255
197 220 255
197 220 255
196 220 255
197 220 255
196 220 255
196 220 255
196 220 255
196 220 255
196 220 255
196 220 255
196 220 255
196 220 255
196 220 255
196 220 255
196 220 255
196 220 255
196 220 255
196 220 255
196 220 255
196 220 255
196 220 255
196 220 255
196 220 255
196 220 255
196 220 255
196 220 255
196 220 255
196 220 255
196 220 255
196 220 255
196 220 255
196 220 255
196 220 255
196 220 255
196 220 255
196 220 255
196 220 255
196 220 255
196 220 255
196 220 255
196 220 255
196 220 255
196 220 255
196 220 255
196 220 255
196 220 255
196 220 255
196 220 255
196 220 255
196 220 255
196 220 255
196 220 255
196 220 255
196 220 255
196 220 255
196 220 255
195 219 255
195 219 255
195 219 255
195 219 255
195 219 255
195 219 255
195 219 255
195 219 255
195 219 255
195 219 255
195 219 255
195 219 255
195 219 255
195 219 255
195 219 255
195 219 255
195 219 255
195 219 255
195 219 255
195 219 255
195 219 255
195 219 255
195 219 255
195 219 255
195 219 255
195 219 255
195 219 255
195 219 255
195 219 255
195 219 255
195 219 255
195 219 255
196 220 255
196 220 255
196 220 255
196 220 255
196 220 255
196 220 255
196 220 255
196 220 255
196 220 255
196 220 255
196 220 255
196 220 255
196 220 255
196 220 255
196 220 255
196 220 255
196 220 255
196 220 255
196 220 255
196 220 255
196 220 255
196 220 255
196 220 255
196 220 255
196 220 255
196 220 255
196 220 255
196 220 255
196 220 255
196 220 255
196 220 255
196 220 255
196 220 255
196 220 255
196 220 255
196 220 255
196 220 255
196 220 255
196 220 255
196 220 255
196 220 255
196 220 255
196 220 255
196 220 255
196 220 255
196 220 255
196 220 255
196 220 255
196 220 255
196 220 255
196 220 255
196 220 255
196 220 255
196 220 255
197 220 255
197 220 255
197 220 255
197 220 255
197 220 255
197 220 255
197 220 255
197 220 255
197 220 255
197 220 255
197 220 255
197 220 255
197 220 255
197 220 255
197 220 255
197 220 255
197 220 255
197 220 255
197 220 255
197 220 255
197 220 255
197 220 255
197 220 255
197 220 255
197 220 255
197 220 255
197 220 255
197 220 255
197 220 255
197 221 255
197 221 255
197 221 255
175 198 231
153 175 207
127 147 176
92 111 139
78 97 124
74 91 118
74 91 117
71 89 115
70 88 114
74 91 117
74 91 118
69 85 110
70 88 114
74 92 119
72 91 118
74 92 117
69 86 111
68 85 110
74 91 117
70 87 113
74 91 117
72 89 114
69 84 108
73 91 117
70 87 111
73 90 115
73 90 115
71 88 115
69 86 112
69 85 109
70 88 114
71 88 113
71 89 115
73 89 112
71 89 115
69 86 112
75 93 119
72 90 117
67 84 109
68 84 108
72 88 113
69 85 111
70 86 111
72 89 115
69 87 113
72 88 113
72 88 112
74 90 115
69 87 113
69 87 114
67 83 106
68 84 109
75 91 116
66 82 106
68 84 109
67 84 108
71 87 112
67 83 107
71 87 111
70 87 112
70 86 109
70 86 111
66 81 103
65 81 105
69 84 108
70 87 111
68 84 109
71 87 112
68 84 109
73 91 118
71 88 112
67 83 107
67 83 107
74 92 117
73 90 115
67 84 110
71 88 113
69 85 109
67 83 107
66 81 104
68 84 108
73 90 115
73 90 115
70 87 113
70 86 110
69 85 109
70 87 112
65 82 106
65 80 103
65 81 103
69 85 109
68 83 106
65 81 106
70 86 111
67 81 103
68 84 109
67 83 107
70 87 111
69 86 112
68 84 108
69 85 109
68 84 109
65 81 104
65 81 106
73 89 113
69 86 111
66 83 109
67 83 106
66 83 108
70 87 111
74 91 116
68 84 108
69 85 109
70 87 111
71 87 111
68 84 108
73 90 116
69 84 108
73 91 118
71 86 110
72 89 114
65 80 104
69 86 111
68 85 110
74 90 115
67 82 105
72 89 113
71 87 112
71 88 115
68 83 107
67 84 109
72 88 113
68 85 110
71 88 113
69 85 110
69 85 109
67 83 108
71 87 113
66 80 103
71 87 111
72 89 114
65 80 104
67 84 110
68 83 106
70 87 111
70 87 112
68 84 108
68 84 108
70 87 113
68 84 107
71 88 114
71 87 112
72 89 114
68 85 110
72 88 114
75 92 117
71 87 112
75 93 120
69 86 112
73 89 114
72 89 114
71 87 112
67 84 109
73 90 115
73 91 116
71 88 114
67 83 107
70 86 111
69 86 111
69 85 109
69 85 110
73 89 115
69 86 111
72 90 117
70 86 111
71 88 113
72 89 114
74 92 119
70 86 111
70 85 109
73 89 114
73 89 115
74 91 118
69 85 110
70 87 113
74 91 116
74 91 116
73 90 116
71 88 112
75 93 119
69 86 111
75 93 121
70 87 113
72 88 113
70 86 111
73 89 114
72 89 116
73 90 115
72 89 114
72 89 115
74 92 119
71 87 112
71 88 114
71 88 113
75 92 118
75 92 119
72 90 117
75 93 120
71 87 112
71 88 115
87 106 134
124 144 174
150 172 204
185 208 242
197 221 255
197 221 255
197 220 255
197 221 255
197 220 255
197 220 255
197 220 255
197 220 255
197 220 255
197 220 255
197 220 255
197 220 255
197 220 255
197 220 255
197 220 255
197 220 255
197 220 255
197 220 255
197 220 255
197 220 255
197 220 255
197 220 255
197 220 255
197 220 255
197 220 255
197 220 255
197 220 255
197 220 255
197 220 255
197 220 255
197 220 255
197 220 255
196 220 255
196 220 255
196 220 255
196 220 255
196 220 255
196 220 255
196 220 255
196 220 255
196 220 255
196 220 255
196 220 255
196 220 255
196 220 255
196 220 255
196 220 255
196 220 255
196 220 255
196 220 255
196 220 255
196 220 255
196 220 255
196 220 255
196 220 255
196 220 255
196 220 255
196 220 255
196 220 255
196 220 255
196 220 255
196 220 255
196 220 255
196 220 255
196 220 255
196 220 255
196 220 255
196 220 255
196 220 255
196 220 255
196 220 255
196 220 255
196 220 255
196 220 255
196 220 255
196 220 255
196 220 255
196 220 255
196 220 255
196 220 255
196 220 255
196 220 255
196 220 255
196 220 255
196 220 255
196 220 255
196 220 255
195 219 255
195 219 255
195 219 255
195 219 255
195 219 255
195 219 255
196 220 255
196 220 255
196 220 255
196 220 255
196 220 255
196 220 255
196 220 255
196 220 255
196 220 255
196 220 255
196 220 255
196 220 255
196 220 255
196 220 255
196 220 255
196 220 255
196 220 255
196 220 255
196 220 255
196 220 255
196 220 255
196 220 255
196 220 255
196 220 255
196 220 255
196 220 255
196 220 255
196 220 255
196 220 255
196 220 255
196 220 255
196 220 255
196 220 255
196 220 255
196 220 255
196 220 255
196 220 255
196 220 255
196 220 255
196 220 255
196 220 255
196 220 255
196 220 255
196 220 255
196 220 255
197 220 255
197 220 255
197 220 255
197 220 255
197 220 255
197 220 255
197 220 255
197 220 255
197 220 255
197 220 255
197 220 255
197 220 255
197 220 255
197 220 255
197 220 255
197 220 255
197 220 255
197 220 255
197 220 255
197 220 255
197 220 255
197 220 255
197 220 255
197 220 255
197 220 255
197 220 255
197 220 255
197 220 255
197 220 255
197 221 255
197 221 255
197 221 255
197 221 255
197 221 255
197 221 255
197 221 255
197 221 255
197 221 255
197 221 255
197 221 255
197 221 255
197 221 255
198 221 255
196 220 254
182 204 238
132 152 182
114 133 162
81 99 127
74 93 121
74 92 118
76 94 120
69 86 111
77 94 119
73 91 118
73 90 116
76 94 122
73 90 116
75 93 119
74 91 115
71 88 114
75 93 119
72 89 114
70 86 110
70 86 111
74 92 119
73 90 115
73 90 115
72 89 115
72 89 115
74 92 118
75 93 119
70 86 112
72 89 115
67 83 107
75 93 120
72 89 115
72 90 116
74 91 118
71 88 114
70 87 112
66 82 106
74 91 118
68 85 110
72 89 115
69 87 113
70 86 111
70 86 110
69 86 111
70 88 115
72 89 115
71 89 115
73 90 117
70 87 112
71 87 112
73 89 113
74 91 118
74 91 116
70 87 112
72 88 113
69 85 109
70 86 110
75 92 117
71 86 109
70 86 110
64 79 102
73 89 114
72 89 115
70 85 108
72 89 114
68 83 107
72 89 114
71 88 114
73 90 115
69 86 110
69 86 112
72 89 114
74 90 115
68 83 106
69 86 110
68 85 110
70 87 112
73 89 113
66 82 107
69 86 111
66 82 106
73 90 116
71 88 113
73 90 116
65 81 105
72 88 114
69 85 109
70 86 110
68 84 108
69 86 110
72 89 115
70 87 112
71 88 113
68 85 109
69 85 109
71 88 113
70 86 111
68 84 108
68 85 110
65 81 105
71 87 112
67 82 106
71 87 110
70 87 112
69 85 108
67 84 110
69 86 111
69 85 110
71 87 111
67 84 108
68 86 111
65 81 105
72 88 113
66 82 106
70 87 112
69 86 110
71 87 113
70 86 112
74 90 116
69 85 110
69 87 112
68 85 110
72 89 115
71 88 113
71 87 111
71 87 112
69 85 109
67 84 109
71 88 113
68 85 110
67 84 109
69 86 111
69 85 109
70 86 110
67 83 108
70 85 109
66 82 105
69 85 108
73 90 116
75 91 116
64 80 105
69 85 109
72 91 118
67 83 106
68 84 108
72 90 116
74 91 116
72 89 116
72 89 114
72 88 113
70 86 111
68 85 109
63 79 104
73 88 112
67 84 110
69 86 113
70 87 114
71 88 115
66 81 104
71 88 113
68 85 111
69 86 113
68 84 108
67 82 105
68 84 108
69 85 108
68 85 111
71 87 113
71 88 114
71 88 112
71 88 113
71 89 114
68 82 105
73 89 113
71 87 111
73 90 115
73 90 115
73 90 115
73 90 117
73 90 117
71 87 112
71 87 111
74 91 116
74 91 116
71 87 112
73 91 118
72 89 116
70 87 112
71 88 113
73 90 114
72 90 116
72 89 113
74 91 117
73 90 115
75 92 118
72 89 115
69 86 112
71 89 116
74 91 117
72 89 115
72 89 115
75 92 119
72 89 114
75 92 119
73 89 114
70 88 114
76 92 116
75 92 117
70 88 115
72 89 114
76 93 119
76 94 122
70 87 112
73 91 118
75 93 120
75 92 119
75 93 120
72 90 118
87 106 133
113 133 163
145 165 195
174 197 230
198 221 255
197 221 255
197 221 255
197 221 255
197 221 255
197 221 255
197 221 255
197 221 255
197 221 255
197 221 255
197 221 255
197 221 255
197 221 255
197 221 255
197 221 255
197 220 255
197 220 255
197 220 255
197 220 255
197 220 255
197 220 255
197 220 255
197 220 255
197 220 255
197 220 255
197 220 255
197 220 255
197 220 255
197 220 255
197 220 255
197 220 255
197 220 255
197 220 255
197 220 255
197 220 255
197 220 255
197 220 255
197 220 255
197 220 255
197 220 255
197 220 255
197 220 255
197 220 255
196 220 255
196 220 255
196 220 255
196 220 255
196 220 255
196 220 255
196 220 255
196 220 255
196 220 255
196 220 255
196 220 255
196 220 255
196 220 255
196 220 255
196 220 255
196 220 255
196 220 255
196 220 255
196 220 255
196 220 255
196 220 255
196 220 255
196 220 255
196 220 255
196 220 255
196 220 255
196 220 255
196 220 255
196 220 255
196 220 255
196 220 255
196 220 255
196 220 255
196 220 255
196 220 255
196 220 255
196 220 255
196 220 255
196 220 255
196 220 255
196 220 255
196 220 255
196 220 255
196 220 255
196 220 255
196 220 255
196 220 255
196 220 255
196 220 255
196 220 255
196 220 255
196 220 255
196 220 255
196 220 255
196 220 255
196 220 255
196 220 255
196 220 255
196 220 255
196 220 255
196 220 255
196 220 255
196 220 255
196 220 255
196 220 255
196 220 255
196 220 255
196 220 255
196 220 255
196 220 255
196 220 255
196 220 255
196 220 255
196 220 255
196 220 255
197 220 255
197 220 255
197 220 255
197 220 255
197 220 255
197 220 255
197 220 255
197 220 255
197 220 255
197 220 255
197 220 255
197 220 255
197 220 255
197 220 255
197 220 255
197 220 255
197 220 255
197 220 255
197 220 255
197 220 255
197 220 255
197 220 255
197 220 255
197 220 255
197 220 255
197 220 255
197 220 255
197 220 255
197 220 255
197 220 255
197 221 255
197 221 255
197 221 255
197 221 255
197 221 255
197 221 255
197 221 255
197 221 255
197 221 255
197 221 255
197 221 255
197 221 255
197 221 255
197 221 255
198 221 255
198 221 255
198 221 255
198 221 255
198 221 255
198 221 255
198 221 255
198 221 255
198 221 255
198 221 255
198 221 255
198 221 255
176 198 231
135 156 187
120 140 171
78 95 122
74 92 118
76 94 119
75 93 120
73 90 116
76 93 119
72 90 118
76 93 118
72 90 117
76 93 120
75 93 119
73 91 117
76 94 121
74 92 119
74 92 118
76 94 121
74 92 119
73 90 116
72 89 114
74 91 117
73 91 116
76 93 119
73 90 117
73 89 114
73 89 114
73 90 117
71 88 114
73 90 114
71 87 111
72 89 115
73 91 119
71 88 113
69 85 110
73 90 116
71 88 114
71 87 111
73 91 118
71 88 115
72 90 117
72 90 117
74 91 116
70 86 111
71 86 110
70 87 112
74 91 117
72 89 115
71 88 114
73 89 113
73 91 118
71 88 114
67 84 108
71 88 114
72 89 114
71 88 114
72 89 114
72 88 113
73 90 115
73 91 117
71 89 116
68 85 110
76 93 120
72 89 115
72 88 114
71 88 113
72 88 113
65 82 108
74 91 117
69 86 110
72 89 113
72 88 114
71 88 113
67 84 110
72 89 116
70 87 111
71 87 111
72 88 112
70 87 112
72 89 116
70 86 109
70 87 112
70 85 109
67 83 108
73 90 116
70 87 112
73 90 114
70 86 110
71 88 114
67 83 107
69 85 110
69 86 112
68 84 109
73 90 115
72 88 113
63 79 102
71 87 112
67 83 106
67 83 105
70 87 113
67 82 104
67 83 107
72 88 113
69 85 110
73 90 116
70 87 112
72 89 114
73 90 116
71 87 110
64 78 99
68 84 108
70 87 112
70 87 112
70 87 112
69 85 108
68 85 110
71 88 114
70 86 110
69 85 108
72 90 116
73 91 118
70 86 110
68 85 110
74 91 116
71 88 113
70 86 111
71 88 113
69 85 109
70 87 113
72 89 116
68 85 111
67 82 104
65 80 103
71 87 112
72 89 113
68 84 110
72 89 115
73 90 115
73 90 115
71 87 110
71 87 111
70 86 110
70 87 112
75 92 118
68 84 107
69 85 109
71 88 114
68 85 110
70 85 109
71 87 112
69 86 110
71 87 111
72 88 112
73 89 114
71 87 112
71 88 115
69 86 111
68 85 111
67 83 107
69 86 112
70 87 112
69 85 110
71 88 114
69 86 112
70 86 111
68 84 109
70 85 108
76 93 118
71 88 113
71 88 114
69 85 109
72 89 115
67 85 110
74 91 116
69 86 112
73 90 115
72 89 115
72 89 115
72 88 112
71 88 113
75 93 119
69 86 112
73 90 116
69 86 112
69 86 111
76 93 119
71 88 114
73 89 114
71 88 113
74 91 117
71 87 112
72 89 115
74 90 115
73 90 115
75 92 118
69 85 108
74 92 119
76 93 120
73 90 116
75 93 119
72 90 117
72 91 118
71 88 113
74 91 118
74 91 118
73 89 114
74 91 117
69 86 111
73 90 116
67 83 108
74 91 118
70 87 112
70 88 115
70 87 112
73 91 118
75 92 119
75 93 120
77 94 120
71 87 111
74 91 118
78 97 125
73 92 120
73 91 119
75 93 120
71 87 112
85 103 130
105 125 154
157 178 210
160 181 213
191 214 248
198 221 255
198 221 255
198 221 255
198 221 255
198 221 255
198 221 255
198 221 255
198 221 255
198 221 255
198 221 255
198 221 255
197 221 255
197 221 255
197 221 255
197 221 255
197 221 255
197 221 255
197 221 255
197 221 255
197 221 255
197 221 255
197 221 255
197 221 255
197 221 255
197 220 255
197 220 255
197 220 255
197 220 255
197 220 255
197 220 255
197 220 255
197 220 255
197 220 255
197 220 255
197 220 255
197 220 255
197 220 255
197 220 255
197 220 255
197 220 255
197 220 255
197 220 255
197 220 255
197 220 255
197 220 255
197 220 255
197 220 255
197 220 255
197 220 255
197 220 255
197 220 255
197 220 255
197 220 255
197 220 255
196 220 255
196 220 255
196 220 255
196 220 255
196 220 255
196 220 255
196 220 255
196 220 255
196 220 255
196 220 255
196 220 255
196 220 255
196 220 255
196 220 255
196 220 255
196 220 255
196 220 255
196 220 255
196 220 255
196 220 255
196 220 255
196 220 255
196 220 255
196 220 255
196 220 255
196 220 255
196 220 255
196 220 255
196 220 255
196 220 255
196 220 255
196 220 255
196 220 255
196 220 255
196 220 255
196 220 255
196 220 255
196 220 255
196 220 255
196 220 255
196 220 255
196 220 255
196 220 255
196 220 255
197 220 255
197 220 255
197 220 255
197 220 255
197 220 255
197 220 255
197 220 255
197 220 255
197 220 255
197 220 255
197 220 255
197 220 255
197 220 255
197 220 255
197 220 255
197 220 255
197 220 255
197 220 255
197 220 255
197 220 255
197 220 255
197 220 255
197 220 255
197 220 255
197 220 255
197 220 255
197 220 255
197 220 255
197 220 255
197 220 255
197 220 255
197 221 255
197 221 255
197 221 255
197 221 255
197 221 255
197 221 255
197 221 255
197 221 255
197 221 255
197 221 255
197 221 255
197 221 255
197 221 255
197 221 255
198 221 255
198 221 255
198 221 255
198 221 255
198 221 255
198 221 255
198 221 255
198 221 255
198 221 255
198 221 255
198 221 255
198 221 255
198 221 255
198 221 255
198 221 255
198 221 255
198 221 255
198 221 255
198 221 255
198 221 255
198 221 255
197 220 254
180 203 236
136 156 187
113 132 161
81 99 125
73 91 117
74 93 121
71 88 113
74 92 120
76 94 120
76 93 120
72 90 116
75 92 118
72 89 114
75 92 117
74 93 120
77 95 122
71 88 113
72 88 113
73 90 115
71 88 113
74 91 117
69 86 111
72 89 114
72 90 118
74 91 116
73 91 118
72 90 118
75 91 117
76 94 120
72 89 115
76 94 121
71 87 112
71 87 112
71 88 114
74 91 117
71 87 113
71 88 112
72 90 115
74 91 117
69 86 112
75 92 117
73 90 115
72 87 111
73 90 116
75 92 117
69 85 110
73 90 116
75 93 120
70 87 113
70 86 110
71 87 112
72 89 115
74 92 120
73 90 117
70 88 114
75 91 117
72 88 113
72 88 114
72 90 116
75 91 116
72 89 116
72 90 116
70 87 113
70 87 112
73 90 116
72 89 115
72 87 110
71 87 111
70 87 112
72 90 117
70 87 112
68 85 109
72 88 112
72 88 113
74 92 120
69 86 113
69 86 111
73 90 116
73 90 115
78 95 121
74 91 115
72 88 113
69 86 111
73 90 117
72 90 117
72 89 116
71 88 114
69 86 111
73 89 114
67 84 108
72 88 113
72 89 114
66 82 106
73 91 119
74 90 114
72 88 113
71 87 112
71 89 115
72 90 117
71 87 111
74 90 115
75 92 118
71 87 112
72 89 115
70 87 113
71 88 114
70 87 111
73 91 118
72 88 113
72 88 113
71 88 114
71 87 112
73 89 115
73 90 115
67 84 108
67 84 108
66 82 107
73 91 117
68 85 111
71 89 114
68 84 109
73 90 116
68 84 108
71 89 115
71 88 114
69 84 106
73 89 113
72 88 112
70 87 112
70 85 108
69 85 110
75 93 119
70 87 113
67 82 106
72 89 114
73 90 116
73 90 115
67 83 107
71 88 113
71 88 114
70 87 113
69 85 108
72 89 115
72 89 116
69 86 111
73 90 115
70 87 111
73 91 116
70 87 112
66 82 106
70 87 113
74 91 117
69 84 108
72 89 113
74 91 117
71 88 113
74 92 118
68 84 108
72 89 114
72 88 112
68 83 105
75 92 118
71 89 117
71 87 112
67 82 105
72 89 116
68 85 112
69 85 109
69 85 109
72 90 117
67 83 106
71 88 115
73 90 116
72 89 114
73 91 118
70 87 113
73 91 117
74 92 117
72 89 115
70 88 114
69 86 112
68 85 109
73 89 114
71 87 112
70 86 111
70 87 113
70 87 113
69 87 113
71 88 114
73 90 117
70 87 113
76 94 120
72 89 114
71 88 114
72 88 113
69 86 112
71 88 114
73 91 117
73 90 115
75 92 118
72 89 114
70 87 111
74 92 119
72 89 114
72 89 115
74 91 115
72 89 115
74 91 116
76 93 119
73 91 117
72 89 114
71 89 115
72 89 115
74 93 121
74 92 120
71 88 113
74 92 118
72 89 116
74 92 119
71 89 116
76 93 118
73 91 118
70 87 112
73 91 117
74 92 119
75 92 117
69 87 114
74 92 119
71 88 113
74 92 119
74 91 116
74 91 118
75 93 119
74 92 119
80 99 128
108 128 157
129 149 179
172 193 226
190 213 247
198 221 255
198 221 255
198 221 255
198 221 255
198 221 255
198 221 255
198 221 255
198 221 255
198 221 255
198 221 255
198 221 255
198 221 255
198 221 255
198 221 255
198 221 255
198 221 255
198 221 255
198 221 255
198 221 255
198 221 255
198 221 255
197 221 255
197 221 255
197 221 255
197 221 255
197 221 255
197 221 255
197 221 255
197 221 255
197 221 255
197 221 255
197 221 255
197 221 255
197 221 255
197 220 255
197 220 255
197 220 255
197 220 255
197 220 255
197 220 255
197 220 255
197 220 255
197 220 255
197 220 255
197 220 255
197 220 255
197 220 255
197 220 255
197 220 255
197 220 255
197 220 255
197 220 255
197 220 255
197 220 255
197 220 255
197 220 255
197 220 255
197 220 255
197 220 255
197 220 255
197 220 255
197 220 255
197 220 255
197 220 255
197 220 255
196 220 255
196 220 255
196 220 255
196 220 255
196 220 255
196 220 255
196 220 255
196 220 255
196 220 255
196 220 255
196 220 255
196 220 255
196 220 255
196 220 255
196 220 255
196 220 255
197 220 255
197 220 255
197 220 255
197 220 255
197 220 255
197 220 255
197 220 255
197 220 255
197 220 255
197 220 255
197 220 255
197 220 255
197 220 255
197 220 255
197 220 255
197 220 255
197 220 255
197 220 255
197 220 255
197 220 255
197 220 255
197 220 255
197 220 255
197 220 255
197 220 255
197 220 255
197 220 255
197 220 255
197 220 255
197 220 255
197 221 255
197 221 255
197 221 255
197 221 255
197 221 255
197 221 255
197 221 255
197 221 255
197 221 255
197 221 255
197 221 255
197 221 255
197 221 255
197 221 255
198 221 255
198 221 255
198 221 255
198 221 255
198 221 255
198 221 255
198 221 255
198 221 255
198 221 255
198 221 255
198 221 255
198 221 255
198 221 255
198 221 255
198 221 255
198 221 255
198 221 255
198 221 255
198 221 255
198 221 255
198 221 255
198 221 255
198 221 255
198 221 255
198 221 255
198 221 255
198 221 255
198 221 255
198 221 255
198 221 255
198 221 255
196 218 252
174 197 230
149 169 201
107 126 156
80 98 127
74 91 118
75 92 119
75 92 118
78 96 122
76 93 120
74 91 116
75 94 121
71 90 117
77 94 121
73 90 117
74 92 118
76 93 120
71 88 113
74 91 116
72 90 116
73 91 118
72 89 115
70 87 112
75 93 120
71 88 114
76 94 121
75 92 117
71 88 113
74 91 117
72 89 115
73 91 118
74 91 116
73 89 114
71 89 115
71 86 110
73 91 118
68 85 111
67 83 107
76 93 119
74 91 118
67 85 110
72 89 115
73 90 116
74 92 118
71 89 115
71 87 111
74 91 117
71 89 115
72 90 117
74 91 117
76 93 118
71 88 114
76 94 121
69 86 111
69 86 111
72 90 116
73 90 115
70 88 115
70 88 114
75 93 120
70 87 112
71 87 111
71 88 114
72 89 115
73 92 119
67 83 108
69 85 108
72 90 116
70 87 114
73 91 117
67 84 109
71 88 114
68 84 108
71 87 111
72 89 114
73 90 116
70 86 109
70 87 113
71 88 113
73 91 117
74 91 116
75 92 118
70 87 112
74 92 118
74 91 117
68 85 109
68 84 107
72 89 115
68 84 108
72 89 115
72 89 115
71 88 114
72 90 116
75 92 117
74 90 114
73 90 115
68 85 109
73 89 114
71 88 113
71 88 114
71 88 114
69 86 111
71 89 115
75 93 119
72 90 116
72 88 113
73 89 113
71 88 114
68 85 111
71 88 114
71 88 114
72 88 112
74 92 119
76 93 119
72 89 115
74 91 116
69 85 109
74 90 116
73 90 116
69 86 112
74 90 115
69 85 110
70 87 112
70 86 110
72 89 115
70 86 109
73 90 116
70 87 112
75 92 119
70 86 109
71 88 113
71 89 115
74 91 116
72 89 115
73 90 116
74 91 117
71 88 114
72 88 112
73 91 116
69 86 111
69 86 112
71 86 109
73 90 116
71 87 111
72 89 114
70 87 113
73 90 116
75 92 117
69 85 110
74 91 117
72 90 117
72 89 114
72 89 115
70 88 114
72 89 114
76 93 120
72 89 114
69 86 111
72 89 115
71 88 114
67 83 108
71 88 113
72 89 115
72 89 114
72 89 114
73 91 119
71 88 113
70 86 110
72 90 116
71 88 113
72 90 116
72 89 114
71 88 115
71 88 114
72 89 114
70 88 114
68 85 111
70 87 112
72 88 113
70 87 113
72 89 114
71 88 114
74 91 117
70 88 114
72 89 114
71 88 113
74 91 116
72 88 113
72 89 114
71 87 111
75 93 121
70 88 114
74 91 116
73 91 117
70 87 113
73 90 117
71 88 113
69 85 110
76 93 119
71 87 112
72 89 114
72 90 116
71 87 113
72 89 114
71 89 115
75 92 118
76 93 119
73 90 115
73 89 114
72 89 114
72 91 118
75 92 118
73 91 119
75 92 117
73 90 116
71 90 117
71 88 114
76 94 122
72 89 114
74 92 118
74 93 121
73 91 117
76 93 120
74 92 120
74 92 119
72 88 114
72 90 117
73 90 116
74 92 120
71 89 116
77 94 120
75 93 120
76 94 120
75 92 117
73 90 116
74 92 119
76 93 118
78 95 121
75 93 120
76 93 120
74 91 116
72 90 118
76 94 121
78 96 123
105 124 152
143 164 195
165 186 218
198 221 255
198 221 255
198 221 255
198 221 255
198 221 255
198 221 255
198 221 255
198 221 255
198 221 255
198 221 255
198 221 255
198 221 255
198 221 255
198 221 255
198 221 255
198 221 255
198 221 255
198 221 255
198 221 255
198 221 255
198 221 255
198 221 255
198 221 255
198 221 255
198 221 255
198 221 255
198 221 255
198 221 255
198 221 255
198 221 255
198 221 255
197 221 255
197 221 255
197 221 255
197 221 255
197 221 255
197 221 255
197 221 255
197 221 255
197 221 255
197 221 255
197 221 255
197 221 255
197 221 255
197 221 255
197 221 255
197 220 255
197 220 255
197 220 255
197 220 255
197 220 255
197 220 255
197 220 255
197 220 255
197 220 255
197 220 255
197 220 255
197 220 255
197 220 255
197 220 255
197 220 255
197 220 255
197 220 255
197 220 255
197 220 255
197 220 255
197 220 255
197 220 255
197 220 255
197 220 255
197 220 255
197 220 255
197 220 255
197 220 255
197 220 255
197 220 255
197 220 255
197 220 255
197 220 255
197 220 255
197 220 255
197 220 255
197 220 255
197 220 255
197 220 255
197 220 255
197 220 255
197 220 255
197 220 255
197 220 255
197 220 255
197 220 255
197 220 255
197 220 255
197 220 255
197 221 255
197 221 255
197 221 255
197 221 255
197 221 255
197 221 255
197 221 255
197 221 255
197 221 255
197 221 255
197 221 255
197 221 255
197 221 255
197 221 255
197 221 255
198 221 255
198 221 255
198 221 255
198 221 255
198 221 255
198 221 255
198 221 255
198 221 255
198 221 255
198 221 255
198 221 255
198 221 255
198 221 255
198 221 255
198 221 255
198 221 255
198 221 255
198 221 255
198 221 255
198 221 255
198 221 255
198 221 255
198 221 255
198 221 255
198 221 255
198 221 255
198 221 255
198 221 255
198 221 255
198 221 255
198 221 255
198 221 255
198 221 255
198 221 255
198 221 255
198 221 255
198 221 255
199 221 255
199 221 255
199 221 255
177 199 232
151 171 202
107 126 154
79 97 124
75 93 121
73 91 119
74 92 120
74 92 119
76 94 121
76 94 121
76 94 122
76 94 122
76 93 118
76 94 120
77 94 119
75 93 120
77 95 122
75 93 119
73 91 118
75 93 119
73 91 117
73 89 114
71 88 113
74 91 118
73 90 116
72 89 116
72 89 116
75 93 119
74 91 117
74 92 118
71 89 115
71 88 114
72 91 119
76 93 119
73 91 117
72 90 117
77 95 121
72 90 116
71 87 112
72 90 116
69 86 112
72 90 117
73 90 115
71 88 114
73 91 117
76 94 122
72 90 116
71 88 114
72 90 117
78 95 121
72 89 115
76 94 121
74 91 116
73 90 117
70 86 110
71 88 112
77 94 119
70 87 113
68 85 110
71 87 111
70 86 111
71 88 114
72 89 114
76 93 119
72 89 116
72 89 115
73 91 117
70 88 114
73 91 119
75 93 120
74 91 116
71 88 114
72 90 118
70 86 111
70 87 113
72 89 114
71 89 116
72 90 116
73 91 117
71 88 114
72 89 116
70 87 112
71 88 115
72 89 115
72 89 116
69 85 109
67 84 108
75 93 120
74 91 115
70 87 112
70 87 111
71 89 116
73 90 115
71 89 117
71 88 114
74 91 117
77 95 123
70 87 112
74 93 120
72 90 116
73 90 116
71 88 114
73 90 117
71 88 114
74 90 115
72 90 117
70 86 111
72 89 115
71 87 111
72 89 116
74 91 117
74 92 119
72 88 113
72 90 117
75 93 120
68 85 110
72 89 114
72 90 116
72 90 116
71 88 113
73 90 116
71 86 110
70 87 112
71 88 114
75 91 117
70 87 113
71 88 114
72 90 118
74 91 118
72 90 117
73 90 117
75 91 115
71 89 115
74 90 114
75 92 117
70 86 111
73 90 116
70 88 114
70 87 112
73 91 117
73 90 116
73 91 118
70 87 113
76 93 118
71 88 115
70 86 111
74 93 120
71 89 114
72 88 112
72 89 114
77 95 121
71 88 114
69 85 111
74 92 119
68 85 110
72 89 116
69 85 110
70 86 111
70 87 113
74 91 116
73 90 115
70 87 113
73 91 118
71 88 114
74 91 117
71 87 112
71 88 113
70 87 112
73 90 115
74 92 119
77 94 120
69 85 109
70 87 111
72 88 113
69 87 113
69 84 107
72 90 117
71 88 114
75 93 118
72 88 111
70 87 112
73 91 116
74 92 118
70 85 109
74 92 118
72 90 117
73 90 116
73 90 116
70 88 114
73 90 115
73 91 119
72 89 115
74 91 118
74 91 116
73 91 117
70 88 115
74 91 116
75 91 115
72 89 114
75 92 118
70 87 111
72 89 114
75 93 119
77 94 119
71 88 113
74 91 117
74 92 117
72 88 113
72 91 119
75 91 116
69 87 114
74 91 117
72 89 115
74 91 117
77 95 123
72 89 114
75 92 117
75 92 119
73 90 115
77 95 121
74 91 116
72 89 115
76 94 122
76 93 119
74 91 116
73 90 116
73 92 119
74 92 118
74 93 120
72 89 116
74 92 119
76 92 117
73 91 119
75 94 121
72 89 115
75 93 120
73 90 116
73 91 117
76 94 120
74 92 119
74 92 118
73 91 118
75 93 119
75 93 120
73 90 116
74 91 116
74 90 115
75 94 122
77 95 121
75 93 119
79 98 126
100 119 148
139 159 190
183 205 239
199 221 255
199 221 255
199 221 255
198 221 255
198 221 255
198 221 255
198 221 255
198 221 255
198 221 255
198 221 255
198 221 255
198 221 255
198 221 255
198 221 255
198 221 255
198 221 255
198 221 255
198 221 255
198 221 255
198 221 255
198 221 255
198 221 255
198 221 255
198 221 255
198 221 255
198 221 255
198 221 255
198 221 255
198 221 255
198 221 255
198 221 255
198 221 255
198 221 255
198 221 255
198 221 255
198 221 255
198 221 255
198 221 255
198 221 255
198 221 255
198 221 255
197 221 255
197 221 255
197 221 255
197 221 255
197 221 255
197 221 255
197 221 255
197 221 255
197 221 255
197 221 255
197 221 255
197 221 255
197 221 255
197 221 255
197 220 255
197 220 255
197 220 255
197 220 255
197 220 255
197 220 255
197 220 255
197 220 255
197 220 255
197 220 255
197 220 255
197 220 255
197 220 255
197 220 255
197 220 255
197 220 255
197 220 255
197 220 255
197 220 255
197 220 255
197 220 255
197 220 255
197 220 255
197 221 255
197 221 255
197 221 255
197 221 255
197 221 255
197 221 255
197 221 255
197 221 255
197 221 255
197 221 255
197 221 255
197 221 255
197 221 255
197 221 255
197 221 255
198 221 255
198 221 255
198 221 255
198 221 255
198 221 255
198 221 255
198 221 255
198 221 255
198 221 255
198 221 255
198 221 255
198 221 255
198 221 255
198 221 255
198 221 255
198 221 255
198 221 255
198 221 255
198 221 255
198 221 255
198 221 255
198 221 255
198 221 255
198 221 255
198 221 255
198 221 255
198 221 255
198 221 255
198 221 255
198 221 255
198 221 255
198 221 255
198 221 255
198 221 255
198 221 255
198 221 255
198 221 255
198 221 255
199 221 255
199 221 255
199 221 255
199 221 255
199 221 255
199 221 255
199 221 255
199 221 255
199 221 255
199 221 255
198 220 254
168 190 222
143 164 195
112 131 160
83 101 128
74 91 116
78 96 122
76 94 121
76 95 122
76 94 121
75 94 122
76 93 120
73 92 119
74 92 118
75 92 118
73 91 117
76 95 122
75 92 118
74 92 119
74 92 119
74 91 116
73 91 118
72 89 116
75 93 119
75 93 120
73 90 116
77 95 122
73 90 116
69 86 110
74 91 115
73 91 118
75 92 118
77 94 118
73 91 117
74 92 118
69 86 111
75 91 117
73 90 116
73 90 115
73 89 114
71 88 113
75 92 118
76 93 119
75 92 119
73 90 115
74 92 118
75 92 118
74 91 118
70 87 111
70 88 113
71 89 116
70 87 112
73 90 116
71 89 116
74 91 117
69 86 111
73 90 115
71 88 114
77 94 120
72 90 117
71 87 112
70 88 115
77 95 123
75 93 122
75 92 119
71 87 112
74 92 119
71 89 115
73 91 118
69 86 111
74 92 118
72 89 114
69 87 112
73 90 117
71 87 111
74 91 116
74 92 119
71 89 116
75 92 119
71 88 113
73 90 116
73 91 117
73 90 116
73 91 119
69 87 112
75 92 118
71 89 116
72 89 115
72 87 111
75 93 120
75 92 119
75 93 119
73 90 117
71 88 114
71 88 113
71 88 114
72 90 117
70 87 112
75 92 119
71 88 113
73 90 115
72 89 114
72 88 112
71 89 116
73 90 116
73 90 116
72 90 116
72 90 116
74 90 115
72 89 115
73 92 119
69 86 110
74 92 118
71 88 113
74 91 117
73 89 114
75 93 120
74 91 117
72 89 114
73 90 115
74 91 117
75 92 118
73 90 115
69 86 112
71 88 113
72 90 115
73 90 116
69 85 110
72 89 114
74 92 119
74 92 120
75 92 118
73 90 117
70 86 112
71 88 115
72 88 113
71 87 112
75 92 118
72 90 116
73 91 118
70 87 112
71 88 114
71 89 116
71 88 114
75 93 120
76 93 119
73 90 116
69 85 110
76 93 117
73 91 117
73 90 116
71 88 113
74 92 118
71 88 114
66 82 106
72 89 115
75 93 119
71 87 111
71 87 112
70 86 111
74 92 118
71 88 114
75 93 119
75 91 117
67 84 109
73 90 117
75 94 121
75 93 120
72 90 116
73 91 117
72 90 116
72 90 116
73 89 114
69 85 110
72 89 114
71 88 115
71 89 114
71 88 113
71 88 114
71 88 113
71 89 115
74 92 118
73 90 116
71 87 111
72 89 114
73 90 116
70 87 113
73 90 114
70 87 114
72 89 116
70 87 113
75 93 121
73 90 116
71 88 114
71 88 114
75 93 118
72 89 114
70 87 113
74 90 114
75 93 120
76 93 120
74 91 117
73 90 115
73 91 118
70 86 111
73 90 116
75 92 118
77 94 121
75 93 121
73 91 117
73 89 114
71 88 112
73 90 116
73 91 117
73 91 118
75 92 117
77 96 124
75 93 120
73 91 116
74 91 117
75 93 120
72 90 115
72 89 114
70 88 115
72 90 117
72 90 116
75 92 118
69 86 111
71 88 112
71 88 115
72 90 115
76 94 121
74 92 119
75 92 118
77 95 123
77 94 120
72 89 113
75 92 119
76 94 121
75 93 121
78 95 122
73 91 117
75 91 117
75 91 116
78 96 123
74 91 117
73 90 116
74 91 117
78 95 122
74 93 121
76 95 122
74 92 117
77 95 121
77 94 121
74 92 119
75 93 120
74 91 117
76 93 119
75 94 122
86 105 132
115 135 164
142 162 194
180 202 236
198 220 254
199 222 255
199 221 255
199 221 255
199 221 255
199 221 255
199 221 255
199 221 255
199 221 255
199 221 255
199 221 255
199 221 255
198 221 255
198 221 255
198 221 255
198 221 255
198 221 255
198 221 255
198 221 255
198 221 255
198 221 255
198 221 255
198 221 255
198 221 255
198 221 255
198 221 255
198 221 255
198 221 255
198 221 255
198 221 255
198 221 255
198 221 255
198 221 255
198 221 255
198 221 255
198 221 255
198 221 255
198 221 255
198 221 255
198 221 255
198 221 255
198 221 255
198 221 255
198 221 255
198 221 255
198 221 255
198 221 255
198 221 255
198 221 255
197 221 255
197 221 255
197 221 255
197 221 255
197 221 255
197 221 255
197 221 255
197 221 255
197 221 255
197 221 255
197 221 255
197 221 255
197 221 255
197 221 255
197 221 255
197 220 255
197 220 255
197 220 255
197 220 255
197 220 255
197 221 255
197 221 255
197 221 255
197 221 255
197 221 255
197 221 255
197 221 255
198 221 255
198 221 255
198 221 255
198 221 255
198 221 255
198 221 255
198 221 255
198 221 255
198 221 255
198 221 255
198 221 255
198 221 255
198 221 255
198 221 255
198 221 255
198 221 255
198 221 255
198 221 255
198 221 255
198 221 255
198 221 255
198 221 255
198 221 255
198 221 255
198 221 255
198 221 255
198 221 255
198 221 255
198 221 255
198 221 255
198 221 255
198 221 255
198 221 255
198 221 255
198 221 255
198 221 255
198 221 255
198 221 255
198 221 255
199 221 255
199 221 255
199 221 255
199 221 255
199 221 255
199 221 255
199 221 255
199 221 255
199 221 255
199 221 255
199 221 255
199 222 255
199 222 255
199 222 255
199 222 255
199 222 255
199 222 255
199 222 255
199 222 255
183 205 238
151 172 204
120 139 168
84 103 131
78 96 123
74 92 118
77 96 124
77 95 122
75 91 117
74 92 117
71 88 114
76 94 122
75 93 121
75 93 120
75 93 120
74 92 119
74 92 118
73 91 119
78 96 122
70 87 113
76 94 121
74 92 119
78 95 122
75 94 121
74 92 119
74 91 117
77 94 120
73 90 116
75 93 119
72 90 117
73 91 117
70 87 113
74 90 116
73 90 117
73 90 116
75 92 118
74 93 120
75 92 119
77 93 118
72 90 116
71 88 114
76 93 119
74 92 119
74 92 120
70 87 112
72 90 116
72 88 113
75 92 117
72 90 118
73 92 119
71 88 115
73 91 119
71 89 115
76 94 121
74 92 117
70 88 113
72 90 117
75 93 119
72 89 116
74 91 116
72 89 114
75 93 120
75 92 118
76 94 121
71 89 116
77 94 119
71 88 114
76 93 118
70 86 110
73 90 117
74 91 116
72 90 116
73 89 114
74 93 120
72 90 117
72 89 115
72 90 116
72 89 114
74 92 118
75 92 119
73 90 114
71 89 116
74 90 114
70 86 111
73 91 117
68 84 108
74 91 117
73 90 116
72 87 111
75 92 118
70 87 113
74 91 116
73 91 118
70 87 113
74 91 117
77 95 122
75 93 120
76 93 120
72 90 117
74 92 119
76 93 119
72 89 114
72 89 114
73 90 117
71 89 116
74 91 117
73 90 114
73 91 119
74 92 119
74 91 118
75 91 117
73 90 115
69 86 110
74 92 119
70 87 113
73 89 114
71 88 114
75 92 118
76 93 120
72 90 116
68 85 109
74 91 115
74 91 117
71 88 114
70 86 110
70 87 113
72 90 116
72 89 114
74 91 117
74 93 120
74 92 119
76 93 119
71 89 114
71 88 113
76 94 121
72 89 115
72 89 114
73 90 116
75 92 117
73 90 117
71 88 114
72 89 116
72 89 115
71 88 113
77 95 121
71 88 114
72 89 116
74 92 119
73 90 115
71 88 114
77 94 119
74 91 117
69 85 110
70 87 114
70 87 111
71 88 114
72 89 115
74 91 116
72 89 115
69 85 109
76 92 117
72 89 116
70 87 112
71 87 112
74 91 116
70 88 114
73 89 114
74 90 114
69 86 112
74 91 117
75 93 120
73 91 117
71 88 114
74 93 120
69 86 113
72 89 115
73 91 118
71 88 113
74 91 117
78 97 125
73 90 116
71 89 116
71 88 114
70 88 113
74 92 119
75 92 118
71 87 112
78 95 122
69 86 110
71 87 112
69 86 112
70 87 111
75 92 117
72 89 115
73 90 117
77 94 121
73 90 116
73 91 117
73 91 119
70 88 114
71 88 114
66 83 108
71 89 116
73 91 117
73 91 117
73 91 117
73 90 116
74 91 118
73 90 116
72 89 115
75 92 118
77 95 121
75 91 116
72 89 114
75 92 119
76 93 119
71 88 112
73 90 117
71 89 115
73 92 120
74 92 117
75 92 116
71 87 111
71 88 115
75 92 118
72 89 115
76 93 120
73 90 116
76 93 119
71 87 112
75 92 119
75 94 121
70 87 112
75 92 118
75 92 118
72 89 115
79 97 125
77 96 124
74 91 117
74 92 118
72 90 115
72 91 119
73 91 118
76 94 120
72 90 116
76 94 120
75 93 120
74 92 120
74 93 120
74 92 118
74 93 122
73 91 117
73 91 118
74 92 119
75 93 119
71 88 114
74 92 118
77 95 123
75 92 119
78 96 122
76 95 122
72 90 117
78 96 125
77 95 123
78 96 124
74 92 118
88 107 135
115 134 164
151 172 203
188 211 244
199 222 255
199 222 255
199 222 255
199 222 255
199 222 255
199 222 255
199 222 255
199 222 255
199 221 255
199 221 255
199 221 255
199 221 255
199 221 255
199 221 255
199 221 255
199 221 255
199 221 255
199 221 255
198 221 255
199 221 255
198 221 255
198 221 255
198 221 255
198 221 255
198 221 255
198 221 255
198 221 255
198 221 255
198 221 255
198 221 255
198 221 255
198 221 255
198 221 255
198 221 255
198 221 255
198 221 255
198 221 255
198 221 255
198 221 255
198 221 255
198 221 255
198 221 255
198 221 255
198 221 255
198 221 255
198 221 255
198 221 255
198 221 255
198 221 255
198 221 255
198 221 255
198 221 255
198 221 255
198 221 255
198 221 255
198 221 255
198 221 255
197 221 255
197 221 255
197 221 255
197 221 255
197 221 255
197 221 255
197 221 255
197 221 255
198 221 255
198 221 255
198 221 255
198 221 255
198 221 255
198 221 255
198 221 255
198 221 255
198 221 255
198 221 255
198 221 255
198 221 255
198 221 255
198 221 255
198 221 255
198 221 255
198 221 255
198 221 255
198 221 255
198 221 255
198 221 255
198 221 255
198 221 255
198 221 255
198 221 255
198 221 255
198 221 255
198 221 255
198 221 255
198 221 255
198 221 255
198 221 255
198 221 255
198 221 255
199 221 255
199 221 255
199 221 255
199 221 255
199 221 255
199 221 255
199 221 255
199 221 255
199 221 255
199 221 255
199 221 255
199 221 255
199 222 255
199 222 255
199 222 255
199 222 255
199 222 255
199 222 255
199 222 255
199 222 255
199 222 255
199 222 255
199 222 255
199 222 255
199 222 255
199 222 255
199 222 255
188 211 244
153 173 204
120 139 168
99 118 146
74 92 120
72 89 116
77 95 121
76 93 120
76 94 120
75 94 121
76 95 122
76 94 120
75 92 119
73 90 116
75 93 120
75 94 122
77 95 122
76 94 121
79 96 123
73 90 116
79 97 124
71 88 114
72 90 117
73 89 114
73 90 117
76 94 122
73 91 118
73 90 115
73 90 115
74 93 120
71 88 112
75 94 123
73 90 115
75 92 118
77 96 124
76 93 120
73 90 116
70 87 114
75 94 121
72 90 117
76 94 121
79 96 122
73 90 117
73 91 119
77 95 122
76 93 119
74 92 119
76 94 120
70 86 111
75 93 120
74 91 117
74 91 116
72 89 115
74 91 116
75 93 120
74 91 117
73 91 118
77 95 123
75 92 119
74 92 118
73 91 116
70 86 110
73 90 117
72 90 116
72 89 114
71 89 117
72 89 116
70 87 112
74 92 119
73 91 118
73 89 113
76 94 122
74 91 115
72 89 115
73 90 116
71 88 114
73 90 117
70 86 110
70 87 112
75 92 118
74 91 118
75 92 118
71 88 113
74 91 117
71 88 112
72 90 116
75 93 121
69 85 109
73 91 118
72 89 114
70 86 111
74 91 116
72 91 119
75 93 119
68 86 112
77 94 121
74 92 118
74 91 116
74 91 117
71 88 113
75 91 117
69 86 111
72 90 116
75 92 118
76 94 120
75 93 121
75 92 118
73 90 115
71 87 111
69 86 110
71 88 113
74 92 118
69 85 109
74 91 117
74 91 115
73 90 116
72 90 116
72 89 114
74 91 116
77 95 122
72 90 118
69 86 111
72 91 118
72 90 116
74 91 116
72 90 116
73 91 119
76 94 120
72 89 115
69 86 112
74 91 117
72 89 113
71 88 113
68 86 113
73 89 114
72 89 115
73 90 116
73 91 118
73 90 116
73 91 117
72 90 116
76 93 118
72 89 115
69 85 109
75 93 121
71 88 114
72 91 119
71 88 113
74 92 120
71 88 114
73 90 116
74 91 117
70 86 110
73 90 114
71 88 114
72 88 112
73 91 117
75 93 119
74 92 119
69 86 112
73 90 117
74 92 120
70 87 112
73 91 117
74 91 117
69 86 111
69 85 110
74 92 118
73 90 117
76 94 120
71 87 112
68 85 111
70 88 113
67 83 108
74 91 117
75 93 120
70 88 114
75 93 119
74 91 117
72 89 114
72 89 115
74 92 119
68 85 111
72 90 115
70 87 114
70 87 112
72 89 114
70 86 112
71 88 113
73 91 118
71 88 114
72 90 117
72 89 115
76 93 119
75 93 121
71 89 116
72 88 113
76 94 120
73 91 119
73 89 114
73 90 115
74 91 117
73 89 114
76 94 120
72 88 114
72 89 114
73 90 115
69 86 113
75 93 120
75 92 119
72 89 114
76 93 119
77 95 121
73 92 120
70 87 112
74 91 118
73 92 120
73 90 116
73 91 117
70 86 111
76 94 121
72 89 116
75 93 119
75 94 123
73 90 116
75 93 119
75 92 118
76 94 120
71 88 114
70 87 114
70 87 113
75 92 118
73 91 118
73 90 115
76 94 121
74 91 117
76 94 121
74 92 119
74 92 118
74 90 115
74 92 119
75 93 120
74 93 122
76 93 119
74 92 119
75 92 117
73 90 115
73 91 116
73 91 118
72 89 116
79 97 124
77 95 123
73 90 115
73 90 116
76 94 120
77 94 120
76 94 120
74 91 118
76 93 119
75 94 122
74 92 119
76 93 119
75 93 119
77 95 122
77 95 122
74 91 117
74 92 119
75 94 122
75 94 122
77 94 121
75 94 121
77 95 122
77 95 124
77 95 122
98 117 145
134 154 184
156 177 208
191 213 247
199 222 255
199 222 255
199 222 255
199 222 255
199 222 255
199 222 255
199 222 255
199 222 255
199 222 255
199 222 255
199 222 255
199 222 255
199 222 255
199 222 255
199 222 255
199 221 255
199 221 255
199 221 255
199 221 255
199 221 255
199 221 255
199 221 255
199 221 255
199 221 255
199 221 255
199 221 255
198 221 255
198 221 255
198 221 255
198 221 255
198 221 255
198 221 255
198 221 255
198 221 255
198 221 255
198 221 255
198 221 255
198 221 255
198 221 255
198 221 255
198 221 255
198 221 255
198 221 255
198 221 255
198 221 255
198 221 255
198 221 255
198 221 255
198 221 255
198 221 255
198 221 255
198 221 255
198 221 255
198 221 255
198 221 255
198 221 255
198 221 255
198 221 255
198 221 255
198 221 255
198 221 255
198 221 255
198 221 255
198 221 255
198 221 255
198 221 255
198 221 255
198 221 255
198 221 255
198 221 255
198 221 255
198 221 255
198 221 255
198 221 255
198 221 255
198 221 255
198 221 255
198 221 255
198 221 255
198 221 255
198 221 255
198 221 255
198 221 255
198 221 255
198 221 255
199 221 255
199 221 255
199 221 255
199 221 255
199 221 255
199 221 255
199 221 255
199 221 255
199 221 255
199 221 255
199 221 255
199 221 255
199 222 255
199 222 255
199 222 255
199 222 255
199 222 255
199 222 255
199 222 255
199 222 255
199 222 255
199 222 255
199 222 255
199 222 255
199 222 255
199 222 255
199 222 255
199 222 255
199 222 255
199 222 255
199 222 255
199 222 255
200 222 255
197 219 253
174 196 229
137 157 187
98 118 147
80 99 127
79 96 122
69 88 115
74 91 117
76 94 120
73 90 116
78 96 123
72 90 118
77 95 123
75 93 119
75 94 122
73 91 118
77 95 122
76 94 120
73 91 118
73 90 115
74 91 118
73 91 118
74 91 116
76 94 121
76 93 119
74 92 120
72 89 115
74 92 119
77 94 119
74 92 120
74 90 116
77 95 122
77 95 121
76 95 123
73 90 116
74 91 117
72 91 118
77 95 122
74 92 118
75 91 116
73 92 119
75 94 121
72 90 117
78 95 122
75 93 120
72 90 117
73 91 118
73 90 116
76 93 120
71 88 114
73 90 116
75 93 119
73 90 116
76 93 120
75 93 119
76 93 120
73 91 118
72 88 113
73 92 120
69 86 112
73 90 115
70 88 114
71 88 114
74 92 118
72 89 114
74 91 117
73 90 116
71 89 116
75 93 120
71 88 113
72 90 116
73 90 116
77 95 123
74 92 118
73 90 115
77 95 123
72 88 113
73 91 119
74 91 118
73 90 116
75 93 119
74 91 117
74 91 117
76 93 119
74 91 116
70 87 113
67 83 107
70 87 113
70 87 113
73 90 116
73 90 116
73 90 116
71 88 113
73 90 115
72 90 116
73 91 118
73 89 114
73 91 118
72 90 116
71 88 114
74 91 116
73 89 113
74 92 120
72 90 117
72 90 116
71 89 116
71 88 115
73 92 119
73 91 117
77 95 121
74 91 116
69 86 110
75 92 118
70 87 113
77 95 121
71 88 114
73 91 119
70 87 113
74 92 118
73 89 114
76 94 120
71 89 116
73 90 115
76 92 116
73 90 114
68 84 108
72 90 117
75 92 118
77 95 121
73 90 116
72 90 117
74 91 116
71 88 114
74 92 119
75 93 121
71 87 112
76 93 120
74 91 116
72 91 118
76 93 118
72 89 114
71 88 114
72 88 113
71 87 112
72 90 116
77 96 125
72 89 114
70 88 114
73 89 115
71 88 114
73 90 116
71 88 114
74 91 118
70 87 113
69 85 110
69 85 110
75 93 119
74 90 114
74 92 118
71 88 113
70 87 113
69 86 111
70 87 112
77 94 120
76 94 120
72 89 113
74 93 120
73 90 115
74 91 116
72 88 112
71 88 114
71 89 115
72 89 115
74 91 116
77 93 119
72 89 116
72 89 115
73 90 116
77 94 120
70 87 113
73 90 115
73 91 117
71 88 114
71 89 114
71 89 115
73 90 115
70 87 112
75 93 119
73 90 117
73 90 115
70 87 112
72 89 114
73 90 115
75 92 119
73 91 118
75 93 119
71 88 113
70 87 112
73 90 115
73 89 115
73 92 119
75 92 118
74 93 120
73 91 119
71 89 116
73 91 119
74 92 118
73 91 117
74 93 120
74 92 119
70 88 113
69 85 109
71 87 111
74 92 119
67 84 111
71 89 116
74 91 117
74 93 122
73 91 118
75 93 120
76 93 119
71 88 115
75 92 118
75 92 118
76 93 120
76 94 121
72 91 118
77 94 121
71 87 112
72 89 114
73 90 114
79 97 124
75 93 120
76 94 122
77 94 120
72 89 115
76 93 119
75 93 120
75 92 117
76 94 120
73 91 119
76 93 119
74 92 119
75 91 116
71 88 113
73 91 119
75 93 120
77 95 122
78 95 122
73 90 115
78 95 122
72 89 114
74 91 117
75 93 120
76 95 123
73 92 120
74 92 118
76 93 120
76 94 120
71 89 116
77 94 121
77 94 120
76 94 121
75 93 120
74 92 119
76 94 121
78 96 123
78 96 123
74 92 118
74 91 117
72 90 116
77 96 125
74 93 121
76 94 121
76 95 123
75 93 120
76 94 121
76 94 121
78 95 122
78 97 125
77 96 123
78 96 122
106 126 157
143 164 195
169 190 222
194 216 249
200 222 255
199 222 255
199 222 255
199 222 255
199 222 255
199 222 255
199 222 255
199 222 255
199 222 255
199 222 255
199 222 255
199 222 255
199 222 255
199 222 255
199 222 255
199 222 255
199 222 255
199 222 255
199 222 255
199 222 255
199 222 255
199 222 255
199 221 255
199 221 255
199 221 255
199 221 255
199 221 255
199 221 255
199 221 255
199 221 255
199 221 255
199 221 255
199 221 255
198 221 255
198 221 255
198 221 255
198 221 255
198 221 255
198 221 255
198 221 255
198 221 255
198 221 255
198 221 255
198 221 255
198 221 255
198 221 255
198 221 255
198 221 255
198 221 255
198 221 255
198 221 255
198 221 255
198 221 255
198 221 255
198 221 255
198 221 255
198 221 255
198 221 255
198 221 255
198 221 255
198 221 255
198 221 255
198 221 255
198 221 255
198 221 255
198 221 255
198 221 255
198 221 255
198 221 255
198 221 255
198 221 255
199 221 255
199 221 255
199 221 255
199 221 255
199 221 255
199 221 255
199 221 255
199 221 255
199 221 255
199 221 255
199 221 255
199 222 255
199 222 255
199 222 255
199 222 255
199 222 255
199 222 255
199 222 255
199 222 255
199 222 255
199 222 255
199 222 255
199 222 255
199 222 255
199 222 255
199 222 255
199 222 255
199 222 255
199 222 255
199 222 255
199 222 255
199 222 255
200 222 255
200 222 255
200 222 255
200 222 255
200 222 255
200 222 255
200 222 255
199 221 254
179 200 232
156 177 208
125 143 172
83 102 129
77 95 121
77 95 122
78 96 124
76 95 122
76 94 122
76 94 121
75 93 121
78 95 122
75 93 120
73 92 120
76 93 120
74 93 120
74 92 119
75 92 118
78 96 123
78 96 124
76 95 123
78 95 122
76 94 121
77 95 122
76 94 121
76 95 123
76 94 121
74 92 119
76 94 121
77 95 122
75 94 121
75 92 118
72 90 116
75 92 118
74 91 118
77 95 122
74 92 118
74 91 117
72 90 119
71 89 116
75 92 118
76 93 119
74 92 118
74 92 120
74 92 119
74 90 114
73 90 115
73 91 118
75 93 120
71 89 116
74 92 118
73 90 117
77 95 122
72 90 117
76 93 120
76 94 122
75 93 119
71 87 112
72 89 115
73 93 122
75 93 120
72 90 118
73 90 115
74 90 115
77 94 120
71 87 112
75 94 122
71 89 117
70 86 110
75 93 120
73 90 117
72 90 118
74 91 117
74 92 119
77 94 120
75 92 118
73 90 115
74 91 117
75 93 119
74 91 117
74 91 117
72 90 116
71 89 114
75 92 119
74 92 120
73 90 116
73 92 119
75 93 119
73 90 117
72 89 114
72 89 114
77 95 122
72 89 115
69 86 112
73 91 117
73 91 117
70 87 112
75 92 118
74 92 118
72 90 117
71 88 114
74 92 118
72 89 115
74 91 118
77 94 120
75 93 119
70 88 114
73 91 117
72 89 115
73 91 118
73 90 116
75 93 120
75 92 118
75 92 117
68 86 112
72 90 117
71 88 114
77 94 120
74 91 116
72 90 115
73 89 114
72 89 116
75 92 118
73 91 118
72 88 112
70 86 112
73 90 116
73 90 116
75 93 119
71 88 113
72 90 117
74 92 118
73 90 115
79 97 123
77 94 119
75 93 120
70 86 112
74 93 120
75 92 118
76 93 120
71 87 112
73 92 119
74 92 118
70 86 111
74 91 117
73 91 117
74 91 117
73 91 117
73 90 117
74 92 118
73 90 116
73 90 116
75 92 119
74 92 119
72 89 115
72 90 116
74 92 119
74 91 116
74 92 118
77 94 120
75 93 120
72 89 114
69 86 112
76 94 121
75 93 120
76 94 120
73 91 118
72 90 116
72 90 116
72 91 118
73 89 115
69 86 111
73 91 117
72 89 115
74 91 116
76 92 118
77 95 121
74 93 121
74 90 115
74 92 118
73 90 116
72 89 113
73 90 116
75 93 120
75 93 120
75 93 120
71 88 113
78 96 122
71 89 116
73 90 116
72 89 115
68 86 112
75 92 118
74 92 120
71 89 114
74 92 118
72 89 114
76 94 122
77 94 120
70 87 112
72 89 115
72 90 115
75 94 121
74 93 121
75 92 119
72 91 119
73 91 118
74 90 116
70 86 110
74 92 119
70 89 116
74 91 116
73 91 118
72 90 116
73 90 115
73 92 120
78 96 123
72 90 116
74 92 118
75 92 117
71 87 111
72 88 113
71 87 113
73 91 119
71 88 113
75 92 116
77 95 122
72 90 116
74 91 117
75 92 118
73 90 116
76 93 117
74 91 117
72 89 114
76 93 120
75 92 119
74 91 117
75 92 118
75 93 119
74 92 119
74 92 119
74 92 120
72 90 117
76 95 122
76 95 122
75 93 120
74 91 118
76 94 121
77 94 121
76 92 118
74 92 119
74 92 120
75 93 119
74 91 117
76 94 122
72 90 117
72 90 117
76 93 119
76 93 118
73 90 114
73 92 120
74 90 116
75 93 119
72 90 117
76 93 120
76 94 121
74 93 120
74 91 117
77 95 124
74 92 119
74 93 120
73 92 119
77 94 121
74 92 119
76 93 119
74 93 120
75 94 121
75 93 120
74 92 119
74 91 117
77 94 121
76 94 122
74 91 117
79 97 123
79 98 126
77 94 120
77 95 122
79 97 124
82 101 129
116 136 166
145 166 196
179 201 233
200 222 255
200 222 255
200 222 255
200 222 255
200 222 255
200 222 255
200 222 255
200 222 255
199 222 255
199 222 255
199 222 255
199 222 255
199 222 255
199 222 255
199 222 255
199 222 255
199 222 255
199 222 255
199 222 255
199 222 255
199 222 255
199 222 255
199 222 255
199 222 255
199 222 255
199 222 255
199 222 255
199 222 255
199 222 255
199 221 255
199 221 255
199 221 255
199 221 255
199 221 255
199 221 255
199 221 255
199 221 255
199 221 255
199 221 255
199 221 255
199 221 255
198 221 255
198 221 255
198 221 255
198 221 255
198 221 255
198 221 255
198 221 255
198 221 255
198 221 255
198 221 255
198 221 255
198 221 255
198 221 255
198 221 255
198 221 255
199 221 255
199 221 255
199 221 255
199 221 255
199 221 255
199 221 255
199 221 255
199 221 255
199 221 255
199 221 255
199 221 255
199 221 255
199 221 255
199 222 255
199 222 255
199 222 255
199 222 255
199 222 255
199 222 255
199 222 255
199 222 255
199 222 255
199 222 255
199 222 255
199 222 255
199 222 255
199 222 255
199 222 255
199 222 255
199 222 255
199 222 255
199 222 255
199 222 255
199 222 255
200 222 255
200 222 255
200 222 255
200 222 255
200 222 255
200 222 255
200 222 255
200 222 255
200 222 255
200 222 255
200 222 255
200 222 255
200 222 255
200 222 255
190 212 245
157 178 208
126 145 175
94 112 140
75 93 120
76 94 121
74 91 117
76 95 124
78 96 122
78 95 121
75 92 118
77 96 126
72 90 117
79 96 122
74 91 118
77 95 122
77 94 119
75 93 120
77 95 122
76 94 121
76 93 119
77 95 123
72 90 116
74 92 118
78 96 121
77 95 122
75 93 120
75 93 119
77 95 121
76 94 121
75 93 119
73 90 117
73 92 119
75 94 121
77 95 122
77 95 122
72 90 116
75 93 120
72 90 116
76 93 119
77 95 123
75 92 118
73 91 117
74 93 121
76 94 122
75 93 119
76 93 119
71 88 115
75 93 120
74 92 119
77 95 121
75 93 121
73 90 116
75 93 120
74 91 118
75 93 121
75 92 118
75 93 120
74 91 117
77 95 123
75 92 118
74 91 118
72 89 116
73 91 117
74 91 117
77 95 121
75 93 120
75 91 116
73 91 118
76 93 120
72 90 116
74 92 118
73 91 119
73 91 119
75 93 119
75 92 119
75 93 120
77 94 121
76 94 121
75 93 120
74 92 119
74 91 117
74 91 117
73 90 116
71 87 111
70 87 112
73 91 118
74 92 118
72 89 114
74 91 117
77 94 120
74 92 118
71 90 117
73 90 115
72 88 113
76 94 120
73 91 118
73 90 117
74 91 117
69 86 111
73 91 117
73 91 117
73 89 114
77 95 121
76 94 120
73 91 118
76 93 119
70 88 114
73 90 115
75 93 119
73 90 116
71 89 116
73 90 115
77 93 117
75 92 117
74 92 119
75 94 122
76 95 123
74 91 117
74 92 119
75 92 118
74 91 118
72 89 115
75 93 119
75 93 120
72 89 115
72 90 117
70 89 118
73 90 115
77 95 121
73 91 119
74 92 119
74 93 122
74 90 114
73 91 118
72 89 115
72 90 117
73 90 116
72 90 116
72 89 114
74 91 116
72 89 114
70 88 116
70 87 111
72 89 114
73 91 117
72 90 116
71 88 115
73 90 114
72 90 116
70 88 114
74 91 117
70 88 114
75 92 118
75 93 120
73 90 116
74 91 117
73 90 116
73 91 118
71 88 114
74 92 119
73 90 116
74 91 118
74 91 118
74 91 116
72 89 115
75 93 120
71 89 115
70 87 112
73 90 116
75 93 120
75 92 117
75 93 120
72 89 114
75 92 119
71 88 114
70 87 114
75 92 119
74 91 116
73 90 115
75 92 118
70 88 114
76 94 121
73 91 119
74 90 115
71 89 116
72 90 116
77 94 120
74 92 119
77 96 125
74 91 118
74 92 118
70 86 112
73 90 115
73 91 117
69 85 110
75 92 118
76 93 118
69 86 112
76 93 120
72 90 116
76 94 121
70 87 112
76 93 118
71 88 113
73 90 117
74 92 119
76 95 124
72 90 115
75 92 117
76 94 122
75 94 122
75 93 120
74 93 121
73 90 116
76 93 119
71 88 113
74 92 119
75 93 119
75 93 122
71 87 112
70 88 115
74 92 119
74 92 119
75 93 120
72 90 117
70 87 113
74 93 121
73 91 117
73 91 118
75 92 119
72 90 118
74 92 119
71 88 115
71 88 113
73 91 117
71 89 117
75 91 116
75 92 118
76 93 119
74 90 115
73 90 117
73 91 117
74 91 118
71 90 117
77 95 121
74 91 117
74 91 117
75 92 119
75 93 119
77 95 124
75 93 120
73 89 113
72 90 118
74 93 120
74 91 117
78 96 122
75 92 118
75 93 120
74 92 120
74 92 119
75 92 119
70 87 113
75 92 118
74 91 118
72 90 117
76 95 122
78 96 124
75 93 121
76 94 121
77 95 121
77 96 124
74 92 119
75 91 116
76 94 122
75 93 120
75 93 121
75 93 120
77 95 122
77 95 121
75 93 120
73 91 117
76 95 122
79 97 125
75 94 122
77 95 123
77 95 123
77 94 119
73 92 119
77 94 120
74 93 120
74 93 121
76 95 122
76 95 124
79 97 124
73 90 116
93 112 141
127 147 178
154 175 206
197 220 253
200 222 255
200 222 255
200 222 255
200 222 255
200 222 255
200 222 255
200 222 255
200 222 255
200 222 255
200 222 255
200 222 255
200 222 255
200 222 255
199 222 255
199 222 255
199 222 255
199 222 255
199 222 255
199 222 255
199 222 255
199 222 255
199 222 255
199 222 255
199 222 255
199 222 255
199 222 255
199 222 255
199 222 255
199 222 255
199 222 255
199 222 255
199 222 255
199 222 255
199 222 255
199 222 255
199 222 255
199 221 255
199 221 255
199 221 255
199 221 255
199 221 255
199 221 255
199 221 255
199 221 255
199 221 255
199 221 255
199 221 255
198 221 255
198 221 255
198 221 255
199 221 255
199 221 255
199 221 255
199 221 255
199 222 255
199 222 255
199 222 255
199 222 255
199 222 255
199 222 255
199 222 255
199 222 255
199 222 255
199 222 255
199 222 255
199 222 255
199 222 255
199 222 255
199 222 255
199 222 255
199 222 255
199 222 255
199 222 255
199 222 255
199 222 255
199 222 255
199 222 255
200 222 255
200 222 255
200 222 255
200 222 255
200 222 255
200 222 255
200 222 255
200 222 255
200 222 255
200 222 255
200 222 255
200 222 255
200 222 255
200 222 255
200 222 255
200 222 255
200 222 255
200 222 255
200 222 255
200 222 255
179 200 233
150 170 200
112 131 160
84 102 128
78 97 125
76 93 120
78 96 124
76 94 120
73 92 120
77 96 123
77 95 122
77 96 123
77 95 122
77 95 122
75 94 123
72 90 116
76 95 122
77 94 121
77 95 122
74 92 117
74 92 119
74 91 116
74 91 117
75 93 121
76 93 118
75 93 120
75 93 119
73 90 117
72 89 115
77 94 120
74 92 120
76 95 123
80 98 126
75 92 119
75 93 120
75 93 119
74 92 120
75 92 117
77 95 121
74 92 118
75 93 119
78 96 123
77 96 123
77 94 119
78 95 121
74 92 119
72 89 116
76 93 118
74 92 119
79 96 121
76 94 120
73 91 118
73 90 115
76 93 120
77 95 122
75 93 120
72 89 115
75 92 117
73 91 118
73 91 118
74 92 119
73 92 119
77 95 123
76 94 120
73 90 115
71 88 114
71 88 113
75 93 121
75 93 120
75 93 119
73 91 117
72 90 116
76 94 122
72 89 116
76 94 121
79 97 124
74 92 118
73 89 114
77 95 122
73 92 119
73 90 116
75 93 119
71 88 113
72 91 118
76 95 122
74 91 116
77 95 122
74 91 118
76 94 120
76 93 119
72 89 116
71 87 111
71 88 113
75 93 119
79 96 121
78 96 123
74 92 118
73 90 116
72 89 114
74 91 117
73 91 118
72 88 113
73 90 115
76 93 120
73 91 117
72 90 115
75 92 118
73 91 118
73 90 114
74 92 118
72 89 115
75 93 120
72 89 113
73 91 117
74 91 117
79 96 123
73 90 117
69 86 112
76 94 120
73 91 118
75 92 118
74 91 116
73 90 116
73 91 118
74 92 118
73 90 116
71 89 116
76 93 120
73 91 119
76 94 121
74 92 119
72 90 117
76 94 122
76 93 119
75 93 119
73 90 116
75 93 119
76 94 121
71 88 115
74 92 118
77 94 120
75 93 120
75 93 120
74 91 116
71 87 113
72 89 114
74 91 118
73 89 113
75 93 121
74 92 119
73 91 119
73 90 116
72 89 114
73 92 120
72 89 113
71 88 115
73 90 116
71 88 114
74 90 116
71 88 114
72 90 116
74 92 119
72 89 115
73 91 118
74 92 120
76 93 118
75 93 120
72 88 113
74 91 117
77 95 121
71 89 114
74 92 119
74 91 117
75 93 119
74 91 118
73 91 118
72 90 116
78 96 123
72 90 116
75 93 120
71 88 114
78 96 122
77 94 119
72 90 117
73 90 115
70 87 113
73 91 118
71 89 116
74 91 116
74 91 116
73 89 114
73 90 115
69 87 114
73 91 118
75 93 119
74 93 120
74 92 118
76 94 122
73 91 118
75 94 121
76 93 120
72 89 116
75 93 120
77 94 121
71 88 114
73 89 114
76 94 120
74 93 121
75 93 120
74 91 117
75 92 119
70 87 113
74 91 116
73 91 117
73 90 115
72 90 116
72 90 116
74 92 120
75 93 120
75 92 118
73 92 119
76 93 119
78 95 120
77 95 121
75 93 120
74 92 119
75 93 119
74 92 118
74 91 116
77 96 125
74 92 118
73 91 117
75 93 120
71 90 117
73 91 118
77 94 120
72 90 116
73 91 117
71 90 117
73 90 116
74 92 117
76 94 121
72 90 117
78 96 123
73 90 116
75 92 119
72 90 117
75 94 121
74 92 119
75 93 120
73 90 115
73 90 117
73 91 117
77 95 122
76 94 122
77 94 120
73 91 118
76 94 121
74 92 119
73 90 117
77 94 120
77 95 120
73 91 118
77 94 119
76 94 120
73 91 118
73 91 118
77 95 121
74 91 118
74 93 120
76 95 122
73 90 115
77 95 122
77 95 122
74 91 117
74 92 119
77 95 121
75 92 118
74 91 116
73 92 120
73 91 118
72 89 116
74 92 117
79 98 125
74 92 120
75 92 118
78 95 122
78 95 121
77 95 123
76 94 121
77 96 125
75 94 122
77 94 120
75 94 123
79 97 124
76 93 120
76 94 122
75 92 118
75 94 121
75 93 121
76 94 121
75 93 120
74 93 121
97 116 144
141 161 192
163 184 216
200 222 255
200 222 255
200 222 255
200 222 255
200 222 255
200 222 255
200 222 255
200 222 255
200 222 255
200 222 255
200 222 255
200 222 255
200 222 255
200 222 255
200 222 255
200 222 255
200 222 255
200 222 255
200 222 255
200 222 255
199 222 255
199 222 255
199 222 255
199 222 255
199 222 255
199 222 255
199 222 255
199 222 255
199 222 255
199 222 255
199 222 255
199 222 255
199 222 255
199 222 255
199 222 255
199 222 255
199 222 255
199 222 255
199 222 255
199 222 255
199 222 255
199 222 255
199 222 255
199 221 255
199 221 255
199 221 255
199 221 255
199 222 255
199 222 255
199 222 255
199 222 255
199 222 255
199 222 255
199 222 255
199 222 255
199 222 255
199 222 255
199 222 255
199 222 255
199 222 255
199 222 255
199 222 255
199 222 255
199 222 255
199 222 255
200 222 255
200 222 255
200 222 255
200 222 255
200 222 255
200 222 255
200 222 255
200 222 255
200 222 255
200 222 255
200 222 255
200 222 255
200 222 255
200 222 255
200 222 255
200 222 255
200 222 255
200 222 255
200 222 255
200 222 255
200 222 255
200 222 255
200 222 255
200 222 255
200 222 255
185 206 239
150 170 200
114 133 161
87 105 132
78 96 124
79 97 124
76 95 124
76 95 122
76 95 123
76 95 124
76 95 123
76 96 125
76 94 121
77 96 124
77 94 120
77 96 125
74 93 120
76 94 122
75 93 121
74 92 119
75 92 118
72 90 118
75 94 121
75 93 120
77 95 123
74 93 120
76 94 122
77 96 123
75 93 120
73 89 114
75 93 119
69 86 112
79 97 123
79 97 123
75 93 121
74 91 118
75 92 117
75 93 119
71 88 114
74 92 121
76 93 119
76 94 121
75 94 121
77 95 122
77 95 121
77 95 121
75 92 118
75 92 119
75 93 120
72 90 116
72 90 117
77 96 123
76 93 118
73 91 117
73 90 117
77 94 121
77 94 120
71 88 114
76 93 120
76 94 121
75 92 117
76 93 118
74 92 118
75 93 119
71 88 115
76 94 122
73 90 115
76 94 120
74 92 118
74 92 118
75 94 122
76 93 119
75 92 117
75 91 117
75 91 116
73 92 120
74 92 120
76 94 122
75 92 118
74 91 117
73 90 116
77 95 121
75 93 119
72 89 115
75 92 119
71 87 112
70 88 114
73 90 116
74 92 119
75 93 119
74 91 116
76 93 120
75 92 119
77 96 125
77 93 119
73 91 118
72 89 115
76 94 120
75 92 119
77 94 120
76 94 121
77 95 122
73 91 117
74 91 117
76 93 118
76 94 121
71 88 114
73 91 117
74 91 118
71 88 114
75 92 117
75 93 119
73 90 117
75 92 117
72 89 115
75 93 120
74 92 119
73 89 114
75 92 119
72 89 114
74 92 120
74 91 116
72 91 119
77 95 121
75 93 119
72 89 114
76 92 117
72 89 115
75 93 120
72 89 116
74 91 117
69 87 113
78 96 122
77 95 122
75 93 119
73 91 117
73 91 118
72 91 119
74 91 117
75 93 120
72 89 115
73 90 117
75 93 120
76 93 118
73 90 116
76 94 120
71 87 111
76 94 122
73 89 114
73 92 120
71 89 115
77 93 119
74 92 117
71 87 111
74 91 118
75 94 122
71 88 113
76 95 122
73 91 117
74 91 117
76 94 120
73 90 115
77 95 122
76 94 121
74 91 117
71 88 114
73 90 116
70 87 114
72 90 116
73 90 115
71 87 112
74 91 117
75 93 119
73 91 118
74 90 115
74 91 117
74 91 117
72 90 117
74 92 119
72 89 115
76 94 121
72 89 115
73 91 118
73 90 116
75 93 121
74 92 119
75 93 119
75 92 118
76 94 122
73 90 117
75 93 119
73 91 117
73 90 116
73 92 119
77 95 121
73 91 119
75 92 117
75 93 119
75 92 117
75 93 120
75 94 122
73 92 119
78 95 121
71 88 114
74 92 119
73 89 115
72 88 113
71 88 115
74 90 115
74 92 120
71 88 113
75 93 120
76 93 120
74 92 118
74 91 117
74 91 117
73 89 115
78 96 124
73 91 117
75 93 120
75 92 119
74 91 116
76 94 121
76 93 120
71 88 114
75 92 117
75 92 119
73 92 119
74 92 118
75 92 118
74 91 117
72 90 118
77 95 121
77 94 120
73 91 117
71 88 114
73 91 119
75 93 120
77 95 123
73 91 118
72 90 117
76 93 118
73 90 117
73 91 119
73 90 116
75 93 121
72 90 116
77 96 124
72 89 114
72 91 118
76 93 119
74 92 120
77 95 123
74 92 120
75 93 121
75 93 120
76 93 118
74 92 118
76 94 120
74 92 118
75 93 120
76 94 121
79 96 123
71 89 114
73 90 115
77 94 120
75 93 120
74 92 120
78 95 122
77 95 121
75 93 120
74 93 120
75 93 120
74 92 118
78 96 122
75 92 117
76 94 121
73 91 118
77 95 122
75 93 120
78 96 123
77 94 120
75 93 120
73 91 119
76 93 120
75 93 120
77 95 122
78 97 125
74 91 117
76 94 121
75 93 119
72 89 116
76 94 120
76 94 122
74 92 120
75 93 120
76 94 122
74 93 122
75 93 120
75 92 119
77 95 122
77 95 121
78 95 121
75 93 120
77 96 123
73 91 117
77 96 125
78 97 124
78 96 122
77 96 124
89 107 135
111 129 157
152 173 204
193 215 248
200 222 255
200 222 255
200 222 255
200 222 255
200 222 255
200 222 255
200 222 255
200 222 255
200 222 255
200 222 255
200 222 255
200 222 255
200 222 255
200 222 255
200 222 255
200 222 255
200 222 255
200 222 255
200 222 255
200 222 255
200 222 255
200 222 255
200 222 255
200 222 255
200 222 255
199 222 255
199 222 255
199 222 255
199 222 255
199 222 255
199 222 255
199 222 255
199 222 255
199 222 255
199 222 255
199 222 255
199 222 255
199 222 255
199 222 255
199 222 255
199 222 255
199 222 255
199 222 255
199 222 255
199 222 255
199 222 255
199 222 255
199 222 255
199 222 255
199 222 255
199 222 255
200 222 255
200 222 255
200 222 255
200 222 255
200 222 255
200 222 255
200 222 255
200 222 255
200 222 255
200 222 255
200 222 255
200 222 255
200 222 255
200 222 255
200 222 255
200 222 255
200 222 255
200 222 255
200 222 255
200 222 255
200 222 255
200 222 255
200 222 255
200 222 255
200 222 255
200 222 255
200 222 255
200 222 255
200 222 255
200 222 255
201 223 255
201 223 255
168 189 220
137 157 187
106 126 156
79 97 124
75 94 121
78 95 122
77 96 124
76 94 122
78 96 123
78 96 124
78 96 124
78 96 123
78 97 126
78 96 124
77 94 121
77 95 122
74 91 116
76 95 122
78 96 124
76 93 118
79 96 123
75 93 120
77 96 124
76 94 120
77 95 123
76 94 120
76 94 120
73 91 119
79 97 124
78 96 122
75 93 120
73 89 114
78 95 121
75 93 120
75 93 120
73 90 117
76 93 119
75 93 120
74 92 120
74 91 117
77 96 124
76 94 122
73 91 118
75 93 120
76 93 119
75 93 120
76 94 120
76 94 121
72 90 117
76 93 119
77 96 124
75 93 119
71 88 115
75 94 122
77 96 124
73 91 116
76 94 121
74 92 118
75 93 121
71 87 112
74 92 119
73 91 118
74 92 119
77 95 121
76 94 121
75 94 122
74 92 120
75 93 120
77 94 120
77 95 122
74 92 118
73 90 115
75 93 120
77 96 124
73 91 118
74 90 115
76 94 121
76 94 122
74 91 116
73 90 116
76 94 121
74 91 118
76 94 120
74 92 119
70 87 113
70 88 114
73 90 117
74 93 120
75 93 120
73 91 118
75 93 121
74 92 119
74 90 115
75 93 120
77 95 121
72 89 115
76 93 119
75 93 119
75 93 119
71 89 116
72 89 115
73 90 116
75 92 119
73 91 117
74 91 117
75 93 119
71 89 114
73 90 114
71 89 116
73 92 120
74 91 117
76 94 121
72 89 114
71 89 115
73 91 117
71 89 117
74 92 120
72 89 114
75 92 119
73 91 118
77 94 121
72 90 117
75 93 119
78 96 123
73 90 116
75 93 119
75 93 120
75 93 119
77 94 119
79 96 122
76 93 119
73 90 115
76 94 121
74 92 119
76 95 122
73 90 116
74 92 117
77 95 120
75 93 121
74 92 119
69 86 112
75 92 119
72 89 116
76 94 120
74 91 116
75 93 120
74 92 120
73 90 117
73 90 116
73 91 117
72 89 114
73 92 119
75 93 121
76 93 120
73 91 118
77 95 121
73 90 116
73 91 118
70 87 112
76 94 120
75 91 116
71 88 113
75 92 118
71 89 115
76 94 120
71 89 115
70 87 113
71 87 112
75 93 121
73 91 117
73 90 116
73 91 118
73 92 119
73 90 115
77 95 122
73 90 116
72 90 117
73 91 118
72 90 117
75 93 119
75 92 117
75 93 119
77 95 121
75 93 120
74 91 117
76 94 120
73 90 117
70 87 112
75 93 119
74 92 119
72 90 117
73 91 118
75 92 118
74 92 118
76 94 120
76 94 121
77 94 120
77 94 121
73 90 115
73 91 117
73 91 118
75 93 120
76 95 123
76 93 118
75 92 117
73 90 115
73 91 118
74 92 118
73 90 115
74 91 117
75 92 119
71 88 113
74 92 119
73 90 116
74 92 118
74 92 119
74 91 116
72 90 116
77 95 123
74 92 119
75 93 120
76 94 121
72 89 115
73 90 116
72 89 116
76 94 120
74 90 114
73 90 117
73 91 117
73 90 116
70 86 112
73 91 118
73 90 116
73 91 119
72 89 115
75 92 117
72 89 114
73 91 117
75 93 119
76 94 121
76 93 119
74 91 118
75 93 119
73 90 116
72 90 116
75 93 119
73 90 117
78 96 123
71 89 115
75 92 118
75 93 120
74 91 117
76 94 121
75 93 120
73 92 119
79 96 122
73 91 117
76 94 121
77 95 121
76 94 120
73 91 117
75 93 119
74 91 118
74 91 117
75 94 122
76 95 124
76 93 119
73 91 118
75 94 121
73 91 119
78 97 124
76 93 120
75 92 119
76 94 120
75 93 120
74 92 120
75 92 118
77 95 121
75 94 121
74 92 118
76 93 119
75 92 117
75 93 119
75 92 118
74 91 117
77 94 120
76 95 122
74 92 120
76 93 119
73 92 120
75 95 123
75 92 118
79 97 126
76 94 121
75 93 120
77 95 122
77 94 120
77 96 124
75 93 120
75 93 121
77 94 120
74 91 115
78 96 123
75 93 121
77 94 121
76 96 124
77 95 121
76 94 122
74 93 121
77 95 123
79 96 123
76 95 123
80 98 126
76 94 120
75 93 121
76 95 123
79 97 124
99 118 146
139 159 190
174 196 228
197 219 252
201 223 255
200 222 255
200 222 255
200 222 255
200 222 255
200 222 255
200 222 255
200 222 255
200 222 255
200 222 255
200 222 255
200 222 255
200 222 255
200 222 255
200 222 255
200 222 255
200 222 255
200 222 255
200 222 255
200 222 255
200 222 255
200 222 255
200 222 255
200 222 255
200 222 255
200 222 255
200 222 255
200 222 255
200 222 255
200 222 255
200 222 255
199 222 255
199 222 255
199 222 255
199 222 255
199 222 255
199 222 255
199 222 255
199 222 255
200 222 255
200 222 255
200 222 255
200 222 255
200 222 255
200 222 255
200 222 255
200 222 255
200 222 255
200 222 255
200 222 255
200 222 255
200 222 255
200 222 255
200 222 255
200 222 255
200 222 255
200 222 255
200 222 255
200 222 255
200 222 255
200 222 255
200 222 255
200 222 255
200 222 255
200 222 255
200 222 255
200 222 255
200 222 255
201 223 255
201 223 255
201 223 255
201 223 255
201 223 255
201 223 255
201 223 255
180 201 233
146 167 198
116 135 165
85 104 133
78 96 124
76 94 121
80 98 125
78 97 125
78 96 123
79 97 124
76 93 119
77 96 124
78 96 124
78 96 123
76 93 120
75 92 118
77 95 121
75 92 119
79 97 124
76 94 122
76 93 119
76 94 120
79 97 123
76 95 122
74 92 118
79 97 123
75 94 122
75 93 121
74 93 120
72 90 116
79 96 122
74 93 121
73 91 118
76 95 123
74 93 121
79 97 123
74 93 120
75 92 119
77 95 121
76 94 122
76 94 121
76 94 121
72 90 116
76 93 119
77 94 121
75 93 121
73 90 116
75 93 121
75 93 120
78 96 122
74 93 121
74 91 118
77 95 122
74 92 120
81 99 125
74 93 122
77 95 122
74 91 117
77 95 122
75 92 118
71 89 117
77 95 123
74 91 118
77 95 123
75 92 118
79 98 125
76 94 122
78 97 125
77 95 122
73 91 118
75 94 121
74 92 119
75 93 120
75 93 120
75 94 123
76 95 123
70 88 114
73 91 117
72 90 118
77 95 121
75 93 119
78 96 122
75 92 118
75 92 116
74 92 119
71 89 116
74 92 119
78 96 123
75 93 119
75 93 120
72 88 113
73 91 117
75 93 120
76 94 121
74 91 117
76 93 119
75 92 118
75 93 119
73 91 118
77 94 120
75 93 120
76 93 119
77 94 121
75 92 117
73 91 119
74 93 121
74 91 117
71 87 112
74 92 119
71 89 116
74 91 117
73 90 115
74 91 118
75 93 120
72 89 114
74 91 118
74 92 118
73 90 116
72 90 117
74 91 118
74 92 120
71 88 113
74 91 117
75 92 119
70 88 116
74 91 116
73 90 116
75 93 121
74 92 119
77 95 122
73 90 117
75 93 118
74 92 120
74 92 121
73 90 116
75 94 122
76 93 119
74 91 117
73 89 114
77 95 122
73 91 117
74 91 116
75 93 120
76 94 120
72 89 116
74 91 117
72 90 116
75 93 120
74 93 120
76 93 120
77 94 121
74 92 118
75 91 117
71 88 114
75 92 117
75 93 119
75 93 119
76 94 121
78 96 124
75 92 119
71 86 110
71 88 115
75 93 120
76 94 121
73 90 116
75 93 119
74 91 118
74 91 116
74 91 116
74 93 121
73 91 118
74 92 119
73 90 115
73 91 116
75 92 117
72 89 115
77 96 125
77 95 122
74 91 117
75 91 117
73 90 116
74 91 116
74 92 118
75 93 120
72 90 116
74 91 115
75 93 120
74 92 119
74 92 119
75 93 119
74 91 117
75 92 117
74 92 119
72 90 116
73 91 118
77 94 120
73 91 117
76 93 120
73 90 117
73 89 114
72 90 117
72 90 115
75 93 121
76 94 120
74 92 119
73 90 116
72 90 116
71 89 116
73 91 116
73 92 119
74 93 120
77 94 119
74 91 118
73 91 117
73 90 116
71 89 116
73 91 118
73 90 117
75 94 121
73 90 117
73 90 116
75 93 119
70 88 114
75 93 120
72 89 114
75 92 119
73 90 115
77 95 122
77 94 120
75 93 119
72 90 117
76 93 120
76 94 122
76 94 121
71 89 116
74 90 116
75 93 120
77 96 124
75 93 119
74 92 120
72 89 115
76 93 118
78 96 123
75 92 118
76 95 122
77 95 122
77 95 123
72 89 115
75 92 118
75 93 120
75 93 120
75 93 120
73 90 117
73 91 117
72 90 117
76 95 122
76 94 120
70 88 114
74 91 117
74 91 116
77 95 122
76 93 119
74 92 119
76 94 121
78 96 124
73 92 119
77 96 124
77 95 123
76 95 123
76 94 121
74 92 118
74 92 119
74 92 119
73 91 117
76 94 123
74 92 119
77 97 126
77 95 123
73 91 117
74 92 118
76 95 122
76 95 122
77 95 122
72 89 115
76 95 122
74 91 118
74 91 117
77 95 123
73 91 119
78 96 122
77 95 123
77 95 122
75 92 118
76 94 122
75 92 117
79 97 123
77 96 123
76 94 120
75 93 120
77 96 123
76 94 120
78 97 125
74 93 121
73 91 119
76 95 124
78 96 123
70 88 114
74 92 119
76 94 121
77 96 123
74 91 117
76 94 121
78 95 122
76 94 122
76 94 122
77 96 124
76 95 123
77 94 120
75 93 121
75 93 120
75 94 121
77 95 122
76 94 120
76 94 120
82 100 126
122 142 172
144 165 196
184 206 238
201 223 255
201 223 255
201 223 255
201 223 255
201 223 255
201 223 255
200 222 255
200 222 255
200 222 255
200 222 255
200 222 255
200 222 255
200 222 255
200 222 255
200 222 255
200 222 255
200 222 255
200 222 255
200 222 255
200 222 255
200 222 255
200 222 255
200 222 255
200 222 255
200 222 255
200 222 255
200 222 255
200 222 255
200 222 255
200 222 255
200 222 255
200 222 255
200 222 255
200 222 255
200 222 255
200 222 255
200 222 255
200 222 255
200 222 255
200 222 255
200 222 255
200 222 255
200 222 255
200 222 255
200 222 255
200 222 255
200 222 255
200 222 255
200 222 255
200 222 255
200 222 255
200 222 255
200 222 255
200 222 255
200 222 255
200 222 255
200 222 255
201 223 255
201 223 255
201 223 255
201 223 255
201 223 255
201 223 255
201 223 255
201 223 255
201 223 255
201 223 255
201 223 255
196 218 250
173 193 224
127 146 176
91 109 137
78 96 123
74 92 120
77 95 122
76 95 123
77 95 122
75 93 120
77 96 124
78 96 124
77 95 122
78 96 124
75 93 119
78 96 123
75 93 120
77 96 123
77 95 120
77 96 123
75 94 122
77 95 122
78 95 121
76 93 119
74 94 122
76 94 121
77 95 120
79 96 121
77 94 120
79 97 124
74 92 119
73 92 120
72 90 117
76 94 121
76 94 121
78 96 123
76 94 122
76 95 122
78 95 122
77 95 122
78 97 124
77 96 124
77 95 122
74 91 117
78 96 123
75 94 123
76 94 121
76 94 120
76 94 122
76 95 122
78 96 123
75 94 122
79 98 125
77 95 123
73 91 119
74 91 117
75 94 122
77 95 122
75 93 120
75 93 120
75 93 119
74 92 118
78 96 124
75 93 120
76 93 118
77 95 122
76 94 120
74 91 117
80 98 126
76 95 122
75 92 118
72 89 114
75 93 120
73 92 119
75 93 119
75 93 120
72 89 115
74 91 118
77 95 123
74 91 117
73 91 117
76 94 121
77 93 118
69 86 111
75 94 122
73 90 116
74 92 120
74 92 118
73 92 120
73 90 117
72 90 118
73 92 120
73 91 117
74 92 120
77 96 124
76 94 121
74 93 121
74 91 117
77 95 122
74 91 117
74 92 119
78 95 121
72 90 117
75 93 120
78 96 122
75 93 119
74 91 118
76 94 121
76 93 119
74 92 119
75 93 119
77 95 121
75 93 120
74 91 117
71 88 114
73 90 116
72 89 114
74 92 117
72 90 116
76 93 119
75 93 120
77 94 120
71 89 114
74 91 117
74 92 118
71 88 113
73 90 117
73 90 116
74 91 118
75 92 117
70 87 111
77 96 124
72 89 113
75 93 120
74 91 117
74 92 120
71 89 115
76 94 121
76 94 122
76 93 119
75 93 119
73 92 119
75 94 122
72 89 115
77 95 122
77 94 121
74 92 117
72 89 116
73 91 118
73 91 117
72 90 117
77 95 121
73 91 117
74 91 117
74 90 115
74 92 118
73 91 118
75 92 119
71 88 113
75 94 121
76 94 122
76 94 121
76 94 122
75 92 119
76 94 120
73 91 117
74 91 117
74 92 119
76 93 119
69 86 111
75 92 118
74 92 119
75 93 119
75 93 120
74 92 120
74 91 116
76 94 122
77 94 120
77 95 121
73 90 116
75 93 121
71 89 115
75 93 119
74 91 117
71 88 113
76 95 122
76 94 121
75 93 120
75 93 122
74 92 120
73 91 118
74 93 121
76 93 119
73 91 117
78 96 122
76 95 123
73 90 116
76 94 120
77 95 122
75 93 120
74 92 118
75 92 118
71 89 117
76 93 120
78 96 122
73 91 117
72 89 114
76 93 120
73 89 114
72 89 116
76 94 120
74 92 119
72 90 118
74 92 118
72 89 115
70 88 114
76 93 119
76 94 120
76 93 120
75 93 120
70 88 114
75 92 118
75 93 119
74 91 118
74 92 119
77 95 122
73 90 117
75 94 122
74 93 120
71 88 114
74 92 118
75 94 121
75 94 122
72 89 116
78 96 123
75 93 121
73 91 117
75 92 118
75 92 116
73 91 117
75 94 122
76 93 119
74 92 118
72 89 115
75 94 121
72 90 116
74 92 121
75 93 121
76 92 118
75 92 119
75 93 120
75 92 119
75 93 120
75 94 122
75 93 119
75 93 120
75 92 118
72 89 113
74 92 119
76 95 123
72 89 115
77 96 123
74 92 119
76 94 121
71 88 114
72 89 115
74 93 121
75 93 120
71 88 115
77 96 124
77 94 121
77 95 122
75 93 120
76 93 119
75 93 120
78 96 121
73 91 119
75 93 120
77 94 121
74 91 116
77 95 122
75 93 121
76 94 120
74 91 117
78 95 121
76 93 118
76 94 121
75 93 120
77 95 121
73 91 118
76 94 121
74 93 120
73 91 117
75 93 121
75 93 121
78 95 120
75 93 120
76 93 120
77 95 122
76 93 120
74 92 119
73 92 119
76 93 119
75 93 119
76 94 120
79 97 125
77 95 121
75 92 119
76 94 121
75 93 120
77 95 122
77 95 123
75 93 120
77 94 121
77 95 122
79 97 125
76 94 122
76 94 122
76 94 121
76 93 120
77 96 125
76 95 123
76 95 122
78 96 122
76 95 122
77 96 123
78 96 123
79 97 124
78 97 124
80 97 123
77 95 122
78 96 122
99 117 145
130 150 179
164 185 216
198 220 253
201 223 255
201 223 255
201 223 255
201 223 255
201 223 255
201 223 255
201 223 255
201 223 255
201 223 255
201 223 255
201 223 255
200 222 255
200 222 255
200 222 255
200 222 255
200 222 255
200 222 255
200 222 255
200 222 255
200 222 255
200 222 255
200 222 255
200 222 255
200 222 255
200 222 255
200 222 255
200 222 255
200 222 255
200 222 255
200 222 255
200 222 255
200 222 255
200 222 255
200 222 255
200 222 255
200 222 255
200 222 255
200 222 255
200 222 255
200 222 255
200 222 255
200 222 255
200 222 255
200 222 255
200 222 255
201 223 255
201 223 255
201 223 255
201 223 255
201 223 255
201 223 255
201 223 255
201 223 255
201 223 255
201 223 255
201 223 255
201 223 255
201 223 255
201 223 255
201 223 255
201 223 255
186 208 240
148 168 199
128 148 177
91 109 137
79 98 125
77 95 123
78 96 124
76 94 122
76 94 121
76 94 121
77 95 123
78 96 123
75 94 122
78 96 124
78 95 122
77 95 123
76 94 121
78 96 123
77 96 124
76 95 122
81 99 125
75 93 122
74 93 122
77 96 125
73 91 117
77 95 122
74 92 120
77 93 118
78 96 125
77 95 122
78 96 123
76 93 120
78 97 125
76 95 122
74 92 119
75 92 118
75 93 119
75 92 119
77 94 120
77 95 122
80 98 125
77 95 122
74 92 119
76 94 121
77 95 123
75 93 119
77 95 122
78 96 123
76 95 123
74 91 116
78 95 121
75 94 122
74 92 118
78 96 124
75 94 121
77 96 125
75 93 121
75 93 120
77 96 123
73 92 120
76 95 123
77 95 121
74 92 118
72 90 117
73 90 116
74 92 120
74 92 118
73 90 116
75 93 119
75 93 119
75 93 120
74 93 121
75 92 117
73 90 117
73 91 119
75 93 119
75 92 118
75 92 117
78 95 122
74 93 122
71 88 114
77 94 119
73 92 120
74 92 119
78 95 121
75 93 119
79 97 124
76 94 120
77 94 120
72 90 116
76 95 122
77 94 120
76 93 118
73 90 116
75 93 121
74 92 118
78 96 123
75 92 118
76 93 118
72 90 118
73 92 119
73 90 116
77 96 124
72 89 115
74 92 119
74 91 117
73 91 118
74 92 118
74 92 119
71 89 117
77 94 120
73 91 118
73 92 119
76 93 119
74 92 118
74 92 117
77 95 123
75 92 118
73 92 119
74 92 119
76 94 121
75 92 119
75 93 121
76 92 117
76 94 121
73 92 119
75 93 120
75 93 119
77 95 122
73 92 121
75 92 118
72 89 113
73 90 117
74 93 121
76 94 121
73 90 117
76 94 122
74 91 116
75 92 118
75 93 119
77 95 123
75 93 120
75 93 120
75 94 122
75 92 118
70 87 113
74 92 120
74 91 118
76 94 122
75 93 120
69 87 114
75 93 119
73 90 117
75 92 119
72 89 114
72 90 117
72 90 117
73 91 118
76 93 120
74 92 119
77 95 121
70 88 115
79 96 122
72 89 114
74 93 121
74 91 116
73 91 117
76 94 120
76 93 118
75 93 120
74 91 118
76 94 121
72 90 116
72 90 118
75 93 120
76 95 123
75 93 119
73 90 116
74 91 116
74 91 117
75 93 120
74 92 118
72 90 116
71 89 115
73 91 117
75 92 118
77 94 120
75 93 119
76 95 122
77 96 124
76 94 121
73 91 117
74 91 118
73 91 117
75 93 120
80 97 123
76 94 120
75 93 119
72 90 117
74 92 118
74 92 118
72 90 116
77 94 119
72 90 118
75 92 118
76 94 121
72 91 119
74 92 119
76 94 120
73 91 118
73 91 118
75 94 122
74 91 118
70 87 112
73 91 118
74 91 118
74 91 118
73 91 117
71 88 115
78 96 122
72 90 116
75 93 120
74 91 117
75 92 117
72 89 116
76 94 121
75 94 121
73 91 118
76 94 120
74 92 118
77 95 121
75 94 123
77 94 119
75 93 120
75 93 120
72 90 115
74 91 116
71 89 117
74 92 119
72 90 116
74 92 119
75 92 117
73 92 119
74 92 117
73 92 120
76 93 119
76 95 123
75 93 120
75 93 119
73 91 118
75 92 117
76 94 121
74 92 119
76 94 120
73 91 117
74 91 116
76 95 124
76 94 121
74 92 119
73 89 114
77 93 118
78 96 123
74 93 120
74 92 118
74 92 118
75 92 119
76 93 119
75 93 120
78 96 123
74 93 120
78 95 122
72 89 115
75 94 123
74 92 118
77 95 122
76 94 121
76 93 119
75 92 119
74 92 120
74 90 115
71 90 117
75 92 119
76 94 121
77 94 121
72 90 116
76 95 122
74 93 121
76 94 121
76 95 123
77 96 124
77 95 122
78 97 125
76 94 123
79 96 123
76 93 120
80 98 124
76 94 121
76 94 121
75 93 120
76 93 119
74 92 119
75 93 119
77 95 122
74 93 120
75 93 120
78 96 122
72 90 117
77 94 120
79 97 123
77 95 122
78 96 124
78 95 122
76 94 121
78 97 124
78 97 125
77 95 122
77 94 120
76 94 121
76 94 122
77 94 120
74 92 119
77 95 122
75 93 121
78 96 123
76 95 123
76 95 123
75 94 121
77 95 122
78 95 122
75 92 119
76 95 123
75 93 120
73 91 118
76 93 118
75 93 120
81 99 126
77 96 123
78 96 123
82 101 128
129 149 178
156 177 208
185 206 238
201 223 255
201 223 255
201 223 255
201 223 255
201 223 255
201 223 255
201 223 255
201 223 255
201 223 255
201 223 255
201 223 255
201 223 255
201 223 255
201 223 255
201 223 255
201 223 255
200 222 255
200 222 255
200 222 255
200 222 255
200 222 255
200 222 255
200 222 255
200 222 255
200 222 255
200 222 255
200 222 255
200 222 255
200 222 255
200 222 255
200 222 255
200 222 255
200 222 255
200 222 255
201 223 255
201 223 255
201 223 255
201 223 255
201 223 255
201 223 255
201 223 255
201 223 255
201 223 255
201 223 255
201 223 255
201 223 255
201 223 255
201 223 255
201 223 255
201 223 255
201 223 255
201 223 255
201 223 255
201 223 255
198 219 252
169 189 220
135 154 184
99 119 148
80 98 127
75 94 122
77 96 124
81 98 124
77 96 123
73 91 119
79 97 124
74 92 118
74 93 122
80 99 127
77 95 123
74 94 123
76 95 124
77 94 121
76 94 122
75 92 118
74 92 118
76 94 120
76 94 123
76 94 121
77 95 121
77 95 122
73 91 119
78 95 122
78 96 124
77 95 122
78 96 123
72 90 116
75 93 120
75 92 117
75 92 118
76 94 120
77 95 122
75 93 120
77 95 122
75 92 119
76 95 122
77 95 122
79 97 124
77 94 119
75 93 120
76 95 122
76 94 121
77 95 122
76 94 120
75 92 119
78 96 123
79 96 122
74 93 121
76 93 120
72 91 118
77 95 121
77 94 120
75 93 120
75 93 119
78 96 123
75 93 120
75 92 119
76 93 120
77 95 123
76 93 119
74 93 120
74 92 119
73 91 118
74 93 122
76 94 122
77 95 121
75 94 123
74 93 121
73 91 116
72 90 117
77 95 123
75 94 122
76 93 120
77 96 123
74 92 119
76 95 122
71 89 115
76 93 119
74 91 116
75 93 120
75 93 119
74 92 119
75 93 119
75 92 118
75 93 119
79 97 124
75 92 117
73 91 118
72 89 114
74 92 119
75 92 119
78 95 121
76 94 120
79 97 125
74 92 120
76 94 120
75 92 118
76 93 119
76 94 122
73 92 120
75 93 119
75 92 117
73 92 120
77 94 120
74 91 117
72 89 115
76 94 122
74 91 117
75 93 120
77 95 121
75 92 118
75 92 119
75 93 121
75 93 119
75 92 119
74 92 119
74 92 119
74 92 119
73 91 117
75 93 119
76 92 118
76 94 121
74 93 120
74 92 118
75 92 118
74 92 119
72 88 113
73 91 118
75 93 121
77 96 123
76 93 120
78 96 123
75 92 117
73 92 119
76 95 122
73 91 118
74 92 118
75 92 119
75 92 117
72 90 116
76 94 121
74 93 121
74 91 116
72 90 116
73 91 118
74 92 118
78 96 124
76 94 122
73 90 116
77 95 122
76 93 120
74 91 117
73 90 116
73 91 118
76 93 119
76 94 121
73 90 115
74 93 120
79 97 124
74 92 119
73 91 119
71 88 114
74 91 117
75 92 118
76 95 122
76 94 121
76 94 121
71 89 116
73 92 120
75 93 119
76 95 122
76 94 122
74 91 117
73 91 117
75 93 120
72 89 115
72 89 113
75 93 120
78 95 120
72 90 117
74 91 116
75 93 120
73 90 115
71 89 115
77 95 121
74 92 119
76 93 118
77 94 121
74 91 118
78 95 121
75 92 117
73 90 117
75 93 120
75 94 122
74 91 117
75 93 121
74 93 121
73 91 117
74 91 116
76 95 123
71 88 112
76 92 117
75 93 120
75 92 118
76 93 120
73 90 116
71 88 114
76 94 122
76 92 117
73 90 116
76 94 120
76 93 119
72 90 117
75 94 122
73 90 117
76 93 119
77 94 121
72 90 116
71 89 116
72 91 118
73 91 118
74 91 118
74 93 121
78 96 123
74 92 118
75 93 119
76 94 122
74 93 120
79 96 122
74 92 118
73 91 119
73 90 116
79 97 125
73 91 119
76 93 119
74 91 118
75 92 118
76 94 121
76 94 120
75 92 118
77 94 120
74 92 120
76 95 122
74 92 118
73 90 115
75 92 119
69 87 115
75 93 120
74 91 118
76 93 120
75 93 120
73 90 117
77 95 122
73 90 116
74 92 119
74 91 117
76 94 122
77 95 122
75 92 118
76 93 118
77 95 121
76 94 121
72 90 117
76 93 118
75 92 119
76 95 124
75 94 121
76 94 119
75 92 117
75 93 121
75 93 120
76 94 121
75 93 120
76 94 120
78 97 124
73 91 117
76 93 120
77 96 123
75 93 120
77 95 123
76 93 120
77 95 122
76 94 120
80 97 124
73 90 115
77 94 121
76 94 121
74 93 120
78 96 124
77 94 120
77 94 120
74 92 119
78 96 123
74 92 118
72 90 115
75 94 122
76 94 120
78 96 123
76 93 119
76 94 121
76 94 121
76 93 120
77 95 123
79 96 123
79 97 125
76 94 121
76 93 119
76 94 120
72 90 117
75 93 120
75 92 118
73 91 118
76 94 122
76 94 121
76 93 120
77 95 121
78 96 123
78 95 122
72 90 117
75 93 119
77 94 120
78 96 124
79 96 122
76 95 123
74 93 121
79 97 124
80 98 126
78 96 123
77 94 121
77 96 124
76 94 122
78 96 122
74 92 118
76 95 122
79 97 123
80 98 126
76 94 121
77 95 122
73 93 122
78 97 125
75 94 122
93 112 141
144 164 193
168 189 220
199 221 253
201 223 255
201 223 255
201 223 255
201 223 255
201 223 255
201 223 255
201 223 255
201 223 255
201 223 255
201 223 255
201 223 255
201 223 255
201 223 255
201 223 255
201 223 255
201 223 255
201 223 255
201 223 255
201 223 255
201 223 255
201 223 255
200 222 255
200 222 255
200 222 255
200 222 255
201 223 255
201 223 255
201 223 255
201 223 255
201 223 255
201 223 255
201 223 255
201 223 255
201 223 255
201 223 255
201 223 255
201 223 255
201 223 255
201 223 255
201 223 255
201 223 255
201 223 255
201 223 255
201 223 255
201 223 255
201 223 255
201 223 255
188 209 241
164 185 216
113 132 160
80 98 124
78 96 124
78 97 125
77 96 125
80 98 125
76 95 124
80 98 124
79 97 124
80 97 124
76 94 121
78 96 124
76 94 121
77 95 122
76 95 122
75 93 120
76 95 123
75 93 120
77 95 122
79 96 121
74 92 118
76 93 118
76 94 121
75 93 120
78 97 125
76 95 122
76 94 121
74 92 119
77 95 121
78 96 123
76 94 121
76 94 120
76 95 124
76 94 122
73 92 119
75 94 121
74 91 116
80 98 124
72 91 119
78 96 124
78 96 122
74 92 118
76 94 121
73 91 118
74 91 118
78 96 124
74 92 120
73 91 118
76 94 120
76 93 119
72 90 116
78 96 124
76 93 120
75 92 117
77 96 123
72 90 117
74 92 118
73 90 116
75 94 121
75 92 118
76 94 121
76 93 119
76 94 121
73 92 120
74 92 118
75 93 120
76 95 123
73 90 116
74 91 117
77 95 122
77 94 121
75 93 120
78 95 121
76 93 119
76 95 122
73 89 114
77 95 123
76 93 118
77 94 119
79 98 126
73 91 117
77 95 122
74 92 119
72 90 116
74 93 120
74 91 117
75 93 120
78 96 125
73 90 115
70 88 114
74 92 119
74 92 119
75 94 122
78 95 121
75 92 118
77 94 120
74 92 119
76 94 121
77 95 122
77 95 122
76 93 120
76 93 120
76 94 121
75 93 120
75 92 119
74 92 119
77 94 120
75 92 117
77 93 118
75 92 118
75 93 119
74 92 120
79 96 122
73 90 115
75 93 120
75 93 120
76 94 122
73 91 119
75 92 119
73 91 118
76 94 120
75 93 120
78 96 123
75 93 120
76 93 120
75 92 118
74 93 120
75 94 121
76 94 121
77 94 121
76 94 120
76 93 118
78 94 119
76 93 119
75 92 118
76 93 119
73 91 119
76 93 119
74 91 118
76 93 120
74 92 119
76 94 121
75 92 118
72 90 117
77 95 121
72 90 116
73 90 116
74 91 118
74 92 119
75 93 120
76 95 122
74 92 119
74 91 117
73 91 118
72 90 116
74 92 120
75 93 120
76 94 122
73 91 118
72 89 114
75 92 118
71 88 113
76 94 122
72 90 117
75 92 118
74 91 117
73 90 116
74 93 120
77 96 123
76 94 121
75 93 120
79 97 125
75 92 118
72 90 117
75 92 118
73 90 114
77 95 123
73 90 115
75 94 121
76 94 122
72 91 118
76 94 120
74 92 118
75 93 120
72 90 116
76 93 118
75 94 122
76 94 121
73 90 117
78 96 123
76 95 122
74 92 118
75 93 120
76 94 121
73 90 116
74 91 116
74 91 116
76 94 120
76 94 121
72 89 115
77 95 122
74 92 119
76 94 122
73 92 120
75 93 121
74 92 120
76 93 118
74 92 119
72 90 116
75 93 120
75 93 120
74 92 118
75 93 120
74 92 119
74 93 121
74 92 119
80 97 124
75 92 119
75 93 122
75 92 118
75 93 121
70 88 114
74 93 121
75 93 120
74 91 116
75 93 120
76 94 120
74 93 121
73 90 117
76 94 121
75 94 122
77 96 123
75 92 118
73 90 116
75 93 120
79 97 125
73 90 117
76 94 120
75 94 121
76 94 122
77 95 122
76 94 121
73 91 117
77 95 122
76 95 124
71 87 112
73 90 116
73 90 115
74 92 120
77 95 122
76 94 121
77 95 123
73 91 118
74 92 118
75 93 120
75 93 120
74 92 118
75 93 119
77 94 118
76 94 122
74 92 118
74 93 120
76 94 120
74 93 120
76 94 122
77 95 122
78 96 123
74 90 114
73 90 115
75 93 120
74 93 121
72 91 119
77 96 124
75 93 119
75 94 121
75 94 121
77 95 122
75 94 122
74 93 120
75 93 120
75 93 121
75 93 120
75 94 122
75 93 121
76 93 119
76 95 122
78 96 123
75 93 120
74 93 121
75 93 121
76 94 121
71 89 115
74 91 116
78 95 122
75 92 118
76 95 122
77 94 120
76 94 121
75 92 118
74 92 118
74 92 119
74 92 119
73 91 118
76 94 121
75 93 120
77 95 122
77 95 122
76 93 120
77 96 123
77 95 122
76 94 120
77 94 120
76 94 122
73 92 119
77 94 119
72 91 118
73 90 116
73 91 117
75 92 119
74 91 117
78 96 123
75 93 119
76 93 120
77 95 122
75 94 122
73 91 119
76 95 122
75 93 121
74 90 115
75 93 121
78 96 124
76 93 119
79 97 124
75 93 120
75 93 120
77 96 125
77 95 123
76 94 122
75 92 118
77 95 121
76 94 120
79 97 124
79 97 124
77 95 122
77 95 120
77 95 121
76 95 123
76 93 120
77 96 124
78 96 122
92 111 139
115 133 162
152 173 204
189 210 243
201 223 255
201 223 255
201 223 255
201 223 255
201 223 255
201 223 255
201 223 255
201 223 255
201 223 255
201 223 255
201 223 255
201 223 255
201 223 255
201 223 255
201 223 255
201 223 255
201 223 255
201 223 255
201 223 255
201 223 255
201 223 255
201 223 255
201 223 255
201 223 255
201 223 255
201 223 255
201 223 255
201 223 255
201 223 255
201 223 255
201 223 255
201 223 255
201 223 255
201 223 255
201 223 255
201 223 255
201 223 255
201 223 255
201 223 255
202 223 255
200 222 254
174 195 226
138 158 188
112 131 159
77 95 122
77 95 122
74 93 120
77 96 126
79 97 123
77 95 122
75 93 120
75 93 122
77 95 122
76 94 122
76 94 123
77 95 121
77 96 124
76 95 122
78 96 124
75 93 120
79 97 125
79 98 126
77 94 120
76 94 121
78 97 124
78 96 123
75 94 121
72 90 118
76 95 123
77 95 122
75 93 121
77 96 123
76 95 123
77 96 123
79 97 125
78 97 124
76 94 121
72 91 119
79 97 125
75 93 120
75 93 119
76 94 121
77 95 123
75 93 119
77 95 122
72 90 117
76 94 121
77 96 124
77 95 122
75 92 119
77 96 123
76 94 122
76 93 119
72 90 116
73 92 120
77 95 123
76 95 123
76 95 123
78 96 123
79 96 123
78 95 121
75 94 122
77 95 121
76 93 120
76 94 120
74 92 119
76 95 122
76 94 120
75 92 119
72 90 116
73 91 118
76 94 120
75 93 120
79 97 126
74 92 119
77 94 121
75 93 119
74 92 119
73 92 120
73 91 118
74 92 118
73 90 116
76 93 120
76 95 123
75 93 120
71 89 115
76 94 121
75 93 120
77 94 120
75 93 120
76 95 123
74 92 119
77 96 124
72 90 117
76 94 122
75 92 117
76 93 120
73 90 115
75 92 118
75 93 120
74 92 119
75 92 118
77 95 122
74 91 115
72 90 117
77 94 121
75 93 120
75 93 120
75 93 121
76 94 120
74 91 116
74 91 118
73 90 116
73 91 117
74 92 118
74 92 119
76 94 121
76 94 120
73 92 119
75 93 120
77 95 121
75 93 120
76 93 120
76 95 123
73 91 118
78 95 122
74 92 118
74 92 120
78 96 124
75 93 119
76 94 120
76 94 122
73 91 119
76 95 123
75 93 119
75 92 117
74 92 119
74 91 117
73 90 116
72 90 116
75 93 121
74 92 118
74 92 119
76 93 120
73 90 115
76 94 121
77 95 121
73 91 117
76 94 121
79 98 127
75 93 119
79 97 124
74 92 119
71 88 115
73 90 115
75 92 117
71 88 114
75 93 120
79 96 123
77 94 121
77 95 123
71 90 117
73 90 115
74 92 118
73 91 119
78 96 124
76 94 120
73 92 120
74 92 119
73 89 114
76 94 121
76 94 121
77 95 123
72 89 114
73 91 119
74 92 119
74 91 118
75 93 120
74 93 120
76 94 121
74 91 118
74 91 116
77 95 122
74 91 118
77 95 120
76 93 120
78 97 124
78 95 121
71 89 117
72 90 116
76 94 121
75 94 121
76 94 120
75 93 120
74 92 118
71 89 117
74 91 117
75 91 116
75 93 120
73 91 119
75 94 121
76 94 121
77 95 121
75 92 117
74 93 121
77 94 119
77 95 122
74 91 117
74 91 116
76 94 120
75 92 119
77 95 121
73 91 119
75 93 120
74 91 116
74 92 119
74 92 119
77 95 121
74 91 117
76 93 120
75 94 122
74 91 118
76 94 123
72 89 116
74 92 119
75 92 119
76 94 121
74 91 116
74 92 118
74 92 119
72 89 115
73 90 117
75 92 118
76 94 120
73 91 116
70 87 112
75 92 119
75 93 120
76 95 123
73 91 116
73 90 114
77 93 119
76 94 120
75 93 121
74 92 119
75 93 120
75 92 119
75 93 120
76 93 119
77 97 125
78 97 126
74 92 118
77 96 124
78 95 121
78 95 122
75 93 120
75 93 120
69 87 114
73 90 116
75 92 116
73 90 116
73 90 117
75 93 120
71 88 114
76 95 122
72 89 114
74 92 119
73 90 116
76 94 121
74 93 121
76 94 121
74 92 118
76 94 121
74 92 118
76 93 120
77 95 122
76 94 120
75 93 120
77 95 122
74 91 117
72 90 117
74 92 119
76 94 120
79 97 124
75 93 120
77 95 122
75 92 117
75 94 121
74 92 120
76 94 122
73 91 117
79 97 123
76 94 122
76 93 119
76 94 122
76 95 122
74 92 118
73 91 119
75 92 119
77 95 123
74 92 120
76 94 121
75 92 118
75 93 120
79 96 123
74 92 117
76 94 121
73 91 118
72 91 120
77 95 123
78 96 122
78 95 122
77 94 120
76 94 120
77 94 120
75 92 118
78 96 123
75 94 121
77 94 120
77 95 121
76 94 121
76 94 121
75 94 122
78 95 121
75 95 125
79 96 123
80 98 124
76 95 123
76 94 121
75 94 122
76 94 121
73 90 116
78 95 120
78 96 123
80 99 127
77 95 123
77 96 123
77 95 122
72 89 115
77 95 123
75 93 120
74 91 118
77 94 120
76 94 122
78 97 125
78 96 123
76 94 122
77 94 120
76 93 120
80 97 123
78 95 121
77 95 123
75 92 118
79 98 126
79 97 124
78 96 124
78 96 123
78 95 121
77 95 122
80 99 128
112 130 158
134 154 184
174 195 227
200 222 254
202 223 255
201 223 255
201 223 255
201 223 255
201 223 255
201 223 255
201 223 255
201 223 255
201 223 255
201 223 255
201 223 255
201 223 255
201 223 255
201 223 255
201 223 255
201 223 255
201 223 255
201 223 255
201 223 255
201 223 255
201 223 255
201 223 255
201 223 255
201 223 255
201 223 255
201 223 255
201 223 255
202 223 255
202 223 255
202 223 255
202 223 255
202 223 255
202 223 255
196 217 249
167 188 219
134 154 184
90 107 134
79 97 125
77 95 122
79 97 124
76 95 123
76 94 121
77 95 123
78 95 120
76 94 122
75 93 120
77 94 120
78 97 125
77 94 120
79 97 124
75 93 120
76 95 122
76 94 121
78 96 124
75 93 119
79 97 125
76 93 120
77 95 123
74 92 118
76 95 123
76 94 121
79 97 124
76 95 123
78 97 125
78 95 121
76 94 122
75 94 122
75 93 120
77 95 122
76 94 120
76 94 122
77 96 123
75 93 120
76 93 120
77 96 124
77 96 124
75 92 118
76 94 121
76 94 122
76 93 120
77 94 121
73 90 117
76 95 122
74 91 118
74 92 120
78 95 120
77 95 122
80 97 124
72 90 118
77 96 123
73 91 119
75 93 121
79 97 124
76 94 121
79 96 123
74 92 119
76 93 119
76 93 120
76 95 123
76 93 120
77 95 123
72 90 116
73 92 120
75 92 118
77 95 122
76 94 120
79 97 124
75 93 120
75 93 120
74 93 120
74 91 117
78 96 124
76 95 124
75 92 118
74 92 120
75 93 121
77 94 121
75 93 120
77 95 122
75 93 119
79 97 123
75 92 118
74 91 116
78 96 123
74 92 119
74 92 120
75 94 121
74 92 120
74 91 115
74 92 119
75 93 120
73 90 116
75 93 121
75 94 121
73 92 120
75 92 119
76 94 122
73 91 118
76 94 120
74 91 117
78 96 124
75 93 120
74 92 120
76 94 120
75 93 120
74 91 117
75 94 121
76 94 121
75 93 120
76 94 122
73 91 118
77 95 121
76 94 121
76 93 119
73 92 120
77 94 120
76 95 123
74 92 120
78 96 124
73 90 116
76 93 118
74 93 120
75 94 121
76 95 123
74 91 118
77 96 124
76 94 121
78 95 122
73 91 116
75 93 118
75 93 121
78 95 121
70 88 114
77 94 120
72 90 117
73 89 114
72 90 116
79 97 124
74 92 120
74 93 121
75 93 121
77 96 124
75 93 120
70 88 114
70 88 115
76 94 121
73 90 116
78 96 124
74 92 119
74 92 119
74 91 117
75 92 117
75 93 119
79 97 123
75 92 118
75 93 119
75 92 116
74 92 119
74 92 117
77 95 123
73 90 116
78 95 121
77 95 122
76 94 121
75 94 122
74 93 120
72 88 113
74 92 119
77 95 121
73 90 116
77 95 122
75 93 121
76 94 122
76 93 119
75 93 120
75 93 120
75 93 120
76 93 119
76 93 119
77 95 121
77 95 122
72 90 117
71 87 111
72 89 114
78 96 122
78 96 123
72 90 116
76 94 120
73 91 118
75 92 118
75 92 119
73 91 117
77 96 124
75 93 120
75 93 121
74 92 119
74 91 118
75 94 121
73 91 117
71 89 114
74 91 117
74 92 118
77 94 120
73 90 117
75 92 119
72 89 115
74 92 119
77 95 121
74 92 119
76 95 122
75 92 117
75 93 120
75 93 120
74 92 118
74 91 116
75 93 122
74 92 119
74 92 118
73 90 116
76 94 120
76 93 118
77 94 121
69 86 111
74 92 120
77 95 123
73 92 120
77 95 122
75 92 118
73 90 117
74 92 119
78 96 121
76 94 120
76 93 120
77 95 122
76 94 120
76 95 122
76 93 119
74 91 117
76 93 119
72 89 116
77 95 122
79 97 124
74 91 116
76 94 120
75 93 120
77 95 122
74 91 118
76 94 121
75 91 117
75 94 121
75 93 120
78 96 123
73 91 117
71 89 116
75 93 120
75 92 117
76 95 122
75 94 121
73 91 117
77 95 123
74 92 120
72 90 116
73 90 117
78 96 124
77 95 121
72 90 117
73 91 117
76 95 122
74 92 119
71 88 114
73 92 119
76 94 121
75 93 120
75 92 118
74 92 119
73 91 117
73 91 118
77 94 121
75 92 117
75 92 118
74 92 119
74 93 120
75 93 121
75 93 119
76 94 122
76 93 120
76 94 120
76 94 122
77 95 123
76 95 122
70 88 116
73 91 117
74 91 117
75 93 119
79 96 122
78 96 124
73 91 119
74 93 120
74 92 119
77 95 123
78 97 125
77 95 122
75 94 122
77 96 124
75 92 119
74 93 121
76 94 121
76 95 122
76 94 122
73 91 119
76 94 122
78 95 121
75 94 121
78 95 120
76 94 121
75 92 118
77 95 123
77 95 123
77 95 123
76 94 121
76 93 119
76 95 123
74 93 121
75 92 119
78 96 122
77 95 122
77 95 123
78 96 123
77 95 121
80 98 125
75 93 120
74 92 119
81 99 126
75 93 120
78 95 122
75 93 120
77 95 122
77 95 122
77 95 122
77 96 125
75 93 120
78 97 126
80 98 126
76 94 122
78 96 122
75 92 119
76 94 122
77 95 123
79 97 124
75 93 121
77 96 123
78 96 122
76 93 120
76 94 121
76 94 122
79 97 123
79 97 124
75 94 122
78 96 123
89 108 136
120 140 169
168 188 219
199 221 253
202 223 255
202 223 255
202 223 255
202 223 255
202 223 255
202 223 255
201 223 255
201 223 255
201 223 255
201 223 255
201 223 255
201 223 255
201 223 255
201 223 255
201 223 255
201 223 255
201 223 255
202 223 255
202 223 255
202 223 255
202 223 255
202 223 255
202 223 255
202 223 255
202 223 255
202 223 255
202 223 255
192 213 245
153 173 204
111 130 158
81 99 127
78 97 125
77 95 122
78 97 125
78 97 125
75 94 122
79 98 126
78 95 122
77 96 125
78 96 124
77 95 123
78 96 124
77 95 122
78 97 126
79 97 125
80 98 125
78 96 124
75 94 122
77 96 123
77 96 124
78 95 122
78 97 125
76 94 121
77 96 123
73 91 118
76 94 122
74 92 120
76 94 120
77 96 124
77 94 121
76 94 122
75 94 121
72 90 117
77 95 122
77 96 124
77 95 123
78 96 124
74 93 121
77 95 123
78 96 122
78 96 124
75 94 122
75 94 122
77 95 123
74 92 119
77 95 123
75 93 120
74 92 119
72 91 118
79 97 125
77 95 123
76 94 120
75 93 120
73 91 118
76 93 119
75 93 120
76 95 123
74 92 120
79 96 123
74 92 120
74 91 116
74 92 118
75 93 120
76 95 122
75 94 122
76 95 122
73 91 118
76 94 120
74 93 120
76 93 120
74 92 119
76 94 120
75 93 120
78 96 123
77 95 122
77 95 121
74 92 120
76 94 121
76 94 121
77 95 122
74 92 119
77 96 123
75 93 119
75 92 118
75 92 118
74 91 117
77 94 121
74 91 117
73 92 121
79 96 122
74 92 120
75 93 120
74 93 121
74 91 117
75 93 120
75 93 120
78 97 125
70 88 114
73 91 119
75 93 119
76 94 121
74 92 119
73 90 116
77 94 120
75 93 119
77 94 121
77 95 123
75 94 121
76 95 123
75 93 120
75 93 120
76 94 121
74 92 118
76 94 120
73 92 119
74 93 121
75 93 120
74 92 120
72 90 116
75 93 119
74 91 117
77 94 121
74 91 118
76 92 117
75 93 120
77 95 123
77 95 122
74 91 118
74 92 118
75 93 120
76 94 121
75 92 118
74 92 119
75 93 119
76 94 120
74 91 116
75 93 120
76 94 120
75 93 119
74 92 119
73 91 117
74 91 117
72 90 116
75 93 121
74 93 120
76 94 120
75 92 119
76 94 121
76 93 119
73 91 118
79 97 123
76 94 121
75 94 122
76 94 121
75 93 119
77 96 124
78 95 121
76 94 121
74 91 118
77 94 119
75 92 117
77 95 123
75 93 121
73 90 116
76 94 123
76 93 120
72 89 114
75 94 122
76 94 120
76 94 120
77 95 122
78 96 123
74 93 121
76 94 120
74 91 116
73 90 116
75 93 119
76 94 122
73 91 117
75 93 121
74 92 118
75 93 120
74 91 117
73 91 118
75 94 121
72 90 117
75 93 119
77 94 120
70 87 112
72 90 116
74 92 118
76 93 118
74 92 120
75 93 120
74 91 117
74 92 120
74 92 119
73 90 115
77 94 121
74 92 118
76 92 118
76 94 120
76 94 121
74 91 115
76 94 121
74 92 118
76 93 120
73 92 120
75 92 119
74 91 118
76 94 121
75 93 119
71 88 115
74 93 121
76 94 121
79 97 123
76 95 123
75 92 118
73 92 120
75 93 121
76 93 118
76 93 119
76 94 121
74 92 119
75 92 118
76 94 121
76 93 119
76 94 122
76 94 122
75 93 119
76 95 122
73 91 118
78 96 124
75 93 120
71 89 115
73 92 120
77 95 121
73 91 118
76 95 122
77 95 121
74 92 118
79 96 123
75 93 121
74 91 117
75 93 120
78 96 123
72 89 115
77 94 120
77 96 123
76 94 122
73 92 120
75 93 119
73 91 118
77 95 121
75 94 121
77 95 122
73 91 117
77 95 121
74 92 119
76 92 117
75 93 119
74 92 118
73 90 116
74 93 120
78 96 123
75 93 120
79 97 123
79 97 124
75 94 122
79 95 120
74 92 117
75 93 120
78 95 122
78 96 124
75 94 122
77 96 124
74 91 117
77 95 122
76 93 120
76 93 120
73 90 116
75 93 120
76 94 120
75 92 117
79 96 122
77 94 121
75 92 118
76 94 120
75 93 119
72 90 118
73 91 119
79 98 126
76 95 123
77 95 123
73 91 118
76 93 120
75 92 118
77 94 119
74 91 117
77 96 123
76 94 121
73 90 116
71 90 118
79 96 122
74 92 119
73 91 118
76 93 119
77 95 123
73 90 116
77 95 122
74 91 117
75 92 119
76 95 122
75 93 121
73 90 116
71 89 116
76 94 122
79 96 123
75 93 119
76 94 121
76 95 122
76 94 121
77 95 122
76 94 121
77 95 123
76 94 122
77 95 123
77 95 122
74 93 120
73 91 117
78 96 123
79 97 124
75 94 121
79 97 124
77 95 121
79 97 126
75 94 123
76 94 120
75 92 118
76 94 120
75 93 120
78 95 121
77 95 122
78 95 122
74 92 119
75 93 119
78 97 125
78 96 122
77 95 123
77 94 120
74 93 120
76 94 121
75 93 120
79 97 123
78 97 126
76 94 121
79 97 125
78 96 124
76 94 120
77 95 123
77 95 122
77 95 122
77 95 122
79 96 123
76 95 123
74 93 120
79 97 124
77 95 121
77 96 123
85 104 132
109 129 158
143 163 192
188 209 241
202 223 255
202 223 255
202 223 255
202 223 255
202 223 255
202 223 255
202 223 255
202 223 255
202 223 255
202 223 255
201 223 255
201 223 255
202 223 255
202 223 255
202 223 255
202 223 255
202 223 255
202 223 255
202 223 255
202 223 255
201 222 254
176 197 227
134 155 186
98 117 145
79 97 124
79 97 124
77 95 124
76 94 120
77 95 122
77 96 125
78 96 124
79 97 124
78 96 123
78 95 122
77 96 124
75 94 122
76 94 122
77 95 122
74 93 120
77 94 121
77 95 122
79 98 125
77 96 126
76 94 121
77 94 120
74 92 119
75 94 123
78 96 122
76 94 121
76 94 121
77 95 121
77 96 123
77 95 122
78 96 123
76 94 120
75 93 120
76 95 123
74 92 119
75 94 121
76 94 121
78 97 125
78 97 125
77 95 122
77 95 123
78 96 123
79 97 124
75 93 120
77 95 122
78 96 123
79 97 124
75 93 120
79 96 122
76 93 119
76 93 119
75 92 119
77 97 126
76 94 121
75 94 121
77 95 122
77 94 120
76 94 122
74 91 117
77 95 123
77 95 123
77 95 122
77 94 120
76 95 122
74 91 117
79 97 124
74 92 118
76 94 121
78 95 121
77 95 121
80 98 124
76 94 120
75 93 119
77 95 122
76 94 121
78 96 124
75 95 124
74 92 118
77 95 122
76 95 122
74 91 116
75 94 122
76 94 121
74 90 115
77 95 123
73 91 118
75 94 122
75 93 122
79 96 123
77 95 122
74 90 115
76 94 121
75 93 119
75 94 121
76 94 121
75 93 120
72 90 118
76 94 121
75 93 120
74 93 121
78 95 121
77 94 120
73 91 117
76 94 120
77 95 122
77 95 121
75 93 120
74 91 117
79 96 122
74 93 120
74 91 118
74 92 120
74 92 120
74 92 118
76 94 121
76 94 121
75 94 122
74 91 116
77 96 123
76 94 122
76 94 121
76 95 123
78 96 124
76 96 125
74 93 120
77 95 122
71 89 116
74 92 118
74 91 118
78 96 122
74 92 118
72 90 116
76 94 120
75 93 119
74 92 119
75 93 119
76 95 122
74 91 118
74 91 117
74 91 117
75 92 119
78 96 123
77 94 120
79 96 123
73 92 120
74 92 119
73 92 119
75 93 119
79 98 125
73 91 117
77 95 123
76 94 122
72 90 118
73 90 116
73 92 119
74 92 118
74 92 118
77 94 121
75 94 122
74 91 118
75 93 119
68 85 111
76 94 121
75 92 117
77 95 123
77 95 122
76 94 121
77 95 122
75 93 121
75 92 119
77 94 120
74 92 117
77 95 121
76 94 120
72 90 117
75 93 119
76 94 120
76 94 121
74 92 120
76 93 119
72 90 117
73 91 117
77 95 122
76 95 122
77 94 121
74 92 119
74 92 119
74 90 115
77 94 120
74 91 118
73 93 121
77 95 121
77 94 120
76 94 121
75 94 122
77 95 122
77 95 122
76 93 120
75 92 118
75 93 119
75 92 119
75 93 120
79 96 122
77 96 124
75 93 120
74 92 119
76 94 120
75 92 118
76 94 121
73 91 118
74 91 116
75 94 121
75 93 120
74 92 118
72 90 117
76 95 122
77 94 121
75 93 121
75 92 118
75 93 120
72 90 117
72 89 115
78 96 123
75 93 119
72 89 116
72 90 118
73 91 117
72 89 115
74 91 117
77 95 123
74 93 121
77 95 123
73 91 118
72 89 115
77 94 120
76 95 123
76 94 121
75 92 118
76 95 123
77 94 120
72 89 115
71 88 113
74 91 117
76 94 122
75 93 121
74 92 119
72 89 115
76 94 121
76 94 121
74 92 120
74 92 120
76 94 121
73 91 117
77 95 122
77 94 120
76 94 122
74 93 120
73 90 115
75 92 119
77 96 124
75 92 119
73 91 117
75 94 122
76 94 121
74 91 117
73 91 118
72 90 117
76 93 118
77 94 120
75 92 117
77 95 122
74 91 116
76 94 121
76 93 120
76 94 121
76 94 122
75 92 118
75 93 120
73 91 117
72 90 116
77 95 123
76 94 121
77 94 121
76 94 120
78 97 124
78 97 124
75 93 120
71 89 116
76 93 120
77 94 119
76 94 122
74 92 119
75 93 120
75 94 121
76 94 120
77 95 122
74 92 120
73 91 118
78 97 125
74 92 118
75 93 120
73 90 116
78 95 122
77 95 121
76 94 121
75 94 122
76 95 123
76 94 121
77 95 122
73 91 117
76 93 120
75 93 120
77 96 123
75 94 121
77 95 122
77 95 122
76 95 122
77 95 122
78 97 124
73 91 118
75 94 122
77 94 119
78 95 121
75 93 119
75 93 120
77 94 121
77 94 120
77 95 123
79 97 125
74 91 118
78 97 126
77 95 122
74 92 120
74 93 120
76 94 121
77 95 122
76 94 121
78 97 124
75 94 121
77 95 121
74 93 120
79 97 125
76 95 123
74 92 118
77 95 121
80 97 123
77 95 122
77 95 121
75 93 120
75 93 120
79 98 125
79 97 123
75 93 120
78 97 125
79 97 124
79 97 124
78 96 124
77 96 125
77 95 121
80 97 124
77 95 123
76 95 123
81 99 126
77 96 124
76 94 121
77 96 123
75 94 122
77 95 123
78 97 126
77 95 123
77 95 123
80 97 124
79 98 125
76 95 123
78 97 124
78 97 125
78 96 121
92 110 138
134 154 184
176 197 229
201 222 254
202 223 255
202 223 255
202 223 255
202 223 255
202 223 255
202 223 255
202 223 255
202 223 255
202 223 255
202 223 255
202 223 255
202 223 255
202 223 255
199 220 252
161 182 212
119 139 169
89 108 137
77 96 125
79 96 123
79 98 125
78 97 124
75 94 122
79 98 126
74 94 122
78 95 122
76 95 123
78 96 124
76 96 125
78 95 122
77 94 121
76 95 122
78 96 124
75 93 120
78 96 124
76 94 122
75 93 121
76 93 120
79 97 124
76 94 120
78 96 122
74 92 119
78 95 121
74 93 121
78 97 125
78 95 120
76 95 123
75 94 122
78 96 123
81 99 126
76 95 124
78 96 123
76 95 123
79 97 124
77 95 121
76 93 120
77 95 123
75 94 121
78 96 123
77 96 124
75 93 119
75 93 120
75 93 121
77 95 122
77 95 122
74 92 120
75 92 119
75 93 120
76 94 122
80 98 125
77 95 122
74 92 119
78 97 125
76 94 122
74 92 119
75 93 120
77 95 121
73 91 119
78 97 125
78 96 124
75 93 118
75 94 123
73 92 120
78 96 124
79 98 126
76 93 120
75 93 121
75 92 119
76 94 122
76 95 122
74 93 121
77 96 124
75 92 118
77 94 120
78 95 121
77 95 123
76 94 121
76 94 121
77 95 123
73 90 116
74 92 119
77 96 125
75 94 121
73 91 117
75 93 120
78 96 124
74 91 117
77 95 122
74 92 119
77 96 125
74 92 119
79 97 124
77 95 124
76 93 119
76 93 119
75 94 121
79 97 124
77 94 120
77 96 124
74 92 118
75 94 121
73 92 120
73 92 119
76 95 124
73 91 117
76 94 122
77 95 122
78 96 123
75 93 120
72 90 119
74 91 118
76 94 121
78 96 124
77 94 120
77 94 121
74 91 118
78 96 123
76 94 121
77 95 123
75 93 120
76 94 121
77 94 120
72 89 115
75 92 118
77 95 122
75 92 118
74 92 120
75 93 120
75 92 119
77 95 121
74 92 119
73 91 118
76 94 122
73 90 116
77 95 122
75 93 120
78 96 123
76 93 119
73 91 117
75 94 123
72 89 114
76 94 122
80 97 124
72 90 116
74 92 119
74 92 119
75 92 117
75 93 121
76 94 122
71 88 114
73 91 119
75 92 118
73 92 120
74 92 120
74 92 119
75 93 120
76 94 121
74 91 117
76 95 123
77 95 121
77 95 121
74 91 118
73 91 117
73 91 117
74 92 118
78 95 121
75 94 122
74 92 120
77 95 123
76 94 121
76 94 122
73 90 116
74 92 118
76 94 121
78 96 123
76 95 123
76 93 120
75 92 119
74 92 120
77 95 122
74 92 118
76 94 121
76 93 120
74 92 119
77 95 122
76 93 119
78 96 124
75 92 119
77 96 124
74 92 119
75 93 119
76 94 120
72 90 116
76 95 123
75 92 118
74 93 122
73 91 117
73 91 118
77 94 121
75 92 119
77 95 123
74 93 120
78 96 123
75 93 120
74 92 119
74 92 118
75 92 118
79 97 124
75 92 118
78 96 122
76 94 120
74 92 118
77 94 119
77 95 122
77 96 123
76 94 120
75 93 121
71 87 111
77 94 120
77 94 120
73 90 117
75 94 121
78 96 124
74 92 119
77 95 122
77 96 123
75 92 117
76 94 119
75 93 120
72 90 116
75 93 121
75 93 120
77 95 121
79 98 125
73 91 118
74 93 122
77 96 124
73 91 118
76 94 122
75 93 120
72 90 116
77 95 121
76 94 120
73 91 118
76 93 119
76 93 120
75 93 121
76 94 121
74 91 118
70 87 114
75 93 120
73 91 117
76 93 119
74 92 118
75 93 119
76 95 123
76 95 122
72 89 116
74 93 120
77 96 123
75 92 118
77 94 120
76 94 121
75 94 122
75 93 121
77 94 121
78 97 124
76 94 120
77 95 123
74 92 119
76 94 120
75 93 119
74 92 119
75 92 118
77 95 121
77 95 121
75 92 118
75 93 120
78 95 122
77 95 123
72 89 115
75 94 121
78 96 123
74 91 117
74 92 118
74 93 121
74 93 120
78 96 124
74 92 120
73 91 117
77 95 122
75 93 120
75 93 121
76 94 121
76 95 122
76 94 121
78 96 123
76 94 122
75 92 119
77 94 121
74 91 116
75 94 121
75 93 120
78 96 124
76 94 121
73 90 115
77 96 124
76 95 123
77 95 121
74 91 117
72 89 115
77 95 122
72 89 115
76 93 119
77 94 121
76 94 121
78 96 123
75 92 118
78 96 123
75 93 120
77 95 121
79 98 126
79 97 124
77 94 120
75 93 119
77 95 122
76 94 121
79 96 122
73 91 117
79 97 126
80 98 126
77 94 121
75 93 120
78 96 124
74 93 122
73 91 118
76 95 123
79 97 125
78 97 125
76 94 121
77 95 123
75 92 118
74 92 118
73 90 117
76 94 121
75 93 120
75 92 119
79 97 124
77 94 120
77 95 121
76 94 120
76 94 122
80 98 125
76 94 121
75 92 116
76 94 121
77 95 122
76 94 121
75 94 121
79 98 126
78 97 124
77 95 122
79 97 123
78 96 124
76 94 121
75 93 120
75 94 122
77 95 123
79 96 123
76 96 125
78 96 123
78 97 124
80 98 125
77 95 123
79 97 124
76 93 120
79 98 126
77 95 123
73 91 118
78 96 122
89 107 136
135 155 186
173 194 224
196 217 249
202 223 255
202 223 255
202 223 255
202 223 255
202 223 255
202 224 255
202 224 255
189 210 242
151 171 200
114 134 164
82 102 130
79 97 125
81 99 126
78 96 124
79 97 124
76 95 123
78 97 125
78 97 124
76 95 123
79 97 124
78 96 124
79 97 126
80 98 125
76 94 120
74 92 120
77 94 120
78 96 123
78 96 123
76 93 119
79 97 124
79 97 124
77 95 123
79 97 126
78 96 124
76 94 121
78 96 124
74 91 117
75 92 118
78 96 124
72 91 119
76 94 122
76 94 120
79 97 124
75 93 120
77 95 121
77 95 121
79 98 125
77 94 120
78 96 123
75 93 121
75 92 119
76 94 120
77 95 122
76 94 121
76 94 120
76 93 119
78 97 124
76 94 120
76 94 120
76 94 122
75 94 121
77 96 124
80 97 124
74 93 121
78 96 123
76 96 124
76 94 121
77 94 121
77 95 121
76 94 121
73 91 118
74 93 121
77 95 124
77 95 123
74 93 121
76 94 122
77 94 121
78 96 123
75 93 121
76 94 121
76 94 121
78 96 123
76 93 119
72 90 118
76 95 123
76 94 121
75 93 121
76 94 122
76 93 119
76 94 121
75 92 118
70 87 112
77 95 121
74 93 121
76 94 121
73 90 116
75 93 120
74 92 120
79 96 123
76 95 122
76 93 120
75 93 119
76 94 121
76 94 121
77 95 122
74 92 118
79 97 125
76 94 120
75 93 120
76 93 120
77 95 122
77 95 121
77 95 122
75 93 120
76 94 122
77 96 124
77 94 120
75 93 120
74 92 118
77 94 120
77 95 121
74 93 120
76 94 121
77 94 120
73 91 118
75 93 120
76 94 121
75 93 120
75 92 117
76 95 123
78 95 122
77 95 122
76 95 123
77 95 122
75 92 119
73 89 114
78 94 119
76 94 121
75 93 121
77 95 121
76 95 122
75 93 119
73 91 118
78 95 121
76 94 121
76 94 121
76 94 121
75 94 121
77 95 122
73 91 119
75 93 120
76 94 120
75 92 117
76 93 118
79 96 123
74 92 119
73 90 117
73 90 116
76 95 123
75 92 118
72 90 116
77 95 122
74 92 119
74 92 119
77 94 120
75 92 119
72 89 115
72 90 117
76 94 121
74 92 120
73 90 115
75 92 119
74 92 119
75 93 119
78 96 124
77 95 121
76 93 120
78 95 122
76 95 122
74 93 121
76 93 119
77 94 120
73 91 118
72 90 118
72 91 120
73 90 116
74 92 119
72 90 117
76 94 122
78 95 122
77 95 122
77 94 120
72 90 117
75 94 122
77 95 122
73 91 118
75 93 119
75 92 118
76 95 122
75 94 122
74 92 119
77 95 121
75 93 120
75 92 117
75 93 121
77 95 123
74 93 120
74 91 117
76 93 118
74 92 119
75 93 120
74 91 117
77 95 122
74 91 117
76 94 122
75 93 121
76 95 122
77 95 120
75 92 118
73 91 118
75 93 120
76 94 120
76 95 122
74 92 118
75 92 118
75 93 121
76 94 122
77 96 124
77 94 121
76 94 120
76 94 121
78 97 125
75 93 120
74 91 118
74 92 118
76 93 120
77 94 120
75 92 117
73 90 116
76 93 119
74 92 119
75 93 119
75 93 119
75 92 118
74 93 123
75 94 123
76 94 120
74 93 120
76 95 124
74 90 116
74 92 119
72 90 117
75 93 119
76 94 121
73 92 119
76 92 118
71 88 113
76 94 120
75 92 119
75 92 117
74 92 119
75 92 119
79 97 125
76 94 120
76 93 118
73 90 116
77 95 123
73 91 117
75 93 120
77 95 122
74 91 117
74 91 117
75 92 119
77 95 123
76 94 122
77 95 121
75 92 118
78 96 123
74 93 121
77 96 123
75 93 120
78 95 122
76 95 122
77 94 120
77 95 123
77 95 122
75 93 121
78 96 123
79 96 122
74 91 116
74 92 119
77 95 121
75 92 119
78 96 124
73 90 115
76 93 120
74 92 119
75 93 120
74 92 119
75 93 120
77 95 122
76 93 119
75 92 118
76 94 122
77 95 121
75 93 121
77 95 122
75 92 118
76 94 122
75 93 120
79 96 123
75 93 120
77 96 123
79 97 125
77 94 121
75 93 120
76 93 120
75 93 120
75 92 119
74 92 119
75 93 120
76 94 120
76 93 120
77 94 120
78 96 124
77 94 120
77 95 122
78 96 124
75 93 120
79 97 124
78 96 122
75 93 120
78 96 124
79 97 124
78 96 123
77 96 124
75 93 120
77 96 123
76 93 120
75 93 120
77 95 122
75 93 120
76 94 119
75 93 120
70 87 113
78 96 125
78 95 120
73 91 118
81 98 125
77 94 120
76 95 124
77 96 124
78 96 124
76 94 120
74 91 118
73 91 118
77 95 122
76 95 123
74 93 121
79 97 124
80 98 125
78 96 123
75 94 121
77 95 122
77 94 121
75 93 119
75 93 120
79 96 123
75 94 122
76 93 118
78 96 124
78 96 123
78 95 122
80 98 125
77 95 122
77 95 121
79 97 125
77 96 124
77 96 123
79 98 126
76 94 122
76 95 123
77 95 123
80 98 126
78 96 123
76 95 122
79 97 124
80 98 125
78 96 124
74 93 121
77 96 125
76 95 123
77 95 123
78 97 125
76 94 122
76 95 123
75 93 121
78 97 126
78 97 126
83 101 128
120 140 170
145 165 195
183 204 234
202 224 255
202 224 255
136 156 186
103 121 149
75 93 120
77 95 123
80 98 124
79 98 125
77 96 124
80 98 125
77 96 124
78 96 124
75 93 121
79 97 125
77 95 123
75 93 121
78 96 123
77 96 124
79 97 125
76 95 124
75 93 120
78 96 123
78 95 121
76 96 125
78 96 122
78 97 124
76 94 120
78 96 124
77 95 123
78 96 124
76 94 121
72 90 116
78 96 123
77 95 123
79 97 124
77 96 124
77 95 123
76 95 122
77 95 122
76 94 122
74 90 115
77 95 122
78 96 125
75 93 121
79 96 123
76 94 120
76 94 121
75 93 119
77 95 122
76 94 120
75 93 120
77 95 122
76 93 119
77 96 124
76 94 120
74 93 122
76 95 123
78 96 124
76 94 121
75 95 124
76 94 121
78 97 124
75 92 118
74 91 117
75 93 121
76 94 120
77 95 121
72 90 116
73 91 120
77 95 122
78 96 123
75 95 124
75 93 121
78 96 122
77 96 124
73 91 119
74 92 120
75 93 120
72 89 115
74 91 116
75 92 119
77 95 122
78 96 124
77 96 123
73 91 119
76 93 120
74 92 119
75 93 121
78 96 124
75 92 118
77 95 123
76 94 121
77 95 121
74 91 118
76 94 122
77 95 121
76 94 121
75 93 119
75 92 119
75 92 119
75 95 123
79 97 125
75 93 120
76 94 122
80 98 125
77 96 123
77 94 120
79 97 125
78 96 124
74 92 119
78 97 125
76 94 120
74 92 119
74 92 119
78 95 122
77 96 123
72 90 116
75 93 119
74 92 119
78 96 124
79 97 124
77 94 120
75 93 119
77 95 121
73 90 116
76 95 122
76 94 121
75 93 120
77 95 122
75 92 119
72 90 116
76 95 123
76 94 120
77 95 121
75 92 118
75 93 119
75 94 122
74 92 119
73 90 115
74 91 116
75 92 117
77 95 123
76 94 122
74 92 120
75 94 121
74 93 121
74 92 119
76 94 120
75 94 121
76 94 122
71 89 115
73 91 117
71 87 111
73 90 116
76 93 120
76 95 122
72 90 116
73 90 116
71 89 115
75 93 120
78 95 122
74 93 121
74 92 119
76 95 123
75 93 121
77 96 124
76 95 123
78 96 124
75 94 123
75 92 118
74 93 120
73 91 119
75 93 119
73 91 117
77 95 121
79 97 125
75 93 120
72 90 116
76 94 121
76 93 119
74 92 119
74 92 118
73 91 119
74 91 118
75 93 119
75 93 120
75 93 119
74 92 118
77 95 123
75 92 119
73 90 116
76 94 121
75 93 120
79 96 122
74 92 119
74 92 119
75 93 121
74 94 122
75 93 120
74 91 117
77 95 122
75 93 120
75 92 118
75 94 121
73 90 117
77 96 123
77 94 120
77 96 124
74 92 119
77 95 122
75 94 121
76 94 120
75 93 119
73 90 116
77 95 121
78 96 125
75 92 118
77 96 124
72 90 116
79 96 123
73 92 119
75 92 119
76 93 119
74 92 119
75 93 120
75 92 118
75 92 118
79 97 123
76 94 121
74 91 118
75 93 120
77 95 121
77 95 123
75 93 119
77 93 117
76 95 122
74 92 120
73 90 116
74 91 117
74 93 122
78 96 124
75 93 120
77 94 120
74 92 120
77 94 120
78 96 123
75 94 122
74 92 117
76 93 119
77 95 122
72 90 117
78 96 123
76 93 120
74 93 120
75 93 120
74 91 117
74 92 118
75 93 120
76 93 120
75 93 120
76 93 119
77 95 122
75 93 122
74 92 119
73 90 116
77 96 124
74 92 118
77 94 119
74 91 116
74 92 119
76 94 122
77 95 124
79 97 126
72 89 115
77 95 121
77 95 121
75 91 117
78 95 121
79 97 125
74 92 120
75 93 120
76 94 121
76 94 121
71 89 115
77 96 124
78 95 120
77 94 120
80 98 124
78 95 121
77 95 121
76 94 121
74 92 118
74 92 118
75 92 117
71 89 116
75 93 120
78 95 121
76 94 122
78 96 124
72 89 115
75 93 121
76 93 120
77 95 122
77 95 122
77 94 120
76 95 122
76 94 121
78 96 121
78 94 120
76 94 121
75 93 120
78 97 124
77 95 123
73 91 119
77 96 123
75 93 121
74 91 118
77 95 123
77 95 122
73 90 116
78 96 124
77 95 122
75 93 118
78 97 124
75 93 120
76 94 120
76 95 122
76 94 121
76 94 121
77 94 121
76 94 122
75 92 119
79 97 124
77 95 122
76 94 122
75 94 121
76 94 121
75 93 120
75 93 120
76 94 120
75 94 122
76 93 120
77 95 122
78 97 126
74 92 119
79 97 124
74 92 120
75 93 121
77 96 124
76 94 122
77 96 124
76 94 120
77 95 122
77 95 121
76 93 118
78 97 125
78 96 124
77 95 122
77 95 123
78 96 124
76 94 122
78 96 124
77 96 124
78 95 122
76 94 121
76 95 122
77 95 122
77 95 121
77 94 119
76 94 122
75 93 120
78 97 124
72 91 118
80 98 125
80 98 125
75 93 120
79 97 124
79 98 126
78 96 124
75 94 123
77 94 121
79 96 122
77 95 122
77 96 124
75 94 121
79 97 124
75 93 122
78 96 122
79 97 124
78 96 124
78 96 123
79 97 126
79 97 125
76 95 123
77 95 122
78 97 125
79 97 125
79 98 126
77 95 121
82 100 128
103 121 150
140 160 189
77 95 121
78 96 124
78 96 122
77 96 125
78 96 123
78 96 124
78 96 122
78 96 124
79 98 125
80 98 124
76 94 121
77 96 124
78 96 124
76 94 121
77 95 122
76 95 123
75 94 122
76 94 122
74 92 119
78 96 123
75 93 120
74 92 119
77 96 124
75 94 123
73 92 119
74 91 118
77 95 122
77 95 123
77 95 122
76 93 119
76 93 120
74 92 119
78 97 125
79 98 126
77 95 123
79 97 125
77 95 122
79 97 124
80 98 125
75 93 122
79 97 124
76 93 120
77 95 123
78 96 123
78 97 125
79 96 123
76 93 119
75 94 122
76 94 121
78 97 125
73 91 118
76 93 120
74 92 120
76 95 123
72 90 115
76 94 122
76 95 123
78 95 121
76 94 121
77 94 120
75 94 121
75 93 119
79 98 126
75 93 120
74 93 120
78 96 123
75 93 121
76 95 122
73 90 116
77 95 123
72 90 116
75 93 119
77 95 122
75 93 119
74 91 118
78 96 122
77 95 122
79 97 124
73 91 117
75 92 119
77 94 119
74 91 117
76 94 120
77 95 123
78 95 121
77 95 121
76 95 122
77 95 123
73 91 118
70 87 114
77 96 124
74 93 120
76 93 118
76 93 120
73 91 118
77 95 122
75 93 120
74 92 120
77 94 120
75 94 122
74 93 120
77 95 121
76 95 123
75 93 120
75 94 123
74 92 118
79 96 123
76 94 122
75 93 121
73 91 117
74 93 121
78 96 123
76 95 123
77 94 120
76 94 121
76 94 122
78 96 124
74 93 121
75 92 118
73 91 119
75 93 120
77 95 123
77 94 119
79 97 124
77 94 120
75 94 123
76 94 120
74 92 119
79 97 125
75 92 118
75 93 121
80 98 126
74 92 119
75 93 120
77 95 123
74 91 117
76 95 122
74 91 118
79 97 124
76 95 122
74 91 118
78 95 120
76 95 123
77 95 121
75 93 120
77 95 122
74 91 118
74 92 118
78 95 120
76 93 120
76 94 121
76 93 120
75 93 120
77 95 122
75 93 120
76 94 121
74 92 120
75 93 118
77 94 120
77 95 122
75 94 122
75 92 119
74 93 121
76 93 119
76 94 121
77 95 121
78 96 123
76 94 120
81 99 125
77 95 122
74 92 118
76 95 122
70 87 113
76 94 121
74 91 118
78 95 122
76 94 122
75 93 120
77 95 122
76 93 118
74 92 119
75 92 118
77 96 124
76 94 121
73 90 116
74 92 118
76 92 117
77 95 123
75 93 121
77 96 123
76 94 120
76 94 121
78 96 122
76 94 120
75 94 122
75 93 120
76 94 121
75 93 120
73 91 117
73 90 116
75 92 118
74 93 120
75 94 121
75 93 120
76 94 121
76 94 120
76 94 121
75 93 120
74 91 117
76 95 122
76 94 121
73 91 117
74 92 118
76 93 120
74 91 118
73 90 117
78 96 124
76 93 119
75 92 118
75 93 120
75 92 118
78 96 122
77 95 122
75 93 120
79 98 126
72 90 116
75 93 119
76 95 124
74 92 119
75 94 122
74 92 120
73 91 116
77 96 123
77 96 123
77 94 120
72 90 117
77 96 123
74 92 119
76 94 120
78 95 120
76 93 120
77 95 122
77 95 121
76 94 121
77 95 121
75 92 118
74 92 118
75 92 119
74 93 120
79 96 122
76 94 121
78 97 124
74 92 118
74 91 118
77 95 121
74 92 118
76 93 119
72 90 117
75 92 119
74 91 117
76 94 122
75 94 121
73 91 118
76 93 118
76 93 119
74 92 119
75 91 116
74 91 116
76 95 122
72 89 116
77 95 121
74 93 121
76 94 121
73 90 117
74 92 119
74 92 118
75 93 119
74 91 117
75 93 120
77 96 124
71 89 117
76 94 121
76 94 122
74 91 118
74 91 117
74 92 119
79 95 120
77 95 120
77 94 121
76 95 124
76 94 121
78 96 123
75 93 121
74 92 120
75 92 117
74 93 120
74 93 121
77 95 121
76 94 121
74 91 116
77 95 121
73 90 116
75 92 118
75 93 121
77 95 122
75 93 120
75 92 117
75 93 121
78 96 123
76 93 120
74 91 118
77 95 123
78 97 124
79 97 124
78 96 124
76 94 122
76 93 120
77 94 119
73 91 119
77 95 122
73 92 119
75 93 121
72 89 115
77 96 123
76 96 125
76 93 119
79 96 122
75 92 119
77 95 122
76 95 123
78 95 121
74 91 116
77 96 123
75 92 118
75 93 121
79 98 126
77 96 124
78 96 123
74 92 119
78 96 124
77 95 122
76 94 120
75 93 119
77 95 121
77 95 123
74 94 123
79 98 126
80 98 125
75 92 119
76 94 122
75 93 121
78 96 123
75 93 120
77 95 121
77 95 123
76 93 120
76 93 120
78 96 123
77 95 122
78 96 124
76 94 122
80 98 125
78 95 122
75 93 120
77 96 124
75 93 120
76 94 121
78 97 124
74 92 119
77 95 123
76 94 123
78 97 125
76 94 122
77 95 123
77 95 122
76 94 121
76 94 122
77 95 122
75 93 120
78 97 124
76 94 121
77 95 122
77 94 121
79 96 122
78 96 125
79 97 124
75 93 121
77 96 123
76 95 124
76 95 123
77 96 124
79 98 126
76 94 120
78 96 124
78 96 124
76 94 121
78 97 125
78 96 122
79 97 123
79 98 125
80 98 125
77 96 124
76 95 123
77 96 125
77 96 124
77 96 123
81 99 125
79 98 126
79 97 123
81 100 127
80 98 126
78 96 122
80 98 126
78 97 125
79 97 125
76 95 122
79 97 124
76 95 123
76 94 121
76 94 121
78 96 123
76 94 121
76 94 121
76 95 122
77 96 124
80 98 126
79 97 124
77 95 122
76 93 120
79 96 123
77 95 122
76 94 122
77 96 124
75 94 122
79 97 125
79 98 125
77 95 123
79 96 123
77 95 121
78 95 121
76 94 122
75 93 119
76 93 120
75 93 119
76 95 122
75 93 120
75 93 121
75 93 120
78 96 123
75 93 119
77 96 123
75 93 120
76 94 122
77 94 120
76 94 123
76 93 119
73 90 116
74 93 122
76 94 122
76 94 121
78 97 126
73 90 117
76 94 120
78 95 121
75 93 120
77 94 120
78 96 123
74 92 118
77 95 123
75 93 120
72 90 116
74 92 118
72 90 117
75 93 119
76 94 121
75 93 121
77 95 121
76 94 123
76 94 120
75 92 117
76 94 121
79 97 124
77 95 122
80 98 126
77 95 122
78 96 122
73 90 116
77 95 122
78 97 124
76 93 120
77 95 122
77 95 123
73 90 115
77 95 122
76 94 121
72 91 119
79 96 122
76 94 120
76 94 121
74 91 116
76 95 123
75 92 118
76 95 123
77 96 124
76 95 124
75 92 119
76 93 119
76 94 120
78 96 123
78 95 122
74 92 120
78 97 124
73 90 116
76 95 122
76 94 121
76 94 120
75 93 120
76 93 120
77 96 123
76 94 120
74 93 121
76 94 120
76 94 122
75 92 119
76 94 120
76 94 121
72 91 119
76 95 122
75 93 121
79 97 125
76 95 123
75 92 118
74 91 117
76 94 122
79 97 125
73 91 118
76 93 120
77 94 121
77 94 120
75 93 120
76 94 120
75 94 123
75 94 122
74 92 120
77 96 123
74 92 119
74 92 120
76 93 118
80 98 126
74 92 118
72 90 115
77 94 120
74 93 121
77 95 123
73 91 118
76 95 122
72 89 115
75 93 120
74 92 120
76 94 122
75 94 121
77 94 121
75 93 119
76 94 120
73 91 118
73 92 120
73 90 116
79 97 124
75 92 118
77 96 124
75 93 120
76 94 121
77 94 119
76 93 120
76 94 120
72 89 116
75 93 120
75 93 120
73 91 118
72 90 118
75 93 121
73 90 116
76 93 119
74 91 118
76 94 121
73 90 115
75 92 118
74 93 122
75 92 119
75 93 119
75 93 120
73 90 116
75 92 118
77 95 121
75 93 120
73 90 117
74 91 117
74 92 119
78 97 124
74 92 119
77 95 122
72 89 115
77 95 121
77 94 121
74 92 119
74 91 116
74 91 118
76 93 120
75 93 119
77 95 122
71 89 115
77 96 124
78 95 121
75 92 119
75 93 119
73 90 116
76 93 120
74 92 119
75 94 121
76 94 121
75 94 122
74 93 121
75 91 117
73 92 120
73 91 119
75 93 120
74 92 118
73 91 116
75 93 119
76 93 120
74 92 120
73 91 118
79 97 125
78 96 122
75 94 121
77 94 120
74 92 120
76 94 120
77 95 123
74 92 119
76 94 120
74 92 119
78 95 121
73 91 116
75 93 119
72 90 117
76 94 120
75 92 119
76 93 118
75 93 120
72 89 115
75 94 121
75 93 119
78 97 124
74 91 116
76 93 119
77 95 122
74 91 117
78 96 123
77 95 122
76 93 120
76 93 119
75 93 119
76 94 120
75 93 119
76 94 122
75 93 121
77 95 123
78 96 123
75 94 121
76 93 120
74 92 119
74 92 120
76 94 122
76 95 123
73 90 115
73 91 117
70 87 114
78 97 124
76 94 120
75 93 121
76 95 123
76 94 120
74 91 117
74 91 116
77 95 122
78 96 123
79 97 124
78 96 123
78 95 122
77 95 123
74 93 120
75 93 120
79 97 124
74 91 117
75 93 121
77 95 123
75 93 120
76 93 119
75 93 120
75 92 118
76 94 120
78 95 122
76 94 121
78 96 124
76 93 119
75 93 119
76 94 121
76 94 121
76 94 121
75 93 120
75 93 119
77 95 123
75 93 120
78 96 123
73 91 117
76 93 119
78 97 125
78 96 122
76 93 120
76 93 119
73 91 118
72 89 115
76 93 119
73 91 117
75 92 119
77 94 121
75 93 119
78 96 123
77 94 121
77 94 120
78 95 120
74 93 121
74 92 119
78 96 124
76 94 121
78 97 125
76 95 123
75 94 121
75 93 120
74 93 120
78 96 123
78 96 124
75 93 120
77 94 121
78 96 123
75 94 121
76 94 120
77 94 120
77 95 123
78 96 123
77 95 121
77 95 123
75 93 120
78 97 124
76 93 119
77 95 121
76 95 122
76 94 120
77 95 121
77 95 123
78 96 123
79 97 124
78 96 122
77 95 122
76 95 122
74 93 121
76 93 118
78 95 121
78 97 125
81 98 125
79 97 123
75 94 122
79 97 124
75 92 117
78 97 124
77 95 123
76 94 121
76 95 122
77 95 122
76 95 124
77 96 124
78 95 121
76 94 121
78 96 124
76 94 121
77 95 122
79 98 126
77 96 123
76 94 122
76 94 120
75 93 121
79 98 126
76 95 123
78 97 126
78 97 125
77 96 123
80 99 126
78 97 126
79 96 123
78 96 124
78 97 125
76 95 122
79 97 123
79 96 123
78 97 126
74 92 120
78 97 125
79 96 122
78 96 122
76 95 124
77 96 123
80 98 126
78 97 125
78 96 123
79 97 125
77 95 122
77 95 122
78 97 125
77 95 123
78 97 124
78 96 123
76 93 120
79 97 123
78 96 125
75 93 121
76 94 122
78 96 124
78 96 122
76 94 120
76 93 120
78 96 124
78 97 124
74 93 120
76 94 121
75 93 121
78 97 124
78 96 124
77 95 122
75 94 122
79 97 124
76 94 120
77 95 120
75 94 122
76 94 122
76 95 123
79 96 123
76 94 120
79 97 124
76 94 121
75 94 122
76 93 120
77 96 124
80 98 125
74 93 120
78 95 122
76 94 121
78 96 123
76 94 121
78 96 123
77 96 124
77 95 122
75 93 119
76 94 122
77 95 121
76 93 119
76 94 122
73 93 121
78 97 126
78 96 123
78 96 123
76 94 120
78 96 122
78 97 124
79 96 123
77 95 122
75 93 120
76 94 122
77 95 121
76 94 122
74 93 120
78 95 120
76 94 121
75 95 124
76 94 121
76 94 122
76 94 121
77 95 122
75 92 118
75 93 121
73 91 117
74 93 120
74 92 118
75 92 118
79 98 126
77 94 120
78 96 123
75 92 118
75 94 121
77 96 123
76 94 121
80 98 127
76 95 123
73 91 118
78 96 122
79 97 124
76 94 122
75 93 119
75 94 122
77 95 122
76 95 122
77 95 122
74 93 120
74 92 119
73 91 117
79 97 124
75 93 120
74 92 120
77 94 121
77 95 120
79 98 125
76 94 121
75 93 120
77 96 124
76 95 124
76 94 121
74 91 118
76 95 122
76 94 121
76 93 118
72 90 117
74 92 119
76 94 120
74 91 118
75 92 117
76 94 121
75 93 120
74 92 120
76 93 119
77 96 123
75 93 119
76 93 119
76 93 119
73 90 116
75 93 121
77 95 121
75 92 119
78 95 122
76 94 120
76 94 120
76 93 119
77 95 123
78 97 125
76 94 121
75 92 119
74 92 118
76 93 119
76 94 122
73 90 116
79 96 122
75 92 118
77 95 123
74 92 118
79 97 123
73 90 116
71 88 113
74 92 119
77 95 121
77 95 122
74 91 117
73 91 117
75 93 119
77 96 123
75 93 119
77 96 124
77 94 121
77 95 122
76 94 120
77 95 123
76 94 123
75 94 122
73 91 118
74 92 119
76 93 120
75 93 120
77 95 122
75 93 119
76 94 121
76 94 120
76 94 120
76 95 122
73 90 116
77 94 121
76 94 120
75 92 119
78 95 121
76 94 120
78 95 122
76 94 121
75 94 122
76 93 120
74 92 118
74 93 122
75 92 117
76 94 121
75 93 120
78 96 122
76 93 118
74 93 121
74 92 118
79 97 124
77 95 122
74 92 119
80 97 124
74 91 118
76 94 122
76 94 122
77 95 122
74 91 117
79 97 124
75 92 119
75 92 119
76 94 122
74 91 118
77 95 123
77 95 123
78 95 122
77 96 123
76 94 121
77 94 120
75 91 116
74 92 119
78 96 123
76 94 120
75 92 118
75 93 120
74 92 119
76 95 122
75 93 119
78 95 121
75 94 121
76 94 121
77 95 121
75 94 123
73 92 120
73 91 118
79 97 125
75 93 120
76 94 120
76 94 121
77 95 121
77 94 120
77 95 122
74 92 119
76 95 122
76 94 122
75 93 121
77 96 124
75 93 121
77 95 123
75 94 121
77 95 121
74 92 118
73 91 118
76 95 124
76 94 121
77 95 123
79 97 124
75 93 119
74 91 116
77 94 120
76 94 121
75 94 122
77 95 122
76 93 119
76 94 120
76 93 119
75 93 121
73 91 118
75 94 121
76 95 122
74 93 120
77 96 125
75 93 119
74 92 119
77 94 121
75 93 121
76 93 119
76 95 125
76 93 119
77 94 120
75 94 122
77 95 122
74 92 119
75 93 120
76 94 120
75 93 118
77 95 122
77 95 123
76 95 124
74 91 115
76 94 121
76 94 121
78 96 122
75 93 121
74 92 120
75 94 122
76 93 120
75 93 119
74 92 120
74 92 118
80 97 124
75 92 119
77 95 122
75 94 121
76 94 121
77 96 123
75 94 122
78 96 123
78 96 122
76 93 120
75 93 120
75 93 119
78 96 122
79 97 125
78 96 123
77 96 124
76 94 121
78 96 124
77 95 123
77 94 121
80 98 126
78 96 123
75 93 120
75 93 120
77 96 125
75 93 119
75 93 120
74 93 121
74 93 121
74 91 118
73 91 120
77 96 125
75 93 120
80 99 127
75 95 123
75 93 120
78 96 124
75 93 119
76 94 121
77 95 122
79 97 123
77 96 125
77 95 123
77 96 125
77 95 122
76 94 121
76 95 122
77 94 120
78 96 124
78 96 125
77 95 120
77 95 121
78 97 125
76 94 122
75 93 121
77 96 123
74 92 120
76 94 122
77 95 123
78 96 123
76 94 123
78 96 123
75 95 124
77 95 123
76 94 121
78 96 124
79 98 126
76 94 121
74 91 116
77 95 123
76 94 122
74 93 120
75 93 119
76 95 123
76 95 123
76 95 122
77 95 120
80 98 126
76 94 121
79 98 125
75 94 122
78 96 124
78 96 124
78 97 125
77 96 125
78 96 124
77 96 124
75 93 121
77 96 124
76 95 124
79 98 126
78 96 124
77 95 123
76 95 124
77 95 122
76 94 123
78 96 122
78 97 125
80 98 125
76 95 123
77 95 122
77 95 124
75 93 120
78 95 122
78 97 125
75 93 120
76 94 120
77 95 122
76 94 122
74 92 120
76 95 124
77 95 122
74 94 124
78 96 124
76 95 122
79 97 123
79 97 124
76 93 119
77 95 122
75 93 120
78 96 123
78 97 125
76 95 123
76 94 121
75 94 121
76 94 121
77 96 123
72 91 119
78 97 124
76 94 121
76 95 122
77 94 121
77 95 122
73 91 118
77 95 122
75 93 120
78 96 124
82 99 126
75 94 121
76 95 124
76 95 122
83 100 127
76 94 121
75 94 122
77 94 120
78 96 122
76 94 121
76 94 121
78 97 125
78 96 124
77 96 124
78 96 124
75 93 121
74 92 120
73 91 118
75 93 120
77 96 124
74 92 119
78 96 123
74 92 119
75 92 118
78 95 121
75 94 122
76 93 119
76 94 122
75 93 121
76 94 120
76 94 121
76 95 122
78 96 123
74 92 120
77 95 121
76 93 119
75 92 119
79 96 122
74 92 119
73 91 117
77 95 123
77 96 124
79 96 122
76 94 122
73 90 115
78 96 123
74 92 119
75 93 120
76 94 121
77 94 121
77 95 122
76 94 121
75 94 121
75 93 120
75 93 120
77 94 121
75 93 120
79 97 124
75 94 123
80 98 126
72 90 116
75 93 120
72 89 114
76 94 121
75 92 119
75 93 119
75 93 120
73 90 115
80 97 123
78 97 124
74 92 119
75 94 121
78 95 121
78 95 122
76 95 122
77 95 122
74 91 118
79 97 124
77 95 121
75 93 120
73 90 116
77 95 120
76 94 121
75 94 122
78 96 123
77 96 123
76 95 122
77 94 120
73 90 115
73 91 118
73 91 119
77 95 123
75 93 119
78 96 123
76 95 122
75 92 117
74 93 122
78 96 123
78 96 123
75 94 122
76 94 120
78 96 122
74 92 119
75 93 120
76 94 121
75 93 120
74 93 122
79 97 123
76 94 121
73 91 118
80 98 124
77 94 121
76 95 123
76 94 121
76 94 121
77 96 124
76 93 119
74 93 121
74 91 116
76 94 121
77 96 123
75 93 119
74 91 117
76 94 122
73 91 117
72 90 117
75 93 120
73 91 118
74 91 118
76 95 123
72 89 114
75 92 118
76 95 122
78 97 126
73 90 117
74 92 120
75 93 119
75 93 119
74 91 117
75 93 119
77 95 123
73 91 118
76 94 122
75 93 121
73 90 117
77 96 123
75 93 120
76 95 124
76 94 121
75 93 119
76 95 123
74 91 118
74 92 120
77 95 121
77 95 122
75 94 122
79 97 125
76 94 121
79 97 123
78 95 121
71 89 115
77 94 120
74 91 117
75 94 123
75 93 120
78 95 122
75 92 117
74 92 120
77 94 120
75 93 121
78 96 122
78 95 122
79 97 123
77 95 120
77 94 120
74 91 118
76 93 119
78 96 122
77 95 121
75 93 119
73 91 117
75 93 120
73 91 118
77 94 121
78 96 122
77 95 123
77 95 123
77 95 121
78 96 124
76 93 120
75 92 118
74 91 117
79 95 120
75 93 119
73 91 118
75 94 121
74 91 118
77 95 122
76 94 122
75 94 121
77 95 122
75 94 122
75 93 121
75 93 120
76 94 122
79 97 124
74 92 118
74 92 120
75 94 122
71 89 116
75 93 120
77 94 121
76 94 121
77 95 123
75 94 121
76 94 119
75 94 121
77 96 123
74 93 120
78 96 122
79 97 124
75 93 120
70 88 115
73 91 118
75 92 118
75 93 118
77 95 122
75 92 119
74 91 117
76 94 121
76 94 121
76 94 122
74 92 120
75 93 119
77 95 123
74 91 116
78 96 123
76 94 122
77 95 122
74 93 120
76 93 119
76 94 122
78 95 122
75 92 119
74 92 119
76 93 119
79 97 126
78 96 122
77 95 122
77 96 124
77 95 122
78 95 122
76 94 120
78 96 124
76 94 120
73 92 120
76 94 122
76 93 118
74 93 120
76 93 119
77 95 122
77 95 122
74 92 120
76 94 121
78 96 123
77 96 123
77 94 120
76 95 122
74 92 119
78 96 123
76 94 122
74 93 121
77 95 122
77 93 119
78 96 123
76 93 120
76 95 124
75 93 120
75 94 122
77 95 123
75 95 123
78 95 122
78 97 124
76 94 122
78 96 123
75 94 122
78 96 123
74 93 121
78 97 126
77 95 122
73 90 115
78 95 120
77 95 123
77 95 121
74 92 119
77 95 122
77 95 122
77 95 122
74 91 117
79 97 124
79 96 122
75 92 118
78 95 120
74 93 120
78 96 122
76 94 120
77 95 123
75 92 118
79 97 124
77 95 122
75 94 121
76 94 121
78 97 125
78 97 125
75 93 121
76 95 122
73 90 116
77 95 122
76 95 122
80 97 124
76 94 121
77 96 123
77 96 124
76 95 122
78 97 126
77 97 126
78 95 121
76 95 122
77 95 122
75 93 121
74 92 119
77 96 124
81 99 125
78 97 126
77 96 124
76 95 123
78 96 123
77 95 123
78 96 122
78 96 123
77 95 123
77 95 122
78 97 124
74 92 118
79 97 125
77 95 122
78 97 125
76 94 119
76 94 121
79 96 122
77 96 123
77 96 125
77 95 122
79 96 122
79 96 122
79 98 127
77 96 124
77 95 123
80 98 126
79 98 125
75 93 120
77 95 122
77 95 120
79 96 123
76 94 122
75 94 121
79 97 125
79 98 126
77 95 122
78 96 123
75 93 120
78 97 125
78 96 124
74 93 121
79 96 123
78 96 123
78 96 124
77 96 125
76 94 120
76 96 125
80 98 125
77 95 123
76 94 121
79 96 123
76 94 121
76 94 120
79 97 123
77 95 122
78 96 122
77 95 122
77 94 121
75 94 121
77 96 125
74 92 119
75 94 123
79 97 124
76 94 122
77 95 123
78 96 124
78 97 125
77 95 121
78 96 123
77 96 124
78 96 123
74 93 120
79 96 122
77 95 120
74 92 119
77 96 125
74 91 117
79 97 124
75 93 121
80 98 126
76 94 121
74 91 116
77 95 122
77 95 122
77 95 122
76 93 120
75 93 120
76 94 121
75 93 120
72 90 117
76 93 120
76 94 121
75 92 118
75 93 119
77 94 121
75 93 121
76 94 122
77 94 120
73 91 117
79 97 125
75 93 119
78 96 123
75 94 122
74 92 119
77 95 121
73 91 118
76 94 122
76 95 122
78 96 123
78 96 123
78 95 120
78 96 124
77 95 123
75 94 122
76 95 123
73 92 119
74 92 120
76 95 124
76 95 122
78 96 124
77 96 124
76 94 121
77 95 121
77 95 122
79 97 125
78 95 122
76 94 121
77 95 123
75 92 118
76 94 122
76 93 119
77 95 123
76 94 120
76 94 122
75 94 121
75 94 123
74 92 119
78 95 121
77 95 122
75 93 121
79 96 122
74 92 119
76 94 121
76 93 118
76 94 122
79 96 123
79 97 123
76 94 120
76 95 123
76 93 118
75 92 119
78 97 124
75 92 118
78 95 120
78 96 122
76 94 121
77 94 120
78 96 123
76 93 120
75 93 120
75 93 120
76 95 122
76 94 121
74 92 119
76 93 120
78 96 123
75 93 120
76 95 123
75 94 121
76 94 120
76 94 121
72 90 116
74 92 118
76 93 118
73 92 120
76 94 122
77 95 122
77 95 122
77 93 118
77 96 124
74 92 120
76 94 121
74 91 117
72 89 115
77 94 120
74 92 120
77 96 124
76 95 122
76 94 121
76 94 122
75 93 120
77 95 121
76 93 120
77 94 120
75 93 119
75 93 120
72 89 116
75 93 120
77 95 122
76 94 120
73 91 119
74 92 119
73 91 119
76 94 120
75 94 122
76 94 122
76 94 122
75 93 121
77 96 124
76 94 122
75 93 120
75 93 121
75 93 120
73 91 117
78 98 127
75 92 119
76 95 123
73 91 117
75 93 119
76 94 121
78 95 122
75 94 121
76 95 122
73 91 118
77 96 125
77 95 123
76 93 120
78 96 123
77 95 122
78 96 124
79 95 120
75 92 119
76 94 122
74 92 118
73 91 118
74 92 118
74 92 119
74 92 120
78 96 124
77 96 124
74 91 116
76 94 122
74 93 120
78 96 123
77 96 123
76 94 120
77 95 121
76 93 120
79 98 126
76 94 120
74 92 118
75 93 120
73 91 118
77 95 122
79 96 122
76 93 120
78 96 124
75 94 122
77 95 122
78 96 123
76 93 119
75 94 122
75 94 122
72 89 114
79 97 123
75 94 121
75 93 120
76 94 121
75 93 120
73 90 117
73 91 117
74 92 119
77 96 123
76 95 122
77 94 120
77 96 125
77 96 123
76 95 123
77 95 123
77 95 122
74 92 120
77 94 120
76 95 122
74 92 119
76 94 121
78 96 122
74 93 120
76 95 122
76 95 122
79 98 125
73 91 118
75 93 119
74 93 121
76 94 121
72 90 117
79 97 125
79 97 124
74 92 119
74 91 117
76 93 120
77 94 120
79 97 125
75 93 119
75 93 121
74 93 122
76 94 121
74 92 118
79 98 126
75 93 120
75 93 120
78 95 121
75 92 117
78 96 123
76 95 123
74 92 119
76 95 123
78 95 122
76 94 121
77 96 125
75 93 119
75 94 121
76 93 120
77 95 123
73 90 116
76 93 120
74 92 119
74 91 117
76 94 121
74 91 116
78 96 122
75 93 120
74 92 118
74 92 119
77 96 123
82 99 126
74 93 121
77 95 121
76 94 120
78 96 123
78 96 124
73 91 118
77 94 120
77 96 123
77 96 124
73 90 116
74 93 122
75 93 121
74 91 118
77 95 122
76 95 123
78 98 126
75 92 119
74 92 119
76 94 122
75 94 122
79 96 122
75 93 120
75 94 121
77 96 125
78 95 122
75 93 119
74 92 118
77 95 122
77 93 119
80 99 126
76 95 122
76 94 121
77 95 122
78 97 124
76 94 121
75 94 121
77 95 123
79 97 124
77 96 124
74 93 122
78 97 124
76 95 123
78 97 125
74 93 120
74 92 120
78 96 124
76 94 121
75 92 118
76 95 122
76 94 122
77 95 122
76 94 121
77 95 122
73 91 118
76 95 123
79 97 124
78 96 123
75 93 119
76 94 121
78 96 124
79 98 125
76 93 119
77 95 122
75 94 122
76 93 119
79 97 124
75 92 118
76 93 119
78 97 126
77 95 121
77 95 123
77 96 124
81 99 126
76 96 125
78 96 123
77 96 123
75 94 121
77 95 122
77 96 124
78 96 124
78 97 125
78 97 125
77 95 123
77 95 123
77 95 123
81 99 126
77 96 123
78 96 123
78 96 124
78 96 122
77 95 122
77 95 121
80 98 127
77 95 123
78 97 124
76 94 120
77 95 123
78 97 124
80 98 125
77 96 125
79 97 124
75 92 119
77 95 121
77 96 125
79 98 126
77 95 122
78 96 124
76 94 121
80 98 126
77 95 121
78 96 124
79 97 125
76 94 121
78 96 123
77 94 120
74 92 118
77 94 121
79 97 125
77 95 122
74 92 119
78 95 121
77 96 124
77 95 122
75 93 121
77 96 124
74 91 116
77 95 123
79 97 124
77 95 122
77 96 124
78 96 123
75 93 120
73 91 119
76 94 121
76 94 121
74 92 118
77 96 124
75 93 121
77 94 120
77 95 122
76 95 122
78 96 123
76 94 121
79 97 125
77 95 121
77 95 123
76 93 120
79 97 124
76 95 123
77 95 123
76 95 122
78 96 122
74 91 117
78 96 123
76 94 122
78 96 123
76 94 122
73 90 116
78 97 124
77 95 122
78 96 123
76 95 123
76 94 120
75 93 119
72 89 115
74 92 120
78 96 124
75 93 121
75 94 122
77 95 123
77 95 122
73 91 118
74 91 117
75 93 120
78 95 122
77 94 121
76 94 120
78 96 123
78 96 123
74 92 119
78 97 125
74 92 120
74 92 118
77 95 123
74 91 117
77 95 122
73 91 118
74 93 121
75 92 118
77 94 121
74 93 120
76 94 121
76 93 120
77 96 124
75 94 123
78 95 121
77 95 122
77 95 122
76 94 120
76 94 120
77 96 125
77 95 122
77 94 121
76 95 124
75 94 122
76 95 122
75 93 120
74 92 119
76 94 120
75 93 120
79 96 123
77 96 123
79 97 126
77 96 123
78 96 123
74 93 121
76 94 121
71 88 115
73 91 118
75 93 120
76 93 120
76 94 121
76 95 123
74 91 117
78 96 123
76 95 124
76 93 120
76 94 122
76 95 123
76 93 119
73 91 117
75 93 121
76 94 121
76 94 120
77 95 121
79 96 122
76 93 120
74 92 120
74 92 119
72 91 119
76 94 121
77 95 121
76 94 121
76 94 121
77 95 123
79 97 123
77 95 121
76 94 120
77 95 123
77 95 122
79 96 121
77 96 124
75 93 120
74 92 120
76 94 121
77 95 122
76 95 124
76 94 120
75 93 121
74 92 120
72 90 116
77 95 121
77 95 122
71 89 116
73 92 119
77 95 123
74 93 120
74 92 119
76 95 123
74 92 120
77 95 123
75 92 117
75 93 121
76 94 121
78 95 120
76 94 122
74 92 119
76 95 122
78 96 123
77 95 122
73 91 118
75 92 118
74 92 119
72 90 117
79 97 123
76 93 120
77 94 120
77 95 123
75 93 120
76 94 121
77 95 122
75 94 122
73 90 115
77 95 122
75 93 119
76 94 122
78 96 122
74 91 117
77 94 119
74 92 119
75 93 120
75 92 117
78 97 126
77 95 122
77 95 122
75 94 121
77 94 121
76 94 120
75 92 119
75 92 119
76 95 123
77 95 122
73 91 117
75 94 122
77 95 122
73 91 117
76 94 120
75 95 124
76 95 122
75 94 121
78 96 124
74 92 120
74 92 120
75 93 120
74 91 118
74 92 119
75 94 122
76 93 119
72 90 116
75 94 121
75 93 120
76 93 118
76 92 117
71 88 113
78 96 124
76 93 119
74 92 120
74 92 118
76 94 121
74 93 121
78 96 123
77 95 123
76 94 121
76 94 122
76 94 122
77 95 122
75 94 123
73 91 117
75 93 120
73 91 119
73 92 120
76 94 122
77 95 122
76 94 122
74 92 119
73 92 121
78 96 123
74 93 120
77 95 122
75 92 118
79 97 124
74 92 120
73 90 117
75 94 122
76 94 121
75 92 119
76 95 122
73 90 116
76 94 122
78 96 123
72 88 113
76 94 122
77 95 122
75 93 120
76 94 122
73 90 115
77 95 122
79 96 121
76 94 122
78 95 121
74 91 117
80 98 125
76 95 122
76 94 123
79 97 123
74 92 119
76 93 120
78 95 122
75 93 118
75 92 119
75 93 120
75 92 119
78 96 124
77 95 123
78 96 121
76 95 123
77 96 124
76 95 123
76 94 120
75 92 117
76 95 124
76 95 123
77 94 120
76 93 120
75 94 121
77 95 123
78 96 124
73 91 117
76 94 121
76 95 122
77 95 122
75 93 121
75 93 121
79 97 123
77 95 122
76 94 121
76 94 120
73 91 117
78 96 122
75 93 120
75 93 120
77 95 122
75 93 121
77 96 123
77 96 123
77 95 122
77 95 121
77 96 123
76 93 120
75 93 121
77 95 123
78 96 124
77 96 124
79 97 124
73 92 120
75 94 121
74 92 120
78 96 123
75 93 118
77 95 124
76 94 122
78 97 125
79 97 124
76 94 121
76 94 121
78 96 124
78 97 126
75 93 118
76 95 122
78 96 124
76 94 121
79 98 125
77 95 122
79 97 124
77 96 123
77 96 125
78 97 126
79 97 124
79 97 124
77 95 121
78 96 122
75 93 120
76 94 122
78 97 125
77 97 126
78 97 125
77 95 122
77 95 123
75 93 119
79 97 124
77 95 123
76 95 124
78 96 122
75 93 120
74 92 118
77 96 123
76 95 122
77 96 124
77 95 124
78 96 122
78 96 123
79 98 127
75 94 122
77 95 122
77 95 124
78 97 125
75 93 120
77 94 121
78 96 123
77 96 123
78 97 125
76 95 123
75 95 124
78 96 125
77 95 122
77 96 124
78 95 122
78 96 123
77 95 123
76 95 122
81 98 124
73 91 117
78 97 124
75 93 120
80 98 126
77 94 120
79 96 122
76 95 123
78 96 123
77 96 124
77 95 123
81 98 125
75 92 117
76 93 119
76 94 122
77 95 122
76 94 121
75 93 120
79 97 126
75 94 121
75 93 120
81 99 126
76 94 121
73 93 122
73 92 120
78 96 124
76 95 123
78 96 123
76 94 122
76 94 121
77 96 125
74 92 118
78 96 123
80 99 127
74 92 119
75 94 123
78 96 123
79 97 125
76 94 122
78 95 121
77 95 123
76 94 122
78 95 122
75 93 120
74 92 118
77 95 123
75 94 121
74 92 120
73 91 118
79 96 122
78 96 123
73 90 116
76 93 120
76 94 122
77 94 120
76 94 121
77 95 121
76 94 121
78 95 122
75 94 121
77 94 120
73 91 118
75 93 119
75 93 120
72 90 118
75 92 118
78 95 121
76 94 120
75 93 119
75 93 121
76 94 122
74 93 120
74 93 120
75 93 120
76 95 122
77 95 122
77 95 122
76 94 120
75 94 123
78 96 122
77 95 123
76 94 121
76 94 121
76 94 123
73 91 117
74 92 118
76 94 122
75 93 119
77 95 122
76 94 121
78 96 123
75 93 121
74 92 118
74 93 120
76 94 122
75 92 118
72 89 114
76 93 120
75 93 119
76 94 121
79 98 126
77 95 121
77 95 121
77 95 121
77 95 122
76 94 121
76 94 119
75 93 120
75 94 121
79 96 123
76 93 120
78 96 123
78 97 124
77 95 122
76 93 120
78 95 122
76 94 121
77 95 122
77 94 120
77 96 125
75 93 120
75 94 121
74 92 120
71 89 116
75 93 120
76 94 122
75 93 120
73 91 118
77 95 123
78 96 123
75 94 122
71 89 116
77 94 121
72 89 115
77 94 120
75 93 120
76 95 123
76 93 120
76 94 122
79 98 125
71 89 117
75 93 119
77 94 120
77 95 122
75 93 119
76 93 120
77 95 122
77 96 124
73 90 117
75 92 118
77 94 120
77 95 121
74 92 118
77 95 122
74 92 119
77 95 122
77 95 124
76 94 120
75 93 121
72 89 115
74 93 121
75 92 119
79 97 124
77 95 121
73 90 117
74 92 119
76 94 121
75 92 118
76 95 122
77 95 122
74 93 122
75 94 121
75 94 122
77 96 123
77 94 120
75 92 118
73 91 119
74 92 119
76 95 124
77 95 122
76 94 121
76 95 123
76 94 122
74 92 118
75 93 119
74 92 119
76 94 121
74 92 119
74 92 120
75 92 119
76 93 120
78 96 124
76 94 121
75 93 120
75 92 119
76 94 120
76 94 122
76 95 123
75 93 120
78 96 124
75 93 120
77 95 121
77 96 124
78 96 123
77 94 121
79 97 123
76 94 120
76 94 121
75 93 120
71 88 114
73 91 119
77 95 122
77 95 123
72 89 115
75 92 119
77 94 120
76 93 118
77 95 121
75 93 120
74 93 120
75 94 122
74 93 122
76 94 120
74 92 119
74 92 119
78 95 122
77 96 123
76 95 122
75 93 120
74 92 119
76 93 119
77 94 120
73 91 117
76 93 120
75 93 120
76 94 120
75 94 121
76 94 123
77 96 124
77 95 121
75 94 121
75 93 120
76 94 120
74 91 117
73 91 119
78 95 121
75 93 119
77 96 123
78 96 123
78 96 124
76 94 121
75 93 120
76 94 120
77 95 123
75 92 119
74 92 119
76 94 120
76 93 120
74 91 118
77 95 123
77 95 123
78 96 122
75 93 121
77 95 122
78 95 122
77 94 121
75 93 121
75 93 121
75 93 120
76 94 121
74 92 119
76 93 120
77 95 121
78 96 123
81 99 126
75 94 122
77 94 121
77 95 122
74 92 119
76 94 122
76 94 120
78 96 123
78 96 122
76 94 120
79 97 125
77 95 123
76 94 120
78 96 122
74 93 120
79 97 124
77 96 124
77 95 122
75 92 118
75 93 120
76 94 122
76 94 120
79 97 125
75 92 119
79 96 123
78 96 123
76 95 123
77 95 124
77 95 121
78 95 122
74 91 118
78 95 122
75 93 118
73 90 117
77 95 122
79 97 126
75 93 120
76 95 124
76 94 120
78 96 123
75 92 119
75 94 122
76 94 120
77 96 123
76 95 124
74 93 120
78 96 124
79 96 123
74 91 117
76 95 122
75 92 119
78 96 123
78 96 122
77 96 125
77 95 122
77 95 122
78 97 124
75 94 122
76 95 123
75 93 120
76 94 122
77 94 119
78 96 123
75 92 118
79 96 123
73 91 118
77 94 121
77 95 122
78 96 124
75 94 123
78 96 124
79 98 125
77 94 120
77 94 119
75 94 121
79 97 123
77 95 123
76 94 122
78 96 124
77 96 124
77 95 123
77 94 121
77 94 120
79 98 126
80 98 126
75 93 119
78 96 122
81 98 124
76 95 123
78 95 121
77 96 123
77 95 123
78 96 123
77 96 123
76 95 123
77 94 120
77 96 124
77 96 125
76 96 125
77 95 123
77 95 123
77 97 125
77 95 123
74 92 119
78 97 126
78 97 125
76 94 121
80 99 128
77 95 121
77 95 123
78 97 124
76 94 121
80 98 126
79 97 125
76 94 121
78 96 123
73 91 118
78 96 123
76 94 120
78 97 125
76 94 121
76 94 122
79 97 124
78 97 126
77 95 123
77 96 124
78 97 125
78 96 123
79 97 123
80 99 127
76 95 124
76 95 122
78 96 124
75 93 120
79 97 123
78 97 125
80 98 125
79 96 123
76 93 120
76 95 123
75 93 119
77 95 121
80 98 124
78 97 124
76 94 122
77 96 125
76 94 121
75 93 120
79 97 123
76 94 120
77 95 122
77 96 124
76 94 121
78 97 125
76 94 122
77 95 123
76 94 120
75 93 119
78 96 123
75 93 120
75 93 120
73 91 119
76 94 120
79 97 124
79 97 124
77 94 120
78 96 124
76 94 121
76 95 122
75 93 120
79 97 124
75 93 119
77 96 123
77 95 122
75 92 119
78 97 124
74 92 119
76 95 122
76 94 121
75 94 122
75 93 120
77 96 123
75 93 120
73 90 116
74 92 118
77 95 121
76 95 122
75 94 121
78 96 125
74 92 119
76 94 120
76 95 123
74 92 119
74 92 118
73 91 118
76 95 123
75 92 118
78 95 122
80 97 124
76 94 120
77 96 124
78 97 124
78 96 123
77 95 121
78 97 125
77 95 123
78 95 122
74 92 119
74 92 118
77 94 119
75 92 118
75 92 119
77 94 119
75 92 119
75 94 121
75 92 118
75 92 118
75 93 120
75 93 119
77 96 124
78 95 121
75 92 118
79 97 126
77 94 120
77 96 123
78 96 123
75 94 122
77 96 124
73 91 120
76 94 122
75 93 119
76 95 123
75 93 120
77 95 124
77 95 121
74 93 121
75 93 120
76 95 123
75 93 119
77 95 122
79 97 124
77 95 123
75 94 122
74 92 119
72 91 119
77 95 124
74 92 120
75 93 120
75 92 119
77 95 121
75 93 120
77 95 122
77 94 121
74 92 118
75 94 121
75 93 120
78 97 125
76 95 122
75 93 120
75 93 120
76 94 121
75 94 122
77 95 121
76 94 121
75 92 119
78 96 122
76 94 120
75 92 119
75 94 122
76 94 121
74 91 116
76 94 120
74 92 118
76 93 120
75 93 120
77 94 120
76 94 122
72 90 118
75 94 121
77 94 120
74 92 119
76 94 120
75 92 119
77 94 121
76 94 121
76 93 120
75 94 122
75 93 121
78 95 122
73 91 117
74 91 117
78 96 124
77 95 123
76 94 122
77 94 121
73 91 117
77 95 121
75 92 118
76 93 118
78 96 124
74 92 119
72 90 117
75 92 118
77 95 122
76 94 121
76 94 121
76 94 120
75 93 121
75 92 119
75 93 122
77 95 122
76 94 120
76 94 122
76 94 121
76 93 120
74 92 118
78 97 124
77 95 122
78 96 125
74 92 119
76 94 120
77 95 122
74 92 118
78 95 121
77 96 123
76 93 118
76 94 121
74 92 118
74 91 117
73 91 117
77 94 121
77 94 119
77 95 123
76 95 123
77 95 121
77 94 121
75 92 119
76 94 120
77 95 122
75 94 122
72 90 117
78 96 124
77 94 120
76 94 121
77 95 121
79 96 123
76 95 123
78 96 123
75 94 123
74 92 119
74 92 119
75 92 119
77 95 121
76 93 120
74 94 123
78 96 121
74 92 118
76 94 120
75 93 120
76 94 121
74 92 119
73 90 117
78 97 124
80 98 125
76 94 120
74 93 121
77 93 118
78 96 124
74 91 118
74 92 118
76 94 122
76 94 121
77 95 122
79 97 125
73 91 118
75 92 118
74 92 118
78 96 123
75 94 121
73 91 118
74 91 116
75 93 120
78 96 124
77 95 122
77 95 122
76 94 121
75 93 120
75 93 120
75 94 122
73 91 118
76 94 121
74 91 118
78 97 126
77 94 121
76 94 121
77 95 122
77 95 122
77 94 121
77 94 120
75 93 120
74 91 117
79 96 123
79 97 125
77 95 123
77 95 122
76 94 120
78 95 122
76 93 117
76 94 120
75 93 120
76 94 121
75 93 120
75 93 120
74 92 119
76 93 119
77 95 122
76 94 121
74 93 121
77 96 125
75 94 122
75 93 120
76 94 122
77 96 124
77 95 122
74 92 119
73 91 117
76 94 122
77 96 123
78 97 125
76 94 120
78 96 124
75 94 123
76 94 121
76 94 123
79 96 123
77 96 123
76 94 121
77 97 126
77 96 124
77 95 122
75 93 120
76 95 122
77 95 122
77 95 123
77 95 121
79 98 125
76 94 121
76 94 122
78 96 122
76 94 120
78 96 124
75 94 123
77 95 122
77 95 122
77 95 122
77 95 122
78 96 124
76 94 121
77 95 123
77 94 120
77 95 124
74 92 120
76 95 122
75 93 121
78 96 124
77 96 124
77 96 125
77 95 121
78 95 120
71 89 116
76 95 122
73 91 117
74 92 120
76 95 123
80 98 126
75 92 118
77 95 122
79 97 125
76 94 120
79 97 124
78 96 123
75 92 119
75 93 121
78 96 124
77 95 121
78 96 124
80 97 123
76 94 122
79 97 125
75 92 119
75 93 121
78 96 123
78 96 122
78 96 124
80 98 125
76 95 123
79 98 126
76 95 123
78 96 123
79 97 125
76 94 120
77 95 123
78 96 125
74 93 121
78 96 123
80 99 126
78 96 124
80 97 123
78 97 124
76 94 121
79 98 126
76 95 123
79 97 124
77 96 124
80 98 125
80 98 125
77 96 124
77 96 124
80 98 126
74 93 120
79 97 123
78 97 125
77 95 121
78 96 123
75 93 119
76 95 122
80 98 126
77 95 122
79 97 124
78 95 121
79 98 126
76 94 121
77 95 122
78 95 122
74 92 120
74 93 120
77 95 122
78 95 122
78 96 122
78 96 124
76 94 121
78 95 121
79 97 123
73 92 121
78 97 125
76 94 121
73 92 120
77 95 123
75 94 121
78 96 123
78 96 125
78 97 124
77 95 123
78 96 123
77 95 122
76 94 121
80 98 125
75 93 120
77 95 122
76 95 123
79 98 125
79 97 124
77 94 120
79 97 124
75 94 121
76 93 119
77 96 125
77 95 122
77 95 121
74 92 119
79 97 125
79 96 123
78 96 123
77 95 123
75 93 121
76 95 123
77 95 122
76 95 123
75 93 120
75 93 119
77 96 125
78 96 124
77 96 125
80 98 125
77 95 123
78 95 121
75 94 122
77 96 123
74 92 119
75 93 119
78 96 123
78 96 124
78 96 123
75 93 119
79 97 124
76 94 121
78 96 123
76 95 122
79 96 123
77 95 121
79 97 123
75 94 121
77 95 122
76 95 122
77 96 123
78 95 122
78 96 123
76 95 122
74 93 121
76 94 122
77 94 120
76 94 122
76 95 124
77 95 122
76 94 121
77 96 124
75 93 120
78 95 121
74 92 119
77 96 124
78 96 123
77 96 123
71 89 116
76 94 121
77 94 120
78 95 122
77 96 124
75 93 121
77 95 122
75 93 121
75 92 118
77 94 121
76 94 121
78 96 124
76 94 122
77 95 123
74 92 120
74 93 122
74 92 119
76 93 119
75 93 120
75 92 118
76 94 120
75 93 120
74 92 118
74 92 119
80 98 126
77 96 124
74 92 120
77 95 122
76 94 120
78 95 122
77 96 124
77 95 122
77 95 122
76 96 124
77 96 124
77 95 121
79 96 122
76 94 120
75 92 116
77 94 119
75 92 119
75 93 120
76 94 122
74 91 117
79 97 124
75 92 118
78 96 123
77 95 121
78 96 123
77 96 124
78 96 122
73 92 119
75 93 119
78 97 124
76 94 120
75 93 120
74 92 119
73 91 118
75 93 120
72 90 117
74 92 120
75 94 121
75 93 120
76 93 120
76 93 120
75 94 122
78 95 122
77 94 121
77 95 122
75 93 120
79 97 123
76 94 122
76 95 123
75 92 117
75 92 119
74 93 120
78 95 122
76 94 121
78 96 123
78 96 123
75 93 120
77 96 124
75 93 119
78 96 124
76 94 120
78 97 125
74 93 122
73 91 117
76 93 118
73 91 118
78 96 123
74 92 118
74 91 117
79 98 126
75 94 122
77 94 121
76 93 120
76 94 120
77 95 122
75 93 121
75 92 118
77 94 120
79 97 124
74 91 117
77 95 121
77 96 124
76 94 120
76 94 121
78 96 124
78 96 124
75 93 121
74 92 120
74 92 119
79 97 123
77 95 121
77 95 121
75 94 121
78 96 124
75 93 121
76 93 118
75 93 119
77 95 123
76 94 121
76 93 120
73 92 119
74 91 118
78 95 122
76 94 122
74 91 118
77 95 122
77 96 124
76 94 121
77 95 123
74 91 116
74 93 120
76 93 120
76 94 122
76 94 121
75 93 120
78 96 125
78 96 123
73 90 114
78 95 122
75 93 119
74 91 118
76 94 121
78 96 124
79 97 125
78 96 122
77 94 119
76 93 119
73 91 119
73 90 116
75 94 123
78 97 125
76 93 120
77 95 122
77 94 120
75 92 119
78 96 123
76 94 122
76 94 122
77 95 121
79 97 124
77 97 126
76 93 120
77 94 120
75 92 119
77 95 121
76 94 119
77 95 122
76 94 121
73 90 115
77 95 121
73 91 118
75 94 122
78 96 122
78 97 124
75 93 120
78 95 121
75 93 119
78 96 122
77 96 125
77 95 123
76 93 119
76 95 123
75 93 121
76 95 123
75 93 120
73 92 119
78 96 124
75 93 120
75 93 119
78 96 123
77 94 121
74 93 122
78 96 122
78 96 123
75 94 121
78 97 126
76 95 123
77 96 125
76 93 120
77 95 122
77 95 122
77 95 123
77 94 120
77 95 123
78 95 122
76 94 121
78 96 123
77 94 120
75 92 119
77 96 124
79 96 122
76 94 122
78 96 122
74 92 120
78 96 123
76 94 121
75 93 118
78 96 123
75 93 121
75 94 122
75 93 121
78 97 125
74 92 119
78 95 121
77 94 120
76 95 122
74 93 122
77 95 122
77 95 121
75 93 119
78 96 124
73 91 117
78 96 122
73 92 121
79 97 124
77 95 122
80 99 127
77 95 123
76 94 122
76 93 118
79 97 125
75 94 122
78 97 126
74 93 120
79 97 124
76 95 124
74 92 118
74 92 120
76 95 123
75 94 122
75 94 122
78 97 124
73 91 117
77 95 123
76 95 122
79 97 124
78 97 124
78 97 124
75 93 121
77 94 121
75 93 121
77 95 122
75 94 121
77 95 123
78 96 124
78 96 123
80 97 122
77 95 122
77 95 123
78 96 123
79 97 124
75 93 122
80 97 123
78 97 124
77 95 124
80 98 126
79 97 125
76 95 123
74 93 120
82 100 127
75 93 120
77 95 122
78 96 122
77 95 123
75 94 122
78 96 124
79 97 125
78 96 122
78 97 125
80 98 125
77 96 123
77 95 122
79 97 124
75 95 124
79 97 123
77 95 123
77 96 123
79 98 125
77 96 124
78 95 121
79 97 125
78 96 123
79 97 123
77 95 121
79 97 125
77 96 123
78 96 122
77 95 122
75 93 121
78 95 122
74 91 116
76 94 121
74 92 120
76 95 122
76 94 120
80 98 125
79 97 125
76 94 122
78 96 124
76 94 120
77 95 123
78 96 122
78 96 123
78 95 121
78 96 123
76 94 121
75 93 119
76 94 120
77 95 121
77 96 124
73 92 119
77 95 122
78 96 123
76 95 122
74 91 117
74 92 118
78 96 122
76 95 122
77 95 122
74 94 123
79 97 125
72 90 116
74 91 118
79 97 125
77 95 121
77 95 123
75 93 120
77 96 123
81 98 124
76 94 122
77 95 123
77 95 121
77 94 119
74 92 120
76 94 120
80 98 125
76 94 121
75 93 120
77 95 122
75 93 120
76 93 119
77 94 120
74 92 118
78 96 125
75 92 118
75 94 122
75 93 120
76 93 120
74 92 119
77 96 124
76 95 122
75 93 120
76 94 120
79 97 123
78 97 125
76 93 118
77 95 121
73 91 119
77 95 123
78 96 124
77 94 120
74 93 121
74 92 119
78 97 124
78 96 124
78 97 124
77 96 124
77 94 120
76 94 121
75 94 122
76 95 122
77 94 121
72 89 115
76 94 122
74 92 118
78 95 121
77 95 122
77 96 124
77 96 124
79 96 121
77 94 121
80 97 124
75 92 119
77 96 124
76 94 121
77 95 122
76 95 123
77 95 123
74 91 117
77 94 120
75 94 123
76 94 121
78 96 123
76 93 119
75 94 123
75 93 120
74 92 119
75 93 119
75 93 120
76 94 121
78 95 121
74 91 117
78 96 123
77 95 122
75 93 120
77 96 123
74 92 118
77 94 120
73 92 119
79 97 125
78 95 120
77 94 120
77 95 121
74 92 119
78 96 122
75 93 119
76 94 121
74 92 118
73 92 119
75 92 119
77 96 124
78 96 123
76 95 122
76 94 120
76 95 122
77 94 121
77 94 120
76 94 120
77 95 121
73 91 118
77 95 122
78 96 123
79 96 123
74 92 119
75 92 118
76 93 120
74 92 119
73 91 117
77 95 122
78 95 122
74 92 120
75 94 122
76 94 120
73 92 119
77 95 123
77 95 121
77 95 122
77 94 121
76 94 121
76 94 121
78 96 123
76 94 120
78 96 122
75 93 119
76 94 121
74 91 118
75 93 120
78 96 123
75 93 121
76 93 120
76 95 123
75 93 121
77 94 121
77 95 122
74 92 119
75 92 118
76 93 120
77 95 121
71 88 114
74 93 120
77 94 121
76 95 123
78 95 121
80 98 125
73 91 119
75 94 121
76 95 123
77 95 123
75 92 119
77 96 124
74 93 120
76 94 120
74 92 119
79 97 125
75 93 119
76 93 120
75 93 120
78 95 121
74 92 120
76 95 122
74 91 118
77 95 123
78 97 124
77 95 122
75 93 120
74 92 119
76 94 121
75 93 120
73 91 118
74 92 119
76 94 121
79 97 125
76 94 120
74 91 118
78 96 123
78 96 123
79 96 123
78 95 121
77 95 123
75 94 121
77 95 122
78 95 121
77 94 120
74 92 118
75 93 120
74 92 120
74 92 120
76 95 124
77 95 122
78 95 121
77 95 122
75 93 119
72 90 117
75 93 120
75 93 121
74 92 119
73 90 115
76 94 121
78 95 120
76 94 121
76 93 118
76 93 119
77 94 121
77 94 120
76 95 122
78 96 123
73 91 118
79 97 124
77 95 123
75 92 117
74 91 117
74 94 123
76 95 122
76 93 120
80 97 124
76 94 120
76 94 121
78 96 122
77 96 124
77 95 123
75 93 121
73 91 119
75 93 118
75 93 120
77 95 122
76 94 121
77 96 125
76 94 121
76 95 123
75 94 121
76 94 121
77 95 122
78 97 124
77 96 124
77 95 122
75 92 119
73 91 117
78 96 124
75 93 119
78 95 120
75 94 121
77 95 122
78 97 124
77 95 122
78 96 124
73 92 120
77 95 121
78 96 123
73 91 118
78 95 121
76 94 122
76 93 120
79 96 123
74 92 119
78 96 121
78 96 122
78 97 125
75 93 121
77 94 120
76 95 123
77 95 122
76 94 121
78 95 122
77 96 123
79 97 124
78 96 123
75 92 119
73 91 118
76 94 121
73 92 120
76 93 119
76 94 121
79 97 126
77 95 122
76 95 123
78 96 124
76 94 121
74 92 119
76 95 123
75 92 118
78 96 124
77 95 122
76 95 122
78 96 122
74 93 122
77 95 122
79 98 126
75 94 121
78 96 123
77 95 122
77 95 122
76 95 123
79 97 124
74 92 120
77 95 123
76 95 123
75 93 120
78 96 124
80 97 124
79 97 124
78 95 121
80 97 124
77 95 122
75 94 121
79 96 123
78 96 123
80 97 124
77 96 123
77 95 123
77 95 122
78 96 123
77 95 123
77 95 122
75 94 121
77 95 123
75 94 121
78 96 123
78 96 124
80 98 125
78 97 124
78 96 123
74 92 119
77 95 121
78 96 124
76 93 119
78 96 123
77 96 124
79 96 123
82 100 126
79 98 126
76 95 124
76 94 120
77 95 122
77 94 120
78 97 125
79 97 125
77 95 122
78 96 123
80 98 125
78 96 123
75 94 122
76 95 123
74 93 121
77 96 123
79 96 122
79 97 124
78 95 121
76 95 122
75 93 121
78 94 119
80 97 124
78 96 122
76 94 122
77 95 123
78 96 123
77 95 123
79 97 124
78 96 124
76 94 121
78 96 124
78 97 125
79 98 126
74 92 120
76 94 121
78 96 123
79 98 126
77 96 125
78 96 123
75 92 118
74 92 120
79 96 121
78 96 123
77 96 125
77 95 122
78 97 126
74 91 118
75 94 122
76 94 122
78 96 123
76 93 120
78 96 123
76 95 122
76 94 121
77 94 120
80 98 126
75 93 120
77 95 122
74 93 120
76 94 120
77 96 123
76 94 121
78 96 124
74 92 119
77 96 124
79 96 122
76 93 120
75 94 123
79 98 125
78 96 124
76 93 120
75 93 119
77 94 120
76 95 122
73 91 118
78 95 122
73 91 119
78 96 124
74 92 119
78 96 122
75 94 122
78 96 123
77 95 122
77 95 122
76 94 121
75 92 118
75 93 120
74 93 120
76 94 121
76 94 123
75 93 119
76 93 120
76 94 121
78 95 122
72 89 115
75 93 119
77 96 124
75 93 120
77 95 122
76 94 121
78 97 126
79 98 125
75 94 122
78 96 123
78 96 123
76 93 120
74 92 121
80 97 122
77 94 121
75 92 117
78 95 121
76 95 123
75 93 121
76 95 123
75 94 123
77 95 121
76 95 122
77 95 122
75 93 121
77 96 124
77 94 121
76 94 120
78 97 124
75 93 121
75 94 123
76 94 120
77 95 121
76 95 122
77 94 121
72 89 116
75 93 120
74 92 118
75 91 116
73 91 117
77 96 124
76 95 122
76 94 120
74 92 118
79 97 123
73 90 116
77 95 122
79 96 122
76 94 121
74 91 117
77 95 122
76 94 121
77 96 124
75 93 120
77 95 122
77 96 124
78 96 123
74 92 120
77 94 121
79 97 124
75 94 122
74 93 120
76 95 122
73 91 118
77 95 123
74 92 119
76 94 122
75 94 121
75 93 120
75 92 118
76 94 122
76 94 121
74 92 119
78 97 124
74 92 118
76 95 122
77 95 123
77 94 120
75 94 121
77 96 123
76 93 119
76 94 121
76 93 120
72 90 116
79 97 123
72 90 116
74 92 119
79 97 124
77 94 120
77 94 121
76 93 120
79 96 121
74 92 121
80 97 122
74 92 120
78 95 121
78 96 123
76 94 121
76 94 121
75 94 122
78 96 123
77 95 123
75 93 120
74 93 120
77 95 122
76 95 122
74 92 119
76 93 120
76 95 122
76 95 122
76 94 121
75 92 119
78 95 121
77 95 121
75 94 122
75 93 120
77 95 123
76 95 122
78 95 122
77 95 122
76 94 123
77 95 122
73 92 120
76 94 122
72 89 115
74 92 119
77 93 118
77 95 122
75 93 120
77 95 123
76 94 121
77 95 122
79 96 122
74 93 121
79 97 123
76 94 120
78 96 122
72 90 119
77 95 122
76 95 123
76 94 122
78 95 121
80 99 126
79 97 125
73 91 117
75 93 120
75 93 120
80 97 123
75 93 120
75 92 117
76 94 121
79 97 125
74 91 118
74 92 120
78 96 122
77 95 123
76 93 120
77 94 121
78 96 124
76 95 123
74 92 118
76 95 122
77 94 120
76 93 119
75 93 121
76 95 123
72 89 116
75 93 120
79 97 124
73 91 118
76 95 124
76 94 121
76 94 121
76 94 120
74 92 119
75 94 121
75 94 122
77 95 123
78 97 125
75 92 119
77 95 122
74 92 120
77 94 121
77 95 122
76 95 124
76 93 118
76 94 121
74 91 118
75 92 117
76 94 122
75 94 122
79 96 122
76 94 123
76 94 122
77 94 121
75 92 117
75 93 120
75 92 119
76 95 124
79 97 125
75 94 121
78 95 122
75 94 122
74 92 118
78 96 123
76 94 121
77 95 123
79 98 126
72 91 119
76 94 120
75 92 119
77 95 123
75 94 122
76 94 122
79 97 124
74 93 121
77 95 122
78 96 122
79 97 125
74 92 120
75 95 123
76 94 121
75 93 120
78 96 124
77 95 122
78 97 126
79 97 125
78 95 121
77 94 120
77 96 124
74 93 121
76 94 121
76 95 124
79 97 123
76 94 121
76 94 122
75 93 120
76 95 122
75 93 120
76 94 121
79 97 125
75 92 119
76 94 121
74 93 121
73 91 117
75 93 120
79 98 126
76 94 121
77 96 124
75 93 120
80 98 125
76 94 121
77 95 122
79 98 126
77 95 121
78 96 124
78 96 123
75 94 122
76 94 121
77 95 123
78 96 123
79 98 127
78 96 124
76 94 121
75 94 121
77 95 121
80 97 122
77 95 123
77 95 121
78 97 125
75 94 122
77 95 121
77 95 121
78 96 122
79 98 126
77 95 122
77 95 123
81 100 128
78 95 122
77 94 120
77 95 123
79 96 123
76 94 120
79 96 122
77 95 122
79 97 123
75 93 120
78 96 124
77 96 124
79 97 124
77 95 121
76 95 123
78 97 125
80 98 124
76 93 120
77 96 123
76 95 122
80 98 125
78 96 122
77 95 121
76 94 121
74 92 120
78 97 125
80 98 126
78 97 125
75 94 122
78 97 125
77 94 120
77 95 123
76 94 120
79 97 125
78 96 123
79 96 122
77 96 123
78 97 124
75 93 120
79 97 124
78 96 124
78 96 122
78 96 124
80 98 125
77 95 122
80 98 126
77 96 123
80 99 126
76 95 123
75 94 121
78 97 125
78 97 124
79 97 125
77 95 123
79 97 126
78 96 123
77 95 122
78 96 122
75 94 121
74 92 119
77 95 121
76 93 120
77 96 123
76 94 121
76 94 121
75 94 121
79 97 124
76 94 120
78 95 122
74 91 118
77 95 123
79 98 126
80 98 126
76 94 121
74 93 122
75 94 122
75 93 120
78 97 125
77 95 122
77 96 124
77 96 123
78 95 122
78 96 124
77 95 122
73 91 119
76 94 121
78 97 125
80 97 123
76 94 122
76 94 121
77 95 121
75 93 120
75 93 120
77 94 121
77 94 121
80 97 124
79 97 124
77 95 123
78 96 121
78 96 124
77 94 120
77 95 122
78 96 124
74 93 122
76 93 120
75 94 122
77 95 123
74 93 120
79 96 123
78 97 124
76 94 121
79 96 123
76 94 122
76 94 121
78 96 123
79 96 122
74 92 119
76 95 123
76 94 121
78 96 123
76 94 122
78 96 124
78 97 124
77 95 122
74 91 117
78 96 122
78 97 124
77 96 123
74 93 121
76 94 121
79 98 127
76 93 118
77 95 123
81 98 124
78 96 123
78 95 122
77 95 122
76 94 122
77 95 121
75 93 120
74 93 120
77 95 122
77 95 122
73 92 121
76 94 122
73 92 120
75 93 120
76 94 120
76 94 123
77 95 122
75 92 118
76 94 120
76 94 120
76 94 120
73 91 118
75 94 123
76 94 122
79 97 124
77 95 123
75 93 120
74 92 117
74 91 118
78 97 125
77 94 120
76 94 121
75 94 123
77 96 124
72 91 119
76 94 121
76 94 120
78 96 124
74 92 119
76 94 123
75 93 119
80 98 126
76 94 121
78 95 122
78 96 123
75 93 120
75 93 120
77 95 122
75 93 119
77 95 122
75 92 119
76 95 123
74 92 119
77 95 122
78 96 123
78 96 123
77 95 123
72 89 114
76 94 120
78 96 122
74 92 119
77 94 120
75 93 120
76 94 121
75 94 122
75 94 122
75 92 118
76 94 121
77 94 120
74 92 120
80 97 123
76 94 120
75 94 122
80 98 125
75 94 122
76 94 121
73 91 117
77 95 123
75 94 121
78 96 124
74 93 120
77 95 120
79 97 123
76 94 121
76 94 122
78 96 122
77 95 121
80 97 124
76 94 120
76 94 122
77 94 120
76 94 121
74 92 120
74 92 118
76 95 123
76 95 122
76 94 121
76 94 122
77 95 123
75 92 118
76 94 121
73 91 118
74 92 120
73 91 119
76 94 122
76 94 122
72 90 118
77 95 122
75 93 119
77 96 123
77 95 122
76 96 125
77 94 121
75 93 120
74 93 120
77 96 123
73 90 117
77 95 121
78 96 122
76 94 122
78 95 121
77 94 120
75 94 122
79 97 124
79 97 125
75 92 117
75 94 122
77 95 121
75 93 120
74 93 120
74 91 117
76 93 120
72 89 115
77 94 121
77 95 123
78 97 125
77 95 122
75 93 121
75 93 119
75 93 121
75 94 121
73 91 119
75 93 120
75 92 118
73 91 118
76 94 121
74 92 118
79 96 123
77 95 121
78 97 125
74 91 118
76 93 120
79 96 122
75 94 121
74 93 120
76 94 120
77 95 121
76 95 123
77 95 122
76 93 120
76 94 122
76 94 120
80 97 123
75 92 119
75 94 123
77 95 122
77 95 121
76 93 119
76 95 122
79 96 123
77 94 121
76 94 122
73 90 116
74 91 118
76 94 120
76 95 122
76 93 120
76 94 121
76 94 122
77 95 123
77 94 119
75 94 122
76 94 120
77 95 122
78 96 124
76 94 120
75 93 120
77 96 124
78 96 124
71 89 116
73 91 118
78 97 125
78 96 123
77 94 121
74 92 118
73 91 118
75 93 120
78 96 123
75 93 121
79 98 126
77 94 121
78 96 123
77 94 120
76 94 121
78 96 123
77 95 122
76 94 120
77 95 121
79 97 124
74 93 121
76 95 122
74 93 120
75 94 122
76 93 120
75 94 121
78 97 124
74 92 119
77 95 122
75 93 119
80 97 123
74 93 120
75 94 122
75 93 121
79 97 123
76 94 120
74 92 118
75 93 121
79 98 125
77 94 120
76 94 120
76 94 122
76 94 121
77 95 123
73 90 117
77 96 124
77 95 121
75 93 120
76 94 120
76 94 122
78 97 125
78 95 122
76 94 121
80 98 125
77 95 122
79 97 124
75 93 121
77 95 122
78 96 123
76 94 121
78 96 123
77 95 123
76 94 119
76 94 120
78 96 123
77 95 123
79 97 124
78 96 122
77 96 124
77 95 123
74 92 119
76 94 123
78 95 121
74 92 120
79 97 124
77 95 121
79 96 123
77 95 123
78 96 124
76 95 123
78 96 123
77 95 121
78 96 124
76 93 119
77 95 123
75 94 123
79 97 123
74 92 120
76 94 122
76 93 119
78 96 125
74 93 120
76 95 123
76 93 119
77 96 124
76 94 121
78 96 122
77 96 123
76 93 120
77 95 123
79 97 124
78 96 123
75 93 120
76 94 120
76 94 122
78 97 124
78 96 124
76 95 123
77 94 120
80 98 124
78 97 124
77 95 121
78 96 124
75 93 121
76 94 122
76 94 121
77 95 122
78 96 124
77 95 123
78 96 123
79 97 125
76 96 126
78 97 125
77 95 121
76 94 121
78 97 125
76 94 122
76 94 122
79 97 124
78 97 125
77 96 124
77 95 122
79 97 124
77 95 122
77 95 123
79 97 124
76 94 122
77 95 123
76 94 121
78 96 124
78 96 122
77 96 123
75 94 122
76 95 123
75 93 120
77 95 122
77 95 123
78 96 123
76 95 123
78 97 125
78 97 124
74 94 123
79 97 125
78 95 122
81 98 124
77 95 122
78 97 125
79 96 121
77 94 121
79 96 123
79 97 124
76 94 122
78 97 126
77 96 123
76 93 119
78 96 122
78 96 122
78 97 125
77 95 123
77 95 122
76 94 120
78 97 124
80 98 126
78 96 123
76 95 124
77 94 120
79 96 121
77 95 122
78 96 124
75 94 122
78 95 120
77 96 123
76 94 122
77 95 123
78 96 124
76 95 123
77 95 123
76 94 122
77 95 123
78 96 124
75 93 120
74 92 118
74 93 120
79 98 126
75 94 122
76 93 120
75 93 120
81 99 126
77 96 125
77 95 122
74 92 119
75 92 119
78 95 121
75 93 120
75 92 118
76 94 120
77 95 124
76 94 122
78 96 123
79 97 124
78 95 122
75 94 121
79 97 124
76 93 120
77 95 122
78 96 123
77 96 124
77 96 123
76 95 122
76 94 122
75 94 122
75 94 122
76 94 122
78 96 122
77 96 124
75 92 118
78 96 123
73 91 117
78 96 124
77 96 124
77 94 120
78 96 123
75 93 120
77 95 123
75 94 123
75 93 120
74 92 120
74 92 119
74 92 120
73 91 119
75 92 118
78 97 125
75 93 120
75 92 119
76 94 121
75 93 120
77 95 123
79 97 125
76 95 122
76 94 120
76 94 121
78 96 123
75 92 118
75 93 121
75 94 122
74 92 118
75 93 120
75 94 121
74 92 120
78 96 123
78 95 121
76 94 120
76 94 121
76 94 120
78 96 123
76 96 124
77 95 122
74 92 120
76 93 119
76 94 121
76 94 122
75 93 120
75 93 119
77 94 120
78 95 122
77 95 122
77 94 120
79 98 126
74 92 119
77 95 121
76 93 118
75 93 120
76 95 123
74 92 120
76 94 122
75 93 121
80 97 123
78 96 123
76 94 121
77 95 122
77 94 121
74 92 119
78 95 122
76 94 121
77 96 124
75 93 120
76 94 120
76 93 117
75 94 122
79 96 123
77 95 121
74 92 119
78 95 122
74 91 117
77 95 120
76 94 121
77 95 121
77 95 121
74 92 120
76 95 122
76 94 121
75 94 122
78 96 123
76 94 122
77 95 123
76 94 121
76 94 121
75 94 122
79 97 124
77 95 122
77 94 120
75 92 118
76 94 122
75 92 119
75 94 121
77 95 123
80 99 127
78 96 123
78 96 124
77 94 121
75 93 122
79 97 124
75 94 123
75 92 118
75 93 120
77 95 122
76 95 123
75 92 118
75 93 120
79 97 125
76 93 119
73 91 119
75 94 121
75 94 122
74 92 118
75 94 123
77 93 119
77 94 120
77 96 125
79 96 122
77 95 122
79 97 124
75 93 120
74 93 121
78 96 122
78 96 122
76 94 121
80 98 125
76 94 122
78 96 123
75 94 121
74 92 120
76 94 121
74 93 120
78 96 122
76 96 125
75 93 120
74 92 119
76 95 124
76 94 121
77 95 122
79 96 122
79 97 126
75 93 120
76 94 121
76 94 121
75 93 120
76 95 123
76 93 120
75 92 118
75 93 120
78 96 123
78 95 122
77 94 118
78 96 124
74 93 121
77 95 122
77 95 121
76 94 121
75 93 121
76 94 122
75 94 122
77 95 122
75 93 121
75 93 122
77 94 120
77 95 122
75 93 120
76 94 121
75 93 119
75 94 122
76 94 122
77 95 123
79 98 125
79 97 124
77 94 121
79 97 124
78 97 125
76 93 120
75 93 120
76 95 123
78 96 123
76 94 122
75 93 120
76 93 119
75 94 123
75 93 120
75 92 118
76 93 120
76 95 124
74 92 120
76 95 123
74 91 118
78 96 123
77 95 123
79 97 125
74 91 116
78 95 122
76 92 117
82 99 126
75 93 120
76 95 123
75 95 124
75 92 119
76 94 122
72 91 119
74 92 119
77 94 121
77 96 124
75 92 119
75 93 121
75 93 120
77 96 123
76 94 120
74 92 119
77 94 120
76 94 120
78 96 122
76 95 122
76 95 123
78 97 126
76 93 119
79 97 124
76 94 120
77 95 122
76 95 122
79 97 124
77 94 120
76 95 122
75 94 122
77 95 120
77 96 124
78 96 123
77 95 123
78 96 124
75 92 118
77 95 122
79 98 126
75 93 120
77 95 122
77 96 123
77 95 121
77 96 124
74 92 118
76 93 119
77 96 124
76 94 122
78 96 124
78 96 123
77 95 121
74 92 120
77 95 123
75 93 120
78 96 123
75 93 120
76 94 120
74 92 120
78 96 124
77 95 123
80 98 125
77 95 122
77 94 121
73 92 120
77 95 123
76 95 122
74 91 118
77 95 121
76 94 121
78 97 124
78 96 123
75 93 119
78 96 124
75 93 119
81 98 124
76 94 122
79 97 124
75 93 120
77 96 125
78 96 123
79 98 126
78 97 125
76 94 122
77 94 121
80 98 125
77 94 121
78 97 125
75 94 122
77 95 122
77 94 121
78 96 124
73 92 120
79 98 126
76 94 122
79 96 121
76 95 124
78 96 124
76 94 122
80 98 125
77 96 125
76 94 122
78 97 125
78 97 125
78 97 125
77 95 123
80 98 125
77 95 121
77 96 125
78 96 124
77 96 123
77 95 122
79 97 124
75 94 123
77 95 123
73 92 119
75 92 119
77 94 121
79 97 124
77 96 124
78 96 124
76 94 122
77 95 122
75 93 120
79 97 124
78 97 125
77 94 120
79 97 126
76 93 119
79 97 124
77 95 122
77 96 123
74 93 121
80 98 125
75 93 119
76 94 121
75 93 120
75 94 122
77 94 121
77 95 123
77 94 120
77 95 123
76 94 121
79 96 123
76 95 123
78 95 120
77 94 121
77 95 123
75 93 121
78 95 121
79 97 124
77 95 123
76 94 122
77 95 121
75 93 121
78 96 122
76 95 124
78 96 122
77 96 123
76 94 121
74 93 121
77 94 120
77 95 121
74 92 118
76 93 119
77 96 123
75 94 122
76 95 123
77 95 122
79 97 124
79 97 124
73 93 122
76 95 123
76 94 122
77 96 124
76 95 124
79 97 123
77 96 124
77 95 121
79 97 124
73 91 119
75 92 119
77 96 124
75 93 121
76 94 122
77 96 124
79 97 123
77 95 123
74 91 117
72 90 116
76 95 122
78 96 124
74 92 120
76 94 121
75 93 120
78 95 122
77 96 123
79 97 124
78 95 122
77 94 120
77 95 121
76 93 118
76 94 120
76 94 122
76 94 120
77 95 121
72 89 114
74 91 117
78 96 124
76 95 123
76 94 121
73 91 118
75 94 122
74 92 119
76 94 121
78 95 122
76 94 120
77 95 122
75 93 120
74 92 119
76 93 118
78 95 121
76 94 122
78 97 126
74 91 118
73 91 117
80 98 124
76 95 122
78 96 124
76 94 122
78 96 123
76 94 121
76 93 119
79 97 125
76 93 119
74 92 119
74 92 119
77 96 124
77 94 120
77 95 122
76 93 120
77 95 122
77 95 122
75 93 120
75 94 122
81 99 126
79 96 123
74 91 116
78 95 121
77 96 124
76 94 121
79 97 124
75 94 123
73 90 116
76 94 120
76 94 122
74 93 121
78 96 123
77 95 123
75 93 119
76 94 121
73 91 117
75 93 120
76 95 123
78 95 121
77 94 121
78 96 123
75 92 118
78 95 121
75 93 119
77 95 123
76 94 121
76 93 119
77 95 122
75 93 120
78 96 123
79 97 124
77 94 120
76 94 121
75 92 118
77 95 122
75 94 122
79 97 125
77 94 121
76 94 120
76 94 121
77 95 122
76 94 120
77 95 122
77 95 122
75 93 120
75 93 119
78 95 121
75 93 121
74 93 120
77 96 124
74 92 120
75 93 120
76 94 121
75 94 122
76 94 120
74 92 119
77 95 122
76 94 121
75 93 120
77 95 122
76 94 121
79 97 125
78 96 123
77 94 120
79 96 123
78 95 121
79 96 122
73 92 120
74 92 117
75 95 123
75 93 121
73 91 118
78 97 125
76 95 123
78 96 124
78 96 124
77 95 123
71 90 119
75 92 118
72 91 118
75 93 120
78 96 123
75 92 118
76 93 120
76 95 122
77 96 124
79 96 123
78 97 125
75 92 118
76 94 122
78 96 123
76 93 120
76 94 122
79 96 123
76 93 119
75 93 120
78 96 123
78 96 122
77 96 125
75 94 122
74 92 120
75 93 120
76 94 120
76 94 120
75 91 115
77 96 126
78 96 124
77 95 122
75 92 119
77 96 124
74 92 119
75 93 120
76 95 122
77 95 122
76 93 119
77 95 123
77 96 123
78 96 125
81 99 126
78 96 123
76 93 119
76 95 123
78 97 126
77 95 123
75 93 121
76 95 123
74 91 118
77 95 123
74 92 120
76 93 120
75 92 119
75 92 118
77 95 122
78 96 124
77 96 124
77 96 123
74 93 121
76 94 122
78 97 125
76 95 123
76 94 120
78 96 124
76 94 121
78 96 123
77 95 122
78 95 121
75 93 120
75 93 120
77 95 122
77 96 125
76 95 122
78 96 124
77 96 123
74 92 120
75 93 121
76 95 123
76 95 123
75 93 121
74 91 118
75 92 117
79 97 124
77 95 122
75 93 120
76 93 120
76 93 118
75 93 120
78 97 126
74 93 120
76 94 121
78 96 122
77 95 122
75 93 120
79 97 124
76 93 120
77 95 123
75 93 121
74 91 117
77 95 123
77 95 123
78 95 122
74 92 120
76 95 123
78 96 123
75 92 118
77 95 122
74 91 117
77 95 122
79 96 123
75 93 120
78 96 124
76 93 120
77 96 124
75 93 120
73 91 117
79 97 125
73 90 117
78 97 124
75 93 120
77 95 123
75 93 119
77 94 121
77 96 125
80 98 125
77 95 123
76 95 122
77 95 124
73 91 117
77 95 123
75 93 120
77 96 123
75 93 120
76 94 122
76 94 121
78 95 121
75 93 121
76 94 121
77 96 124
78 97 126
75 92 119
78 97 125
76 95 123
78 96 124
77 94 119
76 93 120
75 94 121
75 94 123
76 94 122
76 94 121
75 94 121
77 95 123
78 96 124
75 92 119
76 94 121
79 97 123
80 99 126
79 97 124
77 97 126
80 98 124
78 96 123
76 95 125
78 96 123
77 94 121
76 96 124
78 96 123
78 96 123
78 96 124
78 96 123
76 94 121
78 95 122
74 92 120
78 96 124
79 96 122
79 97 125
76 94 121
77 95 122
77 95 121
78 97 125
81 100 128
76 95 123
76 94 120
75 93 120
79 97 123
77 95 123
79 97 124
76 95 123
78 96 122
77 95 122
77 96 124
79 97 125
76 95 124
79 97 125
79 97 125
79 97 125
75 93 121
76 94 122
77 95 121
78 96 124
75 94 121
78 96 121
76 94 120
78 95 121
77 96 123
78 96 123
77 95 122
78 96 123
79 96 123
74 93 121
77 96 123
78 96 124
76 93 119
78 96 123
76 95 123
79 97 123
75 93 120
81 99 125
74 92 120
76 93 120
74 93 120
76 94 121
76 93 119
76 94 120
76 93 120
77 95 122
77 95 121
77 95 122
75 92 119
75 93 121
79 96 123
76 93 119
77 95 122
77 96 125
76 95 122
77 95 123
78 96 123
73 91 119
80 98 126
77 95 122
74 93 120
76 94 122
80 98 125
80 97 122
77 95 122
77 94 121
78 96 123
77 95 121
76 94 121
76 95 123
77 95 122
74 91 117
77 95 121
77 96 125
78 96 123
76 94 121
77 95 122
77 96 125
78 96 122
75 93 119
76 94 122
74 92 119
73 91 116
77 96 123
77 94 121
79 98 125
77 96 124
75 93 120
74 93 120
76 95 123
75 94 121
80 98 125
77 95 123
79 97 124
76 95 123
77 95 121
76 94 120
75 93 120
75 92 118
74 92 119
78 96 122
76 95 123
78 95 121
78 96 123
74 93 120
78 96 123
79 96 122
77 96 124
78 95 121
78 96 124
77 95 123
78 96 124
77 95 123
76 94 120
76 94 122
77 95 121
77 96 123
75 94 123
75 92 119
76 95 124
76 94 121
79 96 122
78 96 123
78 97 124
74 91 117
78 96 123
75 93 121
77 95 122
76 94 122
74 92 118
76 95 123
76 94 121
76 94 120
76 94 122
77 93 118
78 96 123
73 91 118
73 91 119
76 93 120
75 91 116
77 95 123
76 93 119
76 94 120
77 95 122
79 97 124
76 94 120
76 95 123
78 95 121
77 95 122
76 94 120
74 93 121
78 96 124
78 96 122
76 95 123
77 95 122
77 95 123
77 95 122
74 92 118
75 93 120
78 96 122
72 91 118
77 95 123
77 94 120
73 91 118
77 95 122
75 93 120
77 95 122
76 95 122
73 91 117
77 95 123
76 93 119
76 94 121
76 94 120
78 96 122
75 93 121
76 94 122
76 95 122
74 93 121
74 93 120
76 95 123
73 92 119
75 94 122
79 97 124
77 94 120
77 96 124
76 94 122
77 95 122
77 94 121
75 93 120
78 96 123
77 94 119
77 95 123
77 94 121
73 91 117
78 95 122
74 93 121
77 95 122
75 93 120
74 91 118
76 95 123
79 97 124
79 96 121
77 95 123
78 96 124
77 96 124
73 91 118
75 93 120
76 94 121
75 93 120
77 94 120
76 95 122
77 95 122
76 95 123
78 96 124
76 94 121
75 94 121
72 90 118
74 92 119
75 94 121
76 94 120
77 95 121
75 94 122
77 95 122
80 98 126
78 96 123
79 97 123
77 95 123
78 96 124
79 97 125
78 96 124
75 93 120
76 95 124
73 92 120
78 97 124
76 95 124
75 93 119
76 94 121
74 92 120
76 94 121
76 95 123
76 94 120
71 89 117
77 96 123
80 98 126
78 95 122
74 91 118
77 95 121
75 93 120
75 93 120
75 93 119
74 93 120
75 92 118
77 95 122
75 94 122
79 96 122
76 93 120
76 94 121
79 98 126
76 94 120
77 95 122
76 94 121
76 94 120
77 94 120
75 93 119
75 93 121
79 97 125
77 95 123
76 94 121
75 93 121
73 91 119
77 95 121
75 93 120
75 93 120
77 95 122
74 93 120
76 94 121
77 96 123
75 94 122
76 94 120
79 96 121
75 94 121
77 95 122
77 96 123
76 94 122
75 93 120
79 96 123
77 95 124
78 95 121
78 97 125
76 94 121
76 95 123
77 95 122
76 94 120
78 97 125
77 96 124
78 96 123
77 95 123
77 95 122
80 97 122
77 95 123
76 94 119
74 93 121
79 97 125
75 94 122
75 93 119
77 95 121
76 95 124
75 94 122
74 93 121
79 97 124
76 95 122
75 93 120
79 97 125
74 92 119
76 94 122
74 93 120
76 94 121
77 95 121
76 94 121
77 94 118
78 96 124
77 96 123
77 95 122
79 97 124
78 97 124
74 91 118
77 95 122
78 96 123
78 96 124
77 95 123
74 92 119
78 96 123
74 94 123
76 95 122
79 97 124
75 94 121
77 95 122
80 98 126
79 97 124
79 97 125
78 96 123
80 97 123
78 96 123
77 94 119
77 95 123
77 95 121
76 93 120
73 91 119
76 95 124
79 97 125
75 93 120
78 97 125
79 97 125
77 96 124
77 96 124
79 97 125
74 93 120
74 93 122
79 98 126
78 96 124
74 92 120
75 93 121
76 95 123
75 93 121
79 97 123
76 94 120
77 95 122
77 95 122
78 96 123
80 98 125
78 95 122
74 93 121
77 96 124
79 98 126
78 96 121
76 94 121
77 95 122
78 96 124
80 98 125
79 97 124
81 99 126
78 96 124
80 99 126
75 94 122
77 96 123
78 97 125
76 95 122
77 95 123
76 93 119
77 95 123
79 96 122
79 97 124
77 95 122
79 97 125
78 98 126
75 94 122
78 95 121
78 97 124
76 94 121
79 97 124
76 94 121
77 95 122
78 97 124
77 96 123
76 94 122
75 93 120
78 97 125
77 94 121
76 94 122
78 97 125
76 95 123
75 94 122
78 96 124
75 93 120
78 97 124
75 93 120
77 96 125
76 95 122
76 94 122
75 93 121
75 93 120
75 94 122
77 95 121
78 96 124
77 95 122
77 95 123
76 95 122
76 94 120
77 95 122
76 93 119
75 94 121
77 96 124
78 96 123
77 96 124
76 95 122
74 92 119
77 97 126
79 98 126
78 96 123
74 92 119
76 95 123
78 96 123
78 97 124
77 95 122
76 94 122
77 94 121
77 95 122
74 92 119
77 95 122
77 96 124
75 94 123
77 95 123
74 93 121
76 95 125
77 95 121
78 96 123
76 94 122
77 94 121
74 91 117
78 96 122
75 91 115
76 93 119
77 96 123
75 93 120
76 95 124
77 96 124
77 94 120
76 95 124
79 96 121
76 94 120
79 97 125
79 98 125
74 92 119
77 96 124
73 92 119
76 95 124
76 95 122
74 92 118
76 95 123
77 94 121
75 94 123
78 96 124
76 95 123
78 95 122
79 97 125
79 97 123
76 95 123
77 96 123
74 92 118
77 94 121
79 97 124
77 94 120
73 91 117
78 97 124
78 95 120
73 92 120
75 92 119
77 95 122
74 91 118
75 93 120
76 94 121
77 95 122
74 93 120
79 97 125
75 93 119
75 94 121
75 93 121
76 94 121
75 93 121
76 93 120
75 92 117
75 94 122
75 93 120
78 97 125
77 95 121
75 94 123
77 94 120
78 95 121
74 91 116
78 95 121
77 97 125
76 94 120
78 95 121
77 96 124
76 93 120
72 90 118
78 96 123
77 96 124
77 94 121
78 97 126
76 95 122
78 96 124
75 93 120
76 94 120
75 93 119
75 92 119
76 93 120
75 93 121
75 94 122
76 93 119
76 95 123
77 95 123
78 96 123
76 93 120
76 94 122
77 95 122
76 93 120
78 96 124
76 94 122
76 94 121
76 95 123
76 94 120
76 93 120
77 96 123
78 96 123
74 92 118
78 96 123
75 93 120
74 92 119
74 92 118
77 95 122
79 97 125
74 91 118
77 95 121
77 94 120
76 95 123
73 92 119
75 92 118
74 91 117
77 96 123
76 93 119
76 94 121
76 95 122
75 92 118
79 97 124
77 95 122
78 96 123
74 92 119
77 96 124
76 95 123
78 96 124
79 96 121
77 95 122
77 94 121
75 93 119
75 92 118
79 98 126
78 96 124
77 97 127
75 93 120
77 95 122
77 95 122
74 91 116
78 96 122
75 92 118
77 96 125
78 96 122
77 95 122
79 97 125
74 92 118
75 93 121
76 94 120
74 92 119
77 95 121
75 92 118
74 93 120
76 96 125
77 95 121
79 97 123
76 94 120
80 99 126
75 91 116
78 96 123
73 91 117
80 98 125
77 95 122
77 95 122
77 95 122
79 96 123
75 93 121
77 95 123
76 94 120
78 96 122
78 97 126
77 95 121
77 96 123
74 93 121
75 93 120
78 97 126
75 94 121
77 96 124
77 95 121
78 97 124
73 90 116
74 91 117
75 93 120
78 96 123
77 95 122
75 93 122
76 93 118
79 97 124
75 93 121
78 96 123
74 92 119
76 94 120
76 94 120
78 95 121
78 97 125
78 96 123
71 88 114
75 92 118
79 97 125
76 93 120
77 95 123
77 94 121
76 95 123
75 93 120
80 98 126
76 95 123
74 92 120
79 97 124
79 97 123
74 91 117
78 96 124
74 92 119
77 94 121
79 97 123
76 94 121
74 92 119
77 95 122
76 94 122
77 96 125
77 92 116
74 92 118
75 94 121
74 93 122
78 97 125
77 96 123
78 96 123
76 93 119
72 90 117
77 96 124
77 94 121
81 99 126
76 94 122
75 93 120
76 94 121
77 95 123
77 95 122
74 93 121
75 93 121
76 94 121
74 92 120
75 93 119
73 91 118
79 97 123
75 93 121
77 95 121
79 97 124
73 91 117
78 96 123
77 95 121
75 92 119
76 94 120
75 93 120
79 97 125
80 99 126
76 95 124
73 91 119
76 95 123
78 97 125
76 94 121
77 94 121
77 95 122
78 96 123
75 92 119
77 96 124
75 93 120
75 92 119
79 97 124
73 91 118
77 96 124
77 96 124
75 94 122
74 93 121
77 96 125
80 98 126
75 92 118
79 97 124
78 96 124
76 94 122
76 94 120
76 95 122
78 97 124
75 92 118
78 95 122
77 94 121
77 95 122
75 93 119
73 92 120
75 93 121
77 96 124
79 96 122
76 94 120
73 91 117
77 96 123
74 92 120
76 95 124
77 95 122
76 94 120
77 95 122
78 97 125
78 96 123
79 97 124
73 92 119
78 95 122
77 95 122
78 96 122
78 97 126
77 96 123
79 96 123
75 93 121
79 97 124
79 97 123
72 90 117
77 96 123
76 94 121
78 97 124
78 96 123
76 94 121
77 96 125
78 96 123
76 94 120
79 96 122
79 98 125
77 96 124
77 95 123
76 95 123
76 95 122
76 94 120
76 94 122
79 97 125
75 93 121
79 96 122
77 95 122
77 95 122
76 94 121
75 93 119
79 97 124
79 97 123
74 92 120
77 95 122
76 93 120
77 95 121
78 96 124
77 95 122
77 95 121
77 94 120
78 96 124
79 98 126
77 95 122
77 95 122
75 95 123
79 97 125
77 95 123
74 93 121
76 94 123
77 95 123
76 94 123
79 97 124
75 94 122
77 95 123
78 96 124
76 95 123
75 93 120
78 97 124
78 95 121
75 93 120
79 96 122
79 97 123
81 98 124
79 98 125
76 94 121
79 97 125
77 96 124
75 94 121
79 97 124
74 92 119
75 94 122
77 95 121
79 97 124
76 93 120
77 96 123
76 95 122
76 95 123
78 96 123
79 97 123
77 95 122
75 94 121
74 92 119
77 96 124
76 95 122
77 95 122
79 97 125
78 97 126
77 95 123
78 95 121
76 95 124
76 94 122
77 95 122
78 97 124
78 96 123
78 97 125
78 96 124
79 97 125
77 94 119
78 96 123
75 93 119
76 94 121
79 97 123
79 97 125
77 95 122
77 95 123
76 94 122
78 95 121
75 93 120
76 94 120
76 94 122
79 97 123
78 97 124
76 94 122
77 94 119
77 96 123
77 95 121
79 96 123
75 93 120
75 92 119
78 97 125
77 96 123
75 93 121
75 94 122
74 92 119
77 96 124
79 97 124
75 92 119
76 94 121
77 95 123
75 94 122
76 94 122
77 94 120
79 97 123
76 93 120
76 94 120
73 90 116
76 95 122
74 92 120
75 93 120
78 96 122
75 93 121
75 93 119
75 93 120
76 94 121
78 95 122
80 97 124
76 95 124
73 90 116
74 91 116
76 95 123
77 95 123
76 93 120
77 95 122
76 94 122
76 94 121
77 96 124
75 94 123
76 94 122
77 95 123
80 98 124
75 94 121
77 96 125
80 97 122
77 95 121
74 91 117
77 95 122
75 93 121
78 96 124
76 96 125
76 94 122
78 97 125
74 92 119
74 92 121
77 96 124
78 96 123
78 95 120
76 94 121
74 92 118
76 95 123
79 97 125
73 91 118
75 93 120
78 97 124
74 93 120
76 94 122
77 96 125
75 93 120
79 97 124
77 95 123
76 94 121
77 95 122
77 94 121
78 97 124
75 93 121
73 91 118
78 97 124
72 90 118
76 94 123
77 95 123
75 93 119
79 96 122
76 94 120
74 92 119
77 96 124
78 96 123
77 94 119
75 94 121
77 95 122
77 96 124
77 94 120
76 94 121
74 92 119
75 93 121
75 94 121
74 93 120
75 94 122
75 92 118
74 91 117
76 95 124
77 96 123
77 94 121
77 95 121
74 91 117
78 97 126
78 96 124
78 96 123
77 95 122
75 93 120
77 95 122
74 92 120
79 96 123
78 96 122
77 95 123
76 94 121
74 92 119
77 95 121
76 93 120
75 93 120
75 94 121
75 93 120
77 95 122
77 95 121
79 97 125
78 96 123
75 92 117
77 95 122
76 93 119
74 92 119
74 91 116
76 93 118
77 94 121
76 94 121
76 94 122
75 93 121
77 95 122
76 94 120
77 94 120
77 96 123
76 95 123
76 94 122
79 98 126
79 97 124
76 94 120
77 95 122
77 95 122
75 94 122
74 91 118
77 95 121
77 95 121
75 93 121
75 93 121
77 95 122
74 93 120
79 96 123
75 94 122
78 96 122
79 96 122
79 97 125
74 92 119
77 95 122
76 94 121
74 92 118
78 96 122
76 96 125
78 96 123
75 93 121
79 96 123
75 94 122
79 96 121
76 94 121
77 95 122
78 97 125
77 96 125
78 96 123
77 96 124
76 95 122
76 94 122
75 93 121
76 96 125
78 96 124
75 93 121
76 94 120
76 95 123
78 96 124
77 95 122
75 93 120
77 95 121
77 95 121
78 95 121
74 92 120
76 94 122
77 95 122
77 95 123
80 98 125
79 96 121
77 96 125
73 90 116
76 95 122
74 92 119
78 95 121
78 97 126
79 96 122
74 92 118
75 92 118
77 96 123
78 97 124
78 95 122
75 92 118
78 95 121
75 92 118
76 95 124
77 94 121
76 94 120
73 90 117
79 97 124
75 94 123
78 95 122
75 93 120
77 96 124
79 97 125
79 97 124
76 94 121
74 93 120
73 93 122
75 95 125
78 96 123
78 96 124
79 97 125
77 94 119
79 96 122
73 91 117
75 94 122
76 94 121
77 96 124
78 96 124
79 98 126
78 96 122
76 94 122
75 93 120
74 92 120
77 95 123
76 93 119
77 95 122
76 94 122
78 96 124
77 95 122
78 96 123
78 97 124
76 94 121
77 95 124
76 94 121
75 93 121
74 92 119
76 94 120
76 95 122
76 94 121
75 94 122
79 97 125
78 97 126
76 94 122
76 95 123
77 95 122
73 91 119
79 97 124
77 94 120
78 96 122
77 94 120
78 97 127
78 97 126
75 93 120
77 95 121
78 96 124
76 94 121
77 96 125
80 97 123
79 98 125
75 92 118
80 98 126
76 94 121
78 97 125
78 96 123
78 96 122
79 97 125
77 96 124
77 95 121
75 94 122
75 93 119
76 95 122
79 96 122
79 96 122
75 94 121
78 96 123
78 95 122
79 97 123
80 98 124
78 96 123
78 97 124
80 97 124
77 96 125
77 95 122
76 94 121
78 95 122
78 97 125
77 94 120
78 96 125
76 94 121
77 95 122
79 97 124
75 92 119
76 94 120
77 94 120
79 97 125
78 97 126
76 94 121
77 96 123
78 96 123
78 96 123
76 93 120
76 94 121
77 95 123
80 98 125
79 98 126
77 95 122
76 94 121
79 98 126
78 96 124
75 93 120
76 95 122
76 95 122
78 96 123
74 92 118
77 95 122
78 96 123
78 97 124
78 96 124
75 94 122
77 95 123
75 94 123
78 96 123
77 96 123
78 96 123
75 94 122
78 97 125
81 99 126
76 94 120
79 97 124
79 98 125
78 96 122
78 96 124
78 96 124
78 96 123
76 95 122
76 94 122
74 93 120
78 96 123
77 95 123
75 93 120
78 97 126
79 96 123
76 94 120
79 96 123
73 91 119
76 93 119
79 97 124
80 99 128
79 97 123
77 96 124
77 95 122
75 92 119
76 93 120
79 98 127
79 97 123
75 94 122
77 95 121
78 96 124
79 97 124
79 98 127
78 96 123
72 89 114
75 93 120
75 93 120
76 94 120
76 95 122
72 90 117
79 97 125
74 92 119
77 95 121
77 95 122
77 95 123
78 97 125
81 98 125
79 96 121
73 91 117
74 92 120
76 95 122
74 92 119
79 97 124
79 97 125
75 93 120
76 94 122
76 94 121
76 95 123
78 96 122
76 94 121
77 96 124
78 96 123
75 95 123
77 95 123
77 95 123
78 96 124
78 96 123
78 97 125
76 94 122
77 96 125
76 93 120
77 95 123
76 95 122
77 95 123
75 94 121
80 98 125
76 95 123
77 95 122
76 94 120
77 96 123
75 93 121
77 95 122
77 95 123
77 95 121
78 95 122
75 94 122
76 94 122
77 94 120
74 90 116
76 94 121
76 94 122
77 95 121
76 95 123
76 94 120
76 94 122
74 92 119
76 93 119
74 91 117
73 92 119
80 98 125
75 92 117
75 92 119
75 92 118
76 95 124
74 92 120
75 93 121
76 94 121
79 97 124
79 96 123
78 96 123
77 95 122
74 93 122
77 94 121
77 95 121
77 95 122
75 92 118
76 93 120
78 95 121
78 97 125
79 96 121
74 93 120
75 93 122
78 96 124
78 97 125
76 94 121
75 92 117
77 95 123
76 94 121
75 94 123
77 95 122
80 98 126
78 96 124
78 96 123
77 95 122
77 95 123
78 96 123
75 93 120
78 95 121
76 94 121
77 95 122
76 94 122
79 97 124
77 94 120
77 96 124
77 95 123
77 94 121
75 92 119
77 95 123
73 90 117
79 97 125
79 97 123
77 95 124
76 95 123
78 96 123
76 94 120
76 93 120
75 93 120
77 95 122
75 92 118
77 95 122
75 93 121
76 94 121
74 91 118
75 93 120
80 97 122
78 96 121
77 94 121
74 92 119
75 93 120
77 95 122
74 92 119
74 92 118
75 93 119
73 91 118
76 94 121
77 96 124
79 97 123
76 94 121
76 95 122
75 92 119
78 96 123
77 95 122
76 94 121
74 92 119
77 96 123
77 96 123
77 96 123
78 96 122
79 97 125
77 95 124
76 94 120
75 92 119
77 96 124
75 93 119
77 95 121
75 93 121
74 92 118
76 94 121
76 95 124
76 94 122
76 94 122
75 93 120
73 91 119
75 95 123
77 95 122
77 95 122
78 97 125
79 97 123
76 94 120
76 94 121
78 96 122
78 95 122
76 94 121
79 97 124
81 99 126
77 96 124
77 96 123
76 94 121
77 95 122
78 96 123
75 93 121
75 93 120
79 97 123
74 92 119
77 95 123
77 95 122
75 94 122
77 95 121
77 95 123
77 96 124
79 97 123
77 96 123
78 96 124
75 93 120
77 95 122
77 95 122
78 97 125
75 92 118
77 95 122
80 97 123
74 91 118
73 91 117
79 97 124
78 96 123
76 95 123
79 97 125
73 91 117
75 93 121
75 93 120
77 95 121
76 94 120
78 97 124
76 93 118
74 93 121
75 94 121
76 94 120
76 95 122
77 94 121
76 94 122
75 93 121
75 93 119
81 99 125
76 94 121
76 95 124
75 92 119
79 97 122
75 94 121
78 96 124
75 92 118
77 95 123
77 96 124
78 96 123
75 93 120
76 95 122
76 94 120
78 96 123
79 97 124
75 94 121
75 93 121
72 90 117
76 95 124
75 93 120
74 92 118
79 97 124
75 93 121
75 93 122
77 95 122
77 94 120
77 95 123
76 94 121
77 94 119
74 92 119
77 95 123
75 93 120
77 95 122
78 96 122
78 96 122
81 100 128
77 95 122
75 93 120
76 94 122
76 93 120
78 97 126
77 96 124
77 95 123
78 97 125
77 95 122
74 91 116
77 95 122
73 91 118
77 95 122
78 96 123
80 97 124
78 95 121
77 95 122
76 94 120
78 97 125
78 96 124
78 96 124
78 96 122
76 95 123
78 96 123
76 94 122
76 95 122
78 97 126
76 93 120
76 95 122
77 95 122
75 93 120
76 94 119
76 94 121
78 96 123
79 97 125
77 95 122
77 94 120
76 95 123
76 94 121
79 97 125
77 96 124
76 94 121
76 95 122
76 95 124
75 93 121
79 97 124
75 93 119
80 97 123
73 92 120
78 95 122
75 94 122
76 95 124
79 97 124
78 96 124
76 94 122
77 96 124
77 96 125
77 96 125
80 98 126
77 95 122
80 97 124
79 96 123
75 94 121
79 97 123
77 96 124
78 95 122
75 93 121
79 97 124
76 94 120
79 97 124
77 96 124
77 96 123
76 95 123
78 97 124
77 95 121
79 97 123
79 97 125
78 96 123
78 97 125
80 99 126
78 96 123
79 97 124
77 96 124
74 92 119
80 98 124
77 94 121
74 93 120
80 97 124
78 96 124
77 95 121
77 95 121
77 96 123
78 97 125
78 96 123
76 95 123
78 95 122
76 94 122
78 96 123
75 92 119
77 96 123
75 93 119
76 94 121
78 97 125
75 93 118
77 95 122
75 93 119
77 96 125
78 96 122
77 94 120
76 94 120
79 98 125
76 94 120
76 95 122
77 95 122
75 92 119
77 95 122
77 96 124
78 96 123
78 96 123
74 93 121
80 99 127
73 90 117
80 96 122
73 91 118
76 94 120
77 95 123
77 95 123
78 96 123
77 96 125
77 95 123
74 92 119
79 97 125
75 92 118
78 96 123
79 97 124
74 93 122
72 91 118
77 94 120
76 94 122
75 93 120
76 93 120
73 90 116
79 98 125
77 96 123
76 94 121
77 96 124
76 93 119
73 92 119
77 96 125
76 94 120
77 96 124
76 93 120
76 93 120
79 97 124
78 97 125
78 96 124
75 93 119
74 92 119
78 97 124
76 93 120
76 95 123
74 92 117
77 94 120
74 92 119
76 94 122
75 93 120
75 94 122
79 96 123
77 96 124
75 92 117
76 95 122
79 97 124
76 94 121
78 96 123
77 95 122
77 96 124
76 93 120
75 93 120
76 93 119
75 93 121
78 96 123
77 96 123
76 95 122
77 95 121
73 90 116
78 97 125
76 95 122
76 93 119
76 94 122
78 96 124
77 96 123
77 95 123
76 94 121
74 93 122
78 96 123
79 96 121
76 95 124
77 95 122
76 94 121
77 95 122
74 93 120
77 95 122
75 94 122
78 97 124
73 91 118
76 94 121
77 94 120
76 94 120
78 96 123
79 97 126
78 95 121
75 93 120
77 95 121
78 95 120
76 96 126
76 93 119
77 96 124
77 96 125
76 94 120
80 98 125
77 94 121
77 95 121
79 96 123
76 95 123
72 90 116
80 97 123
78 95 122
79 96 123
74 92 119
78 95 122
75 93 119
76 95 123
77 95 123
77 96 124
77 95 122
77 95 122
76 95 123
77 96 125
78 96 122
76 93 118
77 95 121
72 90 118
74 92 118
73 91 118
75 94 122
78 96 123
80 99 126
76 93 120
76 93 120
77 95 122
78 95 122
75 93 121
73 90 116
77 94 120
78 97 125
77 95 121
76 94 119
79 97 124
75 93 121
75 93 120
77 95 121
74 93 121
77 95 122
77 96 124
76 95 122
77 95 122
77 95 123
76 95 123
75 93 121
75 94 122
76 94 120
76 95 122
75 93 119
77 94 120
77 95 123
75 93 121
77 95 123
75 93 120
79 97 124
80 98 125
75 93 121
76 94 120
76 96 125
76 95 124
77 95 123
77 96 125
77 94 120
76 95 123
76 94 122
75 93 121
75 93 120
78 96 122
75 92 118
76 94 122
76 95 122
77 95 122
73 91 119
74 92 120
75 94 122
75 93 122
78 96 123
78 96 124
74 93 120
75 93 120
75 93 120
76 95 123
76 94 121
78 96 122
78 97 125
73 91 118
75 94 123
77 95 122
76 94 121
77 95 122
78 96 124
75 93 120
76 95 122
77 95 123
78 97 126
76 94 122
76 94 121
77 96 125
74 91 117
78 95 122
76 94 122
78 96 124
78 96 122
75 93 120
77 96 124
78 96 122
78 97 124
80 98 126
76 94 121
76 93 120
74 92 119
76 95 122
74 92 119
77 95 122
77 96 124
77 95 121
78 95 122
75 93 120
77 96 124
80 97 124
78 97 124
78 96 123
78 96 124
77 95 122
75 93 120
75 93 120
76 93 120
75 95 125
77 96 124
77 96 125
75 94 122
80 98 125
75 92 119
77 94 120
78 96 123
75 92 119
79 96 122
78 95 121
75 93 121
76 94 121
77 95 122
75 93 121
78 97 125
77 95 123
75 93 121
76 95 123
75 94 122
77 94 121
75 94 122
77 96 124
75 91 116
76 94 122
77 95 121
77 96 123
77 94 120
77 96 123
73 91 118
79 96 123
79 97 125
76 94 121
73 92 120
74 92 120
78 96 124
78 97 125
81 99 126
77 96 123
75 93 120
75 93 120
77 95 123
74 92 118
75 93 121
78 97 124
79 97 123
76 95 123
75 94 121
79 97 125
77 95 121
77 96 124
78 96 123
75 93 121
79 98 125
78 96 124
76 94 121
79 97 124
75 94 121
76 95 124
77 95 122
74 91 117
76 94 121
74 93 121
78 97 125
77 95 123
78 97 124
76 95 122
76 94 120
76 94 121
76 94 121
75 94 122
77 95 123
77 95 123
78 95 122
80 98 125
77 96 125
78 96 122
79 97 124
78 96 125
75 94 122
76 94 120
75 93 120
77 95 122
79 97 124
75 94 123
76 95 123
77 94 119
75 94 121
77 95 123
76 94 122
78 96 125
76 95 123
77 95 121
77 96 123
75 93 120
72 90 117
79 97 124
77 96 124
76 93 120
78 97 124
76 95 123
80 98 125
77 95 122
77 96 124
75 92 119
78 96 123
73 91 118
79 97 124
78 95 121
82 99 126
76 95 123
78 97 124
78 96 123
77 95 123
76 95 124
77 95 122
79 97 125
75 93 120
77 95 122
79 98 126
80 97 124
78 97 125
78 96 123
77 96 124
78 96 124
78 96 122
78 96 125
77 96 123
79 97 124
78 96 122
78 96 125
77 95 123
75 95 124
77 96 124
76 94 122
79 97 124
79 97 125
76 94 122
77 95 123
76 96 125
77 95 121
75 93 119
76 94 121
78 96 124
77 95 122
75 94 123
75 94 121
77 96 124
78 96 124
76 95 123
74 92 118
77 95 122
79 96 123
78 96 122
78 96 123
78 96 124
76 94 121
77 95 121
77 95 123
78 97 124
76 94 121
77 95 122
76 94 121
75 93 121
81 99 126
78 95 121
74 92 118
75 93 120
77 95 123
78 96 123
77 95 121
77 95 123
77 95 122
77 95 123
76 94 121
72 90 117
77 96 124
76 93 120
75 93 121
78 97 125
79 96 122
78 96 124
79 97 125
76 94 123
78 96 123
77 96 123
74 92 118
76 94 121
77 96 124
76 94 120
75 93 119
79 97 125
76 95 122
74 92 121
77 96 123
75 93 120
77 95 123
82 100 127
75 93 120
76 94 122
78 96 123
79 97 126
76 94 122
76 94 121
77 95 123
78 96 124
76 93 120
77 95 123
80 97 124
77 94 120
78 96 122
79 98 125
78 96 123
76 95 123
77 95 123
74 93 121
77 95 122
76 94 121
76 94 121
76 94 122
78 95 121
76 95 122
76 95 122
78 96 123
78 96 123
78 95 121
75 93 121
78 96 122
76 94 121
75 94 122
76 94 120
73 92 120
78 97 124
77 95 122
77 95 123
76 94 121
75 93 120
77 96 123
76 94 122
77 95 122
78 97 125
80 98 125
76 93 119
78 95 122
77 95 123
78 96 123
78 96 123
76 94 122
76 94 122
77 94 121
80 98 124
75 94 123
77 96 124
74 92 118
75 93 121
77 95 122
76 92 118
77 94 120
76 95 123
76 95 123
76 94 122
77 96 123
74 92 120
76 94 120
74 93 122
78 96 124
77 96 124
76 94 120
77 96 124
78 97 124
77 95 122
77 96 124
76 95 122
76 94 121
73 91 118
76 94 121
75 93 120
74 92 120
75 93 121
79 97 123
78 96 124
75 92 119
75 93 120
77 95 122
76 94 120
77 95 121
75 94 122
77 95 124
78 95 122
80 98 124
77 95 122
76 95 122
77 95 122
77 96 124
75 93 119
78 95 121
79 97 123
80 98 125
77 96 124
76 94 120
77 96 124
71 88 113
77 96 124
74 92 120
77 96 123
73 90 116
76 94 121
77 95 123
77 95 122
74 93 121
77 95 123
75 93 119
75 93 120
76 93 120
73 92 120
79 98 125
74 91 118
76 95 124
76 95 123
78 95 120
76 94 120
74 92 119
74 92 118
77 94 121
79 96 123
76 95 123
77 94 121
78 96 124
77 95 124
75 93 120
77 95 123
73 92 120
76 94 121
76 94 121
76 94 121
78 97 126
76 95 122
74 91 117
77 96 124
76 95 122
78 95 121
77 95 121
77 96 123
75 95 123
77 95 122
73 91 118
74 93 121
74 92 119
78 96 124
78 97 125
76 94 121
78 96 123
76 94 121
77 96 123
76 94 120
76 94 120
79 97 124
79 97 123
74 91 116
74 92 118
77 96 125
76 94 121
76 93 120
77 95 122
76 94 121
76 94 121
76 94 122
77 95 122
76 94 121
76 93 120
77 95 122
76 94 122
78 96 123
76 94 120
76 94 121
72 90 117
75 93 119
77 94 120
75 93 120
78 96 123
75 94 122
78 96 123
75 93 120
73 92 119
77 95 122
78 96 124
78 96 124
76 94 120
74 92 120
76 93 118
76 94 120
75 93 121
77 96 124
77 96 123
76 95 123
77 96 124
78 96 124
78 95 121
80 98 125
76 94 121
76 93 119
79 96 122
78 96 124
76 94 122
75 94 121
78 95 122
77 95 123
74 92 119
76 95 123
78 95 121
76 93 119
74 92 120
74 92 120
76 94 121
77 95 123
75 94 122
77 95 121
78 96 123
79 95 120
78 95 122
76 94 120
75 93 120
79 97 124
78 96 123
79 97 124
77 94 120
77 95 122
79 97 123
75 94 122
75 93 121
72 90 118
76 94 121
76 94 120
78 97 125
76 95 122
76 94 121
76 94 120
75 94 123
76 95 124
78 96 123
75 93 121
78 96 123
75 94 122
81 99 127
79 96 122
79 97 125
75 95 123
78 96 124
78 95 122
76 95 124
78 96 124
77 96 124
77 95 122
78 96 123
76 95 123
79 98 125
75 93 121
77 94 120
76 94 122
77 95 122
77 94 119
78 97 124
78 97 125
75 94 122
76 95 122
75 93 121
79 97 124
78 97 124
77 94 121
80 97 124
74 93 122
77 94 121
81 99 125
80 98 125
79 98 126
77 94 120
79 98 126
77 95 122
79 98 126
79 98 127
76 94 120
76 94 122
76 95 123
75 93 120
78 96 123
80 98 125
79 97 125
79 97 126
75 93 120
79 97 124
80 98 125
76 94 121
76 94 122
77 95 122
75 93 119
77 95 123
76 95 122
80 98 125
77 95 123
80 97 124
78 97 125
77 96 124
79 98 125
77 95 122
75 94 121
79 97 123
76 94 121
75 93 120
79 96 123
78 97 126
77 95 122
78 96 121
78 95 122
78 95 120
78 97 125
80 98 125
76 94 122
75 93 119
74 91 117
80 98 125
78 97 124
77 95 121
79 97 125
79 97 124
74 93 120
78 96 123
76 94 122
78 96 124
76 94 122
76 94 121
76 94 120
77 96 124
77 95 123
79 96 123
77 94 119
80 98 125
78 96 123
77 95 122
76 94 122
78 97 125
75 93 120
79 97 123
78 96 123
77 95 123
78 96 123
77 95 122
79 96 123
74 92 119
78 95 121
76 95 122
78 96 124
79 97 124
76 95 124
77 95 122
77 96 124
75 93 121
76 94 121
75 93 121
79 97 125
76 94 121
75 92 118
78 95 121
76 94 120
80 98 124
75 93 121
74 92 118
78 97 125
76 93 119
75 92 118
77 96 123
78 97 125
79 97 124
78 96 122
79 97 124
79 98 126
79 97 123
79 97 124
76 95 122
76 93 120
76 94 120
76 94 122
76 94 122
78 98 126
77 96 124
80 98 126
78 96 122
79 97 125
75 93 121
75 93 120
77 95 123
75 93 120
75 93 120
76 94 121
77 95 122
79 97 124
77 96 124
77 96 124
76 94 120
76 94 121
76 94 121
75 93 120
73 90 115
74 92 119
78 96 123
73 91 118
79 97 125
76 94 122
76 95 124
79 97 124
74 91 116
78 96 123
79 97 125
78 95 122
77 95 121
73 90 116
76 95 123
75 93 120
75 92 117
78 96 122
77 95 122
80 98 125
76 94 121
78 96 123
76 93 120
76 94 122
79 97 125
78 96 123
76 94 121
76 93 120
77 96 123
75 93 120
76 93 120
74 92 119
75 93 120
76 95 123
78 96 122
76 94 122
77 96 124
76 94 121
75 93 120
79 97 124
74 93 121
78 95 121
79 97 125
76 95 122
74 92 119
77 96 124
76 94 120
79 97 123
76 94 121
77 95 122
76 94 121
74 93 121
78 96 123
77 96 125
74 92 118
78 96 124
77 95 123
77 95 122
76 93 120
77 95 122
77 94 121
79 97 125
75 93 119
74 92 119
75 94 123
76 94 121
74 91 116
76 94 120
80 98 126
78 97 126
75 93 121
75 94 121
76 95 123
75 93 120
75 93 119
76 94 120
80 98 125
77 96 124
77 95 121
76 94 121
76 95 124
77 96 123
77 96 123
76 95 122
77 96 124
77 96 123
78 96 124
75 93 121
76 94 120
75 93 122
73 91 117
77 95 122
77 95 121
77 96 123
77 94 120
78 96 123
78 96 123
78 96 123
77 95 121
78 96 123
75 94 122
78 97 124
75 94 122
77 96 125
77 95 122
74 93 120
77 95 122
76 94 121
76 95 123
76 94 121
76 93 120
77 95 121
79 97 123
77 95 122
73 91 117
74 92 120
72 90 117
76 93 119
75 91 116
78 97 125
77 95 122
77 95 123
74 91 117
77 95 122
79 97 124
76 94 120
76 94 120
75 94 121
73 92 119
76 94 121
78 95 121
76 94 120
74 92 119
73 92 120
76 95 123
78 96 122
74 92 120
72 89 115
79 97 124
76 95 123
75 94 122
77 96 124
80 97 123
75 93 121
73 91 119
79 97 123
78 96 122
77 94 120
77 95 123
77 95 123
77 95 121
78 96 122
75 93 120
76 93 119
76 94 120
77 95 123
77 94 120
76 95 122
76 95 123
78 97 126
74 92 120
75 94 121
74 93 120
78 96 123
78 96 124
75 93 120
76 95 124
76 94 120
78 96 124
76 94 121
73 92 121
78 97 124
78 96 122
78 95 121
77 94 121
77 94 120
74 92 121
74 92 119
72 90 117
77 95 123
75 93 121
80 99 126
76 94 121
72 90 116
74 93 120
78 96 123
75 93 121
77 96 125
77 95 122
77 95 124
74 92 120
76 94 121
75 94 121
77 96 125
77 96 124
75 94 122
76 93 120
78 96 123
77 95 122
78 96 123
78 96 123
76 94 120
73 91 118
77 95 122
75 94 121
78 96 125
73 91 118
78 96 124
76 93 119
74 91 117
76 95 124
77 95 122
78 96 122
74 92 118
77 96 124
79 97 124
78 95 121
75 92 117
77 95 123
75 93 120
77 95 122
76 94 120
77 95 122
75 92 119
76 95 122
75 94 122
79 97 126
78 96 122
76 95 123
77 96 124
77 95 123
75 94 121
75 93 120
76 94 120
75 93 119
76 94 121
76 94 121
79 97 125
78 96 123
77 95 122
77 94 121
79 97 124
75 92 119
78 97 124
76 93 120
78 97 125
78 96 122
78 96 124
80 98 125
80 98 126
77 95 122
72 91 118
78 95 121
77 95 122
76 95 122
77 94 120
80 98 124
78 95 121
73 91 117
77 95 123
81 99 126
77 95 122
77 96 124
78 97 125
76 94 121
77 95 122
80 98 125
75 93 121
75 93 119
79 96 122
74 92 119
79 98 126
76 94 121
77 95 123
77 95 123
76 94 121
77 95 122
77 94 121
76 92 118
74 93 122
76 95 123
77 95 122
75 93 121
78 97 125
79 97 124
75 94 123
78 95 122
74 92 119
75 94 122
76 94 121
76 94 121
76 94 122
79 97 124
75 93 121
80 98 125
77 96 124
76 95 124
78 96 123
77 95 122
77 96 124
79 97 124
76 94 121
78 96 124
78 96 123
79 98 125
78 96 123
78 95 122
77 95 122
76 94 121
79 97 126
77 95 123
79 98 126
77 96 124
76 94 122
76 95 125
77 96 125
79 98 126
78 96 123
78 94 119
78 96 122
75 94 123
78 96 123
79 98 126
79 97 124
79 97 123
78 97 126
78 96 123
79 96 122
79 97 125
78 96 123
75 94 123
77 95 122
77 95 122
79 98 126
76 95 124
75 93 121
78 97 124
73 90 117
80 97 124
76 94 121
78 97 126
78 96 123
77 96 124
78 97 125
78 96 123
79 97 125
78 96 123
76 94 120
76 96 125
78 96 123
76 93 118
80 97 123
75 94 121
75 94 122
76 94 121
77 96 124
77 95 122
80 98 125
77 96 124
77 95 121
78 96 124
75 93 120
78 95 121
75 93 119
77 94 120
77 96 123
77 95 122
81 99 125
75 93 121
79 97 123
77 96 124
75 92 118
78 96 124
77 95 123
77 95 122
76 94 120
74 92 120
76 94 120
75 94 122
75 93 120
79 97 123
78 96 123
80 98 125
76 94 120
78 97 126
76 95 122
76 93 119
78 97 125
78 96 123
76 94 122
78 96 123
77 95 122
79 97 124
73 91 118
76 94 121
80 98 124
78 95 121
78 97 126
77 94 120
77 94 121
75 93 120
78 96 124
76 95 123
77 95 122
77 96 123
78 96 124
76 94 121
77 96 124
76 95 123
77 95 122
77 95 123
79 98 125
78 95 122
75 92 119
78 96 123
79 97 124
76 94 121
76 94 121
75 93 120
78 96 122
76 94 121
76 94 120
78 96 123
76 94 122
77 95 123
72 90 117
76 94 122
78 97 124
76 94 121
74 92 120
79 97 124
79 98 126
76 94 121
78 96 122
75 93 119
75 93 120
77 95 122
76 94 121
80 98 126
76 93 120
75 94 121
75 93 121
75 93 120
78 97 125
74 92 118
76 94 122
77 95 122
76 94 121
76 94 122
74 92 119
77 96 124
75 95 124
78 96 124
77 95 123
75 94 122
76 94 122
77 95 121
76 93 120
75 92 117
76 95 123
75 92 119
77 96 124
78 96 123
77 94 120
76 94 120
76 93 120
77 95 122
77 96 123
77 95 121
75 93 120
76 94 120
78 95 122
75 93 120
75 93 121
75 92 118
76 95 123
74 92 120
78 97 126
76 94 120
78 96 124
75 93 121
79 96 123
77 95 121
78 95 122
75 94 122
76 94 120
77 95 121
78 97 124
76 94 121
75 93 120
76 95 122
77 94 120
74 93 121
78 95 122
79 97 126
77 95 122
75 94 122
78 96 123
76 94 120
78 96 122
77 95 122
79 98 126
77 96 125
77 95 123
75 92 118
74 93 121
75 93 120
76 94 121
79 96 123
78 95 121
76 95 122
78 97 126
73 90 117
75 93 120
74 92 119
76 94 121
74 91 117
77 96 124
74 93 120
78 96 122
80 98 126
72 90 118
77 95 121
76 95 124
78 96 123
74 92 120
78 96 123
73 91 117
77 96 124
77 96 124
77 95 123
75 93 120
78 96 124
78 97 124
76 94 121
78 97 124
76 95 123
76 94 120
76 93 120
75 93 120
73 92 120
79 98 126
77 95 122
77 96 124
77 95 122
75 92 118
78 96 123
76 94 122
80 98 124
75 92 119
77 94 119
75 94 123
79 97 125
76 95 122
74 92 120
77 96 123
79 97 125
75 93 120
76 94 121
79 96 123
76 94 120
76 95 123
75 94 122
75 93 119
79 96 122
77 95 122
75 93 120
77 95 121
76 94 121
78 96 123
78 96 123
77 95 122
80 98 125
78 95 120
77 95 122
76 95 123
77 96 123
78 95 122
76 94 121
77 96 124
76 94 120
77 94 120
79 96 122
75 95 123
77 95 122
79 97 123
77 94 120
80 99 127
79 97 124
76 95 123
74 92 120
80 97 124
75 93 121
74 92 120
77 95 122
76 94 121
73 91 119
76 94 121
75 94 122
76 94 122
75 94 121
79 98 126
79 97 124
74 93 121
74 92 119
78 96 124
78 96 123
77 95 123
77 95 122
77 95 122
79 96 122
76 94 122
75 93 121
78 97 125
79 97 123
78 95 120
75 93 121
79 98 126
76 94 122
74 92 118
76 94 121
78 96 123
79 97 124
77 95 122
75 93 121
78 96 123
75 93 120
78 96 123
76 95 123
76 95 122
75 93 120
73 91 117
77 95 121
75 93 120
76 94 121
78 96 123
78 97 124
76 95 124
77 95 122
75 94 121
77 96 123
78 96 123
79 97 125
74 91 118
77 96 124
79 97 124
78 96 123
76 95 123
76 94 121
77 95 122
78 96 122
76 94 122
78 96 123
77 96 124
78 96 124
78 96 123
78 97 125
74 93 121
81 99 126
78 96 124
80 99 127
76 94 120
75 94 122
79 98 126
77 95 122
75 94 123
76 94 121
76 94 122
75 93 120
75 93 122
76 95 125
75 93 120
77 96 123
76 94 120
79 97 124
76 93 120
76 94 121
78 96 124
77 95 121
79 97 124
78 97 125
76 95 122
74 93 120
76 94 121
78 96 122
76 95 123
76 94 121
79 97 124
77 95 122
78 96 124
76 94 121
77 96 124
78 96 123
78 96 124
77 95 121
79 97 125
78 96 122
75 93 120
79 97 124
75 93 120
78 97 126
78 96 123
78 96 123
79 97 125
77 95 121
79 97 125
80 98 124
77 95 123
80 98 125
78 97 125
78 96 124
79 96 123
79 98 127
78 96 123
78 96 123
75 93 121
77 96 124
76 94 121
78 96 123
79 97 125
77 96 124
76 94 121
76 94 122
81 98 125
77 95 123
76 94 122
78 96 123
78 96 122
77 96 124
77 95 122
72 90 117
78 97 126
76 96 125
78 96 122
78 96 124
78 96 123
79 98 125
81 99 126
75 92 117
78 97 125
78 96 124
77 95 122
78 95 122
76 94 122
77 96 123
78 96 124
80 97 124
76 94 121
77 95 122
75 94 122
80 98 126
77 96 123
77 95 122
76 95 122
78 96 123
80 98 126
77 96 123
77 95 123
76 94 121
74 93 121
76 94 121
79 97 123
78 97 125
73 91 117
77 96 124
79 97 124
80 98 127
78 96 122
76 94 120
78 95 122
77 95 122
76 95 123
74 92 119
76 95 124
75 94 122
76 95 124
80 97 122
77 96 123
74 93 121
79 97 126
78 97 126
78 95 121
77 95 123
79 96 123
78 96 123
79 96 123
74 93 120
78 97 125
77 95 123
80 98 124
74 92 119
74 93 122
77 95 122
76 94 120
75 92 117
75 93 120
77 95 122
76 94 121
73 91 117
77 95 123
74 93 120
79 97 124
77 95 124
77 95 122
76 95 123
75 93 121
76 94 122
76 95 123
77 95 122
78 95 122
75 93 121
77 94 120
72 90 116
77 96 125
73 91 117
75 93 120
77 95 122
77 94 119
75 93 120
76 94 121
78 96 122
76 94 123
77 94 121
76 95 123
76 94 119
75 93 120
75 93 121
76 95 123
74 92 119
78 95 122
75 93 121
75 93 121
74 92 119
77 95 122
77 95 123
79 97 124
76 94 121
77 94 120
77 95 123
75 93 119
75 94 121
77 95 121
74 92 120
76 94 120
80 98 125
76 93 119
75 93 120
79 96 122
72 89 115
77 95 122
78 96 124
77 96 123
75 93 121
75 93 120
77 95 122
77 95 121
76 95 124
73 91 117
76 96 125
75 93 121
78 96 123
75 94 121
74 92 119
78 95 122
79 97 123
76 94 121
77 95 122
76 93 118
76 94 122
78 96 123
78 95 122
76 95 123
80 97 123
75 92 117
73 91 118
79 96 123
74 93 120
74 91 117
76 93 120
78 95 121
74 92 120
75 94 121
75 94 123
79 98 126
80 97 124
79 97 125
76 94 120
76 94 122
75 92 118
77 95 122
77 94 121
74 93 121
76 94 122
79 96 122
77 96 123
74 93 120
77 95 122
73 91 118
74 91 118
78 95 120
75 93 121
79 97 123
76 94 120
79 96 123
78 96 122
77 95 120
78 96 124
79 96 122
78 96 123
80 97 122
73 91 119
75 93 120
75 92 118
75 93 120
78 97 124
75 94 122
77 94 121
75 92 118
75 93 119
77 96 123
74 93 121
79 97 123
76 95 123
77 96 123
75 93 120
73 91 117
78 96 124
76 94 120
76 94 121
80 98 126
76 94 121
79 96 122
77 95 121
74 92 120
76 94 121
79 97 123
79 97 125
75 92 118
75 94 121
76 94 122
79 97 124
74 94 123
79 96 123
75 92 118
76 93 120
77 96 124
80 98 125
76 94 121
77 95 121
77 95 122
77 95 121
75 94 121
76 94 120
75 93 122
76 94 120
76 94 121
76 93 120
77 94 120
78 95 122
78 97 124
77 95 121
75 94 122
74 92 120
71 90 117
77 95 123
76 95 122
73 91 118
76 94 121
76 93 119
77 95 121
75 93 120
76 94 123
77 95 122
75 94 122
78 95 122
81 98 125
77 95 123
74 93 120
78 96 123
72 89 115
77 96 124
78 96 123
77 94 121
78 96 122
77 95 122
76 94 121
79 97 123
77 95 122
75 93 121
79 97 124
76 94 122
78 97 124
77 94 121
74 92 121
75 93 119
75 94 121
75 93 120
78 97 125
76 94 121
78 95 122
76 94 121
77 95 123
74 93 122
76 94 121
78 96 124
76 94 122
75 93 120
77 96 123
76 95 123
75 93 121
79 97 125
76 94 121
74 93 121
77 94 120
74 92 120
74 92 120
77 95 121
71 88 114
76 94 121
78 96 123
76 94 122
76 94 122
80 97 124
79 97 123
75 94 122
78 96 123
77 94 120
75 94 122
81 99 126
76 94 121
75 92 118
74 92 120
79 97 125
74 93 120
77 95 121
76 93 120
76 94 121
80 98 124
75 93 119
80 97 123
77 95 123
76 95 122
76 94 121
79 98 125
79 98 125
75 93 121
78 97 125
79 95 120
76 93 119
75 94 123
76 94 121
78 95 121
79 96 122
77 95 121
75 93 120
76 94 121
78 96 124
79 96 123
75 93 119
78 97 126
75 92 118
76 96 125
80 98 124
79 97 124
78 97 125
79 97 124
79 97 125
79 96 121
78 96 123
77 96 124
78 97 124
78 96 123
75 93 120
77 94 120
78 96 123
77 95 122
75 93 120
75 93 120
74 92 120
77 94 121
74 92 119
77 94 119
77 95 122
79 97 124
75 93 119
76 95 122
78 97 126
75 94 122
75 94 123
77 96 123
77 96 124
77 96 123
78 96 124
78 97 124
77 96 124
77 95 122
77 96 125
78 97 124
79 96 122
76 95 123
77 95 122
79 97 124
76 95 123
76 94 121
77 96 125
79 97 124
79 96 123
76 95 123
76 95 122
76 94 122
80 98 125
75 94 122
76 94 121
78 96 124
76 95 122
77 95 123
75 93 121
79 98 126
76 94 123
77 94 120
79 98 125
77 96 124
79 97 124
76 95 123
78 95 122
77 95 123
78 95 121
76 95 124
76 93 120
77 95 122
77 95 121
79 97 124
77 95 123
77 95 123
78 95 121
78 97 124
78 97 125
79 98 126
77 95 122
77 95 122
77 96 124
75 94 122
78 96 123
77 96 123
76 95 122
78 97 125
75 94 123
78 96 124
76 95 122
73 91 118
77 95 122
77 96 124
72 90 118
79 97 123
76 94 122
79 97 123
76 94 121
75 94 122
79 97 124
74 92 119
77 95 122
76 95 124
74 92 119
77 95 123
77 96 125
79 97 124
80 99 126
78 96 122
79 97 124
79 98 126
79 97 123
75 93 120
79 97 124
76 93 120
77 96 124
77 95 121
77 96 124
76 94 122
78 95 121
76 94 120
77 95 122
76 94 122
74 93 121
77 95 122
78 96 122
76 95 123
77 95 123
77 95 122
79 97 125
77 95 121
76 94 122
79 97 125
77 94 120
76 95 122
78 96 122
77 95 121
76 95 122
77 95 123
81 99 126
78 96 122
76 93 119
78 97 125
75 94 122
75 94 122
75 93 120
78 97 125
77 96 124
75 94 121
78 96 124
73 91 118
77 96 124
79 98 125
75 93 121
75 93 121
76 94 122
76 94 121
77 94 120
77 95 122
75 93 121
76 94 120
77 94 121
76 94 122
76 94 122
82 100 127
76 94 122
77 95 121
77 95 121
76 94 121
78 97 125
78 95 122
77 94 121
78 96 123
77 95 121
78 96 123
74 92 119
79 97 125
77 96 123
77 95 122
74 92 119
77 95 122
77 94 121
76 93 119
76 95 123
78 97 125
79 97 125
75 92 119
79 97 123
75 94 121
78 97 124
79 97 124
76 94 120
76 94 120
79 97 124
77 95 123
77 94 120
77 95 122
73 92 120
76 95 123
77 95 120
78 96 123
76 95 123
81 99 126
75 92 118
77 96 125
78 95 120
78 97 125
76 93 119
77 95 122
76 95 123
80 98 125
74 92 118
77 94 119
79 98 126
77 94 121
80 97 123
79 98 125
74 92 120
75 93 119
75 94 122
75 93 120
75 93 122
77 95 123
77 94 120
76 94 121
78 97 124
78 96 124
79 98 126
74 93 120
76 94 122
77 96 125
79 97 123
77 95 122
79 97 125
77 94 121
78 95 122
74 92 120
76 95 122
75 93 119
76 94 122
78 95 120
78 96 124
77 95 123
79 98 126
78 96 124
74 92 118
78 96 122
75 94 121
76 94 121
76 94 120
75 94 122
77 96 123
75 93 120
79 97 124
74 92 119
78 96 123
77 95 123
75 94 121
75 91 117
75 92 117
77 96 124
76 94 121
75 93 120
75 93 120
78 95 122
77 95 122
75 93 120
77 95 123
77 96 124
78 96 124
77 95 121
77 96 124
78 96 123
76 94 121
77 94 121
76 95 123
75 94 121
74 93 120
78 95 122
72 91 119
77 95 122
77 94 120
74 92 120
76 94 120
76 95 123
79 97 124
76 94 121
78 96 123
79 97 125
80 98 126
79 97 125
78 96 123
75 93 120
77 94 120
76 95 122
79 97 124
78 95 121
76 94 122
76 94 121
76 95 122
79 96 123
73 91 118
77 95 121
74 92 120
77 94 120
74 92 119
77 96 123
78 96 122
75 94 121
74 92 119
75 93 120
77 96 123
75 94 121
75 92 118
78 97 125
78 96 124
78 95 121
77 96 125
77 95 123
78 96 124
75 93 120
76 94 120
75 94 121
75 94 121
78 97 124
75 94 122
79 97 125
76 94 121
78 97 126
77 95 122
76 95 123
77 95 122
75 94 121
77 94 121
76 93 120
76 94 121
76 95 122
78 96 124
77 95 122
76 94 122
80 98 125
78 96 123
77 94 119
78 97 126
80 98 124
76 95 123
76 95 124
76 94 120
78 97 125
76 94 121
76 94 122
78 95 121
78 96 121
77 95 123
77 96 124
75 94 123
77 96 126
80 97 124
79 97 124
78 97 125
74 93 122
76 94 122
73 90 116
77 95 122
78 96 123
77 94 121
76 94 120
77 93 119
77 95 122
78 96 124
77 94 121
77 96 123
77 94 121
77 95 123
79 96 121
75 93 121
75 94 121
74 92 118
77 95 122
75 94 122
76 94 121
76 95 123
77 96 124
77 95 121
77 96 123
79 97 123
77 96 124
80 98 124
77 94 120
77 95 122
81 99 126
77 96 125
76 93 119
77 95 122
75 93 120
75 93 120
74 92 119
79 97 124
76 94 121
78 97 125
75 93 120
77 95 122
78 96 122
76 95 123
78 97 124
77 95 121
78 97 126
77 96 124
78 97 125
75 92 118
79 98 126
76 96 125
74 92 120
80 98 125
77 95 122
77 95 122
76 94 120
80 98 125
76 95 122
78 97 125
76 95 123
76 93 119
77 95 123
80 98 124
77 95 122
76 94 121
78 96 124
76 95 122
77 96 125
75 94 123
77 95 123
75 92 119
77 95 122
76 94 122
77 95 123
77 95 122
78 97 124
77 95 121
79 98 125
77 95 123
76 94 121
76 96 125
78 96 124
78 97 126
77 95 121
77 95 123
75 93 120
78 96 124
79 97 125
78 96 124
77 95 122
77 96 124
77 96 124
78 96 124
77 95 123
77 96 123
77 96 123
77 95 122
78 95 122
77 95 122
78 96 124
76 95 122
79 97 124
77 95 122
79 97 123
76 95 122
77 95 123
77 95 122
78 96 123
77 95 122
75 93 119
78 97 125
79 97 124
76 95 124
74 92 118
78 96 123
76 95 123
78 96 123
77 96 124
78 96 123
78 95 122
75 93 120
76 95 122
80 98 124
79 96 122
79 97 123
78 97 125
77 94 121
78 96 123
78 96 123
77 96 123
78 96 123
76 95 123
73 91 118
79 97 124
79 97 123
77 95 122
78 96 123
78 96 124
77 96 124
76 93 119
77 95 123
77 95 123
77 95 122
77 95 123
78 97 124
79 96 123
77 96 124
78 95 122
75 93 120
78 95 122
76 93 120
74 91 117
80 99 126
77 95 122
78 96 124
80 98 126
76 95 122
76 94 121
75 92 119
78 96 123
77 95 121
79 97 124
78 97 125
79 98 126
79 98 126
74 93 121
78 96 122
80 97 123
74 93 122
75 93 120
77 96 123
78 96 123
74 92 117
79 96 123
78 96 123
76 95 123
78 96 123
77 95 122
77 94 121
78 97 125
77 97 126
79 97 125
76 94 121
77 95 123
78 97 125
74 92 120
74 92 118
74 92 120
75 93 121
78 96 122
81 99 126
77 95 123
76 94 121
75 92 119
76 94 121
75 92 119
80 97 122
79 98 126
78 96 122
76 96 125
76 94 122
77 95 123
75 93 121
77 95 121
74 92 119
75 93 120
79 97 124
76 94 121
77 95 123
79 97 124
76 95 124
77 95 123
74 92 119
76 94 120
76 94 122
77 95 121
79 97 125
77 96 126
76 94 122
74 92 119
77 95 122
77 96 124
77 95 121
77 95 122
78 96 123
78 96 125
76 95 123
76 93 120
74 92 119
77 96 123
76 93 119
77 95 123
78 95 121
77 94 121
74 92 119
76 94 120
78 97 125
77 96 123
74 91 118
79 98 126
79 97 124
76 93 118
74 92 119
80 98 126
80 98 126
76 94 123
76 94 120
77 94 121
79 97 125
77 95 123
77 95 122
77 96 123
77 95 123
76 95 124
75 93 119
77 95 123
78 96 123
75 93 120
76 94 120
73 91 117
79 97 124
75 93 121
77 94 120
77 95 123
77 95 123
73 92 120
76 94 121
77 95 122
77 95 121
76 95 122
80 98 125
79 96 123
74 92 119
76 94 122
76 93 119
76 93 119
76 94 120
78 97 124
75 94 121
74 92 120
77 95 122
76 93 119
76 94 120
78 96 122
76 95 123
77 95 121
76 94 120
78 96 123
78 96 122
77 95 122
74 92 120
80 98 125
77 94 121
77 95 123
77 95 123
76 94 120
75 94 122
78 96 122
76 95 122
79 97 124
76 95 123
78 96 124
75 94 121
73 90 116
77 96 123
77 95 123
79 97 123
75 93 121
77 95 122
74 92 118
72 90 116
76 94 121
78 96 122
78 95 122
76 95 122
75 92 118
73 91 118
77 95 122
77 96 125
75 93 120
77 96 123
74 92 119
76 94 121
77 94 120
76 94 122
79 97 124
74 93 121
78 96 123
74 92 119
77 94 120
79 97 124
79 97 126
79 97 124
77 95 121
79 97 125
76 95 122
76 93 119
77 95 123
77 95 122
74 93 120
77 95 122
75 93 120
76 95 123
77 95 123
77 96 124
77 95 123
73 90 115
77 95 121
76 94 121
74 93 121
76 93 119
78 96 123
74 92 119
75 93 120
79 97 124
78 96 123
73 92 120
76 95 122
75 94 122
77 95 123
75 93 120
78 95 122
78 96 123
78 97 125
77 96 123
77 95 123
76 93 120
79 97 125
78 95 122
77 96 124
77 95 121
76 95 122
77 95 123
74 92 119
77 96 124
75 93 120
77 95 121
76 95 123
79 97 123
76 94 121
73 92 120
76 93 120
78 97 124
76 94 122
75 94 121
80 98 125
78 96 122
77 96 125
77 95 121
78 96 124
78 97 125
78 96 122
76 95 122
78 97 124
73 90 115
79 97 124
78 97 124
73 92 120
77 94 121
78 95 121
78 96 122
76 93 120
75 94 121
77 95 122
78 96 124
77 95 123
76 95 123
75 93 120
77 96 124
74 92 119
78 96 122
76 94 122
77 96 124
73 92 119
79 98 126
76 94 122
74 92 119
79 97 125
77 95 121
78 95 122
79 96 122
78 96 123
77 96 125
75 93 120
77 95 123
78 96 123
81 98 125
76 95 123
77 96 124
75 93 121
75 93 120
75 93 119
77 94 120
75 93 120
72 89 116
79 97 124
78 96 124
74 93 120
79 98 126
77 95 122
76 95 123
78 97 125
78 95 121
77 96 124
76 94 122
76 95 122
78 97 125
77 96 123
77 95 123
75 94 122
79 98 126
76 94 121
77 95 124
79 97 124
78 96 123
78 95 122
76 95 123
76 93 119
74 92 119
77 95 123
79 97 125
76 95 124
80 97 123
76 94 122
78 96 124
77 96 124
76 94 120
72 90 116
76 95 124
78 96 124
80 98 126
78 96 124
77 95 122
74 93 121
78 96 122
77 95 122
77 95 122
76 95 124
80 98 125
76 94 121
78 95 121
77 95 123
77 95 123
77 95 123
77 95 121
80 97 124
79 97 124
75 94 123
77 95 123
78 96 122
77 96 125
79 96 123
79 97 126
80 98 126
80 99 126
77 94 120
79 97 123
76 95 123
74 92 118
77 95 122
75 93 120
77 95 123
75 93 120
75 94 124
81 98 124
77 96 124
78 96 123
75 93 119
76 94 121
75 93 120
79 98 126
79 96 122
76 94 120
77 94 121
78 96 122
76 95 123
79 98 127
78 96 124
77 94 121
77 95 122
75 93 119
76 94 121
79 97 122
76 93 119
79 96 122
75 93 119
76 95 124
74 93 122
75 92 119
77 96 123
75 93 120
78 97 125
77 95 121
76 93 119
77 96 123
78 96 124
78 96 124
75 94 122
77 95 121
77 94 121
79 97 124
76 94 121
76 95 123
77 96 124
75 94 122
77 95 122
78 96 124
77 96 123
75 92 119
79 96 123
76 94 121
77 95 122
79 97 125
78 95 122
75 93 121
73 91 118
74 93 122
76 95 123
79 97 124
79 97 124
78 95 122
78 96 123
78 97 125
78 96 124
78 96 123
78 96 124
77 95 122
78 97 126
78 96 125
73 91 117
75 93 121
78 96 123
76 94 120
77 96 124
77 95 122
76 94 123
76 93 120
79 98 125
75 92 118
75 94 121
78 97 126
75 93 120
77 95 123
77 96 124
77 94 121
78 96 124
77 96 123
79 97 125
77 96 123
77 94 120
76 93 120
79 97 123
77 96 124
76 94 121
77 95 121
79 96 122
76 95 123
75 94 123
76 95 124
77 95 122
76 94 123
79 97 124
76 93 118
80 97 122
76 94 122
75 93 120
77 95 122
75 94 123
74 91 118
76 94 122
74 92 118
79 98 126
76 94 123
77 96 124
79 96 123
76 94 122
76 94 121
76 94 122
77 96 123
79 98 126
78 96 122
78 95 122
76 94 122
78 96 122
77 95 122
76 95 124
78 95 122
78 96 123
76 93 120
78 96 123
76 95 122
79 97 124
77 95 122
75 93 120
74 92 119
80 98 124
76 94 122
75 93 120
77 96 124
76 94 121
78 96 124
76 94 121
75 93 120
76 93 120
78 97 125
75 93 120
77 95 122
75 94 122
78 96 123
76 94 122
78 96 122
78 96 123
78 96 123
76 96 125
76 95 124
81 98 124
74 92 120
75 92 118
78 95 121
77 95 121
77 97 126
77 96 124
80 97 124
79 96 122
75 94 121
74 92 119
79 97 125
76 94 121
77 95 122
75 94 122
77 95 122
77 95 123
77 96 124
77 94 120
76 95 124
74 92 118
75 93 119
77 95 122
78 97 125
75 94 122
74 93 121
75 94 121
76 95 123
76 95 122
78 97 125
78 96 124
76 95 123
75 93 120
75 94 121
75 94 121
78 96 123
77 95 122
74 91 117
77 95 123
78 95 121
78 95 121
78 97 125
78 96 122
77 95 122
78 96 124
71 89 116
76 95 122
75 93 120
76 94 121
78 96 124
77 95 122
75 92 119
76 94 121
78 96 122
81 99 125
78 97 126
78 96 121
77 95 124
78 96 124
77 95 123
75 93 122
76 93 120
76 94 121
78 96 125
77 96 124
79 98 126
78 95 122
76 95 124
77 96 124
77 96 124
77 95 124
77 95 121
76 94 121
76 94 120
77 95 123
77 95 122
74 92 119
78 96 123
76 94 122
74 92 119
76 94 120
75 94 123
77 95 122
77 95 123
78 96 123
75 93 120
76 94 120
77 96 124
77 96 124
76 95 123
80 98 126
77 95 121
76 94 122
77 95 122
74 93 120
78 95 122
76 95 123
77 94 120
79 98 126
75 94 121
76 95 123
76 93 120
77 96 124
77 96 123
76 94 121
76 95 123
80 98 125
75 93 120
79 96 123
78 96 122
74 92 118
75 93 121
77 96 123
76 95 125
74 93 120
76 94 122
78 96 123
77 96 124
74 91 117
76 94 121
76 94 121
76 94 122
78 96 123
78 95 122
78 96 123
78 97 124
79 96 122
76 95 124
77 95 123
78 95 121
77 95 122
75 94 123
76 93 118
76 95 123
79 98 126
78 96 123
76 95 124
78 96 123
78 96 123
77 96 125
77 95 123
74 92 120
80 98 125
77 95 122
74 92 120
80 98 125
76 94 122
76 94 122
77 95 122
76 95 122
80 98 124
76 95 122
78 95 121
77 95 121
78 97 125
78 96 124
77 95 123
77 96 123
76 94 121
76 94 121
76 93 120
79 98 126
76 94 122
79 98 125
77 95 122
78 96 122
75 94 122
75 92 118
74 92 119
77 95 123
74 91 116
76 94 123
76 94 121
76 94 121
76 94 122
77 95 121
74 92 120
76 94 122
78 96 123
79 97 123
76 93 120
78 95 122
76 95 122
77 95 122
79 97 125
78 97 124
78 97 125
77 96 124
78 96 123
76 95 124
79 97 123
75 93 121
76 94 121
77 96 124
74 92 120
77 97 126
77 96 123
76 94 121
78 96 123
77 96 124
76 95 124
77 95 123
77 95 123
78 96 123
78 96 124
78 96 124
77 95 123
74 93 121
80 98 126
77 94 121
77 95 123
77 95 122
77 95 123
74 94 123
78 96 124
78 95 121
77 95 122
78 96 123
79 98 126
77 95 123
80 99 126
76 93 120
77 95 122
77 95 122
76 94 121
77 95 122
80 98 126
80 98 123
78 96 123
79 98 125
76 93 120
74 93 120
76 95 123
78 96 124
78 96 123
78 96 123
75 94 122
79 96 122
80 98 125
79 97 123
77 95 122
77 96 124
78 96 122
80 97 123
77 94 121
78 96 123
75 93 121
76 94 122
77 95 123
78 96 124
77 94 120
77 95 122
75 93 120
79 97 124
77 95 121
79 97 124
77 95 122
77 94 119
77 96 124
78 95 122
77 95 123
75 93 120
79 97 125
78 96 123
79 96 123
80 98 124
76 94 121
77 95 121
76 94 121
77 95 123
76 94 122
77 95 122
77 95 122
77 96 123
74 92 120
79 97 123
76 95 123
76 94 120
74 92 120
77 95 121
78 95 122
78 96 124
80 98 126
78 96 123
77 96 123
75 92 119
75 93 120
76 93 120
78 97 124
76 94 121
76 94 121
78 96 123
76 94 123
73 91 119
77 96 123
79 97 125
73 91 117
76 94 121
77 96 124
78 96 123
79 97 123
77 96 123
75 93 120
76 94 122
77 95 123
80 97 124
75 93 120
78 96 124
75 93 120
78 95 121
78 95 121
78 95 122
75 93 119
78 96 122
76 94 120
76 95 122
74 91 118
77 96 123
75 93 120
80 98 125
78 96 125
76 93 119
79 97 124
76 95 122
74 92 119
76 94 121
76 94 121
76 95 123
75 94 121
76 94 122
78 96 123
76 94 122
77 94 120
78 96 122
79 97 125
77 95 122
75 93 119
78 96 123
78 97 125
76 94 121
75 94 121
77 95 123
78 95 120
80 98 125
76 94 121
76 94 121
76 94 121
80 98 124
79 98 126
77 94 121
78 96 123
74 92 119
77 94 120
75 94 121
79 98 126
80 97 123
76 95 123
78 95 121
76 94 120
77 95 122
74 93 122
76 93 118
78 96 124
77 95 122
80 98 126
73 91 118
75 93 121
76 94 121
75 94 122
77 95 123
75 93 121
77 94 119
78 96 123
74 92 119
76 94 121
74 93 120
79 98 126
76 94 121
77 95 121
77 96 125
77 94 120
77 96 125
75 94 122
77 95 123
79 98 126
79 96 123
76 95 122
76 95 124
77 95 122
79 97 123
75 93 121
77 96 124
76 93 120
78 97 125
74 92 119
75 93 119
78 96 123
75 93 120
77 95 121
78 96 125
77 95 121
77 96 124
76 94 121
78 96 124
78 96 124
76 94 121
75 93 119
75 93 121
76 95 123
76 94 122
76 94 120
75 94 122
78 97 125
76 94 122
78 96 124
75 93 121
75 93 119
74 92 120
76 94 122
76 94 120
80 97 124
78 96 124
75 93 120
77 95 123
78 96 122
78 95 121
75 93 120
77 97 126
77 95 122
77 95 121
80 97 122
75 93 121
77 96 124
79 97 124
77 96 123
73 91 118
74 91 117
75 93 121
74 92 120
75 92 118
78 96 123
76 95 123
77 95 122
77 95 123
79 97 125
77 95 122
77 96 125
76 95 122
78 96 124
75 93 119
77 95 122
76 96 125
76 94 120
75 94 121
77 95 121
77 96 123
78 95 122
75 93 121
76 94 121
77 94 120
79 97 125
76 94 121
73 90 116
75 93 119
77 96 123
76 93 120
75 93 120
77 95 121
75 93 121
77 95 122
77 94 121
76 94 121
76 94 121
76 94 122
79 97 123
76 95 123
75 94 121
77 95 121
78 96 122
77 95 121
76 94 122
76 95 122
78 96 122
78 96 123
75 92 116
79 97 123
79 97 125
77 96 125
79 97 124
75 94 122
74 92 120
79 97 124
72 91 119
75 92 119
79 96 122
78 97 125
74 93 120
77 95 122
75 92 118
78 96 123
76 94 120
78 95 122
79 98 126
78 96 123
75 93 120
75 94 122
77 95 123
78 96 123
77 95 123
77 95 121
79 97 124
74 92 120
76 95 123
76 94 122
78 96 123
79 97 124
74 92 119
76 93 120
78 96 124
77 95 121
78 96 123
78 96 123
76 94 121
79 97 124
78 96 122
79 98 126
77 96 124
76 94 121
76 94 121
79 98 126
75 93 121
79 96 123
75 92 118
76 94 120
74 93 120
75 93 120
77 96 123
77 95 123
77 95 122
75 93 121
79 97 123
77 95 121
76 94 121
77 96 126
76 94 121
78 97 125
76 94 120
77 94 120
76 94 121
75 93 120
77 94 120
80 97 123
75 92 118
78 96 123
79 97 124
80 98 126
76 94 121
78 96 123
77 95 122
77 96 125
78 96 124
77 96 124
76 94 122
77 95 122
76 93 119
74 93 121
75 92 118
78 96 123
76 94 122
78 96 123
75 93 121
79 97 124
79 96 123
77 95 121
77 95 121
76 96 125
79 97 124
76 95 123
77 96 124
76 94 122
76 95 124
78 95 122
77 96 124
78 97 125
79 97 125
74 93 121
79 98 126
77 96 124
79 98 126
76 94 120
76 94 121
77 95 122
78 96 123
77 95 122
77 95 122
77 96 123
77 95 121
78 97 124
79 97 124
77 95 123
78 95 121
79 97 124
78 96 124
77 95 122
76 94 122
78 96 123
80 98 125
78 96 123
77 96 123
75 93 119
79 97 123
77 96 124
76 93 120
76 95 123
76 95 123
75 94 122
78 97 125
79 98 125
77 96 124
77 96 125
77 95 123
75 93 120
79 96 123
78 96 125
74 93 121
76 94 122
76 94 122
79 97 125
79 97 125
78 96 124
78 96 122
76 94 122
79 97 125
76 94 122
79 98 126
75 93 120
78 96 123
77 96 124
80 98 126
77 95 122
78 97 124
78 96 124
79 97 125
78 95 121
78 97 126
77 96 124
78 97 124
76 94 120
76 94 122
75 93 121
78 97 125
79 98 125
73 90 116
75 94 122
76 94 122
77 95 122
75 94 121
76 95 123
79 96 122
78 96 123
78 97 124
78 96 124
78 96 124
74 91 115
81 99 127
79 97 125
76 94 121
77 96 124
76 94 121
79 97 125
78 97 125
78 95 122
78 95 122
75 94 122
75 93 121
76 95 123
78 95 120
75 92 118
76 93 120
76 95 123
76 94 121
78 95 122
75 93 121
80 98 125
76 94 121
74 92 120
76 94 122
75 94 122
76 94 121
76 94 121
77 95 122
76 94 121
76 95 123
78 96 124
76 94 121
76 94 121
75 93 120
75 93 121
78 96 123
75 93 120
77 95 122
78 95 121
77 95 123
78 96 122
80 98 125
78 96 124
77 95 121
77 95 121
76 94 122
77 96 123
80 97 123
78 95 121
77 96 124
77 95 123
72 89 114
78 96 124
78 96 124
76 95 124
78 96 123
73 91 117
76 94 122
78 96 123
77 96 124
73 91 117
76 94 121
79 96 122
75 93 120
78 96 123
75 94 122
78 96 124
75 94 122
76 95 122
76 94 121
77 95 122
79 97 124
77 95 122
77 96 124
75 94 122
80 98 124
72 89 116
75 92 118
77 97 126
78 95 121
78 97 126
77 95 123
77 95 123
77 95 122
78 96 124
76 94 121
73 92 120
75 92 118
78 95 121
75 93 119
76 94 121
74 92 118
77 95 122
78 96 122
78 96 122
76 95 123
78 95 120
77 95 122
79 97 124
75 94 121
78 96 123
77 95 122
78 96 122
73 91 118
76 94 121
76 95 122
76 95 122
77 96 123
77 95 122
79 97 124
76 95 123
80 97 124
77 96 123
76 95 123
77 96 123
78 96 123
76 95 123
78 95 121
76 95 122
76 94 122
77 95 122
74 93 120
75 92 117
78 97 124
72 90 118
79 97 123
76 93 119
75 93 119
76 94 122
77 95 122
77 96 125
77 94 120
76 95 122
76 95 124
79 98 125
78 97 125
75 92 118
77 94 121
75 92 119
76 94 122
76 95 123
75 93 120
76 94 122
77 95 121
77 95 122
75 92 118
78 96 124
78 96 123
78 95 122
77 96 123
75 92 118
77 96 124
74 92 119
75 94 122
78 96 123
76 95 123
77 95 122
78 97 124
78 97 125
76 95 122
74 92 119
77 96 124
75 95 124
75 94 123
76 94 121
74 91 117
76 95 124
76 94 121
78 97 124
76 94 121
76 94 122
76 93 120
77 95 122
75 92 118
74 92 119
75 94 122
75 93 121
76 95 123
79 97 125
76 94 121
77 95 123
77 94 121
78 95 122
77 94 120
74 92 119
78 96 123
79 96 123
79 96 122
79 97 124
79 97 124
78 96 123
77 94 120
76 94 121
77 95 122
77 96 124
76 95 123
75 93 120
74 93 121
78 96 123
76 94 121
78 96 124
76 95 124
76 94 121
77 96 124
75 94 123
77 95 123
76 93 120
77 95 122
78 96 122
76 93 120
81 98 124
78 96 125
75 93 120
79 96 122
77 95 122
79 97 123
76 95 123
75 93 119
77 95 123
78 95 121
78 95 121
80 98 125
78 95 122
76 95 123
82 99 126
76 94 121
77 96 123
77 96 124
76 94 122
77 96 123
75 94 122
75 93 121
75 93 121
77 95 123
75 93 120
77 95 122
74 93 120
76 94 121
74 92 119
74 92 119
78 97 126
77 96 123
75 93 120
78 97 125
75 93 120
79 97 124
76 95 123
79 98 126
75 93 120
75 94 122
79 97 124
78 96 123
75 93 119
77 95 123
75 92 119
77 95 122
76 95 122
75 93 121
77 94 121
76 94 120
75 94 122
79 97 125
77 95 122
78 97 124
78 96 124
78 96 124
77 95 123
75 93 120
78 97 124
78 96 123
77 95 123
76 93 120
76 94 121
75 93 120
73 92 120
78 96 123
77 95 122
77 95 121
78 96 123
76 95 123
75 94 121
74 92 118
78 96 124
77 96 123
74 92 119
77 96 123
77 95 122
79 97 125
78 95 121
77 96 124
78 95 122
77 96 124
78 96 122
76 95 123
77 95 122
77 95 123
74 93 121
73 90 116
78 96 123
75 93 121
76 93 118
75 94 121
76 94 122
75 92 119
76 94 122
74 91 116
77 95 121
77 96 123
76 94 121
79 96 122
78 95 122
77 95 122
77 95 122
77 95 123
77 96 123
74 92 118
73 91 119
75 93 121
77 95 124
75 94 122
79 96 123
77 95 123
78 95 122
79 97 124
77 95 123
77 97 126
75 93 120
79 98 126
80 98 124
78 97 124
76 94 122
74 93 121
77 95 123
79 96 122
75 94 121
74 93 120
77 95 122
78 96 122
79 97 123
77 95 121
77 96 125
78 97 125
75 93 121
75 94 121
76 93 120
76 94 120
76 95 123
80 98 125
76 95 123
79 96 123
77 95 122
79 97 122
80 98 124
75 93 121
77 97 125
77 95 122
79 97 124
78 97 125
79 97 124
76 95 123
74 93 121
79 97 123
79 97 125
77 95 122
78 96 122
79 97 125
75 94 122
77 96 123
77 95 121
79 98 125
80 98 124
76 94 122
77 96 123
75 94 122
76 95 123
80 98 125
78 97 126
77 96 124
77 95 122
77 96 126
79 98 125
79 97 124
79 97 124
76 94 122
78 96 124
78 96 123
76 94 121
76 94 121
79 97 123
78 96 123
80 98 125
79 97 123
79 97 124
78 96 122
73 91 118
76 95 123
79 97 125
76 93 119
78 97 125
79 97 123
78 97 126
79 97 124
78 97 125
76 95 123
78 97 126
77 95 121
75 93 120
75 93 121
73 91 117
75 94 122
76 95 123
79 96 122
76 93 119
79 97 125
78 96 124
77 96 124
79 97 124
74 92 120
74 92 120
77 96 125
77 95 123
76 94 121
78 96 123
77 95 122
77 96 125
74 93 121
77 94 120
79 97 123
79 98 126
78 97 125
76 93 119
78 96 123
75 94 123
75 94 121
79 98 126
79 97 123
80 98 126
77 97 125
77 95 122
78 97 126
79 97 125
76 94 122
74 92 119
75 92 119
77 95 121
77 94 120
78 97 124
79 97 124
76 94 120
76 94 121
77 95 121
76 94 122
77 95 123
76 95 123
77 95 121
78 96 124
76 94 121
77 95 122
77 95 122
75 93 120
78 95 122
75 94 121
79 97 125
79 98 126
78 96 123
77 94 121
76 95 122
76 95 124
78 97 125
78 96 122
75 93 120
78 96 122
74 93 120
77 96 123
78 96 124
73 92 119
77 95 122
78 97 125
74 92 119
79 96 122
78 96 123
79 97 125
76 93 119
76 95 123
79 97 123
76 95 122
81 98 125
75 94 121
75 92 117
76 94 121
74 93 121
80 98 124
76 94 120
78 97 124
76 94 121
78 95 121
78 97 124
80 98 124
76 94 121
77 95 123
75 94 123
77 95 122
78 97 125
75 94 123
76 94 121
77 95 122
77 95 123
77 94 120
79 97 124
79 97 124
77 95 123
76 93 118
78 97 125
76 93 120
76 94 120
78 96 124
75 93 120
80 98 124
75 93 120
77 96 124
78 97 125
80 97 124
77 94 120
76 96 125
76 93 119
76 94 120
78 97 125
76 94 120
75 93 119
77 95 123
78 97 124
76 93 120
77 95 122
74 92 119
76 95 124
76 94 122
76 94 121
75 94 122
77 95 123
76 94 122
79 97 124
75 93 120
76 94 120
76 94 122
73 91 119
77 95 122
80 98 125
77 95 123
77 94 120
77 96 125
77 96 124
75 92 119
75 93 120
77 95 122
77 95 122
79 97 124
75 94 121
77 96 123
78 96 123
79 97 122
75 93 119
77 95 121
74 93 120
74 92 120
77 96 124
77 95 123
76 95 122
74 92 119
76 94 121
76 93 119
77 96 125
75 94 121
78 96 122
76 95 122
76 94 121
76 95 123
73 91 117
78 98 126
78 96 124
76 94 122
74 91 118
77 95 121
76 93 120
78 95 122
77 96 124
77 95 121
77 96 124
73 92 119
80 98 125
76 95 123
75 94 123
79 98 126
78 96 123
76 94 119
78 96 124
78 96 124
74 92 117
76 94 122
79 97 124
77 95 122
79 98 126
78 97 124
78 96 122
78 96 123
78 96 125
81 99 126
78 97 126
77 95 122
75 93 119
73 92 121
77 95 121
78 96 123
76 94 120
73 90 117
76 95 124
76 94 121
79 96 122
80 98 125
75 93 120
77 95 122
79 97 123
77 96 124
79 96 123
79 97 123
79 97 123
75 95 124
79 97 124
77 95 122
79 98 126
75 94 122
74 93 120
75 93 120
76 94 121
73 91 119
75 93 120
78 97 124
75 93 121
78 95 121
77 95 122
79 97 124
75 93 121
77 95 123
77 95 123
76 94 121
77 95 121
77 95 122
75 94 122
79 97 125
76 95 122
74 93 122
76 94 120
75 93 120
79 97 126
78 96 123
76 95 123
74 91 118
80 98 126
76 94 121
79 97 123
77 95 121
75 92 119
76 93 119
75 94 121
77 95 123
74 93 120
78 97 125
77 95 122
77 95 122
73 92 120
78 97 125
76 94 121
78 96 122
78 95 121
76 95 124
78 96 123
76 94 120
75 94 122
77 95 123
77 96 125
77 94 120
80 98 124
79 97 123
76 94 122
77 95 123
76 95 122
78 97 126
74 93 121
78 97 126
77 94 120
76 94 122
76 94 120
75 93 120
78 96 124
75 94 121
77 95 122
78 96 123
78 96 124
74 92 119
77 95 123
76 95 123
79 97 122
76 95 123
78 96 124
77 95 122
78 97 126
76 94 121
77 95 123
76 95 122
76 95 124
77 95 124
77 95 123
81 98 125
79 98 125
76 94 120
78 96 124
79 97 125
75 93 119
77 95 122
78 96 124
76 95 123
76 95 123
76 95 123
74 93 120
76 94 120
75 94 122
77 95 121
75 93 120
79 96 123
79 98 125
77 96 124
76 95 123
77 95 123
80 98 124
79 97 124
77 96 123
78 96 123
79 97 125
78 97 125
77 95 123
77 96 125
75 93 120
77 95 122
78 95 121
79 98 125
78 96 124
80 98 126
76 95 122
75 93 121
77 96 123
77 95 123
76 94 121
78 96 125
75 94 121
77 95 122
77 95 123
77 96 123
78 97 125
76 94 121
78 96 122
76 94 120
78 96 124
78 97 125
77 96 124
74 93 121
78 96 123
77 95 123
76 95 124
78 97 125
76 94 120
76 93 118
77 96 125
77 95 121
75 93 120
78 96 123
75 93 120
76 95 122
76 95 123
77 96 124
77 94 120
78 95 121
79 97 124
80 98 125
79 97 124
75 93 120
80 98 125
79 97 124
77 96 124
75 93 121
78 95 121
78 96 124
75 94 122
77 96 125
74 92 120
80 98 125
77 95 123
76 95 123
77 96 125
76 95 123
81 98 124
79 97 125
75 93 120
78 96 125
77 95 123
79 98 126
77 96 124
76 96 124
75 93 121
78 96 123
77 95 123
79 97 125
77 95 121
77 94 121
78 96 124
75 93 119
77 95 122
77 94 120
76 94 122
78 97 124
78 96 123
77 95 123
78 96 124
80 97 124
74 93 121
76 93 119
77 95 122
76 95 123
77 95 123
79 98 125
78 96 123
77 96 124
77 95 121
74 92 118
78 95 122
77 95 124
76 94 121
78 96 124
78 96 123
76 94 120
76 95 123
81 99 126
78 96 123
75 93 121
79 97 124
78 96 124
77 96 123
76 94 120
76 94 122
75 93 120
77 95 122
77 96 123
78 96 124
78 96 124
79 98 125
81 98 125
76 95 122
77 94 121
76 95 123
75 93 120
75 93 120
78 97 125
78 96 124
77 95 123
78 96 123
78 97 125
77 96 124
77 95 122
76 95 122
78 96 123
79 96 122
75 93 120
78 96 123
78 95 122
74 92 119
74 93 121
73 91 116
75 94 121
76 95 122
77 96 124
76 94 121
78 96 123
75 93 120
77 95 123
77 95 122
80 98 125
74 91 116
77 95 122
79 97 125
75 91 115
78 95 120
78 96 124
78 96 124
76 94 122
79 98 126
76 94 122
77 95 122
75 93 120
78 97 125
75 92 118
77 95 121
77 94 120
78 96 124
74 94 123
75 93 121
76 95 123
78 96 122
77 95 123
76 94 121
76 94 121
75 93 120
76 95 123
77 96 124
75 93 120
76 94 122
75 94 121
77 95 121
79 97 125
76 93 119
74 92 119
77 95 121
78 97 125
77 95 122
77 95 123
79 96 123
78 95 121
79 97 123
73 91 119
79 96 122
77 95 123
74 92 117
80 98 126
74 92 118
77 95 122
75 93 121
78 96 123
76 94 120
78 96 124
78 96 122
75 93 119
76 94 121
76 95 122
77 96 125
76 94 121
75 93 119
76 94 121
75 93 120
75 92 119
76 95 123
76 95 123
78 96 124
74 91 118
76 94 122
75 93 119
78 96 124
77 95 122
78 95 122
80 98 124
75 93 120
73 91 117
75 93 119
76 94 121
73 91 119
77 96 123
76 93 120
80 98 125
78 96 123
76 94 121
77 96 123
77 95 124
76 94 121
77 94 120
75 94 122
75 93 120
78 96 123
77 94 121
76 94 120
76 94 120
76 93 120
78 96 122
72 90 117
78 95 122
78 96 123
76 94 121
80 99 126
75 93 121
73 91 118
72 90 116
78 96 123
78 97 124
79 97 123
77 95 121
74 93 120
75 93 119
78 95 122
76 95 122
75 94 122
73 91 118
78 97 125
76 94 122
74 91 117
74 91 116
74 92 119
76 94 120
80 98 125
74 93 120
75 93 120
76 93 120
77 95 123
77 96 124
76 94 122
79 96 123
74 93 122
78 96 123
78 95 120
75 93 120
74 92 119
78 95 121
77 95 121
76 93 119
76 95 122
75 93 120
75 92 119
77 95 123
77 94 121
75 94 122
74 92 120
76 93 120
76 95 122
74 93 121
74 91 117
79 97 125
75 94 121
79 97 126
76 94 121
77 95 122
76 94 120
81 99 126
76 94 120
76 93 119
76 94 123
74 93 120
77 95 121
77 95 121
78 96 123
75 93 119
77 95 123
80 98 126
75 93 122
77 96 125
72 90 117
74 91 117
75 93 120
78 96 123
74 92 118
77 96 123
76 94 123
75 93 120
77 95 123
77 95 123
79 97 124
76 94 121
75 94 122
78 95 122
79 97 125
77 96 125
79 96 122
77 95 123
77 95 122
74 92 120
79 97 124
76 95 122
76 94 121
80 98 124
76 94 122
77 96 125
79 97 123
74 93 120
77 95 123
77 94 121
78 96 123
78 97 125
75 93 121
77 95 123
76 94 121
78 96 123
77 95 123
77 95 122
77 95 121
75 95 124
77 96 124
77 95 123
77 95 122
78 96 123
74 91 117
80 98 125
78 96 124
74 93 121
78 96 124
74 91 118
76 95 123
78 97 125
79 96 123
79 96 123
77 96 124
80 98 124
78 97 124
79 97 124
74 93 120
76 94 120
78 97 125
75 92 118
77 95 121
79 97 124
78 96 124
77 95 121
78 96 125
76 95 123
76 95 122
80 98 126
74 91 117
78 97 124
74 93 122
75 94 122
77 94 120
79 98 126
77 96 124
74 92 120
75 93 120
77 95 122
76 94 121
77 95 123
78 97 125
76 94 121
78 96 124
74 92 120
81 99 126
75 94 121
77 95 122
78 97 124
76 96 125
75 93 121
77 95 122
78 97 126
79 98 125
76 95 123
78 96 124
76 95 122
76 95 122
77 94 121
79 98 126
76 93 120
75 93 119
77 95 121
78 96 124
77 95 121
78 96 124
76 95 124
78 95 122
77 96 123
78 96 124
78 97 124
76 94 121
78 97 126
78 97 125
78 95 122
79 97 124
76 94 121
79 97 124
78 97 126
76 95 123
75 94 121
79 97 124
79 97 124
75 93 120
77 96 124
78 97 126
79 97 124
80 98 125
78 96 123
76 94 121
76 94 122
77 96 123
78 96 124
76 95 122
78 97 124
77 96 124
78 96 124
76 95 123
79 97 125
76 94 120
79 97 124
78 96 124
76 94 120
76 94 121
79 97 126
80 98 126
76 94 120
79 97 125
79 97 124
74 93 121
79 97 124
80 98 125
76 95 123
76 95 122
78 96 123
77 95 121
77 97 126
76 94 121
78 96 123
76 95 122
78 97 126
77 95 121
79 96 122
78 95 121
77 96 124
76 93 120
75 94 123
77 95 122
77 95 122
77 95 123
79 96 123
77 95 122
76 95 122
80 97 124
76 94 121
76 95 122
76 94 121
78 96 122
76 95 123
75 94 122
82 99 126
77 96 124
76 94 122
79 98 126
77 96 125
78 96 124
76 94 121
78 97 126
76 94 122
79 97 125
76 94 122
75 94 122
79 97 124
77 95 121
78 96 123
78 95 122
76 94 121
73 91 118
75 93 119
77 96 124
79 96 122
76 93 119
77 94 120
75 94 121
75 94 122
79 96 123
78 96 123
76 94 120
80 98 125
74 92 120
75 94 123
76 96 126
77 96 123
77 96 123
76 94 122
76 95 124
76 94 122
76 94 121
76 93 119
77 95 121
76 93 119
76 93 119
79 97 124
74 92 120
80 98 125
78 96 124
76 94 120
76 94 122
76 95 122
76 95 123
77 94 120
76 95 123
76 94 121
79 97 125
79 97 125
77 96 123
73 92 120
74 92 119
77 95 122
75 94 123
77 95 122
78 95 121
78 95 121
77 95 122
75 93 120
76 94 120
79 97 124
76 94 123
76 95 122
77 95 122
78 96 124
78 96 123
76 95 122
77 95 123
76 94 121
77 95 123
75 94 122
78 95 122
76 94 121
75 94 121
79 97 124
79 96 123
79 97 124
74 92 118
75 93 120
78 95 122
77 95 122
76 94 121
76 94 121
78 96 124
73 92 119
77 95 123
79 97 125
79 97 124
79 97 124
77 95 123
77 96 124
75 93 120
74 92 120
75 93 121
75 93 119
76 94 122
74 92 121
75 94 122
77 96 123
79 97 123
77 96 124
77 95 122
79 96 122
78 97 125
76 95 124
76 94 121
78 95 122
78 97 126
77 94 121
75 93 120
76 94 122
74 93 121
78 96 125
78 95 122
76 95 122
78 96 123
77 95 122
78 96 124
77 95 122
76 94 120
76 94 121
80 97 123
78 96 124
78 96 123
79 97 124
78 96 123
78 96 123
80 98 126
78 96 123
76 95 124
79 97 125
75 93 120
76 94 122
77 94 120
77 95 123
76 94 120
77 95 121
74 92 118
76 94 121
75 93 120
76 94 122
74 92 119
77 96 123
79 97 126
78 96 123
77 94 121
77 96 124
75 93 120
77 94 120
76 95 122
76 95 123
75 93 119
77 95 123
74 92 120
75 94 121
78 96 123
77 95 121
77 95 123
75 93 120
77 95 122
77 95 123
78 96 123
77 96 123
76 94 121
79 96 123
76 94 121
78 96 124
76 94 121
76 94 121
77 95 123
79 97 123
79 96 122
74 92 119
78 96 123
77 95 123
78 95 121
77 94 121
74 92 120
75 93 119
75 93 120
78 95 121
76 94 121
76 95 123
74 93 122
77 95 123
77 95 123
77 95 123
77 96 124
76 95 123
75 93 120
75 94 122
79 97 124
76 96 125
76 95 123
77 95 124
78 95 122
74 92 120
78 96 123
77 96 125
76 93 120
77 94 121
75 93 120
78 96 124
79 97 125
78 97 125
78 96 123
80 98 125
78 96 124
75 93 119
77 96 123
77 95 121
75 94 122
77 95 122
76 94 121
76 95 123
76 94 120
76 94 120
76 94 122
76 94 121
78 96 123
78 96 123
78 96 124
79 97 123
78 95 121
79 97 124
77 95 122
76 93 119
76 94 121
75 94 122
77 95 122
77 95 122
74 93 121
79 97 124
78 96 124
77 95 122
77 95 122
77 96 124
79 97 124
76 94 122
78 97 124
76 95 123
77 94 121
79 98 126
75 94 121
78 97 124
77 95 122
77 95 123
77 95 122
77 96 124
77 96 124
78 96 124
74 93 121
77 94 120
77 95 123
74 91 117
77 95 121
72 90 118
75 93 121
77 96 124
81 99 126
78 97 124
77 95 122
78 96 123
78 97 125
77 95 123
77 95 123
75 94 122
74 93 121
78 96 123
79 98 126
75 92 118
78 96 123
78 96 124
79 98 125
77 96 123
78 97 124
76 93 120
78 97 125
76 95 124
74 92 117
76 94 120
75 92 119
75 92 118
77 97 126
77 96 125
75 93 121
75 94 121
78 97 124
79 97 125
77 96 125
80 99 126
75 93 120
78 96 123
80 98 126
80 97 122
73 90 117
77 94 121
79 96 123
77 95 122
77 96 124
77 94 121
76 94 120
77 96 123
77 95 123
78 97 125
77 96 124
76 95 123
76 94 121
76 94 120
75 94 122
76 94 120
78 96 122
77 94 121
80 98 125
77 95 122
78 97 125
79 97 123
78 97 126
78 96 123
77 96 125
80 98 125
79 97 125
78 97 125
79 97 123
77 95 122
77 94 120
78 96 122
78 96 123
76 94 121
79 96 123
78 96 123
77 96 125
78 97 124
76 95 123
77 96 125
77 96 123
78 97 125
80 97 124
79 98 127
77 96 123
80 97 124
78 96 124
77 94 121
77 96 124
78 96 124
78 96 123
75 93 120
79 97 125
76 93 119
78 96 124
76 94 122
78 96 124
77 95 123
77 95 122
79 97 124
75 93 119
79 97 123
79 97 123
77 95 122
75 94 124
76 94 121
77 96 123
79 98 126
77 94 119
81 99 126
76 94 121
76 95 122
77 95 122
75 93 121
78 97 125
77 95 122
78 96 123
76 95 123
77 95 121
78 96 122
76 94 121
78 96 122
77 93 118
77 95 121
79 98 126
76 93 119
78 96 124
74 92 119
78 97 125
78 96 123
75 94 123
77 95 124
75 92 118
79 97 123
81 99 126
76 95 123
78 96 123
79 97 124
76 94 121
77 95 123
77 96 124
76 94 120
76 95 122
74 93 121
76 94 122
79 97 123
78 97 125
78 96 123
77 95 123
75 93 121
76 95 123
78 96 123
76 95 122
79 97 124
79 97 123
77 95 122
74 92 119
77 95 122
76 94 122
79 96 122
75 93 120
78 97 125
75 93 120
76 94 121
76 94 121
77 94 121
78 97 124
79 97 123
79 97 126
77 95 122
79 97 124
80 98 126
79 96 123
76 94 121
78 97 125
76 95 122
77 95 121
76 94 122
80 98 124
76 94 121
78 96 123
79 97 123
78 96 123
76 95 124
77 95 122
76 94 122
75 92 119
78 96 123
77 95 122
79 96 123
79 97 124
78 97 125
77 94 120
80 98 125
76 95 124
77 96 124
76 94 120
78 96 124
76 95 122
77 95 123
78 96 123
76 94 121
79 97 125
81 98 124
76 95 123
77 94 121
75 93 120
79 97 124
78 96 124
77 97 127
75 93 121
77 95 122
78 96 124
78 96 122
78 95 121
78 97 124
79 96 123
77 95 122
78 95 120
77 95 121
77 96 123
79 97 125
77 96 125
77 94 120
76 93 120
78 96 122
74 92 119
76 94 121
76 95 123
77 95 121
78 96 122
76 94 120
77 96 125
76 94 121
78 95 122
77 95 123
78 96 124
77 95 122
80 98 124
75 94 123
75 92 119
78 96 123
76 96 124
78 97 124
77 94 121
80 97 124
77 95 122
78 96 123
77 95 122
77 95 122
76 95 122
78 96 124
74 93 121
76 93 119
76 94 120
76 94 122
77 95 123
80 98 126
78 95 122
80 98 125
81 98 124
77 95 122
75 93 120
79 97 125
78 97 126
75 94 123
75 93 120
76 95 123
77 94 120
76 94 121
77 95 121
78 96 124
78 97 125
77 95 122
77 95 122
77 95 122
75 93 119
78 96 122
77 95 122
74 93 120
78 96 123
74 93 121
76 94 121
75 94 122
78 96 124
75 91 116
76 94 122
76 94 121
78 96 123
76 95 122
77 95 121
78 96 123
75 93 121
76 94 120
75 94 122
74 92 119
76 95 123
75 94 122
78 97 125
78 97 124
78 96 124
79 97 124
75 93 121
75 93 119
81 99 127
76 96 125
76 93 119
77 95 122
79 97 124
77 97 126
76 94 121
77 95 122
75 93 121
73 92 120
75 93 120
78 96 123
77 95 121
80 98 125
76 94 122
75 93 119
76 94 121
78 97 124
76 95 123
78 97 124
77 95 121
76 95 123
75 94 121
77 95 122
78 96 123
78 96 124
76 94 120
76 94 123
78 96 123
76 95 122
75 93 120
75 93 120
77 96 123
78 95 121
76 94 122
78 96 122
79 97 124
74 92 120
76 94 122
77 94 121
78 96 123
76 95 123
77 95 122
78 96 123
76 94 123
77 95 123
76 93 119
74 92 119
79 97 124
78 96 124
77 95 122
78 96 123
76 94 121
77 95 122
80 98 125
79 98 126
77 95 123
78 95 122
75 94 122
74 93 122
75 94 122
75 94 121
80 98 125
78 96 123
79 97 124
74 92 120
77 96 125
76 95 124
77 96 124
77 95 122
77 95 122
75 92 118
80 97 124
79 97 124
75 93 119
80 98 125
76 93 120
77 95 121
76 95 123
81 99 126
79 97 124
78 98 127
77 95 123
79 98 126
77 95 122
78 95 121
78 97 124
76 95 123
78 96 123
79 98 126
73 91 118
76 95 124
77 94 121
77 95 122
78 96 122
76 94 122
78 96 124
77 96 125
80 97 124
78 97 125
75 94 122
74 92 119
79 97 125
76 93 119
77 95 124
78 96 124
75 93 120
78 96 122
78 96 123
78 96 123
80 97 123
75 92 119
79 97 123
76 95 122
75 94 121
78 95 122
79 96 123
77 96 123
75 93 119
78 96 123
78 97 126
78 95 121
78 97 126
76 94 122
75 93 121
78 97 125
78 96 124
75 93 121
77 95 123
78 96 124
78 97 124
77 96 125
78 96 123
78 97 125
77 95 124
78 97 126
80 98 124
76 94 120
80 99 126
75 94 122
77 96 124
78 97 125
81 99 126
78 96 123
81 99 126
77 95 122
78 95 122
79 97 123
78 96 123
77 96 124
78 97 124
78 96 122
78 96 123
77 95 123
78 97 125
78 96 124
79 97 125
77 95 121
78 96 122
77 95 123
76 94 121
79 96 123
78 96 123
75 94 123
78 96 124
76 94 121
80 98 126
75 94 123
78 97 126
76 95 123
76 95 122
74 92 118
78 95 122
79 98 126
76 94 122
77 96 124
78 96 122
80 98 126
79 97 125
77 95 123
77 94 121
76 94 121
75 94 122
77 96 123
79 97 124
76 94 121
81 99 126
78 96 123
79 97 125
77 95 122
81 98 124
77 95 121
76 93 119
77 96 124
77 96 123
78 96 124
75 93 120
77 96 123
78 96 124
78 96 124
75 93 120
78 97 126
76 94 122
79 97 123
79 97 124
79 98 126
74 93 121
78 96 123
78 96 124
75 94 122
76 95 122
78 96 123
78 96 123
77 95 122
75 93 120
77 96 123
78 97 125
77 95 122
76 94 120
76 94 122
76 94 122
77 96 124
77 95 123
75 93 120
77 95 121
78 97 124
76 96 125
77 95 123
77 94 119
77 95 121
77 95 122
80 98 125
77 94 120
74 93 122
77 95 122
76 94 122
77 95 122
75 94 122
78 96 123
80 98 126
77 95 122
79 96 123
79 97 124
78 97 126
76 94 122
79 98 126
78 95 121
78 97 125
75 94 122
78 96 124
74 92 118
76 95 122
76 95 123
78 96 124
73 92 120
80 97 122
77 95 122
79 97 124
77 95 121
75 94 122
74 93 122
80 98 124
79 96 123
80 97 123
78 95 122
79 98 125
77 96 124
78 96 124
76 95 124
77 95 123
76 95 124
76 94 122
75 94 121
78 95 122
74 93 121
77 95 123
78 96 122
78 96 123
77 95 123
77 95 122
79 97 123
77 95 121
77 94 120
76 94 120
75 94 122
80 98 125
80 98 125
75 93 120
79 97 124
76 95 122
79 97 125
75 93 119
77 95 122
77 95 122
81 99 126
77 95 122
81 99 126
79 96 122
79 97 124
77 95 122
78 97 124
75 94 122
77 95 123
73 90 117
75 93 120
77 94 121
78 96 124
75 94 121
77 95 122
77 95 122
77 96 123
77 95 121
78 97 125
79 97 124
78 96 124
79 97 124
78 96 123
79 97 124
74 92 119
77 95 121
78 96 123
76 94 121
76 94 122
78 95 122
74 91 118
75 93 119
77 95 123
76 95 122
78 97 124
77 95 121
76 94 122
78 96 123
77 95 121
77 95 123
79 96 123
75 93 121
76 94 121
77 95 123
76 95 124
80 97 124
76 95 123
74 91 117
79 97 124
75 93 120
77 95 121
74 93 122
77 95 122
77 94 121
75 93 121
74 93 120
78 96 123
77 96 125
74 92 119
75 92 119
75 93 121
74 93 121
79 97 123
76 94 121
77 95 123
77 95 122
78 95 121
77 95 123
73 92 119
76 94 121
80 97 123
76 95 123
73 91 118
81 99 127
77 95 123
77 96 123
75 93 121
75 94 122
77 95 122
79 97 125
75 92 119
75 93 120
74 92 119
79 98 126
78 95 122
75 94 122
78 96 124
76 93 120
77 95 121
75 92 118
75 93 121
74 93 121
78 96 123
76 95 124
78 96 124
77 95 121
78 97 124
77 95 121
76 94 120
76 94 121
78 95 121
79 96 122
77 95 122
75 93 120
75 93 121
76 94 120
76 94 120
78 95 121
77 94 121
75 93 119
75 93 119
75 93 120
75 93 121
77 96 124
78 96 123
77 95 124
75 93 121
80 98 125
77 95 122
77 94 120
77 95 122
79 97 126
78 96 123
76 94 121
75 94 122
77 95 123
79 98 126
76 94 121
77 95 123
81 99 125
77 95 122
77 95 121
80 98 126
76 95 123
74 92 119
75 92 118
76 95 124
76 95 123
77 95 123
77 96 124
79 97 124
76 95 123
78 96 124
77 96 124
74 93 121
79 97 124
78 97 125
77 95 122
76 95 122
76 95 123
78 97 124
79 97 124
76 94 122
78 96 124
77 95 122
77 95 121
77 95 123
79 97 124
77 96 124
76 93 119
77 95 123
76 94 121
77 96 123
79 97 124
75 93 121
73 91 118
76 95 124
74 92 120
77 96 124
76 93 120
80 98 126
75 94 121
75 94 122
76 94 122
78 96 124
76 93 120
78 97 126
75 93 121
78 97 124
77 95 122
75 93 119
73 91 118
79 97 122
76 94 122
77 94 121
79 97 125
76 94 122
76 93 119
78 96 123
75 93 119
78 96 123
76 94 120
75 94 123
79 98 126
78 96 123
79 97 125
76 95 122
78 96 124
74 92 119
77 94 120
77 96 124
77 96 125
80 98 126
76 94 122
79 97 124
77 96 123
79 97 124
78 96 122
79 97 124
79 96 122
75 95 124
78 97 125
78 95 122
78 96 122
77 95 121
74 92 118
76 95 123
77 94 120
78 96 124
78 96 124
80 97 124
77 95 122
78 96 124
77 95 122
80 98 125
76 94 120
78 96 124
79 97 125
78 97 124
75 93 120
80 98 126
79 97 124
76 94 120
78 96 124
77 95 123
78 96 122
79 97 123
76 94 121
80 98 126
75 94 124
77 96 123
76 95 122
76 94 121
78 97 124
77 95 124
76 95 123
78 96 123
77 94 120
75 93 120
77 94 120
75 94 122
79 97 124
78 97 126
80 97 123
79 98 127
77 95 122
79 96 123
78 97 125
78 97 124
78 97 126
76 95 123
76 94 121
79 98 126
78 97 126
76 95 123
77 95 123
75 93 120
78 95 122
76 94 122
76 96 124
78 96 122
77 96 125
77 95 121
76 95 123
78 95 121
78 97 126
76 94 121
79 97 124
77 96 124
77 96 125
77 96 124
75 93 121
80 98 124
78 96 123
76 95 122
76 94 120
79 96 123
79 96 123
76 94 121
78 96 124
76 94 122
79 96 122
77 95 122
79 97 123
76 94 121
76 95 122
77 95 122
75 93 121
79 97 124
77 96 124
77 95 122
77 95 122
77 96 123
76 95 123
75 94 121
78 97 125
78 97 125
78 97 124
78 96 124
80 98 126
75 92 119
77 95 121
78 96 124
78 96 123
77 96 124
77 95 122
76 94 122
77 95 123
77 95 123
77 95 121
78 96 122
80 98 126
78 96 123
76 94 122
78 95 121
76 95 122
78 97 124
78 97 125
75 93 120
80 98 126
79 97 124
76 95 123
78 96 124
78 97 125
77 95 122
74 92 119
78 96 122
78 96 124
75 95 124
73 91 118
76 94 121
78 97 124
77 96 124
78 96 124
76 94 121
78 96 123
78 96 124
75 93 120
73 91 119
77 95 122
77 95 121
75 93 120
79 97 125
80 98 126
76 95 123
76 94 120
77 95 122
75 93 120
78 96 122
78 96 123
77 94 121
78 97 125
77 94 118
77 95 122
75 92 117
74 92 119
74 93 121
77 95 123
75 94 121
79 97 124
77 96 123
78 96 123
76 95 122
76 95 123
78 96 123
82 99 125
78 95 121
76 95 123
77 96 123
76 94 121
78 97 125
78 96 122
74 93 121
78 96 123
77 95 124
76 93 120
77 95 122
76 94 121
75 93 120
79 97 124
75 94 122
77 96 124
78 95 121
79 97 124
77 95 122
76 94 122
77 95 122
75 94 122
79 97 125
76 93 119
77 95 123
76 94 120
77 95 122
75 94 122
75 93 120
77 96 124
75 93 121
75 94 121
77 95 122
78 97 125
79 97 124
75 92 119
76 94 120
76 94 120
79 97 123
78 97 125
77 96 124
76 94 122
79 96 121
80 98 124
79 97 124
78 96 124
80 98 124
76 95 123
77 95 121
75 93 121
80 98 126
77 95 122
78 97 125
77 96 124
77 95 121
73 91 118
73 92 119
75 93 120
77 95 121
79 97 124
76 94 121
77 96 124
78 95 122
77 95 122
74 93 121
77 95 122
78 96 124
75 93 120
74 91 117
73 90 116
77 96 123
78 96 124
77 95 122
79 97 124
76 94 120
77 96 125
75 93 121
80 98 124
78 96 124
78 95 122
77 95 122
77 94 120
79 97 124
77 96 124
76 94 122
79 97 123
77 96 124
77 96 124
77 96 124
75 94 122
77 95 122
77 96 123
75 93 120
78 96 124
78 96 123
76 94 120
76 94 120
76 94 121
79 97 125
76 94 121
77 95 123
77 95 123
76 93 119
76 94 120
77 96 123
79 97 123
77 95 122
72 91 119
77 95 123
78 95 122
77 96 125
76 95 123
76 95 123
76 94 119
79 97 125
77 95 122
77 94 120
77 94 120
77 95 123
76 94 122
76 94 121
77 96 125
77 95 122
75 94 123
76 93 120
76 94 122
77 94 120
78 96 123
77 95 122
74 93 122
75 94 121
77 96 124
77 96 124
76 94 120
79 97 125
79 98 126
74 93 120
77 94 120
74 92 119
76 95 124
76 94 121
78 96 123
77 95 121
75 94 123
78 97 124
77 95 122
77 97 126
78 95 121
79 98 126
76 96 124
78 97 125
77 96 125
78 96 124
78 96 123
75 93 121
78 97 125
77 96 124
78 95 121
75 93 120
77 95 121
77 96 123
78 96 124
76 94 122
76 94 121
78 96 123
79 97 124
77 95 123
77 95 122
76 95 122
74 92 120
79 97 125
76 94 120
76 95 123
77 95 122
76 94 121
77 96 123
77 95 122
78 96 123
77 96 124
81 99 126
77 95 123
75 93 121
75 94 122
78 95 122
78 95 121
78 97 125
76 94 121
78 97 125
77 95 122
77 95 123
75 93 121
73 91 119
76 94 122
74 92 120
79 97 123
76 94 121
76 95 124
76 95 122
78 95 120
75 93 121
75 94 122
79 98 125
75 93 120
77 96 124
77 95 122
76 94 120
77 95 123
78 96 124
79 97 125
76 94 121
78 96 122
78 96 125
77 94 120
73 92 120
78 96 122
75 93 120
74 93 120
81 99 126
77 96 123
75 94 121
77 94 121
77 96 124
77 95 122
74 93 120
75 94 122
76 94 122
77 96 124
76 93 120
77 94 120
75 94 122
74 91 116
80 97 124
78 96 123
77 95 123
76 95 124
79 96 123
77 95 123
75 94 122
78 96 124
77 95 122
73 92 120
78 96 123
77 95 122
74 92 118
76 95 122
76 94 121
80 98 126
78 96 123
77 95 122
79 97 124
76 93 120
75 93 120
76 95 122
77 95 121
75 93 120
78 97 125
77 96 124
80 98 126
75 93 119
79 97 124
74 92 120
77 95 121
76 93 120
77 95 123
77 96 123
74 91 118
78 96 123
76 94 122
77 95 122
74 93 121
79 98 127
77 96 124
76 95 124
78 96 124
77 95 121
80 98 126
78 96 122
76 94 122
80 98 124
77 95 123
79 97 124
76 94 121
78 96 122
77 95 123
76 94 120
77 96 123
78 97 124
79 97 124
75 93 120
77 96 124
75 93 120
79 97 124
78 96 124
75 93 121
78 96 123
76 95 122
78 97 124
79 98 126
75 92 119
77 95 121
78 97 126
76 94 120
77 95 123
77 96 125
79 97 125
79 96 123
77 96 124
78 96 123
78 97 124
77 94 120
76 95 125
79 97 125
76 94 121
78 96 123
79 98 125
73 92 121
77 96 124
76 95 124
76 95 124
78 97 125
80 99 127
79 97 123
79 97 125
78 96 124
76 93 120
77 95 122
78 95 120
77 96 123
77 95 122
78 95 121
76 94 122
77 96 124
76 95 123
79 97 125
78 96 122
78 96 124
76 95 124
76 94 121
76 96 125
80 98 126
82 100 126
79 97 124
78 97 126
76 94 121
76 95 123
79 97 124
76 93 120
77 94 121
74 93 121
78 96 124
77 95 121
77 95 121
79 96 123
79 97 123
77 95 122
79 97 124
77 95 121
77 96 124
76 94 122
78 95 122
76 94 121
80 99 126
74 93 120
79 97 125
78 97 126
77 95 122
75 93 118
78 96 122
76 95 124
77 95 123
74 92 119
75 93 120
79 97 125
77 95 122
77 95 120
74 93 121
75 94 122
79 97 124
77 95 122
79 98 125
76 94 120
76 95 124
78 97 126
79 97 124
79 97 124
77 95 122
77 95 121
75 92 119
75 93 120
76 94 122
78 96 125
78 97 126
77 96 125
75 94 122
77 96 124
77 95 121
75 93 120
76 95 123
77 96 123
75 93 119
76 94 121
74 93 121
80 97 123
79 98 126
77 95 123
78 95 122
75 94 122
77 96 123
76 94 120
77 96 125
77 96 123
77 96 124
76 95 123
78 96 123
76 93 119
73 92 119
81 99 125
77 95 123
75 94 122
77 96 125
77 94 120
77 97 126
75 93 120
78 96 122
77 95 122
79 97 123
78 96 123
75 93 119
78 96 123
79 96 123
77 96 124
78 97 126
79 98 125
78 96 123
81 98 125
78 96 124
79 98 126
78 96 123
74 92 120
76 95 123
76 95 122
76 95 123
78 96 123
76 95 123
79 96 123
77 95 123
78 95 122
76 95 125
76 95 122
76 95 124
77 95 121
77 95 124
76 94 120
76 95 123
77 95 122
75 93 119
76 94 121
76 93 119
80 97 123
78 96 122
78 96 123
75 94 122
78 95 121
73 90 116
77 95 123
78 94 120
75 94 121
76 93 120
77 96 123
76 94 121
78 96 124
76 95 122
74 93 120
80 97 123
78 95 122
75 93 119
78 96 122
78 96 123
76 94 121
77 96 124
75 94 123
75 93 121
75 93 121
76 94 121
76 95 123
78 96 124
78 96 123
76 94 121
77 95 122
77 95 122
77 95 123
75 94 121
75 94 122
77 94 119
77 95 122
78 97 124
74 93 120
76 94 122
78 96 123
79 97 124
76 95 124
75 94 122
75 94 122
77 96 124
78 97 124
81 98 124
77 95 121
73 91 119
77 95 122
78 96 122
76 94 121
77 96 123
77 95 122
79 97 124
79 98 126
79 97 124
75 93 120
76 95 122
77 95 121
81 98 124
80 99 127
77 95 123
78 95 120
75 93 121
75 92 118
78 96 123
78 96 123
78 96 123
77 96 124
74 93 121
77 94 121
79 97 124
76 93 119
78 97 124
74 91 117
79 97 124
74 92 119
77 95 121
76 94 121
77 96 123
77 96 124
77 95 122
77 95 122
76 95 124
71 90 118
76 94 121
74 91 118
78 96 122
78 96 123
76 94 121
77 96 123
78 97 126
77 96 124
78 95 122
80 98 125
76 94 122
80 98 125
77 95 123
77 95 122
76 95 122
75 93 120
77 96 123
77 96 124
79 97 124
76 94 121
78 96 123
76 94 121
76 94 121
77 96 124
76 95 123
77 95 122
75 94 123
77 95 124
79 97 124
78 97 125
78 96 122
78 96 124
76 94 120
74 92 119
76 94 122
76 95 122
79 97 125
77 95 122
77 95 122
77 95 123
77 94 118
76 94 120
79 96 122
81 99 126
75 93 120
76 95 122
78 96 124
77 95 122
76 94 122
76 94 121
75 93 120
77 94 121
79 96 122
79 98 126
77 96 124
74 93 121
78 97 124
76 94 120
75 93 119
76 94 121
77 94 120
78 97 124
77 94 120
76 94 122
75 93 120
79 97 125
77 96 125
77 96 125
77 96 124
77 96 123
77 95 123
75 94 122
76 94 123
78 95 121
77 95 122
80 98 126
77 95 122
77 95 122
78 97 125
77 94 120
79 97 124
79 98 125
79 97 124
77 95 123
77 95 123
78 96 123
76 95 124
77 95 122
77 94 120
77 96 125
77 95 121
77 95 122
79 97 125
75 94 122
75 93 120
78 96 123
78 96 123
79 97 123
79 97 124
79 97 125
77 96 123
79 97 124
77 96 123
76 95 124
77 95 122
78 96 124
76 94 122
79 97 123
76 94 120
76 93 119
77 95 123
75 93 121
77 95 122
76 94 121
78 97 124
78 95 121
77 96 123
75 93 120
77 94 121
79 97 124
77 95 124
79 96 121
75 92 118
75 93 120
80 98 125
79 96 123
79 97 124
78 95 122
80 97 124
78 95 122
76 95 124
76 95 123
76 95 123
76 94 122
77 95 123
78 96 124
78 96 123
76 95 122
76 95 122
79 97 123
76 94 123
75 94 123
78 96 123
78 95 122
78 96 123
78 96 122
78 96 124
77 95 121
81 98 125
77 96 124
77 95 123
78 97 125
79 97 124
78 95 121
79 96 123
77 95 123
76 94 122
76 95 124
77 95 122
79 97 124
76 95 123
77 95 122
79 96 123
77 96 125
78 96 123
77 95 122
77 96 124
78 97 125
77 96 123
77 96 125
76 94 120
76 95 122
77 95 122
76 95 123
78 96 123
78 96 123
77 95 121
79 98 126
77 95 122
76 94 122
77 96 123
79 98 126
78 96 122
77 95 120
79 97 124
78 97 124
77 95 122
77 95 123
77 95 121
78 96 123
78 96 123
78 96 124
76 94 121
80 98 126
78 96 123
80 97 122
76 93 119
76 94 120
78 96 123
77 95 123
77 96 123
78 96 124
80 97 123
76 94 122
80 99 126
81 99 126
79 96 123
78 96 123
75 94 121
78 96 124
78 96 123
78 97 125
78 95 122
76 94 122
76 95 123
75 93 121
78 97 124
77 95 123
77 96 123
78 96 124
78 97 125
76 94 121
79 96 123
76 94 121
81 98 125
75 93 121
77 94 120
77 95 123
77 96 123
77 95 123
76 94 122
76 96 126
78 97 125
77 95 121
76 94 121
75 93 120
78 96 123
78 96 123
78 96 123
75 94 121
78 95 121
75 93 121
75 94 121
78 96 125
78 96 123
76 94 122
77 95 123
76 94 121
78 96 122
77 95 123
76 94 121
79 97 125
80 98 126
76 94 121
78 95 122
79 96 123
75 94 123
76 95 124
80 99 127
74 92 118
75 93 120
76 94 122
75 93 120
74 92 120
77 95 122
76 94 122
77 95 122
75 94 122
76 93 120
77 95 122
79 97 125
76 94 121
74 93 120
77 95 122
77 95 122
78 96 123
77 96 123
77 97 126
79 98 126
77 96 123
78 96 123
76 95 122
76 94 121
76 95 122
79 98 126
79 97 123
77 95 121
76 95 123
81 98 124
78 97 124
76 95 123
76 93 119
74 91 117
77 95 120
80 98 125
77 96 123
78 97 124
79 97 123
76 94 121
76 94 122
76 95 124
75 94 122
77 95 122
79 97 124
78 96 123
74 92 119
77 95 122
79 96 122
77 95 122
77 95 123
77 95 122
78 95 121
74 92 119
77 94 121
78 97 126
77 95 123
78 97 126
74 93 121
79 97 124
76 94 120
75 93 121
80 98 124
76 95 123
78 96 123
76 95 124
80 98 125
75 93 120
78 97 124
78 96 122
77 95 123
80 98 125
78 95 121
76 94 122
77 95 122
76 93 120
78 95 121
79 96 123
79 97 124
78 96 124
78 96 124
76 95 122
79 98 127
78 96 123
79 97 125
75 93 120
77 95 123
77 95 123
79 97 124
76 95 123
76 94 121
78 96 123
76 95 122
80 97 124
75 94 122
77 95 122
75 93 122
77 96 124
76 93 119
76 94 121
78 95 122
76 95 123
76 94 121
76 93 119
79 97 123
76 95 122
75 93 121
79 97 125
78 97 125
78 96 122
76 94 120
75 94 122
79 98 126
77 95 123
81 99 126
81 99 127
77 95 121
76 94 122
80 97 123
77 95 122
77 95 122
75 93 120
76 94 120
77 96 125
77 95 123
77 96 124
75 93 121
78 96 122
77 96 124
77 95 121
75 92 119
78 96 123
74 92 118
77 94 120
78 97 125
78 96 124
77 96 124
75 93 122
78 96 123
75 93 120
78 96 123
79 97 124
76 95 123
80 98 125
80 98 126
77 96 124
76 95 123
76 94 122
78 96 122
77 95 122
78 96 122
76 93 119
79 97 124
80 98 124
77 95 122
74 91 118
79 96 123
76 94 122
76 94 120
77 94 120
76 95 122
79 97 125
76 94 121
74 91 118
77 97 125
77 94 120
77 96 124
77 95 122
79 96 123
75 93 120
78 96 124
75 94 123
79 98 126
79 97 124
77 96 123
76 95 122
76 94 121
76 94 121
80 97 123
77 95 122
77 95 122
78 96 124
78 97 125
79 97 124
79 96 122
76 95 123
79 97 124
78 96 124
76 94 121
77 95 123
75 93 120
75 94 122
78 96 123
75 94 122
77 95 123
76 94 121
77 95 123
75 94 122
77 95 122
78 96 125
77 95 121
78 96 123
74 93 121
78 96 123
74 92 119
73 91 118
77 95 122
77 96 124
78 96 122
77 95 122
78 96 124
74 92 119
76 94 121
77 95 122
78 96 123
77 95 122
76 92 116
76 94 121
77 95 123
74 93 120
77 95 122
75 94 122
78 95 122
78 97 125
78 96 123
76 95 124
79 98 125
75 94 122
76 94 120
79 97 123
78 96 124
79 97 125
75 93 121
79 97 124
78 96 124
76 94 121
75 93 120
77 95 123
77 96 123
80 97 124
79 97 124
78 97 126
79 98 125
78 96 124
79 97 124
78 96 122
76 94 122
79 97 123
77 95 123
72 90 117
76 95 123
76 95 124
74 93 120
79 98 126
74 93 120
78 96 123
75 93 121
76 94 121
77 95 120
78 96 123
78 95 121
76 94 122
78 96 123
78 95 122
75 94 122
74 92 119
75 94 122
78 96 122
77 96 124
77 95 121
76 94 122
76 93 120
75 94 122
80 98 125
77 95 123
77 95 122
77 96 124
76 95 124
78 96 125
79 98 126
75 94 123
77 94 121
76 94 121
82 100 127
76 95 124
74 93 122
79 97 125
77 95 121
77 95 122
76 95 123
77 95 122
78 96 123
77 95 122
75 94 122
79 96 123
76 95 123
79 96 123
75 94 123
78 95 122
79 97 123
78 97 124
77 96 123
77 95 123
79 98 125
76 95 123
75 94 122
76 95 122
79 97 123
78 96 123
77 95 123
77 96 124
77 96 124
78 96 124
75 95 124
80 97 124
79 97 124
76 95 123
76 95 122
78 97 124
79 97 125
75 94 122
76 94 121
76 95 124
77 94 120
77 94 121
76 94 121
78 96 122
76 95 123
77 96 124
76 95 124
77 96 123
77 96 124
80 98 126
74 92 120
78 95 122
77 95 123
75 94 124
76 95 122
76 95 123
77 95 122
78 96 124
74 92 119
74 92 119
76 93 119
74 93 122
81 99 126
75 94 122
78 95 121
79 97 124
77 95 123
73 91 119
76 94 120
74 92 118
76 94 121
75 93 120
76 94 121
78 97 127
77 95 123
77 95 122
79 97 125
77 96 124
77 96 124
77 96 124
78 96 123
77 95 122
77 95 123
77 96 124
75 92 117
79 97 123
77 95 122
77 96 124
76 93 119
76 94 121
77 96 123
77 95 122
76 94 121
78 95 122
78 96 124
78 96 123
74 93 121
78 97 125
75 93 120
77 95 123
76 95 122
76 94 121
78 96 123
78 96 124
74 93 122
77 95 121
76 94 122
78 96 124
76 93 119
79 98 126
79 97 124
76 95 122
77 95 123
78 96 124
76 94 120
80 98 125
79 98 125
77 95 123
76 95 122
76 94 121
78 96 122
75 93 120
76 93 119
77 94 119
77 94 121
76 94 121
77 96 123
78 96 123
76 94 120
77 95 122
77 95 122
78 97 124
76 95 123
74 93 121
77 95 122
74 93 121
77 96 124
76 94 120
76 94 121
78 97 126
78 96 123
75 93 119
77 95 122
76 94 122
75 93 119
77 94 121
77 94 121
75 94 121
77 95 124
77 95 122
77 95 122
76 95 123
79 97 125
79 97 124
77 95 123
79 98 125
80 98 124
77 95 122
77 95 122
78 96 123
79 97 123
79 97 124
76 95 122
78 96 122
77 95 122
73 92 119
77 96 126
77 95 122
75 93 119
78 96 123
75 94 121
78 95 122
76 93 120
74 92 119
76 94 121
75 94 121
79 96 122
79 97 124
76 94 122
78 96 123
75 93 121
75 93 120
78 96 124
78 96 122
75 92 118
78 96 124
77 94 120
78 96 123
76 93 120
75 93 120
75 93 120
72 90 116
76 94 120
75 94 121
73 92 120
76 94 120
78 96 123
75 94 121
75 93 120
76 93 120
77 96 124
75 93 121
77 95 122
77 95 121
74 92 118
76 95 123
78 97 125
74 92 118
80 98 125
78 95 120
78 96 122
77 95 123
77 95 121
76 94 121
76 94 122
74 92 118
75 93 121
78 96 122
77 95 123
76 95 122
77 95 122
75 94 123
75 93 120
77 94 120
76 94 120
76 95 123
76 94 122
76 96 124
80 97 123
74 92 119
75 94 122
78 96 123
76 94 122
76 94 122
77 95 123
76 95 123
76 94 120
76 93 120
78 96 124
77 96 125
77 94 121
75 93 121
74 92 119
74 93 121
74 92 119
77 96 124
79 97 124
76 95 122
78 95 122
81 99 126
79 96 123
78 96 123
78 96 124
77 95 122
77 95 122
77 95 121
79 97 125
78 95 122
77 95 122
79 97 123
78 97 125
79 97 123
79 98 126
75 93 120
78 96 123
78 97 125
78 97 124
78 97 125
78 95 122
76 94 120
78 96 122
78 97 125
77 96 124
73 92 120
75 94 123
78 96 122
76 94 121
77 95 121
78 97 125
78 96 124
75 94 122
80 97 124
75 94 122
77 96 124
77 96 124
74 93 121
77 95 122
77 94 120
75 94 123
75 93 120
76 95 123
76 95 123
78 96 123
77 94 120
77 94 121
79 96 123
75 93 120
76 94 120
80 98 126
78 97 126
78 96 123
78 96 123
78 96 122
76 95 122
76 93 120
78 96 124
77 95 122
74 92 119
76 95 122
79 97 123
77 94 120
77 95 122
76 94 121
77 96 124
76 96 125
77 95 123
76 95 124
76 94 120
77 96 124
79 97 124
78 95 122
76 94 121
78 95 122
75 93 120
77 95 121
79 97 124
75 92 119
77 95 121
77 95 122
78 95 122
76 94 120
74 92 119
78 96 123
74 93 121
79 96 123
80 97 123
76 93 119
78 97 126
78 97 124
77 96 124
77 96 125
76 94 120
75 93 120
74 92 118
77 95 123
77 95 123
77 95 122
79 97 124
77 94 121
76 94 121
79 97 123
77 95 123
79 98 125
74 93 120
79 97 125
75 93 119
75 94 122
80 97 123
75 93 120
78 96 124
76 95 122
75 94 122
76 93 120
76 95 123
75 95 124
79 97 124
79 97 124
74 93 120
78 96 123
78 95 121
79 98 126
79 97 125
74 92 120
76 94 120
77 95 122
77 94 120
79 98 125
76 94 122
76 95 122
80 97 124
76 94 121
77 95 122
77 95 122
81 98 125
76 94 121
74 93 120
76 95 124
76 94 122
78 96 123
78 97 125
78 96 124
76 94 122
78 96 124
74 93 121
79 97 124
80 97 123
77 96 124
77 96 124
76 95 123
79 97 123
77 95 124
75 94 123
78 97 124
77 95 123
75 94 122
78 95 122
77 95 123
76 94 121
80 98 126
78 96 122
77 95 123
81 99 126
77 96 124
79 98 126
76 94 122
77 94 121
79 98 126
79 97 124
79 97 124
79 97 124
74 92 120
77 95 123
77 96 123
79 96 123
79 97 125
78 96 123
77 96 125
75 93 121
78 97 124
80 98 125
78 97 125
75 94 122
75 93 120
73 92 121
78 96 122
76 94 122
76 94 122
78 95 120
79 96 123
77 95 122
77 96 124
75 94 123
77 94 121
76 94 121
74 93 120
79 96 123
75 94 121
79 97 123
78 96 122
76 95 123
77 96 125
77 95 122
75 93 121
78 98 127
79 96 123
79 97 124
77 95 122
77 95 122
79 96 121
80 97 123
76 95 122
78 96 122
75 92 119
79 97 125
76 94 121
77 95 122
79 98 126
80 99 126
76 95 122
74 92 119
76 94 121
77 95 123
79 97 123
76 94 121
82 99 124
79 98 126
77 94 120
78 96 123
77 95 122
78 96 123
78 97 125
77 95 123
79 96 123
76 93 119
79 96 123
77 95 122
76 93 120
78 96 124
78 96 123
78 96 123
73 92 119
75 93 121
74 92 119
76 94 122
78 96 124
76 94 121
80 97 123
75 93 119
77 96 124
79 97 124
79 97 124
79 97 125
77 95 121
75 93 120
76 94 121
79 97 124
73 91 118
77 96 124
78 97 125
77 95 122
75 94 121
78 96 122
75 94 123
76 95 123
76 94 121
73 92 119
78 96 124
76 94 121
79 96 122
77 95 122
79 97 124
76 93 120
77 96 124
79 97 125
76 95 124
78 95 122
77 96 125
78 96 123
76 93 119
76 94 121
80 97 123
80 99 127
76 94 122
81 99 126
78 95 122
74 92 120
75 93 120
74 91 118
79 97 124
75 93 121
78 95 120
76 94 120
79 98 126
74 92 119
80 98 125
77 95 121
76 95 122
74 92 120
77 96 124
76 95 122
78 96 123
79 97 125
77 96 125
78 96 123
78 96 122
74 91 116
76 95 123
79 96 122
80 98 125
77 95 123
77 95 123
78 96 122
79 97 123
75 94 122
78 96 123
75 93 120
80 98 125
78 97 124
76 95 123
78 97 124
76 94 121
76 95 123
77 96 124
77 96 123
75 94 121
72 91 119
75 93 120
73 91 118
77 96 124
77 95 122
75 93 120
76 94 122
75 93 120
74 92 119
77 95 121
77 95 122
80 98 125
77 95 123
78 96 123
74 92 120
78 97 125
78 96 124
78 95 122
76 94 120
76 94 122
79 98 127
75 92 118
76 93 120
75 93 121
76 94 121
75 94 122
77 95 123
79 97 123
79 98 126
78 96 124
77 95 122
78 96 123
78 97 125
76 94 121
78 97 125
77 96 124
75 93 120
73 91 118
78 96 124
78 96 123
78 96 122
79 98 126
77 95 122
77 95 122
75 93 120
79 97 125
75 93 121
77 95 122
77 95 123
79 96 123
74 91 116
76 93 120
78 97 124
76 93 119
77 95 122
79 97 123
74 94 123
77 95 122
76 94 122
78 97 124
76 95 123
79 97 124
78 96 123
77 95 123
77 95 121
80 98 124
76 95 123
73 91 119
76 95 122
80 98 124
74 92 118
76 95 122
78 96 123
76 95 123
73 90 117
75 93 120
76 94 120
76 95 124
77 95 122
76 95 123
77 95 123
76 94 120
80 98 124
78 96 123
78 95 122
75 93 119
78 97 126
79 97 125
78 96 123
79 98 125
79 96 122
78 96 123
77 95 122
78 96 122
75 93 120
78 96 123
75 94 121
77 95 123
79 97 123
79 97 123
79 97 124
79 96 123
73 91 118
76 96 125
77 95 122
77 96 123
76 95 123
77 94 120
77 95 122
76 95 124
78 96 123
76 94 121
75 92 119
78 97 124
75 94 121
75 93 120
79 97 125
78 96 123
74 93 121
77 96 126
77 95 121
77 95 122
78 97 125
77 95 122
77 96 124
79 96 123
77 96 124
77 94 120
77 96 123
78 97 124
77 95 123
78 96 122
74 91 116
77 95 122
76 94 122
77 95 122
79 98 127
77 96 123
76 94 121
80 99 127
76 94 122
77 95 123
75 94 121
75 92 119
78 96 124
78 95 122
76 95 123
77 95 122
76 95 124
77 96 124
78 96 122
80 97 124
76 94 122
79 97 124
75 94 122
76 94 120
76 95 122
77 94 120
76 94 122
76 94 120
77 96 124
75 94 122
77 94 121
77 95 123
74 93 122
76 95 124
77 96 125
74 92 119
77 94 121
76 94 121
77 95 123
76 95 123
79 97 124
77 95 123
75 92 119
79 97 124
78 97 125
73 92 121
77 94 120
74 92 120
77 96 124
79 97 125
78 95 122
80 97 123
78 96 123
76 94 122
78 95 121
75 91 116
78 96 123
78 95 121
77 95 122
80 98 124
77 95 123
77 96 123
76 95 122
77 95 122
78 96 123
78 96 123
77 95 121
78 96 123
75 94 122
77 96 123
77 95 123
78 96 123
78 96 124
75 93 120
76 94 120
77 97 126
76 95 122
76 95 123
78 96 123
78 97 124
76 94 122
75 93 119
75 95 124
78 96 124
80 98 125
77 94 121
76 95 122
80 97 124
75 93 120
78 96 124
78 96 122
80 98 124
74 93 121
78 96 124
75 93 120
76 95 123
78 97 125
78 95 122
80 98 125
78 97 125
73 91 118
80 98 126
80 97 122
78 97 124
79 97 123
78 96 124
76 94 121
78 96 123
79 97 125
77 94 121
77 96 124
78 96 123
77 95 123
78 95 122
75 93 121
79 97 124
78 96 123
77 95 122
80 98 124
80 98 126
74 94 123
77 95 122
78 96 122
78 95 122
77 96 125
77 95 122
75 93 121
79 96 122
76 95 123
80 97 124
78 96 123
80 97 123
79 97 125
80 98 126
77 95 122
77 95 122
77 96 124
80 97 124
75 93 119
77 95 123
74 93 121
78 95 120
78 96 123
75 93 120
77 96 125
80 98 126
76 95 122
78 97 126
81 99 126
76 94 121
77 95 124
79 98 127
77 95 122
76 94 122
79 97 123
76 95 122
76 95 124
76 94 121
76 93 119
77 96 124
76 94 122
76 94 121
77 95 122
79 97 124
76 93 118
75 94 122
78 96 124
78 96 124
76 93 120
76 95 124
77 95 121
75 93 120
76 94 122
77 95 122
77 96 124
79 97 125
78 97 125
77 96 123
77 95 123
80 97 123
79 98 126
77 95 122
73 91 118
80 97 123
77 96 124
78 96 123
77 96 124
78 97 126
78 96 124
79 97 123
76 95 123
80 97 123
81 98 125
75 94 121
80 98 125
77 95 123
77 95 121
75 94 122
77 95 122
78 97 125
77 95 123
78 96 123
78 96 124
76 95 124
79 96 123
76 94 120
76 95 123
75 94 121
76 94 121
75 94 122
78 97 126
77 96 124
75 94 121
78 97 125
77 96 124
74 92 119
77 96 124
77 96 124
80 98 125
72 90 116
77 96 123
76 94 122
79 98 126
79 97 124
76 94 121
81 99 126
73 92 119
73 92 120
76 94 121
77 95 122
77 96 124
79 97 124
76 94 121
78 96 124
76 94 120
77 95 121
75 94 122
80 98 125
75 94 122
75 93 119
77 94 121
77 95 122
75 94 122
73 92 120
76 94 122
76 94 122
76 93 120
78 95 120
78 95 122
74 92 119
75 93 121
77 95 123
79 97 124
79 98 126
74 92 120
76 94 120
80 99 127
78 96 124
78 96 124
75 94 121
78 97 125
79 97 124
72 89 116
77 95 121
77 95 120
79 97 124
76 93 120
78 95 122
75 93 120
76 94 122
78 97 124
76 94 121
77 96 124
73 92 120
78 97 125
81 98 124
78 96 123
76 95 122
74 92 118
74 92 118
74 91 118
75 93 120
78 96 124
77 95 122
79 97 124
75 93 119
75 93 119
78 96 124
76 94 120
75 93 120
76 94 122
78 96 123
79 98 126
78 97 124
75 94 122
77 95 123
80 97 124
74 92 120
75 93 120
78 96 124
78 96 124
76 94 122
75 93 120
76 95 123
79 96 122
77 95 122
77 95 121
77 95 122
78 96 124
74 92 119
75 93 120
79 97 124
73 91 118
78 95 121
77 95 121
79 97 125
75 93 122
80 97 124
77 96 124
76 95 124
79 97 124
77 96 123
75 94 121
76 94 120
77 95 121
78 97 125
75 93 119
76 94 120
77 96 124
76 94 120
77 95 122
75 94 122
76 95 123
76 94 121
78 97 124
74 92 118
76 94 121
77 95 123
78 96 124
77 95 123
75 93 119
78 96 123
78 96 123
79 97 126
78 96 122
76 94 120
76 95 123
74 91 116
77 95 121
79 97 123
77 96 125
77 95 122
78 96 124
77 96 124
80 98 125
78 96 123
77 95 121
76 95 122
75 94 121
78 96 123
75 94 122
75 94 122
78 96 122
75 93 121
77 96 123
76 94 121
76 94 121
76 95 122
77 96 125
78 96 122
75 94 121
78 97 125
76 94 122
77 95 123
77 96 123
81 98 125
76 95 124
79 97 125
79 97 123
76 94 122
78 96 123
77 95 123
75 94 121
74 91 117
76 95 124
76 94 121
77 95 123
79 97 124
77 96 124
78 97 125
73 91 119
77 94 121
74 92 117
78 97 125
79 97 126
77 95 123
78 95 122
78 96 124
76 94 120
75 92 119
76 95 122
78 96 122
76 94 120
75 93 119
76 95 122
78 96 125
77 96 124
78 97 126
74 94 123
77 95 123
79 97 125
76 94 120
75 93 120
77 96 124
78 97 125
76 94 121
76 94 122
78 97 124
76 95 122
75 93 120
75 94 123
79 98 126
74 93 120
77 95 123
78 96 123
78 96 123
78 96 123
74 91 117
74 92 120
77 95 121
76 94 121
78 96 124
79 97 124
77 95 122
76 95 124
77 94 120
79 98 125
77 95 122
77 95 123
76 95 123
78 96 123
77 95 122
75 94 121
79 96 122
80 99 127
80 97 123
77 95 122
79 98 126
78 97 125
76 95 123
77 96 123
77 95 123
77 95 123
78 96 123
75 94 123
76 94 121
78 95 121
77 95 122
77 95 124
75 94 121
78 96 123
77 95 122
78 95 122
77 95 123
76 94 121
80 98 124
77 95 122
76 95 124
75 93 121
78 96 122
77 95 123
75 92 119
77 95 123
79 97 126
76 94 120
77 95 122
76 94 122
78 97 125
79 97 125
79 97 124
78 97 125
76 94 121
79 97 125
76 95 123
77 94 120
77 95 122
76 94 122
76 94 122
76 94 122
77 95 121
80 98 126
77 96 124
77 96 125
79 97 124
77 94 120
76 95 124
74 92 119
75 94 122
75 94 122
76 94 122
77 96 124
75 94 123
75 93 120
78 96 123
79 97 125
78 97 125
80 98 125
76 93 120
77 95 122
80 97 124
79 97 126
76 94 121
79 97 124
78 96 123
77 95 122
76 94 121
78 95 121
78 96 123
77 95 122
78 95 122
77 95 122
75 94 122
78 96 124
74 92 120
77 95 122
77 95 122
73 92 119
80 98 125
79 97 123
80 99 127
78 96 124
78 96 124
77 96 123
79 97 124
76 95 123
80 99 127
80 98 124
79 98 126
76 95 123
78 95 120
79 98 126
81 99 125
76 94 122
76 94 121
78 96 123
77 94 120
79 98 125
78 96 123
80 98 124
77 96 124
78 96 124
78 96 122
76 94 120
73 92 119
75 94 121
82 99 125
77 96 124
79 98 126
79 98 126
77 96 123
77 96 124
76 95 123
78 96 124
77 94 121
79 97 125
78 97 125
77 96 124
78 96 124
78 95 120
77 96 123
77 95 122
79 98 126
77 97 125
76 94 121
77 95 122
75 94 121
78 97 124
76 94 121
76 95 122
77 95 122
79 97 125
78 96 124
75 93 121
77 96 123
77 95 121
76 94 122
77 95 122
79 96 123
78 95 122
76 94 121
76 95 123
77 95 123
79 98 125
76 94 121
79 97 123
79 97 124
77 96 125
79 97 124
76 94 120
78 96 124
79 98 126
76 95 124
77 96 124
76 94 122
75 93 120
77 96 124
79 97 124
75 94 123
75 94 123
77 96 125
77 95 121
76 94 122
76 95 122
76 95 122
82 99 126
80 99 126
78 96 123
77 96 124
76 94 121
77 95 121
76 95 123
76 95 122
77 94 121
78 96 122
76 94 120
79 98 126
75 94 122
77 95 122
77 94 120
75 92 118
78 97 124
75 94 122
78 96 122
75 94 122
79 97 125
78 96 123
79 97 124
77 96 123
79 98 126
79 97 124
79 98 126
75 94 122
77 95 121
76 94 122
77 95 123
75 93 120
75 93 120
78 96 124
74 92 120
76 95 123
76 94 122
76 94 122
78 96 122
77 94 121
76 95 123
77 96 124
77 94 121
78 96 122
77 95 122
78 96 124
78 98 126
81 98 125
76 93 120
79 97 124
79 98 125
78 96 124
77 95 122
74 92 119
79 97 123
79 96 122
74 92 119
75 93 120
81 99 125
77 96 124
78 96 124
78 96 124
76 94 121
76 94 120
76 95 123
75 93 121
78 95 121
75 93 119
77 95 123
76 94 122
75 92 118
77 96 124
78 96 124
76 95 123
74 92 118
75 93 119
76 94 121
77 96 124
78 95 122
73 92 120
79 97 123
74 92 118
76 94 121
76 95 124
78 97 124
77 95 122
74 93 121
77 96 124
77 95 123
74 93 120
78 96 123
77 95 121
74 92 120
76 95 122
74 93 122
79 97 125
76 94 122
76 95 122
78 96 123
78 95 122
75 93 120
76 93 120
79 97 124
79 98 126
78 97 125
77 95 123
75 94 121
79 97 123
76 95 122
77 94 121
75 92 119
76 94 122
79 98 125
77 95 122
77 95 122
78 96 124
74 94 122
79 97 124
78 96 124
76 94 122
76 94 121
77 95 123
79 97 124
78 96 124
78 95 121
78 96 123
78 96 123
77 95 121
77 95 122
78 97 126
78 96 123
76 95 123
78 95 121
77 95 122
76 94 121
78 96 124
78 97 124
79 96 123
77 95 123
81 99 126
76 95 123
79 97 124
76 95 123
76 94 122
78 97 124
78 96 123
78 97 125
75 92 119
79 97 123
75 93 121
79 97 125
77 95 122
77 96 125
76 94 122
79 97 125
77 95 123
77 96 124
76 93 120
78 96 123
79 97 126
76 94 121
76 96 124
76 94 122
81 99 126
78 96 124
78 97 125
75 92 119
78 96 123
75 94 122
76 94 122
77 95 123
77 95 121
75 94 121
76 94 121
79 96 123
78 96 123
78 96 122
76 93 119
76 94 121
73 92 120
77 95 123
74 93 122
78 96 123
80 98 126
77 94 121
76 94 122
78 97 124
76 94 121
81 99 126
77 94 121
77 95 122
74 93 120
76 95 123
77 95 122
78 97 124
77 95 121
77 95 121
77 94 120
78 96 122
77 95 122
76 94 122
78 96 122
79 97 123
75 93 119
77 96 123
72 91 118
79 97 124
77 95 122
75 93 120
77 95 123
77 95 123
77 97 126
77 97 125
80 99 126
76 94 122
76 95 124
77 95 124
78 97 124
78 95 122
78 95 120
74 92 119
80 97 124
77 95 121
79 97 124
78 97 125
77 95 122
76 94 122
76 94 121
80 98 124
75 93 121
78 96 123
77 94 121
79 97 123
79 97 124
78 96 123
80 98 126
78 96 123
76 94 121
77 95 123
77 94 120
74 93 121
78 97 124
73 91 117
76 94 120
79 97 123
78 96 123
77 94 121
76 94 121
76 94 122
76 94 121
77 95 123
74 93 121
78 96 123
77 95 121
79 98 126
75 94 122
78 96 123
75 94 123
77 95 122
77 95 122
75 93 119
79 98 125
77 95 122
78 97 124
78 97 126
78 97 125
76 94 122
74 92 119
80 98 126
78 95 122
78 95 122
76 95 122
79 96 123
77 95 121
73 91 118
75 94 121
77 95 123
77 95 123
79 97 123
75 93 119
80 98 124
78 97 126
78 96 124
80 98 124
77 95 122
78 96 123
78 96 123
73 91 118
78 97 124
78 96 124
79 97 124
76 94 122
78 96 122
78 96 123
78 97 125
80 98 126
76 94 120
79 97 125
77 95 122
77 96 124
76 95 123
76 94 122
77 96 123
79 95 121
79 98 127
80 98 126
74 92 120
76 93 119
77 96 124
78 95 122
79 97 125
79 97 125
78 96 124
76 95 123
78 97 124
77 96 125
78 97 126
74 94 123
79 97 124
75 95 124
76 96 126
78 95 122
77 95 122
77 96 124
78 96 122
78 96 124
74 91 118
80 98 126
80 98 125
76 95 123
74 92 119
77 96 124
75 93 120
75 94 123
78 96 123
76 94 120
79 97 124
75 93 120
78 96 123
80 98 125
79 97 125
76 94 121
77 96 124
78 96 124
74 93 121
76 94 122
77 95 122
74 92 120
77 95 124
76 95 123
75 93 119
76 94 120
77 95 121
78 96 124
76 94 120
76 94 121
76 95 122
79 97 125
77 95 122
77 95 123
76 95 124
76 95 123
77 95 123
78 97 126
78 96 124
77 96 124
75 94 121
76 95 124
77 95 122
78 96 124
77 96 124
76 94 121
78 95 121
77 94 121
79 98 126
78 97 125
76 94 121
77 95 122
76 94 121
77 96 124
75 94 122
74 93 120
77 96 123
77 95 123
77 95 121
75 94 122
77 95 121
77 95 123
76 94 120
79 96 122
78 96 122
76 95 124
74 92 119
76 94 121
75 94 121
76 95 123
77 95 123
77 95 122
76 95 124
80 98 126
76 94 122
76 93 120
75 94 121
77 96 125
79 97 124
77 96 123
76 94 121
73 92 120
75 93 120
77 96 125
77 95 122
75 95 124
77 95 121
79 97 123
78 95 121
78 96 123
74 93 120
73 91 120
76 93 119
76 93 119
80 98 126
78 96 124
76 94 120
77 95 122
75 94 122
77 96 123
75 93 121
77 95 123
74 92 119
77 95 123
76 94 120
77 96 123
78 97 126
74 93 121
76 94 120
76 94 121
78 96 123
79 98 126
76 94 121
78 97 124
74 92 119
76 94 121
76 93 119
76 94 122
79 97 124
76 93 119
75 94 122
78 96 124
78 96 124
78 96 124
76 95 122
79 97 123
76 93 119
77 95 123
79 97 124
78 96 123
78 96 123
81 98 124
76 94 121
76 94 121
78 95 122
76 95 122
77 95 123
75 94 122
75 93 121
75 92 118
75 93 121
79 97 124
73 90 117
77 95 122
79 96 123
76 94 120
76 94 123
80 97 124
76 96 125
78 96 124
79 98 125
76 94 120
77 95 122
76 94 121
78 95 122
78 96 123
78 96 124
79 96 121
79 97 124
74 92 120
75 94 123
76 95 124
76 95 123
79 97 125
79 97 125
80 98 125
77 96 124
78 97 124
79 97 124
78 96 122
74 93 121
77 95 123
77 95 123
78 97 124
76 93 120
78 96 124
77 95 123
76 93 119
74 92 118
76 94 122
77 96 123
77 95 122
77 96 123
75 93 120
76 94 121
75 92 118
79 97 125
75 93 120
78 96 122
76 94 121
76 94 121
77 95 123
77 95 121
76 93 120
78 96 124
77 96 124
76 94 120
77 96 124
77 95 123
77 95 123
76 95 124
75 93 120
78 97 126
75 93 121
75 93 119
77 95 122
76 93 120
78 96 124
78 96 124
76 95 122
79 97 125
74 93 122
78 96 122
76 93 120
75 93 120
77 95 122
76 93 120
76 94 121
75 94 122
78 97 126
78 98 127
77 96 124
78 98 126
77 96 123
78 96 123
76 95 122
75 94 121
77 96 124
76 94 120
76 94 121
73 92 121
76 94 122
77 96 124
80 98 125
77 94 121
77 97 127
76 94 120
79 97 123
78 96 123
75 94 122
78 96 124
78 95 121
80 98 124
79 96 121
76 95 122
78 95 122
75 93 120
78 96 124
81 99 126
77 96 123
76 95 123
77 96 123
79 98 125
75 94 121
77 94 120
76 94 121
78 97 126
81 98 124
76 95 123
77 96 125
77 95 124
77 95 122
78 97 124
74 92 120
75 95 123
75 94 122
80 97 122
79 97 124
77 95 122
76 94 122
78 97 126
76 95 124
79 98 125
79 97 124
76 95 123
77 95 121
76 95 123
79 97 125
79 98 125
76 93 120
75 93 120
80 97 124
79 97 124
74 92 119
78 96 123
80 98 125
77 95 123
77 96 125
78 96 124
78 97 125
77 96 125
78 96 124
78 96 124
75 94 122
76 95 122
79 97 124
78 96 123
77 96 124
77 95 122
77 95 123
77 95 123
77 96 126
78 96 123
77 95 123
74 93 120
76 94 120
75 93 121
75 93 121
79 97 124
80 98 126
79 97 124
78 96 124
77 95 122
75 93 119
79 97 124
76 94 122
77 95 123
77 96 124
78 96 123
79 96 123
79 97 124
76 94 122
78 97 124
75 94 122
78 96 122
78 96 123
77 95 123
78 96 124
77 95 122
78 94 120
79 97 124
78 96 122
78 97 126
79 97 125
78 97 125
77 95 123
77 96 124
77 95 123
78 96 121
77 96 124
77 95 121
76 94 122
77 95 122
78 96 124
77 96 124
77 95 122
77 96 123
79 98 125
77 95 121
80 97 124
78 97 125
77 95 122
79 96 123
78 95 121
79 97 123
77 94 120
76 94 122
76 94 120
77 95 122
77 95 123
79 96 123
78 97 124
75 94 121
77 96 125
76 94 121
77 95 124
77 96 123
74 92 120
78 96 124
76 94 122
79 97 124
77 95 123
78 96 123
75 95 123
80 98 126
77 95 122
78 96 124
79 98 125
77 94 121
74 93 120
78 96 123
76 95 123
76 94 122
77 96 123
75 95 124
78 97 125
76 95 123
77 96 124
78 97 124
75 94 122
79 97 125
78 97 125
79 97 124
80 98 125
75 93 120
78 96 123
78 97 126
79 97 123
78 95 122
78 96 124
78 96 122
77 96 123
77 96 124
77 95 123
78 96 125
79 97 125
75 92 119
76 94 120
76 94 122
79 97 123
79 96 123
78 96 123
78 97 125
77 95 122
76 94 121
77 95 123
78 97 126
79 97 126
81 99 126
82 100 128
76 94 120
76 94 120
78 96 122
75 93 120
77 95 122
77 96 123
77 94 119
79 97 124
77 95 123
79 98 126
80 97 124
76 94 121
75 92 118
76 94 121
76 94 120
77 95 123
77 96 124
78 96 124
76 94 120
75 93 120
75 94 121
78 96 122
79 95 120
79 97 124
76 94 123
76 95 124
78 95 122
77 95 122
73 91 118
79 97 125
80 98 125
78 97 125
77 96 123
78 95 121
75 94 121
77 95 123
74 92 119
78 97 124
74 93 121
76 96 125
77 96 123
80 98 124
76 94 122
80 98 125
78 96 123
76 95 123
76 95 123
76 94 121
79 95 120
73 91 118
77 96 125
75 92 119
78 96 123
78 96 124
76 94 120
78 97 125
76 95 122
76 95 123
78 97 125
78 96 124
77 96 125
78 96 123
75 94 122
78 96 122
79 98 125
80 98 124
77 96 124
78 95 122
78 98 127
77 95 123
77 95 122
78 97 126
76 94 122
75 95 123
77 95 122
78 96 123
79 98 126
78 96 123
78 96 123
75 93 121
78 96 124
79 97 124
77 95 121
80 97 123
80 98 125
75 94 121
76 94 121
79 97 124
79 97 123
78 96 122
78 96 124
75 93 121
75 93 120
77 96 123
77 95 123
76 94 121
77 95 123
77 96 123
77 95 122
77 95 123
76 94 120
80 98 125
76 93 118
81 98 125
77 96 124
75 94 121
80 98 124
78 97 126
76 94 119
76 94 121
77 96 123
77 96 125
77 94 120
78 97 125
76 93 119
77 96 124
79 98 126
75 93 120
79 97 124
77 95 123
76 94 121
78 96 123
78 96 123
80 97 124
78 97 125
77 95 123
79 98 125
75 92 118
76 94 121
77 96 125
76 94 122
79 97 124
78 96 122
81 98 125
77 95 122
75 94 121
76 94 121
75 93 120
78 97 124
76 94 121
79 98 125
75 93 120
76 94 120
77 95 121
76 95 123
77 95 123
77 95 122
74 92 119
75 93 121
78 95 121
78 96 123
77 95 121
77 96 124
77 95 122
78 97 125
78 96 123
75 93 121
79 97 123
78 96 123
77 96 124
78 96 124
77 95 122
78 95 121
74 92 119
79 97 124
76 94 121
76 95 122
78 97 125
74 93 120
75 94 121
78 96 124
77 96 124
77 95 122
77 95 121
76 93 120
78 96 123
74 92 120
75 92 118
76 94 121
75 93 121
75 94 122
78 95 122
76 95 123
78 96 122
77 95 122
80 98 125
76 94 123
74 93 120
76 95 122
77 95 123
78 96 122
76 94 121
74 92 120
78 97 124
78 95 122
75 93 120
75 94 121
79 96 123
79 97 124
76 95 124
78 96 124
77 95 122
78 95 121
79 97 123
76 93 120
77 95 122
77 95 122
78 97 126
77 94 121
78 96 124
77 94 120
79 97 124
77 94 120
74 92 119
77 95 121
75 95 124
77 94 120
76 95 123
77 95 122
79 97 125
79 97 123
76 94 122
77 95 122
73 91 118
79 98 126
75 94 122
77 96 123
77 94 121
77 95 122
77 94 120
76 94 121
75 94 122
78 97 124
78 95 121
79 97 123
79 97 124
76 93 120
79 96 122
79 97 124
78 97 124
77 95 121
77 96 123
76 94 122
77 95 122
79 97 124
75 93 119
74 92 118
76 95 123
77 96 124
77 95 122
77 96 124
77 95 121
75 95 124
78 96 122
79 97 124
77 95 123
78 96 123
77 95 122
78 96 123
79 98 127
77 95 123
81 99 126
76 95 122
79 97 125
77 95 122
76 94 121
80 98 125
75 92 117
76 94 120
78 97 125
75 94 122
80 99 127
77 96 123
76 94 121
77 95 123
79 97 125
77 95 122
78 95 122
77 95 122
75 92 119
77 94 120
77 95 123
79 97 123
79 97 124
75 94 123
75 93 120
78 97 124
76 93 120
76 95 123
76 95 122
78 96 123
79 97 124
77 94 121
78 96 124
78 96 123
80 97 124
79 97 125
78 96 124
75 94 122
75 93 121
77 95 123
78 96 123
76 94 121
78 96 123
78 97 125
75 93 119
78 95 122
80 98 124
79 97 125
80 97 124
77 94 121
77 95 121
80 99 127
78 96 124
80 99 126
74 93 120
75 93 121
77 96 123
77 96 125
78 96 124
77 95 124
77 96 124
77 96 123
77 95 121
78 95 122
77 95 122
76 94 121
79 98 125
75 94 122
78 96 123
78 97 124
77 96 124
76 94 121
79 97 124
79 97 124
77 95 122
76 95 122
78 96 123
77 96 125
75 93 120
81 99 127
78 96 123
77 95 122
79 98 126
77 95 122
74 92 120
78 97 124
77 96 124
77 96 125
78 95 121
75 92 117
76 95 122
77 95 122
78 96 123
79 96 122
77 96 123
78 96 122
77 94 120
77 95 122
78 97 124
78 97 124
79 97 124
78 95 122
79 97 124
77 96 124
76 95 122
77 95 123
78 96 123
77 96 126
77 95 123
78 96 123
78 96 122
76 95 122
77 96 125
79 97 124
76 95 123
78 95 122
80 97 123
78 96 123
76 95 123
78 96 122
74 92 120
76 95 123
78 96 124
80 97 124
77 95 123
78 97 126
78 96 124
77 96 124
78 96 122
77 95 122
79 96 123
80 98 126
78 96 123
79 98 126
74 92 120
79 97 124
77 95 122
77 94 120
76 95 122
77 96 123
74 92 119
79 97 124
78 96 123
78 96 123
78 96 123
78 97 124
81 99 126
77 95 123
81 99 126
79 96 123
76 96 125
76 94 122
78 97 125
77 96 123
76 94 121
77 96 124
81 99 126
80 98 125
77 95 122
77 96 124
74 92 120
76 94 120
73 91 118
80 98 125
79 98 125
76 95 123
75 92 118
78 96 124
78 96 123
78 96 122
76 94 121
75 94 122
76 94 122
79 97 124
75 93 120
76 94 121
78 95 120
78 96 123
76 94 121
77 95 122
76 94 121
77 96 124
78 97 125
79 97 123
76 95 123
78 96 124
76 95 123
78 96 123
77 95 123
78 96 123
79 98 125
76 95 123
81 98 124
76 95 123
76 93 120
77 95 121
76 94 121
80 99 127
76 94 121
78 96 123
76 94 120
78 96 124
74 92 120
79 97 124
75 93 120
77 95 121
80 98 125
77 95 123
77 95 122
78 97 125
76 95 122
76 95 123
75 93 121
76 94 121
74 91 118
75 94 121
78 96 122
76 94 121
74 93 121
78 95 122
78 96 124
79 97 124
76 94 120
78 96 123
77 96 123
77 95 122
76 94 122
78 96 123
80 98 125
79 97 125
77 96 123
77 94 119
75 93 120
77 95 122
76 95 122
76 94 120
76 94 122
79 97 124
76 94 121
76 95 123
77 94 119
78 96 123
76 94 121
76 95 123
78 95 121
79 98 125
74 93 121
75 93 120
75 93 121
76 94 122
77 95 122
75 94 121
79 97 123
76 95 122
78 96 124
77 95 123
75 93 121
74 92 120
77 96 124
76 93 119
77 95 123
77 94 121
75 93 120
74 92 119
80 98 125
76 94 121
79 97 122
75 93 120
76 95 123
80 98 126
76 95 123
75 93 121
79 98 125
77 95 123
77 95 122
76 95 122
77 94 121
75 93 120
78 96 124
78 96 122
76 94 120
77 95 122
79 96 123
76 95 122
77 96 124
77 96 123
77 95 122
76 94 120
78 96 124
77 95 123
76 95 123
77 95 123
77 96 124
77 95 123
80 98 126
76 94 121
77 95 123
79 98 126
77 95 122
76 94 121
77 95 122
76 94 120
77 95 122
74 92 119
78 96 124
77 95 121
75 95 124
75 93 121
78 96 123
79 97 124
80 97 124
77 95 123
75 93 120
76 94 120
76 94 121
76 94 121
79 97 123
77 95 123
77 95 122
80 97 123
76 94 119
76 95 123
80 98 126
76 93 120
76 94 122
75 93 121
78 96 123
77 96 124
77 95 123
76 95 123
78 96 123
75 93 121
78 96 123
77 94 121
77 94 120
79 96 123
77 95 122
77 95 122
78 96 124
77 96 124
80 98 126
76 95 123
77 96 123
74 92 120
80 98 125
76 95 122
79 97 125
78 96 123
78 97 124
76 94 121
77 95 122
76 95 122
73 91 120
77 95 122
74 92 119
77 94 121
77 95 123
75 93 120
74 93 121
76 95 122
74 91 117
77 96 123
75 93 120
75 94 123
79 96 123
77 95 122
77 95 121
78 96 123
77 95 123
80 97 123
78 96 123
73 91 119
76 94 121
78 97 125
78 96 122
77 95 123
77 96 124
77 95 122
77 95 122
77 95 121
76 94 122
77 96 123
76 94 122
75 94 123
77 95 123
77 96 125
76 94 122
77 95 121
76 96 125
75 94 122
75 94 121
77 95 121
79 97 125
79 98 125
77 96 124
78 96 124
77 96 124
77 96 124
78 98 127
79 97 124
76 94 121
77 95 122
75 94 122
78 96 122
78 96 123
78 96 123
79 96 123
76 95 122
76 95 124
75 92 119
78 96 123
77 96 124
76 93 119
76 93 120
74 93 121
80 98 124
75 93 120
78 96 123
75 93 120
77 96 124
77 95 123
77 96 123
76 94 122
78 96 122
77 96 123
77 95 123
78 95 122
76 95 124
76 94 122
79 96 123
77 95 121
76 95 122
78 96 123
77 96 124
78 97 124
78 96 124
78 96 123
78 96 123
78 96 124
78 97 125
74 92 119
76 95 122
79 97 124
78 96 123
77 96 124
77 96 125
78 96 122
73 91 118
75 94 122
78 96 123
78 96 123
77 96 123
74 93 120
78 96 123
78 96 124
77 96 124
79 97 125
78 96 123
76 95 124
79 97 124
77 95 122
79 97 124
78 96 123
81 99 127
79 97 123
79 97 124
76 93 119
77 95 121
78 96 123
78 96 123
76 95 123
80 98 126
79 97 124
78 97 125
78 97 126
79 96 122
77 95 122
78 97 124
77 95 122
78 97 124
78 96 124
79 98 126
79 97 124
79 97 124
79 97 125
75 93 120
75 93 120
80 98 126
79 98 126
79 98 125
77 96 124
79 98 126
79 96 123
80 98 126
78 96 123
76 94 122
78 97 125
78 97 124
76 95 122
77 95 121
79 98 126
77 96 124
77 95 122
77 95 122
79 96 122
75 93 120
72 90 116
79 98 126
75 93 119
79 97 122
78 96 123
78 96 124
77 95 122
76 95 122
77 96 124
77 94 119
74 92 119
75 94 122
80 98 123
75 92 118
76 94 121
76 94 121
76 94 122
75 93 120
79 98 126
77 96 124
77 97 125
75 93 120
77 95 121
79 97 125
77 95 122
75 94 121
78 96 123
78 96 122
75 93 121
76 93 120
77 96 124
75 94 122
78 97 126
78 96 122
74 92 119
78 97 125
78 96 123
77 95 122
76 95 123
75 93 120
79 97 125
74 92 120
77 96 123
78 96 124
77 96 124
78 97 125
78 97 125
75 93 120
75 93 120
80 98 126
78 97 124
77 96 124
78 95 122
78 96 123
78 97 124
78 96 123
78 96 124
81 100 127
76 94 122
76 95 122
75 94 122
76 95 123
77 95 122
79 97 124
80 98 125
80 98 127
77 95 121
78 95 121
77 95 122
75 94 121
75 94 121
77 95 123
78 96 124
75 94 122
75 94 122
78 95 121
78 96 122
76 94 122
78 97 125
80 98 125
76 93 120
79 96 123
76 94 121
79 97 124
76 94 121
77 95 122
76 94 121
78 95 121
77 95 123
78 96 125
77 96 124
78 96 124
75 94 123
82 100 127
77 95 122
77 95 123
78 96 123
77 95 123
78 97 124
79 96 122
77 96 123
76 93 120
78 95 122
78 96 124
76 94 121
77 95 122
78 97 124
78 96 124
79 97 125
77 96 124
74 92 119
76 95 123
75 93 120
78 96 122
79 97 124
76 94 121
76 95 122
78 97 124
75 94 122
79 96 121
77 96 125
78 97 124
76 94 120
78 96 123
80 99 127
78 97 124
79 97 124
79 97 123
75 93 121
80 97 123
74 92 118
78 96 123
81 99 126
74 92 119
77 95 123
77 95 122
78 97 125
75 94 122
76 94 120
79 98 126
75 92 118
80 99 127
75 93 121
77 95 122
78 97 126
76 94 121
78 96 123
79 97 124
75 93 121
80 98 124
78 97 124
76 95 122
79 97 124
76 95 122
74 92 119
77 95 122
75 92 119
76 95 122
78 97 125
78 96 124
78 96 123
78 97 124
77 95 123
78 96 123
77 95 122
80 98 124
77 94 120
76 94 120
76 94 122
79 97 123
76 94 120
76 94 121
76 94 121
78 96 124
81 99 125
77 95 123
75 94 121
78 96 124
77 94 121
78 96 123
74 92 119
78 96 123
78 96 124
77 95 122
77 95 122
80 98 126
79 98 126
76 94 122
77 95 121
77 95 121
77 96 125
77 95 123
77 95 122
78 97 126
77 96 125
80 98 126
75 94 121
75 93 120
77 96 124
76 94 122
77 95 121
75 93 120
77 96 123
78 97 124
78 96 123
77 94 120
75 94 122
79 97 124
78 96 123
77 95 123
75 93 120
75 93 119
74 92 120
79 97 125
77 95 121
77 95 122
77 96 125
78 96 124
77 94 120
77 95 122
78 96 124
76 94 121
78 97 124
77 95 123
77 95 122
76 95 124
78 96 123
76 94 121
79 97 124
77 95 122
79 97 123
77 96 125
76 95 123
76 95 123
76 94 123
77 95 123
77 96 123
75 94 122
76 94 122
76 95 123
76 94 121
78 97 124
78 96 123
78 96 124
75 93 120
76 95 123
77 95 123
77 95 122
75 94 121
77 96 126
79 97 125
74 92 120
77 96 123
76 96 125
77 94 120
78 97 124
74 92 120
77 95 122
78 96 123
77 94 119
78 96 124
77 95 122
77 95 123
77 95 122
77 95 121
75 94 122
78 96 122
75 93 122
75 94 122
77 96 125
78 96 124
77 95 123
79 96 121
75 92 119
76 94 121
78 96 124
75 93 121
76 93 120
76 94 120
74 92 120
76 94 121
76 94 122
77 95 121
76 94 121
76 93 120
77 96 123
77 95 123
74 93 121
76 95 124
74 94 122
76 94 122
76 94 121
79 97 124
78 96 122
78 97 125
78 96 123
74 93 122
75 94 121
77 95 122
75 92 118
78 97 124
79 96 122
77 95 123
77 95 122
76 93 120
77 95 123
74 91 118
79 96 123
78 96 122
80 98 125
75 93 121
73 90 116
74 93 122
79 97 124
78 97 125
78 97 124
79 97 123
79 97 124
77 96 124
77 97 126
77 95 123
75 94 122
74 91 118
79 97 124
77 94 120
77 95 121
79 97 124
77 96 123
78 96 124
77 95 122
77 95 122
77 95 121
79 97 124
78 96 122
77 95 123
77 95 123
78 96 123
75 94 123
74 93 120
71 90 118
77 95 121
79 96 122
76 95 123
77 96 124
80 98 125
78 96 123
82 100 126
80 97 124
73 93 122
80 98 124
78 95 121
77 96 123
77 96 124
77 96 125
79 97 125
76 95 123
73 90 116
76 94 122
80 99 127
77 95 123
78 96 123
74 93 121
76 94 122
77 95 122
77 96 124
77 95 121
76 95 123
75 94 123
76 95 123
78 96 124
75 93 119
79 96 123
76 95 123
78 96 124
78 96 124
80 98 124
79 97 123
77 95 122
79 96 123
75 93 120
76 95 124
76 95 123
74 92 120
77 95 124
76 95 123
79 99 128
77 95 122
75 93 120
78 96 123
77 95 124
79 97 124
78 96 124
76 95 123
76 93 120
77 96 124
77 94 120
78 97 125
78 96 123
76 95 124
78 96 123
76 95 122
78 96 122
76 94 121
75 92 118
78 96 123
76 94 121
77 94 120
77 94 120
75 93 119
78 97 125
78 96 124
77 95 122
79 97 124
77 96 123
79 97 124
78 96 125
76 95 123
77 96 124
77 96 124
79 97 125
81 99 125
74 93 121
78 96 123
78 96 124
76 94 122
74 93 121
77 95 121
77 95 121
78 96 123
78 96 123
76 95 123
80 98 124
76 95 122
77 96 124
77 96 124
77 96 124
78 95 122
77 95 123
76 94 120
76 94 121
77 95 122
77 96 123
77 95 122
78 95 121
79 98 125
78 97 126
77 95 122
77 96 124
78 97 124
76 93 120
78 96 124
79 96 123
81 99 126
73 91 117
78 96 124
78 97 125
77 94 121
77 95 121
78 97 126
77 95 122
72 90 117
79 97 124
76 94 121
78 96 123
79 98 126
78 96 124
78 96 123
79 97 124
77 96 123
76 94 121
77 96 124
78 96 123
77 96 124
76 94 121
79 98 126
76 95 122
75 93 120
78 96 123
77 95 123
78 97 124
77 95 122
75 93 120
78 97 126
76 94 121
76 95 122
77 95 122
79 97 124
77 96 123
74 93 120
77 95 121
77 94 120
78 96 124
75 92 119
79 97 124
76 94 121
76 94 122
78 96 123
79 97 125
79 97 124
79 97 125
76 94 122
77 95 123
79 98 126
78 96 123
78 96 124
77 95 123
77 96 123
80 98 124
76 94 122
77 95 121
76 94 121
78 96 123
77 95 121
78 96 124
78 97 125
77 94 121
77 95 122
74 93 121
77 96 125
80 98 124
79 97 125
80 98 124
77 95 122
76 94 121
76 94 120
76 94 121
78 96 123
79 96 122
77 95 122
77 95 122
77 95 122
76 95 122
77 95 122
78 97 124
78 95 122
79 97 125
78 96 124
75 94 122
80 98 126
76 94 122
76 94 122
76 93 120
77 94 121
74 93 120
78 97 126
75 92 118
77 96 124
78 97 125
76 94 122
78 96 123
76 94 121
78 96 122
78 96 123
78 96 124
80 98 125
76 95 123
80 98 125
76 94 120
75 94 123
77 95 122
79 97 123
76 94 121
80 98 124
77 95 123
78 95 121
79 97 124
78 96 123
77 95 122
74 92 120
78 97 126
79 97 125
76 93 119
77 95 121
76 95 122
76 93 118
78 96 124
75 93 120
78 96 122
77 96 124
76 95 122
77 95 121
77 96 125
78 96 124
77 95 122
79 97 123
77 95 122
77 95 121
79 97 124
78 96 123
77 95 122
76 94 122
77 95 122
78 96 123
77 95 123
78 97 125
78 96 123
76 95 124
74 91 117
80 98 126
78 96 125
75 94 121
78 97 125
78 96 122
78 97 124
79 97 123
78 96 123
79 97 123
72 91 119
76 95 124
76 93 120
79 97 123
78 97 124
76 94 122
79 96 122
77 96 124
78 97 125
78 96 124
79 97 124
74 92 120
76 95 123
78 96 123
78 96 123
78 95 121
79 97 123
78 97 125
78 95 122
79 97 124
76 95 122
78 97 125
75 94 121
78 96 123
74 93 121
75 94 122
75 92 119
78 96 124
78 97 126
76 95 123
77 95 121
76 95 122
77 94 121
78 95 122
80 99 126
76 95 123
78 97 125
77 95 122
76 95 124
74 92 119
78 96 124
78 96 123
78 97 126
79 98 127
78 95 121
75 94 122
77 95 123
79 97 123
73 91 118
81 99 126
76 95 123
77 95 122
76 94 122
78 97 124
76 95 122
75 93 121
74 92 119
79 97 124
80 99 126
81 98 125
78 97 126
75 94 123
76 94 121
74 93 121
76 94 122
79 97 125
75 94 122
77 96 124
74 92 119
78 96 123
76 94 122
76 95 123
76 93 120
78 95 121
75 93 121
76 93 120
77 95 122
74 94 122
77 95 123
75 93 121
79 97 125
78 96 123
77 95 122
75 93 119
75 94 122
76 94 122
76 94 120
74 92 120
79 97 123
78 97 124
76 94 122
77 95 121
77 95 123
77 95 123
76 95 123
79 98 126
76 94 121
77 96 124
80 98 127
77 95 124
76 95 124
78 96 123
76 94 122
76 94 122
78 97 126
75 93 119
78 96 123
77 95 121
79 97 124
76 95 123
78 96 123
80 99 127
77 96 124
78 96 123
78 97 124
79 97 124
78 97 125
75 94 122
79 96 123
77 96 124
79 96 122
78 96 124
78 96 122
78 96 124
78 96 123
78 98 126
81 99 126
78 96 123
77 95 122
77 95 121
78 95 121
74 92 120
78 96 123
77 96 123
78 97 126
78 97 124
77 96 124
78 97 125
76 94 122
79 97 123
77 96 124
78 96 122
77 95 122
77 95 123
80 97 123
78 96 124
74 92 119
74 92 119
77 96 125
77 96 124
77 95 122
75 93 120
76 94 121
78 97 125
77 96 124
77 95 121
76 93 120
77 96 123
77 94 120
76 95 123
73 91 119
74 92 118
77 94 120
77 96 124
78 96 122
76 94 122
79 97 124
77 96 124
76 94 122
76 94 122
78 96 122
75 94 122
77 97 125
79 98 126
78 97 124
77 96 124
77 95 122
76 93 120
79 98 126
77 96 123
77 95 120
79 97 126
79 98 125
79 97 125
79 98 126
78 96 124
78 97 125
80 98 124
78 97 124
78 96 123
78 96 124
75 93 120
77 95 123
78 96 124
78 96 123
78 97 125
80 97 124
79 97 124
75 93 121
77 94 121
78 96 123
76 95 122
78 96 124
78 97 125
79 97 124
77 95 122
78 97 125
77 95 122
78 95 122
80 97 124
76 94 122
77 96 125
81 98 123
78 96 124
78 96 122
78 97 126
77 95 122
79 97 124
78 97 125
77 96 124
79 97 125
75 93 120
80 98 126
81 98 123
76 94 122
77 94 120
76 95 122
78 97 125
74 92 120
76 95 123
78 97 125
78 97 125
79 98 126
78 97 125
77 97 125
76 94 122
78 96 124
77 94 121
76 94 121
78 97 125
76 94 121
77 95 123
78 96 124
78 96 124
76 93 119
78 96 123
78 96 124
80 98 124
77 95 122
79 97 125
77 95 123
79 98 126
77 96 124
80 98 124
78 96 124
78 96 122
77 96 124
78 97 125
80 98 125
77 95 122
80 97 122
79 97 123
77 96 124
76 95 123
76 94 121
76 95 124
78 97 124
79 97 126
79 97 124
78 97 124
79 97 125
77 95 122
80 98 125
78 96 124
76 94 121
80 99 127
78 97 124
75 93 121
80 98 125
78 96 122
76 94 121
78 97 126
75 94 122
76 94 121
79 96 123
79 98 126
75 93 119
78 96 124
76 93 120
79 98 125
75 93 120
78 96 122
77 95 123
79 97 126
79 97 124
78 97 125
76 94 121
79 97 123
79 97 126
74 94 122
76 94 120
73 92 120
77 95 122
76 94 120
79 97 125
78 95 122
80 98 124
75 93 120
74 93 121
76 95 122
78 96 122
77 96 124
77 95 122
77 96 124
77 95 123
78 97 124
78 96 123
77 96 124
79 97 125
78 95 121
77 96 125
79 97 123
77 95 122
77 95 123
76 94 121
76 95 123
77 95 123
77 96 125
80 98 126
77 95 123
78 97 125
77 95 122
74 93 121
77 95 123
77 95 122
78 97 125
77 95 120
75 93 120
78 96 124
79 98 126
77 95 121
76 94 122
75 93 121
79 97 124
78 96 124
77 95 121
75 94 121
76 95 123
80 97 124
78 97 125
76 95 123
77 95 123
75 93 120
74 93 120
78 97 124
75 93 121
76 94 121
76 94 121
78 96 124
81 98 124
78 95 121
77 95 122
78 96 123
78 97 125
77 95 122
77 95 122
79 96 122
77 95 122
77 95 121
75 92 118
76 95 123
80 98 125
77 96 125
79 97 124
76 94 122
76 94 121
76 93 120
72 88 113
74 92 119
75 93 120
77 96 124
78 97 126
76 94 122
79 97 125
80 98 125
76 95 122
78 95 121
78 96 124
79 97 124
76 94 121
76 94 121
76 95 123
76 95 123
77 95 123
78 96 123
77 95 122
79 97 124
78 97 124
76 94 121
78 96 123
77 96 123
76 95 122
76 95 123
74 93 122
80 98 125
79 97 123
78 96 123
79 96 122
78 97 124
75 92 118
77 95 122
79 96 122
79 97 124
78 96 123
78 96 124
76 94 120
78 97 126
77 94 120
77 96 123
78 96 122
79 97 124
74 91 116
75 93 121
75 93 120
77 95 121
77 95 122
78 96 125
77 96 123
77 95 123
80 98 126
74 92 120
78 97 126
76 94 120
77 96 125
75 94 121
78 95 122
78 96 123
80 99 126
74 92 119
79 97 124
79 97 125
77 95 122
76 95 122
79 98 127
77 96 125
76 94 122
78 96 125
77 95 121
75 93 120
76 95 122
79 97 124
76 95 123
78 96 123
79 97 126
79 97 124
78 96 123
79 96 122
76 94 122
77 94 121
76 93 120
77 96 124
79 97 124
78 97 124
77 96 123
75 95 124
80 98 125
77 94 121
76 95 123
77 96 125
80 98 126
79 97 125
80 97 124
78 96 123
79 97 124
78 97 125
78 96 123
79 97 124
75 94 121
73 92 119
79 98 125
78 96 123
79 97 125
77 96 124
77 96 124
75 93 119
74 92 119
78 96 125
80 98 126
76 94 122
75 94 122
77 96 123
76 94 120
76 93 120
75 93 119
80 98 125
77 95 122
76 94 121
79 97 125
76 95 123
74 93 121
76 95 122
78 96 123
79 97 125
77 97 126
79 97 124
77 96 123
78 96 124
76 94 122
80 98 125
77 95 122
80 98 126
77 95 123
74 92 118
79 96 122
78 96 123
77 95 121
77 96 124
77 96 123
77 95 123
78 97 126
78 96 123
78 96 123
80 98 124
78 96 124
77 95 121
76 94 121
79 98 126
75 93 119
78 96 123
79 98 126
80 97 124
77 95 121
76 94 122
76 95 124
78 95 122
77 96 123
76 95 122
76 95 122
76 94 122
77 94 121
78 97 125
77 96 125
77 94 120
80 97 124
80 98 126
76 95 123
77 95 123
79 97 124
74 92 120
79 98 126
78 96 122
77 95 123
73 92 120
79 97 124
79 97 124
79 98 127
80 97 124
78 95 122
79 97 123
77 95 123
75 93 121
77 95 123
76 95 123
77 95 123
78 96 123
77 94 121
78 96 123
76 93 119
79 97 125
76 93 119
78 96 124
76 95 122
78 96 124
79 96 123
78 96 124
77 96 124
78 97 126
76 94 122
77 94 121
79 98 126
76 94 121
78 97 125
77 95 121
79 97 125
79 98 125
76 94 121
79 98 125
78 96 124
75 93 120
78 97 125
78 95 122
79 97 125
79 97 125
80 97 124
77 96 124
75 94 122
77 96 124
76 95 122
77 96 124
76 95 123
78 96 124
76 94 121
76 94 122
78 97 126
77 96 124
77 94 119
77 95 123
77 95 123
79 97 125
77 97 126
76 94 122
77 95 121
77 95 123
78 96 123
78 95 120
74 92 120
80 98 126
77 95 122
76 93 120
78 96 123
79 97 123
79 96 123
75 94 122
77 95 122
78 96 123
77 95 122
75 93 121
79 97 124
77 95 123
77 95 123
75 93 119
81 99 126
76 95 123
79 98 125
82 99 126
78 97 125
77 95 123
78 96 123
79 97 124
77 96 124
78 96 123
77 96 124
80 98 125
80 98 126
79 97 124
75 93 120
77 95 122
79 96 122
75 92 119
79 98 126
78 96 123
75 94 121
77 96 125
77 95 121
77 95 122
79 96 123
78 96 123
76 95 123
76 95 123
76 94 120
77 95 121
79 97 124
77 96 124
76 94 122
81 99 126
79 97 123
79 97 124
78 96 123
77 96 124
76 94 121
75 94 122
74 92 119
76 94 121
77 96 123
73 91 119
77 94 120
77 96 125
77 96 124
78 96 122
77 95 123
77 95 122
74 91 118
73 91 118
77 95 122
78 96 121
78 96 122
80 98 125
77 96 123
79 97 123
76 94 122
79 97 125
77 96 124
74 93 122
79 97 123
73 92 119
76 94 120
78 97 124
78 97 126
78 97 126
77 95 122
74 93 121
76 94 121
75 94 121
76 94 121
76 95 123
77 95 124
75 94 121
78 97 126
77 95 123
75 92 119
74 93 120
77 95 123
74 94 123
78 96 123
75 93 120
77 95 122
76 95 122
79 97 124
74 92 120
78 97 125
78 96 124
76 93 119
74 92 120
75 93 122
78 97 125
79 97 124
76 94 122
74 93 121
79 97 124
77 96 124
77 95 121
76 94 120
77 95 121
76 95 122
76 94 121
75 93 121
77 96 124
78 96 123
75 94 122
77 94 120
77 95 122
77 95 121
77 96 125
78 95 122
76 95 123
74 92 118
79 98 126
77 95 123
79 97 124
78 96 122
79 96 123
78 96 125
79 97 123
72 90 117
77 95 122
76 94 122
76 95 122
73 91 118
77 96 124
75 93 121
77 96 124
76 94 122
79 98 126
80 97 124
77 95 123
76 95 122
79 97 124
75 92 119
79 98 125
76 94 120
76 94 120
76 94 121
77 95 123
75 92 118
75 93 120
76 94 122
78 96 124
79 97 124
79 96 123
79 97 125
78 96 122
79 98 126
80 98 124
76 95 123
77 95 122
75 94 122
78 96 124
77 95 121
77 96 123
78 96 124
78 96 122
81 98 124
76 94 121
76 95 123
76 95 122
78 97 124
74 92 118
77 95 123
78 96 123
76 94 121
74 92 120
76 93 119
77 96 124
74 93 122
78 96 124
78 97 125
77 95 122
77 95 121
77 96 124
75 93 120
77 95 122
76 95 123
79 97 124
79 97 126
78 95 122
75 92 118
77 95 122
77 94 121
77 95 121
73 92 120
76 94 122
76 95 123
77 95 123
77 95 122
78 96 124
76 93 119
74 92 120
74 92 120
77 95 122
74 92 120
79 97 123
79 97 125
80 98 125
78 97 125
76 94 121
77 96 123
79 97 124
77 95 123
78 96 124
76 94 121
78 96 123
78 96 123
78 96 122
76 95 124
79 97 124
77 95 122
76 94 122
74 92 120
79 97 124
75 94 121
78 97 126
76 95 123
78 96 123
78 97 124
78 95 122
78 97 125
77 96 125
76 95 123
78 96 124
78 96 124
76 95 123
79 97 123
78 96 123
79 98 127
78 96 123
77 96 123
76 94 122
78 96 123
82 99 124
75 93 120
77 95 123
79 98 125
80 97 123
78 97 124
77 95 121
77 95 122
75 92 119
78 95 122
79 96 122
77 94 120
77 95 124
76 93 120
75 95 124
77 95 122
76 95 124
79 97 123
75 94 122
76 94 121
78 96 123
78 96 122
77 94 119
78 96 124
79 97 125
79 97 124
77 96 124
77 95 121
77 95 121
76 94 121
77 96 123
77 96 124
76 93 120
76 95 123
75 93 121
76 94 120
79 98 126
77 95 121
77 96 124
77 95 123
79 98 126
77 95 123
79 97 124
74 91 117
78 96 124
74 92 119
79 97 124
78 96 123
78 97 126
80 97 123
77 96 124
78 96 122
78 95 122
79 97 124
77 96 125
77 95 123
76 94 121
78 96 124
77 95 123
77 96 125
79 97 124
77 95 121
78 96 124
78 95 122
78 96 123
76 94 122
78 96 123
80 97 123
74 92 120
77 95 122
79 97 124
77 95 122
78 96 123
76 95 124
76 96 125
78 96 123
76 94 121
80 99 127
79 97 123
77 95 121
78 97 125
79 98 126
78 96 124
78 96 123
78 96 124
77 94 121
77 95 123
79 96 123
78 97 126
75 92 118
79 96 122
77 96 124
78 97 124
78 96 123
79 97 125
77 95 122
75 94 122
78 97 124
78 97 124
79 97 124
79 97 124
78 96 124
78 96 122
77 95 121
78 96 124
76 93 119
76 95 123
77 95 123
79 97 125
77 94 120
79 97 125
76 95 123
78 96 124
76 94 121
77 96 124
79 98 126
75 94 121
80 98 124
78 97 126
78 96 123
77 95 123
79 98 126
76 94 121
75 93 121
77 96 124
79 97 124
80 97 123
78 96 124
78 97 124
78 96 123
78 96 123
75 94 122
77 95 122
77 95 124
75 93 120
80 97 124
76 95 122
77 95 123
77 96 123
78 96 122
78 96 124
78 96 124
77 93 119
80 98 126
79 96 122
80 98 125
81 99 125
77 95 123
79 97 123
73 91 118
76 94 120
76 94 122
79 98 125
77 95 123
75 92 118
79 97 125
80 99 128
78 96 123
78 96 122
76 95 122
78 97 125
75 93 120
77 95 123
78 97 126
80 97 123
78 97 126
75 93 120
77 96 124
78 95 122
77 95 123
78 96 124
78 97 125
77 96 123
79 97 125
78 96 123
76 94 121
77 94 121
76 95 123
78 96 124
76 94 121
80 98 126
78 96 124
77 95 122
78 95 121
78 96 123
77 94 120
78 96 123
78 96 123
76 95 123
78 96 122
76 94 121
77 95 121
78 95 122
79 97 125
76 94 121
77 96 124
79 97 124
78 97 126
76 95 124
74 92 118
75 94 122
77 96 124
75 93 120
77 96 124
76 94 122
75 94 121
76 95 123
78 97 126
78 97 125
73 91 118
75 93 121
76 95 122
78 96 122
77 96 123
79 96 122
75 94 121
76 94 121
75 95 124
80 98 125
77 95 122
78 97 124
75 92 119
80 98 125
78 96 124
77 94 120
77 96 125
77 95 123
76 94 122
77 96 123
78 96 123
75 94 123
79 97 125
77 96 124
76 94 121
77 94 121
75 92 119
76 95 122
75 93 119
76 94 122
77 96 124
76 95 122
75 94 123
73 92 119
77 96 124
77 94 121
76 94 121
77 94 120
75 94 122
76 94 120
77 94 121
77 96 125
76 95 123
78 96 123
76 94 122
77 96 124
79 97 123
75 93 119
78 96 123
77 95 123
75 95 124
77 95 122
79 96 122
77 95 122
78 96 124
78 96 124
78 96 122
77 93 118
80 98 126
75 93 121
80 98 126
78 96 122
76 95 122
76 94 122
78 96 123
77 95 122
78 97 125
77 96 123
77 96 124
78 96 123
79 97 123
79 97 124
81 99 126
77 96 123
72 91 118
78 96 122
78 96 123
79 96 122
73 91 117
75 92 118
78 97 124
75 93 120
79 97 125
78 96 124
79 96 121
75 93 120
77 94 121
81 99 126
75 93 119
77 95 122
75 92 118
78 96 122
77 95 122
75 92 118
78 97 126
77 96 125
77 95 123
78 96 123
78 96 123
78 96 122
77 94 121
76 94 122
77 96 123
78 96 123
75 93 121
74 94 124
77 95 122
77 96 123
77 95 122
78 97 125
78 96 122
78 96 123
75 93 119
75 93 119
76 95 122
77 95 121
76 94 120
79 98 126
75 94 122
77 97 126
76 94 121
78 96 124
75 93 119
78 97 126
77 95 123
77 94 120
76 96 125
75 93 120
80 97 123
77 96 124
79 97 124
78 96 124
79 97 123
79 97 124
78 97 126
77 95 122
80 98 124
78 96 124
76 94 122
79 97 125
76 95 123
78 97 125
73 91 119
78 97 126
78 96 124
74 93 121
78 96 122
79 98 126
78 96 124
75 93 120
78 96 124
77 95 123
76 94 121
77 95 123
78 96 123
75 93 120
78 96 123
80 97 123
80 99 126
78 97 125
77 96 124
81 99 128
77 94 121
78 96 124
78 96 123
75 93 120
77 95 123
77 95 122
75 93 121
76 94 121
77 95 122
78 96 124
75 93 120
77 95 123
78 96 122
77 96 125
77 95 123
78 95 122
79 96 123
77 95 122
78 96 123
77 96 124
75 93 120
81 99 126
78 97 126
77 95 123
78 96 122
79 97 124
79 97 124
76 94 120
79 98 126
78 97 125
77 96 123
78 96 124
78 97 125
76 95 122
80 97 124
77 95 122
78 97 124
79 97 124
76 95 124
77 95 123
76 94 122
78 97 124
78 96 123
78 96 122
77 93 119
76 95 124
79 97 124
76 94 121
75 92 118
76 95 122
79 97 125
76 95 123
78 96 122
79 97 124
75 93 120
76 94 121
76 95 123
76 95 123
81 98 125
75 94 121
77 95 122
76 93 119
76 94 120
80 98 124
79 97 124
74 92 120
77 95 123
77 95 122
75 93 120
76 95 123
78 96 124
75 93 119
75 93 120
77 95 122
77 95 123
77 96 123
81 99 127
78 95 122
76 94 122
77 96 123
75 93 120
77 96 123
77 95 123
75 94 121
78 97 124
78 96 124
80 98 124
76 94 122
79 97 123
78 96 123
77 95 122
80 98 125
77 95 121
78 96 124
79 97 125
77 96 124
78 96 125
77 95 123
76 95 124
78 96 123
78 96 123
75 93 121
79 97 125
79 97 125
76 95 124
79 97 124
76 94 121
77 95 123
77 94 121
79 96 123
79 96 122
80 98 125
76 94 120
78 97 126
79 98 125
78 96 122
79 98 126
77 96 123
77 95 122
75 92 119
77 95 121
79 98 125
74 91 118
80 98 124
76 94 122
74 92 118
76 95 122
77 95 122
77 95 122
75 93 120
75 94 122
77 96 124
77 96 124
78 96 122
78 97 125
75 93 120
78 97 125
77 95 122
77 96 124
75 94 122
80 98 126
75 93 121
75 93 121
77 95 123
79 97 125
76 94 121
78 96 123
79 97 124
79 96 122
77 96 124
79 97 125
75 94 121
77 96 123
80 99 126
74 92 119
73 91 117
79 97 125
77 96 123
75 94 122
77 96 124
78 97 126
77 95 122
77 97 126
77 95 123
79 98 126
77 96 124
78 97 125
77 96 124
74 92 118
74 93 120
79 98 125
78 96 123
77 97 126
77 95 123
74 93 121
80 98 125
79 98 126
74 93 121
76 94 120
80 98 126
75 93 121
80 97 124
78 96 123
78 95 122
80 99 126
80 98 124
76 95 123
78 96 123
75 95 123
78 96 123
79 97 125
78 95 122
78 97 125
79 97 124
72 91 119
75 94 123
79 97 123
78 96 124
78 96 124
77 96 123
75 94 121
76 94 122
75 93 120
77 95 123
76 94 121
73 92 121
77 95 122
77 95 121
78 96 123
79 96 123
77 95 122
75 93 121
74 92 120
76 94 123
79 97 124
76 93 120
79 98 126
76 96 125
74 92 119
76 94 121
77 95 122
77 97 127
75 93 120
78 97 125
77 94 121
78 96 123
77 94 120
75 93 121
77 95 122
79 96 122
75 93 120
77 96 125
76 95 122
78 96 124
75 93 120
80 98 126
78 96 123
77 95 121
78 97 125
80 96 122
78 95 120
79 97 125
79 97 124
76 94 122
77 95 123
77 96 123
79 97 125
76 95 124
76 94 120
78 98 126
76 95 123
78 96 123
78 96 124
76 95 123
78 96 123
75 93 120
78 96 123
80 98 126
78 96 124
78 96 123
77 95 122
78 97 124
78 96 123
77 95 122
79 98 126
76 95 122
77 95 123
76 94 121
77 96 124
75 94 122
76 95 122
78 96 123
75 94 121
77 95 122
76 95 123
76 94 121
78 97 125
81 99 126
75 94 122
76 94 122
78 97 124
77 95 122
77 95 122
77 95 122
78 96 122
75 93 121
74 92 119
78 96 123
76 94 121
78 97 125
78 97 126
74 93 120
79 97 123
78 96 124
78 97 124
75 94 122
76 94 121
78 96 124
77 95 122
77 96 124
78 96 124
78 97 124
75 93 121
78 96 123
78 95 120
77 96 124
77 95 122
80 98 125
79 96 123
78 97 125
79 97 124
77 96 124
78 97 125
78 96 124
78 96 123
75 94 122
77 95 122
74 93 121
76 94 122
78 96 123
76 94 122
76 94 122
79 96 123
78 95 122
79 97 124
77 95 121
71 89 116
79 97 124
77 95 122
77 95 123
77 95 121
73 91 118
78 96 124
77 95 121
79 98 126
77 95 122
79 97 124
78 97 125
76 94 121
76 93 118
79 97 125
78 97 126
75 93 121
76 95 123
76 93 119
77 95 122
79 97 124
78 96 123
76 94 122
78 96 124
77 95 122
77 95 123
76 95 123
76 95 123
77 95 123
76 94 120
75 93 120
77 95 122
77 96 125
77 94 120
78 96 122
76 93 119
79 97 124
76 94 122
79 97 124
78 96 123
78 96 124
78 96 124
79 97 124
75 94 122
80 98 126
78 96 123
72 90 116
72 91 118
79 98 126
76 94 120
77 95 123
80 98 124
75 94 122
80 98 125
76 94 122
74 93 122
78 96 123
80 97 123
79 97 125
78 97 125
79 97 124
77 96 124
78 97 126
76 94 122
75 92 118
78 97 125
77 96 125
79 97 124
77 95 122
74 93 121
78 96 123
78 97 126
77 95 121
76 93 120
74 93 121
78 97 124
80 99 126
79 97 126
78 97 125
77 95 122
81 99 125
77 95 122
74 93 120
80 98 126
76 94 122
77 94 121
76 94 122
76 95 122
77 95 121
76 95 124
77 96 124
76 94 120
77 96 124
78 96 122
73 91 117
77 95 121
77 96 123
76 95 122
78 96 123
77 96 123
77 95 122
76 94 121
79 95 121
76 93 120
79 97 125
80 99 126
76 93 118
80 97 124
76 94 122
80 98 125
77 95 122
76 95 123
78 96 124
77 95 122
76 95 123
78 96 125
75 93 120
78 97 124
77 96 123
80 98 125
78 97 125
79 98 127
80 98 124
78 95 120
78 96 123
78 96 124
77 96 123
80 97 123
78 96 124
80 98 126
76 94 121
77 95 120
77 95 121
77 96 123
76 93 120
78 96 123
79 97 123
76 95 122
76 95 123
79 98 126
77 95 122
77 97 126
78 96 123
78 96 124
77 96 124
76 93 120
77 94 120
76 94 122
76 94 121
78 97 125
77 95 121
79 97 125
77 95 121
78 97 124
79 97 122
77 95 123
75 93 119
76 95 122
77 96 124
77 96 123
75 93 120
78 97 125
79 97 124
75 94 123
74 92 119
79 98 126
79 97 124
77 95 123
77 95 122
76 94 121
76 94 121
76 94 120
78 97 124
76 95 122
75 93 119
77 95 122
79 97 123
79 97 124
78 96 125
80 97 123
76 95 122
79 98 126
80 98 125
79 97 124
77 97 126
77 96 124
79 97 125
77 95 121
79 97 125
78 97 124
77 95 123
75 94 123
77 95 121
77 95 123
78 96 124
77 96 123
77 94 121
78 96 124
72 91 120
77 94 121
78 97 124
77 94 121
76 93 120
79 98 127
77 95 123
76 95 125
77 96 124
77 95 122
77 94 120
79 98 126
76 94 122
76 94 121
76 94 122
80 98 126
79 97 124
81 98 124
79 98 126
79 97 123
77 95 122
76 94 122
76 96 125
76 95 123
79 97 124
77 97 126
78 96 123
79 97 125
74 93 121
78 96 123
77 95 122
79 97 123
79 96 123
77 96 124
76 95 123
77 94 120
76 94 121
76 93 120
76 95 122
75 93 119
77 96 125
76 94 122
77 95 123
76 94 121
79 97 123
78 96 124
79 96 123
78 96 123
78 97 125
76 95 122
77 95 122
78 96 123
77 95 122
79 98 126
76 95 124
78 97 125
76 94 122
76 94 120
79 96 123
78 96 124
76 95 123
79 97 124
78 96 123
78 96 124
78 96 123
78 97 126
74 93 120
76 94 122
76 95 122
78 97 126
78 96 123
77 96 124
80 98 125
78 96 123
76 95 123
76 95 122
76 95 123
78 97 124
79 97 124
77 95 123
78 97 125
77 96 123
76 94 121
76 94 121
79 97 123
73 90 116
82 100 127
75 95 124
79 97 124
77 96 123
77 94 120
77 96 123
78 95 122
75 94 121
79 97 124
79 96 123
80 98 125
81 99 127
78 96 123
79 97 124
78 96 122
77 95 121
76 94 121
75 93 120
81 99 126
78 97 126
77 96 124
79 97 125
77 95 122
78 96 123
75 94 123
77 95 124
76 94 120
79 96 122
77 94 121
79 97 123
77 95 123
80 97 124
79 98 126
75 93 119
78 97 125
80 98 125
78 96 123
76 95 122
79 97 124
77 95 122
80 98 125
75 93 121
73 92 119
79 97 125
80 99 126
76 95 123
77 96 124
78 97 124
76 95 123
79 97 125
76 93 119
79 97 124
78 97 125
75 93 120
78 95 120
77 95 123
77 96 123
75 94 122
76 94 120
78 96 124
75 93 120
75 93 120
77 96 124
76 94 122
76 93 119
77 96 124
77 95 121
78 96 123
80 98 125
78 96 123
76 94 121
77 95 121
76 94 122
74 92 118
79 97 125
77 96 123
78 95 121
78 96 123
76 94 120
75 93 120
76 94 120
78 96 124
77 95 122
76 94 121
77 95 121
80 98 124
77 96 123
79 97 125
77 95 122
76 95 122
79 97 124
80 98 126
73 92 120
76 94 121
75 92 118
77 95 123
77 94 120
77 95 121
77 94 121
77 94 121
77 94 120
75 93 120
79 97 123
77 95 122
78 96 122
81 100 128
81 99 126
78 97 126
76 94 120
79 97 124
80 98 125
77 95 123
80 99 127
76 94 120
77 95 122
77 95 122
78 97 124
78 96 124
81 99 126
77 96 123
76 94 119
76 95 123
76 94 120
78 96 122
77 95 122
77 95 122
77 94 121
75 93 121
76 95 123
79 98 125
81 98 123
77 95 122
77 93 118
79 97 123
76 94 120
79 98 125
75 94 122
77 96 124
78 96 124
77 95 122
77 95 122
77 95 123
75 94 122
74 93 122
79 97 125
78 96 123
78 95 122
77 95 121
76 94 122
77 96 124
75 93 120
78 96 122
77 95 122
77 94 121
80 97 123
76 94 122
79 97 125
80 99 127
77 95 122
78 97 125
79 97 124
75 93 120
78 96 123
76 94 122
78 96 123
76 95 122
76 94 122
77 96 123
76 94 121
76 95 122
77 96 124
79 97 125
76 94 121
78 96 123
75 93 122
79 98 126
78 96 124
77 95 122
78 96 123
78 97 125
74 91 118
78 95 121
76 94 121
79 97 125
78 97 125
79 97 124
77 94 120
79 97 124
77 96 123
77 95 121
78 96 124
77 95 123
76 94 122
80 98 127
75 93 120
78 96 124
75 94 122
77 96 124
76 95 122
74 93 120
74 92 119
79 98 126
77 96 124
77 95 121
77 95 122
77 96 125
76 94 120
80 98 125
77 95 122
77 95 123
77 95 122
76 93 119
77 95 123
79 97 125
78 96 124
76 94 121
79 97 125
74 92 120
78 96 123
78 97 124
80 98 125
77 95 122
76 95 122
76 95 122
75 93 120
79 97 124
77 95 122
76 94 121
75 91 117
74 92 118
76 94 122
79 97 123
77 96 125
76 94 121
77 94 121
81 99 125
78 96 124
79 97 125
75 94 122
80 98 125
78 97 125
76 94 121
77 95 122
75 92 118
78 95 122
76 94 121
76 95 123
80 97 123
78 96 122
78 95 122
78 96 124
77 96 123
75 93 122
79 97 123
76 95 124
77 96 124
76 94 122
78 96 124
78 96 123
77 96 124
79 97 125
77 95 122
80 98 126
78 96 125
77 96 125
76 93 120
79 97 123
73 92 119
78 97 125
78 96 124
75 93 120
76 95 122
75 92 118
78 96 123
76 94 121
78 97 124
77 95 122
76 94 122
77 96 124
79 97 125
78 97 124
76 95 123
77 95 123
78 96 124
77 95 122
76 94 122
76 93 119
77 95 123
77 95 122
75 94 121
79 96 123
79 98 125
79 96 123
78 96 124
78 96 123
78 97 124
76 94 121
77 94 120
76 94 122
75 94 121
78 96 123
78 96 123
78 97 124
78 96 124
79 97 124
79 97 124
78 96 122
80 98 126
79 97 124
80 98 126
80 98 125
80 98 126
75 93 120
75 92 118
78 96 123
77 96 123
77 96 124
77 96 124
79 96 122
76 94 120
77 96 123
77 96 125
79 97 126
75 93 121
77 95 123
76 95 122
76 94 121
77 96 124
75 94 123
76 94 121
77 96 123
77 96 125
75 94 122
75 93 120
77 95 123
77 96 124
77 95 123
77 94 121
77 95 123
77 96 123
78 97 124
80 97 122
77 95 121
78 97 125
77 96 125
75 93 120
78 95 120
80 98 126
75 93 119
74 92 119
78 96 124
78 96 123
78 95 122
74 93 121
77 96 124
77 95 124
76 94 120
79 97 124
77 95 122
80 98 125
76 95 123
77 95 122
76 95 124
77 95 123
78 96 123
77 96 123
78 97 125
76 94 122
75 94 122
76 94 122
76 93 119
77 96 123
79 98 127
79 97 125
79 98 126
77 95 122
80 98 125
78 96 124
76 96 125
78 96 123
78 97 124
76 93 120
75 93 121
78 96 122
76 94 123
78 95 122
78 96 122
75 93 119
79 98 125
76 95 123
78 97 126
77 96 125
78 96 123
76 94 121
79 97 125
76 95 123
79 97 126
78 97 125
80 98 126
73 91 119
76 94 122
76 94 121
75 93 120
78 96 123
75 93 120
75 93 121
79 98 126
79 97 123
76 95 122
76 95 123
77 96 124
76 95 122
82 100 128
78 96 124
79 97 125
77 95 122
78 96 124
76 94 122
78 97 125
79 97 125
76 94 122
77 95 122
77 95 123
78 97 124
75 93 119
80 97 123
78 96 124
74 93 123
77 95 122
77 95 121
79 97 125
77 96 124
75 93 120
76 95 123
74 92 118
75 93 121
78 97 125
79 97 124
78 96 123
77 95 122
77 95 122
77 95 124
77 96 125
75 93 120
77 96 125
75 93 120
79 97 124
79 97 124
78 96 124
74 92 120
76 95 122
78 96 122
79 97 124
78 96 123
76 95 124
79 97 124
75 93 120
78 97 125
75 93 120
79 97 124
78 96 123
79 97 125
76 95 122
75 94 121
79 96 121
77 95 121
79 97 125
80 97 124
77 96 124
79 97 124
74 91 117
75 93 119
79 97 123
78 96 124
76 94 121
79 97 124
77 95 122
76 95 123
79 97 123
77 95 123
74 91 117
76 95 122
77 96 124
79 98 126
77 96 125
77 96 124
77 95 121
78 97 124
76 95 123
75 94 123
76 95 123
75 93 119
78 96 122
77 97 127
75 92 119
79 97 124
75 93 121
73 92 121
78 96 123
77 95 122
75 92 118
77 96 125
74 93 120
76 94 121
78 96 123
77 95 123
78 95 122
80 98 125
78 96 122
79 97 124
78 96 124
77 95 124
79 97 125
78 96 125
76 94 121
76 95 123
78 95 121
76 94 121
78 97 125
79 98 126
76 94 121
77 95 121
78 95 121
76 94 122
77 94 121
77 95 123
75 94 121
79 97 125
77 95 123
73 91 117
78 96 124
76 95 124
79 98 125
77 95 121
77 96 123
78 96 123
76 95 123
77 97 126
78 97 125
77 96 124
78 96 124
71 89 115
78 96 124
78 96 122
77 95 123
75 93 121
78 97 125
78 97 125
78 97 124
78 96 122
77 95 122
78 96 124
77 96 124
75 94 123
78 96 124
77 94 120
76 94 121
79 96 122
81 98 124
75 92 118
76 95 122
77 95 122
75 93 120
77 96 123
76 94 122
76 94 122
78 96 123
78 96 123
74 93 121
77 95 122
77 95 123
77 96 125
78 97 125
75 94 122
76 96 125
79 97 124
76 94 122
78 96 122
77 96 124
78 96 124
76 95 122
74 92 119
80 97 123
77 96 124
79 97 124
77 94 121
77 95 120
77 97 126
78 97 125
78 97 124
78 96 122
78 96 123
78 96 123
81 99 126
74 92 119
77 95 121
75 93 121
77 95 122
76 95 123
77 95 122
77 95 123
77 95 122
76 95 123
77 95 122
78 97 125
76 95 123
77 96 123
78 96 124
78 96 123
78 96 123
77 95 123
73 91 118
77 96 124
75 94 122
76 94 121
77 96 124
76 95 123
77 96 125
79 97 125
79 98 126
77 95 122
77 95 123
75 93 120
78 96 122
76 93 119
78 98 126
75 95 123
77 95 123
77 95 122
76 95 123
79 97 125
76 94 119
80 98 125
76 93 120
79 97 124
78 96 123
75 93 120
76 94 121
77 95 122
80 98 125
77 96 124
75 93 119
78 96 123
77 96 124
77 96 124
78 96 123
76 94 121
73 92 120
81 99 126
76 94 122
77 95 123
79 97 125
78 96 124
77 96 126
78 97 125
76 94 121
77 96 123
74 92 118
77 95 123
79 97 125
75 94 122
77 95 121
78 96 123
77 96 124
79 96 123
76 95 124
78 96 123
77 95 122
76 95 123
77 97 125
76 95 123
77 95 121
79 97 123
76 94 121
79 96 121
77 96 125
79 97 123
77 96 125
76 95 123
79 98 126
79 97 124
80 98 126
77 96 123
77 96 124
75 94 121
79 97 123
78 95 122
78 97 125
79 97 125
75 94 123
78 97 126
77 96 124
78 95 121
75 94 121
74 93 122
79 97 123
77 95 122
76 94 121
77 95 122
78 95 122
78 97 125
77 95 122
76 93 119
76 93 119
77 94 121
77 96 125
79 97 123
79 97 124
76 94 122
78 95 122
79 98 126
79 98 126
78 97 125
76 94 122
78 97 125
79 98 126
77 96 123
77 96 124
77 94 121
77 95 123
77 95 121
79 96 123
78 96 123
78 96 123
78 96 123
76 95 125
77 96 124
77 96 123
77 96 124
74 93 123
78 95 121
76 94 122
77 96 125
79 97 125
75 94 122
76 95 123
79 96 123
79 97 124
78 97 124
77 95 121
76 95 122
78 96 123
77 96 124
76 95 122
76 95 124
77 96 124
80 98 126
79 97 124
77 96 123
80 98 126
76 93 119
80 98 125
76 95 124
78 97 125
77 95 123
77 96 124
77 95 123
76 94 122
80 98 126
78 96 122
77 95 123
77 96 124
77 94 120
76 95 123
74 92 120
77 95 122
79 97 124
76 95 123
77 95 122
79 97 124
79 98 126
77 96 123
78 97 126
81 99 128
78 96 122
78 97 124
77 95 123
80 98 124
79 98 126
74 93 121
77 95 123
78 96 124
78 97 125
79 97 124
77 95 122
78 96 124
75 94 122
79 98 126
76 95 122
77 96 124
78 97 125
78 96 122
80 98 126
78 96 124
75 93 121
79 97 123
75 93 120
77 95 123
74 92 119
78 96 124
78 96 123
79 97 125
77 97 126
77 95 121
76 94 122
75 93 119
78 96 124
77 95 122
77 95 123
77 96 124
78 96 123
73 91 117
77 94 120
77 96 124
77 95 122
77 96 125
77 95 123
76 94 121
76 95 124
79 96 123
77 95 123
78 96 123
78 96 124
77 95 122
79 97 124
77 94 120
76 96 124
80 97 123
73 90 116
76 95 124
77 95 122
75 92 119
76 95 122
78 96 122
77 96 123
78 96 123
78 96 124
78 96 122
74 93 121
80 98 125
76 94 121
76 95 123
77 94 121
77 95 122
77 95 122
78 96 124
80 97 123
75 94 123
78 96 124
77 96 124
77 95 121
79 97 124
79 97 124
80 98 124
79 97 125
78 97 125
76 95 123
77 95 123
75 92 119
77 95 122
77 96 124
79 97 124
77 95 122
76 94 122
77 95 124
78 96 123
78 96 123
75 94 122
75 93 121
79 97 123
77 95 123
77 96 125
77 94 120
74 93 120
78 96 124
76 95 123
78 96 124
79 97 125
78 96 122
78 97 124
75 93 120
77 96 124
77 94 121
78 96 124
78 96 124
76 94 121
79 97 124
77 95 121
79 97 124
76 93 120
77 95 122
77 94 121
77 95 123
72 91 120
78 96 123
77 94 120
80 98 125
76 95 124
74 91 117
77 94 120
77 96 124
77 96 125
78 97 126
77 97 125
76 95 122
79 97 124
78 95 122
76 93 120
77 95 122
79 96 123
76 94 121
80 97 124
75 93 121
77 95 122
76 93 119
77 96 123
78 95 120
76 94 120
79 97 124
78 96 123
75 94 121
75 94 122
80 98 124
78 97 126
76 93 118
78 97 125
76 94 121
75 93 120
76 95 122
78 95 121
78 96 124
79 98 125
75 93 119
79 98 126
76 95 123
77 96 124
79 96 122
75 93 121
76 94 120
79 98 125
79 97 125
74 91 118
75 92 118
79 98 125
77 96 124
77 96 124
76 93 120
78 96 124
73 91 117
75 93 120
76 96 124
78 96 123
75 93 121
77 95 123
75 94 122
76 95 124
79 98 126
77 96 123
75 94 122
79 97 124
76 94 121
78 96 123
75 94 122
78 97 126
79 98 125
78 97 124
77 95 123
75 93 120
78 96 123
77 95 123
77 95 123
75 93 120
79 97 124
78 96 123
78 96 123
77 94 121
79 97 124
76 94 122
77 95 123
77 95 123
76 94 123
81 99 126
77 96 123
78 95 122
81 99 127
74 92 119
77 96 125
76 95 122
77 95 122
80 99 126
75 92 119
77 95 122
79 96 121
80 99 127
76 95 122
76 96 125
78 96 124
78 96 123
81 99 127
78 95 122
75 94 122
79 96 123
79 97 124
77 96 123
77 96 124
76 95 123
74 93 121
78 96 124
77 95 123
78 96 124
79 97 124
79 97 124
78 96 124
73 91 118
78 97 125
78 97 125
78 97 126
79 98 126
76 95 123
77 95 123
79 97 125
79 97 124
76 94 121
78 97 124
80 98 125
77 95 122
76 93 119
77 95 123
77 96 125
74 92 119
79 97 124
79 97 124
77 94 121
78 97 124
76 94 122
75 94 121
80 98 125
77 96 123
78 96 123
79 97 124
79 98 125
74 92 120
77 97 126
78 96 123
80 98 126
79 97 125
79 97 123
75 94 122
78 97 126
75 92 119
80 98 126
76 95 122
77 96 124
79 96 123
76 95 123
75 93 120
78 97 126
74 91 118
78 96 123
76 94 121
77 94 121
78 95 121
78 97 125
77 95 122
80 98 125
79 96 123
80 97 124
78 96 123
80 98 125
79 98 126
77 95 122
77 94 120
74 93 120
78 97 126
78 96 123
77 95 124
79 97 125
77 95 122
75 93 121
77 94 119
80 98 124
75 94 121
77 95 121
75 94 121
77 95 123
77 96 125
78 96 124
77 94 120
79 97 124
78 97 124
72 91 119
81 99 127
76 94 122
78 96 123
76 96 124
76 94 121
78 95 121
78 95 122
77 95 123
79 97 123
76 95 124
79 97 125
78 96 124
78 96 123
80 99 127
76 94 122
77 96 124
79 96 121
76 95 123
78 96 123
78 96 124
79 97 124
77 94 120
76 94 121
78 97 125
79 97 123
78 97 125
78 97 125
77 95 122
78 96 124
75 94 121
77 95 123
75 94 123
78 96 124
76 94 122
78 96 123
76 94 122
76 95 122
78 96 122
77 96 124
80 98 125
77 95 123
72 90 117
81 99 126
78 97 124
77 95 122
78 96 124
77 95 121
77 95 122
78 96 124
79 97 125
77 96 124
77 95 121
78 97 125
76 93 118
74 92 118
77 95 122
80 97 123
80 97 124
75 93 120
76 96 125
74 92 119
77 95 122
75 93 121
79 98 125
77 94 121
77 96 125
75 93 121
77 95 122
78 96 123
78 97 126
78 96 125
79 97 125
77 96 124
75 93 122
77 96 125
78 96 122
79 98 126
78 97 124
74 93 122
78 96 123
78 97 126
76 95 122
77 95 123
76 94 121
78 95 120
77 95 122
76 95 124
78 96 123
77 95 123
76 93 120
78 97 124
77 94 121
77 95 124
80 98 126
79 97 125
77 95 122
75 93 120
79 97 124
78 96 124
75 93 121
78 96 123
76 94 121
77 95 121
75 93 121
82 100 127
80 97 122
75 93 120
77 95 121
78 96 123
79 97 123
76 96 124
76 93 120
77 95 121
77 95 122
78 96 123
80 98 126
78 97 124
78 96 123
76 95 122
78 96 123
78 96 123
78 97 124
77 95 123
76 94 121
78 96 123
74 92 119
76 94 122
77 96 124
75 93 119
77 95 122
77 95 122
80 98 124
77 95 122
77 94 120
81 99 125
75 93 120
77 95 123
81 99 127
80 98 124
78 96 123
76 93 120
78 95 121
78 96 123
80 99 126
77 96 125
77 95 123
75 93 120
74 93 121
73 91 117
79 97 124
79 97 124
79 97 124
79 97 124
77 96 125
78 95 122
77 95 124
78 97 125
75 93 120
77 96 126
77 95 122
77 95 123
76 94 121
77 96 123
79 97 123
80 98 124
79 97 124
77 96 124
75 93 119
77 95 123
76 94 122
72 91 119
76 95 123
78 97 124
76 95 122
78 97 125
74 92 118
74 92 119
77 95 122
79 97 124
78 97 125
78 96 122
78 96 122
77 95 124
78 96 124
77 95 121
81 98 123
76 95 122
77 95 121
75 93 120
75 94 122
74 93 121
79 97 124
77 96 123
76 94 121
75 94 121
76 95 122
79 96 123
76 95 122
78 97 125
76 94 121
80 98 125
76 94 121
76 94 120
77 95 122
79 96 123
76 95 122
79 98 126
77 95 122
77 95 122
78 97 125
75 94 121
78 96 122
77 96 124
75 93 121
76 94 122
77 95 122
75 94 124
76 94 121
78 96 124
77 95 122
74 93 120
81 98 125
74 93 121
79 98 126
77 96 123
75 93 120
76 95 122
75 92 118
81 98 125
79 97 124
78 96 123
77 96 124
78 96 123
76 95 122
78 96 124
75 94 122
80 98 125
79 97 124
76 94 122
77 95 123
76 95 124
75 93 120
77 96 123
78 96 123
76 94 121
76 95 123
77 96 124
77 95 121
78 95 122
78 96 123
76 94 121
79 98 126
77 95 121
76 95 122
77 96 124
79 98 126
74 92 120
78 95 122
80 98 125
79 98 126
76 94 122
75 93 121
75 93 119
75 93 120
76 94 121
79 98 125
78 96 124
75 93 120
76 95 122
79 97 124
78 96 123
78 97 125
77 95 123
80 97 123
78 96 124
79 97 126
78 96 123
76 95 123
78 97 125
76 94 121
79 98 125
77 95 121
77 95 123
77 96 124
77 95 121
78 97 125
78 96 124
74 91 117
78 95 122
81 99 126
77 95 123
78 97 124
77 96 124
79 98 126
76 96 124
80 99 128
75 93 120
78 96 123
76 95 124
80 98 126
76 94 122
74 92 120
77 97 126
75 93 120
76 94 123
77 95 122
77 95 122
75 93 121
80 98 125
76 94 121
76 94 121
78 97 124
78 96 123
78 96 124
77 95 123
75 93 121
78 96 124
80 98 126
76 95 123
75 94 123
78 97 126
76 94 122
78 96 123
80 97 124
79 97 125
76 94 120
78 96 123
76 94 121
79 97 125
77 95 122
77 95 122
75 94 122
76 94 120
76 94 122
78 96 122
73 93 121
75 94 122
78 96 122
78 96 124
78 97 126
79 96 122
79 98 126
75 93 120
79 97 125
77 95 123
79 97 125
77 95 122
76 95 123
79 98 127
76 95 123
75 93 120
76 95 123
76 95 123
75 93 119
76 95 122
78 97 124
78 97 126
81 99 126
77 96 124
76 94 121
77 95 122
78 96 123
75 94 121
74 93 121
76 95 123
78 96 124
78 96 123
80 98 124
77 94 121
79 97 124
77 95 122
82 100 127
78 96 123
77 95 123
76 95 123
79 97 125
75 94 123
78 96 124
78 96 123
79 97 125
76 95 123
76 94 121
78 96 124
77 95 120
76 94 120
78 96 123
78 96 124
77 95 121
78 96 124
77 95 123
76 94 121
76 94 120
76 95 123
77 95 123
76 94 121
76 95 123
78 96 124
74 93 122
76 95 123
76 95 123
76 94 122
78 96 122
78 96 123
77 95 122
79 98 126
80 97 123
75 93 120
75 93 119
75 93 120
78 96 124
77 95 122
76 95 123
80 98 123
76 94 122
76 94 122
80 98 125
78 96 124
79 97 124
78 96 123
77 95 122
76 94 120
78 96 123
78 97 124
79 97 125
76 94 121
77 95 124
79 97 124
75 92 119
78 96 122
80 98 125
78 96 124
77 96 123
77 96 123
78 97 126
76 94 121
76 94 122
79 97 125
77 96 124
78 96 122
79 97 125
77 95 122
79 98 126
79 97 126
77 95 122
78 96 123
78 96 123
77 95 121
81 99 127
75 93 121
77 96 124
78 97 125
78 96 123
80 98 126
78 97 126
77 96 123
77 96 123
78 96 123
76 94 122
80 97 124
76 95 123
79 96 122
80 97 124
78 96 123
76 95 123
74 92 120
80 98 126
77 96 124
79 96 123
79 98 127
77 96 123
77 96 124
78 96 124
77 95 123
78 96 122
79 97 124
79 97 123
77 96 124
77 96 123
78 96 124
75 93 120
77 95 122
75 93 120
79 98 126
78 95 122
81 99 126
76 95 123
80 97 124
78 97 125
75 94 123
76 95 122
78 96 125
75 93 120
75 93 120
77 95 122
78 97 125
78 96 124
74 92 118
76 94 121
77 96 123
77 96 124
79 98 126
79 97 124
75 92 119
74 93 121
78 96 124
78 96 125
78 96 123
76 94 121
76 94 121
78 95 121
79 98 125
77 96 124
76 95 122
78 97 125
77 95 122
79 96 123
78 96 124
79 98 126
77 96 124
78 97 124
77 96 125
79 98 126
77 96 124
75 93 121
75 94 123
75 93 119
77 96 123
75 93 120
78 96 124
81 98 124
77 96 123
77 95 124
77 95 121
76 94 120
77 95 121
78 96 123
81 98 124
77 96 124
80 98 125
80 98 126
77 95 122
78 97 124
77 96 124
78 96 124
78 96 124
77 95 122
77 95 122
76 94 120
78 95 122
76 94 120
76 94 122
77 95 122
77 95 122
77 96 123
75 94 121
80 99 126
78 96 123
79 97 123
76 95 122
76 95 123
79 96 123
76 94 120
79 97 125
76 95 123
76 94 121
75 93 120
75 92 117
76 94 120
74 93 120
78 96 123
77 95 122
76 94 122
76 95 123
78 97 126
76 94 122
76 94 121
74 92 120
79 96 123
76 93 119
78 97 124
77 96 125
77 96 124
78 95 122
73 90 116
80 98 126
76 95 122
78 95 122
78 97 125
78 96 124
77 96 126
78 97 125
75 94 122
73 91 118
78 96 123
75 93 120
75 93 120
76 94 122
78 96 123
79 97 125
79 97 124
76 93 120
78 95 120
80 98 125
76 94 121
78 96 122
76 94 121
77 95 123
78 96 122
75 93 120
76 94 122
78 97 125
73 91 119
75 93 120
78 96 124
75 94 123
79 98 126
78 97 124
78 96 123
78 95 122
77 96 124
77 95 122
78 96 124
74 93 122
80 97 124
76 95 123
76 95 124
75 93 120
79 97 124
75 92 119
75 94 122
78 96 124
77 96 124
75 94 121
77 95 123
77 96 125
74 93 120
80 98 126
77 96 123
75 93 120
76 95 123
78 97 124
76 94 120
77 94 119
77 96 124
78 96 124
78 97 124
78 96 124
75 92 119
78 96 125
76 95 123
81 99 125
76 96 125
77 95 122
77 96 123
78 97 124
80 97 123
77 95 122
77 95 122
77 96 123
78 96 124
78 96 123
75 93 119
79 97 126
76 93 120
77 95 121
75 94 121
78 96 123
79 96 122
77 96 124
78 96 124
76 95 124
77 95 121
78 96 122
77 96 123
79 97 124
78 97 125
76 94 122
76 94 122
78 96 122
77 95 122
77 94 120
76 94 122
78 96 124
79 98 126
78 95 121
78 97 124
75 94 122
77 96 124
79 97 125
77 95 121
80 97 123
78 97 124
81 99 126
78 97 126
75 94 121
77 96 124
74 92 119
77 95 122
77 95 121
77 95 123
78 96 122
76 95 122
79 97 125
78 96 124
74 93 120
75 94 123
76 94 121
78 95 121
77 96 123
78 96 124
77 95 121
77 95 122
76 94 120
76 94 121
77 95 122
76 94 123
77 95 122
80 98 126
77 95 122
78 97 125
78 95 121
77 95 122
77 94 120
76 95 124
76 94 121
76 94 121
78 95 121
77 96 124
79 96 121
76 95 124
75 93 119
76 94 121
78 96 123
76 93 119
75 93 121
78 96 122
78 97 125
81 98 124
76 94 121
79 97 124
80 98 125
81 99 125
76 95 122
78 97 125
79 97 123
79 97 125
76 95 124
76 96 125
78 97 126
78 96 122
78 96 123
77 95 122
74 92 120
77 96 125
77 95 121
77 96 124
78 96 122
76 94 121
74 93 121
77 95 123
78 96 124
77 94 121
79 96 122
78 96 123
73 92 120
75 93 120
76 95 122
76 94 120
77 95 123
78 96 122
75 94 122
77 94 121
78 97 125
80 98 125
76 95 122
80 97 124
77 94 121
78 95 121
78 97 124
79 96 123
76 94 120
75 92 119
80 98 126
78 96 124
78 96 123
79 98 127
78 96 125
78 96 124
77 95 122
77 96 123
81 98 125
78 97 125
76 95 122
77 94 120
78 96 124
78 96 122
77 96 123
77 95 123
78 96 123
77 95 122
74 93 122
77 96 124
78 97 125
79 97 125
78 96 123
74 93 120
81 99 126
79 97 124
76 96 125
78 96 122
75 93 120
77 95 122
78 97 125
76 94 120
75 93 120
77 96 124
76 95 124
77 95 121
76 95 123
80 98 124
79 96 122
79 97 125
78 96 122
77 96 124
78 97 125
78 96 123
78 97 125
78 96 124
71 89 115
77 95 123
79 98 126
77 96 124
78 96 124
76 96 125
76 94 120
75 93 120
78 96 122
79 98 126
79 97 125
80 98 126
79 97 125
80 98 125
79 98 126
76 94 121
79 97 124
76 95 123
78 96 122
76 94 121
80 98 124
78 96 124
79 97 125
77 96 124
75 94 121
78 96 124
76 95 122
79 96 122
79 98 126
77 96 125
78 97 126
77 95 122
80 98 124
76 94 122
80 98 126
76 94 120
78 97 126
79 97 125
78 97 125
77 96 123
76 95 124
78 96 124
77 96 123
78 97 124
81 98 125
76 95 123
76 95 123
79 97 124
79 97 124
76 94 122
80 99 127
79 98 126
76 95 124
77 96 123
76 94 121
77 95 122
77 96 123
78 96 122
79 97 124
76 94 121
79 98 125
79 97 125
77 95 122
77 95 121
76 95 123
79 96 123
76 95 124
80 97 123
75 94 122
78 95 122
77 95 123
77 95 123
79 97 123
76 95 123
77 95 123
77 95 123
76 93 119
78 97 126
77 94 120
77 95 122
81 98 124
78 96 122
77 95 122
77 95 121
78 96 123
77 96 123
77 96 123
75 93 120
76 95 122
75 93 119
77 96 123
77 96 124
76 94 121
77 95 123
77 95 122
77 96 124
78 96 124
77 96 124
77 96 123
75 93 120
77 96 124
81 98 124
79 98 126
77 95 123
77 96 124
76 95 122
77 94 121
76 94 122
78 95 122
78 96 123
77 95 123
77 95 123
79 97 123
76 94 121
79 98 126
78 97 124
76 94 121
80 98 126
76 95 123
78 96 123
77 95 122
76 94 122
79 97 124
75 94 121
77 95 122
75 94 123
77 95 122
77 97 126
77 95 123
74 92 120
79 97 124
75 93 121
78 96 123
76 95 123
77 95 123
79 97 123
78 96 123
78 95 121
80 98 126
76 95 124
79 97 124
79 97 125
75 93 120
76 95 123
78 96 123
82 100 127
76 95 124
78 96 124
77 96 124
77 97 126
78 96 123
74 93 120
78 96 123
77 95 121
78 96 123
77 95 123
79 98 126
76 94 122
80 98 126
76 94 121
78 97 124
76 94 122
75 93 120
77 95 121
77 95 122
77 94 120
78 96 123
76 95 123
80 98 124
78 96 124
78 96 123
77 95 123
79 97 124
79 97 123
76 94 120
76 94 122
78 96 123
76 94 122
78 95 120
77 95 123
79 98 126
76 94 120
77 95 123
78 96 123
79 97 125
79 97 123
77 95 123
76 94 120
76 95 122
79 97 125
74 92 118
76 94 121
78 96 122
78 96 123
78 96 124
74 93 122
78 96 122
78 96 123
77 96 123
78 96 123
74 93 120
78 97 125
76 94 120
75 95 123
77 96 124
76 95 122
77 94 120
76 93 119
80 98 125
76 95 124
79 97 126
78 96 124
79 97 124
78 97 125
77 95 122
79 97 126
78 97 125
76 95 124
78 97 124
77 96 124
76 93 120
76 95 122
75 93 119
76 94 122
77 95 122
76 94 121
77 96 124
76 95 123
77 96 123
76 94 122
76 94 120
78 97 125
79 96 122
78 96 123
76 93 119
80 98 125
76 94 122
77 95 124
74 92 118
77 95 122
78 96 124
76 95 122
78 96 123
78 97 125
79 97 124
78 97 124
79 97 125
79 97 124
79 97 125
78 97 125
75 93 119
73 91 118
77 95 122
78 95 122
77 95 121
78 96 125
75 93 121
77 95 122
77 95 122
75 92 118
77 95 123
80 99 127
78 96 124
78 96 123
77 95 122
75 93 119
77 95 121
77 96 125
74 92 119
76 94 120
76 95 122
77 96 124
77 95 122
76 95 123
76 95 122
78 97 125
77 97 126
79 97 123
78 96 123
78 96 123
76 95 123
76 95 123
77 96 124
75 93 120
79 97 124
75 93 120
76 94 121
76 94 120
79 97 124
79 98 126
76 94 122
77 95 123
75 94 122
76 95 123
77 96 123
79 98 126
77 95 123
76 94 121
78 97 126
76 94 121
75 93 120
76 94 121
77 95 122
77 95 122
78 97 126
76 94 121
75 94 122
75 93 120
80 98 124
77 95 121
76 94 121
74 93 121
79 96 123
76 93 120
77 95 123
77 95 123
79 97 123
78 97 125
76 94 122
76 95 122
79 96 122
76 95 122
73 93 121
78 96 124
79 96 122
76 94 121
75 94 121
77 96 123
77 94 119
77 96 124
76 95 122
77 96 124
76 95 122
78 96 124
78 96 122
76 95 122
77 95 123
77 95 122
78 96 123
76 95 124
79 97 124
76 93 119
78 96 123
76 94 120
78 97 125
80 98 125
78 96 122
79 97 124
77 95 123
77 95 122
75 94 123
78 96 123
78 96 124
78 97 124
79 97 124
79 97 125
80 99 127
78 97 124
77 95 122
77 95 124
75 94 122
76 94 122
79 98 126
78 96 123
76 94 120
77 95 121
77 96 123
78 96 123
80 99 126
77 95 123
75 93 121
79 98 126
78 97 125
77 95 123
79 97 124
79 98 126
76 94 121
79 98 125
81 99 127
78 96 124
76 94 122
77 96 123
78 96 125
78 96 124
76 94 122
78 96 123
78 97 125
79 98 125
78 96 123
76 94 122
78 97 126
76 95 122
77 96 124
75 94 121
76 93 120
79 98 126
73 90 116
79 97 125
76 95 123
79 97 124
75 93 122
78 97 125
79 97 125
80 98 126
76 94 120
76 93 119
75 93 121
77 96 123
76 93 120
79 97 124
79 96 123
78 97 125
75 92 119
78 96 123
77 95 123
79 97 124
81 98 124
77 96 124
76 95 122
79 97 124
79 97 124
77 95 124
75 92 118
80 98 125
78 95 121
78 96 124
77 96 123
77 96 124
79 97 124
78 97 126
77 96 124
79 98 126
76 94 121
79 96 123
78 96 123
76 93 120
77 96 123
77 96 124
79 97 124
79 97 124
79 97 124
77 95 123
77 95 121
76 95 123
81 99 126
79 97 124
80 98 126
79 98 125
79 98 125
77 95 122
78 96 123
78 95 120
80 97 124
76 94 120
77 96 124
78 96 122
76 93 120
79 97 124
75 94 121
77 97 126
79 97 125
78 97 125
75 93 121
74 93 121
77 95 121
79 96 121
75 94 121
77 96 124
77 96 123
78 96 123
79 97 125
77 95 120
77 95 123
76 94 122
78 95 120
77 96 123
80 98 126
79 97 124
75 94 122
80 98 125
79 98 127
78 97 124
76 94 122
76 95 124
77 95 122
78 95 122
79 98 125
77 95 121
78 96 124
78 97 126
78 97 125
79 98 126
76 93 119
79 98 125
78 97 126
78 96 124
75 94 121
76 94 121
78 96 122
77 93 118
74 92 120
80 99 126
74 92 119
79 98 125
78 96 124
76 94 122
79 98 126
79 96 122
77 96 125
79 97 124
79 96 123
77 96 124
77 96 123
76 95 123
79 97 125
77 95 121
78 96 124
78 96 124
78 96 123
77 94 120
78 96 123
77 94 121
74 91 116
75 94 122
79 97 124
78 97 124
77 96 124
77 95 121
77 96 124
77 95 123
77 95 123
77 96 124
76 95 122
77 96 123
78 96 123
78 96 124
79 97 124
76 95 124
78 95 121
77 94 121
79 97 124
77 95 122
77 95 122
77 94 120
78 95 122
77 96 124
79 97 123
78 97 125
78 97 124
78 96 122
78 96 124
76 94 121
78 96 122
79 96 123
78 96 124
76 93 120
77 95 122
78 96 122
77 95 122
75 93 120
75 93 120
77 96 124
79 97 124
77 95 123
78 95 120
80 98 125
78 96 124
79 97 124
80 98 124
78 96 122
76 94 120
75 92 117
77 96 124
79 98 126
78 96 122
78 96 124
79 98 126
77 95 122
79 96 122
80 97 124
75 93 121
77 95 123
74 92 120
79 96 123
76 94 120
77 95 121
76 94 122
77 96 123
78 96 124
78 97 124
73 92 120
80 98 124
77 94 120
78 96 123
77 96 124
77 95 122
77 95 122
77 96 123
76 95 124
78 96 124
81 99 125
76 96 124
78 96 123
76 94 121
78 96 124
78 96 123
77 95 121
79 97 124
77 96 123
77 94 120
77 95 123
79 98 126
76 94 120
78 96 123
79 98 126
78 96 122
80 98 126
76 95 123
75 93 120
77 95 123
75 92 119
78 96 124
78 96 124
77 96 125
78 96 122
77 96 124
79 97 125
81 99 127
78 96 123
77 96 123
74 93 121
77 95 121
79 97 124
80 98 126
78 96 123
78 96 123
77 95 122
76 93 120
79 97 124
77 95 121
78 96 123
77 96 125
80 98 125
76 95 123
79 98 126
78 96 124
78 96 122
78 96 123
78 96 124
75 95 123
75 94 123
78 97 124
76 94 121
76 94 122
79 97 126
77 94 121
76 94 122
77 95 123
76 94 121
79 97 125
75 93 120
79 96 122
74 91 117
78 96 123
76 94 121
78 96 123
78 95 122
77 96 124
75 93 120
77 95 122
77 94 120
77 96 125
76 94 121
79 97 125
78 96 123
78 97 126
79 98 126
79 98 127
79 97 125
77 96 124
79 97 124
78 96 124
78 96 122
78 96 123
78 97 125
77 96 123
76 94 121
77 94 120
75 93 119
78 97 125
76 95 123
76 94 121
80 98 126
78 96 123
76 95 123
78 97 124
77 96 124
75 93 120
77 96 124
77 96 123
78 97 125
75 93 120
75 93 121
81 98 125
77 95 121
79 98 126
78 96 121
76 94 120
79 97 125
76 94 122
78 96 122
77 96 123
78 96 124
74 92 118
77 96 123
76 94 121
77 96 125
81 99 126
76 95 123
77 95 123
78 97 124
77 95 122
79 98 125
77 95 122
78 96 125
77 96 124
77 95 121
76 94 120
74 93 121
78 97 124
78 96 123
77 96 123
77 96 124
74 92 120
80 98 126
79 97 123
81 99 127
79 97 124
78 96 123
75 94 122
79 97 124
78 95 120
75 94 123
74 92 119
78 96 123
77 95 122
78 95 121
79 97 124
78 96 124
77 95 121
79 96 123
78 95 122
76 93 120
76 95 124
76 94 121
78 96 124
76 94 121
77 96 123
79 97 125
76 94 121
76 95 123
78 96 122
77 95 121
78 97 126
77 95 123
79 97 125
77 95 122
79 97 124
77 95 122
77 94 121
78 96 122
78 96 123
79 97 124
78 97 124
79 97 125
77 95 121
78 96 123
78 96 122
79 97 124
76 93 119
78 97 125
77 94 121
77 95 123
77 94 121
77 95 123
77 95 122
77 97 127
76 94 121
75 93 121
78 96 122
74 93 122
77 95 121
77 95 121
76 94 120
78 96 123
77 95 122
75 94 122
78 95 122
78 96 123
78 96 124
77 96 124
75 93 119
80 97 124
77 96 123
77 94 121
79 97 123
75 94 121
76 94 121
78 97 125
75 93 121
78 96 123
82 99 126
77 95 123
76 95 123
78 97 124
78 96 123
78 97 124
79 97 123
77 94 120
79 97 124
76 95 123
77 94 121
79 97 126
78 97 125
76 95 123
73 90 117
80 99 126
77 95 123
81 98 124
79 96 123
78 96 123
78 97 125
77 95 121
79 97 123
78 97 126
77 95 123
75 93 121
78 96 124
77 96 124
77 95 123
75 92 119
77 94 120
76 94 120
79 97 124
79 96 122
77 96 124
77 94 120
78 96 123
77 96 125
77 95 123
75 95 124
75 93 120
80 99 126
78 96 124
76 95 123
78 97 125
76 95 123
77 95 122
76 94 121
78 96 123
78 96 124
78 97 125
75 93 120
78 97 125
77 96 125
74 92 120
76 94 122
79 98 126
79 97 124
78 96 122
80 98 126
79 97 123
78 96 123
77 95 121
80 97 124
79 97 123
79 98 126
78 96 123
80 97 124
75 94 121
77 94 121
79 96 121
79 98 126
75 93 121
78 96 122
78 96 122
79 97 124
78 97 125
77 96 123
77 95 121
79 97 124
75 94 121
75 93 120
77 94 121
79 96 123
76 95 123
79 97 124
79 97 125
78 96 123
75 94 121
78 96 123
76 94 121
77 95 122
77 94 120
78 97 124
75 93 121
73 91 118
80 98 126
80 98 125
76 94 120
79 97 124
78 96 124
79 98 125
79 98 126
77 96 124
78 96 122
76 94 121
77 96 124
77 95 123
74 92 120
77 96 124
76 95 123
78 96 122
77 95 121
75 93 120
79 97 123
74 92 119
77 95 124
79 97 125
78 96 122
75 93 119
77 96 123
78 95 121
77 96 124
77 95 122
78 97 124
77 96 124
79 97 124
77 96 123
76 93 119
79 97 125
76 94 121
77 95 122
75 94 123
80 98 126
78 96 123
80 96 121
77 96 125
75 93 120
77 96 124
74 93 122
78 95 122
75 94 121
79 96 122
78 96 123
76 95 124
75 93 120
78 97 125
77 94 119
74 92 119
77 95 123
75 93 120
77 94 120
77 96 123
77 95 123
75 93 120
80 98 124
78 96 124
76 94 121
75 92 119
78 96 123
78 96 123
78 95 120
75 93 120
79 98 126
78 96 123
81 99 126
78 96 123
76 95 123
78 95 122
77 96 123
76 94 122
77 95 121
78 95 120
78 96 123
80 99 127
79 97 125
74 93 121
77 95 122
77 95 122
78 97 125
77 96 124
78 97 125
78 96 123
78 96 123
77 95 123
77 96 124
75 93 120
78 97 126
77 95 122
77 96 124
75 93 120
75 93 121
75 94 122
76 95 123
78 96 124
76 94 122
78 96 124
78 97 126
80 98 126
77 96 124
78 97 125
79 98 126
75 92 119
78 96 123
76 95 122
80 96 121
77 96 123
73 92 121
78 97 126
79 98 126
77 96 124
78 96 123
79 96 122
77 94 121
75 93 121
76 95 123
75 94 122
78 96 122
75 94 122
76 94 121
77 95 123
79 97 124
77 95 122
76 94 122
74 92 119
76 94 121
80 97 123
77 96 124
76 96 125
76 94 120
78 96 123
75 93 121
78 96 123
79 97 125
79 97 124
79 97 125
78 96 124
75 94 121
76 93 120
75 94 122
77 95 121
75 92 117
75 94 122
78 96 122
78 96 124
76 95 122
79 97 125
77 96 124
80 98 125
78 97 125
77 96 123
76 93 119
76 94 121
76 95 122
81 99 126
80 99 127
78 96 122
78 96 123
76 94 121
73 90 117
78 96 123
77 95 122
77 95 123
77 95 123
78 97 124
78 96 124
79 97 123
80 98 125
79 97 125
77 96 124
77 97 125
78 96 123
80 97 124
76 95 122
77 96 125
77 95 121
78 95 121
74 93 120
77 95 122
76 95 122
76 96 125
75 93 120
76 95 124
77 94 121
77 96 124
77 96 124
76 93 119
76 95 123
79 97 124
79 97 124
79 97 125
80 98 125
79 98 126
76 94 121
76 95 123
78 96 123
79 97 124
78 96 123
76 94 121
79 96 122
77 96 126
75 92 119
78 97 125
75 94 121
78 96 124
79 97 125
75 94 122
78 96 123
76 94 121
78 96 124
78 96 124
77 95 124
76 95 124
77 96 123
77 94 120
76 95 124
77 94 120
77 95 123
76 94 120
76 94 123
76 94 120
82 100 127
78 97 125
77 95 123
75 92 119
77 96 123
77 95 122
77 95 122
75 94 122
76 95 122
79 96 122
79 97 124
76 93 120
78 97 126
78 96 124
78 97 124
78 96 124
79 97 125
77 95 122
79 97 125
78 97 125
77 94 121
76 95 123
79 97 123
78 96 123
79 98 125
80 97 123
79 97 125
78 97 124
79 98 127
75 93 121
77 96 124
79 97 123
79 97 123
79 97 124
77 96 124
78 96 123
78 96 124
78 97 126
76 95 124
76 95 124
78 97 124
77 95 123
76 93 120
78 97 125
77 96 123
76 94 121
77 96 126
77 96 125
78 97 126
79 97 124
80 98 125
74 93 120
77 96 124
78 96 124
76 95 123
75 94 121
78 97 125
75 93 121
78 96 123
75 93 120
78 96 122
77 95 123
77 95 122
79 98 125
77 95 123
80 98 124
77 96 125
77 95 123
78 95 122
78 97 125
78 96 124
76 94 121
76 95 123
80 97 124
77 97 126
79 97 126
79 97 125
80 97 124
76 94 121
79 98 126
78 97 125
77 95 121
77 95 122
78 96 123
76 96 125
79 97 125
78 96 124
77 96 126
80 98 125
75 93 119
78 97 124
77 97 126
78 97 125
81 99 125
76 95 122
76 93 119
78 96 124
77 95 123
78 95 121
74 93 120
79 97 124
76 95 123
80 98 126
77 95 121
76 93 119
79 96 122
78 97 126
79 97 124
77 96 125
79 98 126
77 95 122
79 98 126
77 95 122
77 96 124
78 96 124
79 97 125
80 98 125
75 94 121
76 94 120
79 96 123
78 96 123
76 95 122
75 94 123
79 97 125
77 95 123
75 93 121
77 95 122
77 96 123
76 93 120
78 97 125
80 99 126
75 94 121
79 98 126
75 94 122
79 97 124
78 96 124
79 97 124
77 95 122
76 94 120
79 97 126
76 95 123
75 94 121
76 95 122
76 94 122
76 95 122
79 96 123
78 97 126
78 96 124
77 96 123
77 96 125
79 98 125
75 94 123
78 97 125
80 98 125
76 95 123
79 97 123
78 96 124
78 97 125
76 95 123
75 93 122
76 95 122
76 95 122
78 97 124
80 97 123
79 98 126
79 97 125
74 93 120
75 92 119
77 96 124
79 97 125
76 95 123
77 96 124
79 97 124
78 97 125
79 97 125
77 96 123
78 97 126
79 98 126
79 97 123
76 94 121
77 96 123
75 94 121
77 95 122
78 96 123
78 96 123
79 97 124
78 97 124
76 95 122
78 95 121
78 96 122
76 94 122
76 93 120
76 95 123
76 94 120
79 97 124
79 98 126
80 98 126
78 96 124
78 96 123
77 96 124
80 98 124
77 97 126
78 96 124
76 94 120
77 95 121
79 97 124
77 95 123
76 94 121
76 94 121
77 95 123
76 95 124
78 96 123
78 96 122
79 98 126
77 96 124
76 95 122
80 97 123
77 95 123
76 94 121
78 97 126
80 98 125
79 97 125
80 97 124
79 97 123
79 97 124
79 97 124
77 96 123
78 95 122
75 93 120
75 93 121
76 95 123
75 94 122
75 93 120
78 97 126
78 96 123
77 95 121
77 95 123
78 96 122
77 95 122
78 96 124
76 94 121
78 96 124
76 93 119
78 97 125
77 96 123
77 95 122
76 94 122
81 99 126
78 96 124
78 95 121
77 95 123
78 96 123
80 97 123
78 97 124
78 96 124
79 97 124
75 93 120
77 95 120
75 93 120
77 95 123
77 95 123
78 97 124
80 98 125
77 95 122
75 93 120
78 96 124
77 96 124
76 94 121
77 96 124
76 95 123
77 95 122
77 96 124
76 95 123
77 96 124
78 96 122
77 96 124
77 95 122
79 98 126
76 94 121
77 95 121
79 97 124
76 94 120
77 95 122
78 97 126
76 94 121
75 93 120
78 96 122
76 94 120
79 96 122
79 97 125
79 98 125
75 93 119
76 94 121
81 99 126
77 96 124
78 95 122
78 96 123
77 96 123
78 96 124
73 92 120
74 93 122
78 96 122
74 92 119
80 97 124
76 95 123
73 91 117
78 95 121
77 95 122
77 95 123
78 96 124
76 94 121
78 96 123
76 95 122
77 95 124
78 97 125
77 95 123
76 93 120
78 96 122
77 96 125
78 96 124
76 93 119
78 97 124
77 96 123
77 96 123
76 94 122
77 95 123
77 95 123
79 95 121
75 94 122
75 94 122
76 95 124
80 98 125
75 93 120
79 96 123
79 98 126
76 94 120
78 96 122
78 96 124
77 96 123
77 95 123
78 96 124
78 96 123
78 96 124
78 96 122
80 98 124
79 98 126
75 94 122
76 95 123
76 94 121
78 96 122
79 97 125
76 94 122
77 95 123
74 93 120
75 95 124
78 96 123
76 94 122
77 96 125
79 97 125
77 95 122
77 95 123
77 96 125
80 98 125
76 94 120
77 96 124
77 94 119
75 93 120
79 97 123
78 96 123
76 94 122
76 95 122
80 98 125
77 96 124
79 96 121
78 97 126
78 96 123
75 93 121
72 89 114
81 99 126
76 94 122
77 96 124
77 95 123
75 93 120
77 95 122
77 95 122
78 96 122
76 94 120
77 96 125
76 94 122
77 96 124
79 97 124
80 98 125
76 93 118
77 95 123
76 95 125
78 96 124
77 95 122
79 97 124
76 94 120
79 96 122
78 96 122
80 98 124
79 96 123
79 98 126
75 94 121
78 97 125
75 93 120
78 96 123
78 97 125
77 95 123
78 95 122
75 94 123
80 98 126
76 94 121
77 94 120
75 93 121
79 97 125
77 96 124
77 96 124
80 97 124
77 95 123
76 93 119
79 96 121
78 95 122
81 99 127
78 97 124
79 97 122
79 97 124
77 95 123
79 97 124
78 95 122
77 95 122
78 97 124
79 96 122
76 94 121
79 97 125
77 95 123
79 98 125
78 95 122
75 94 122
76 95 123
78 96 123
77 97 126
77 95 123
77 94 120
78 96 123
78 97 125
77 95 122
77 94 120
76 94 120
79 97 124
78 96 124
76 94 121
79 97 123
75 93 119
79 98 125
77 95 123
77 96 125
78 97 125
76 95 125
77 95 122
77 95 122
77 96 124
75 92 118
77 96 124
77 95 122
78 95 122
74 93 120
76 94 122
77 95 122
77 95 123
78 97 125
75 93 120
76 94 121
80 99 126
75 94 121
77 96 123
76 94 120
77 95 121
76 94 123
78 96 124
79 98 125
78 97 124
79 97 124
76 94 121
75 93 120
78 96 123
76 95 124
75 95 124
77 95 122
77 95 122
78 97 124
76 94 121
77 95 121
76 94 122
78 96 122
74 94 123
74 92 120
78 97 125
80 98 125
77 96 123
78 96 122
78 96 123
79 97 125
78 96 124
77 96 126
79 97 124
79 97 125
77 96 124
75 94 123
77 96 125
74 93 122
78 96 124
76 94 123
78 96 123
79 98 126
80 98 124
77 94 121
75 93 120
79 98 125
79 96 122
78 96 123
78 96 123
75 95 123
78 96 123
76 95 122
76 94 121
80 97 123
77 95 123
77 95 122
77 96 124
74 93 121
80 97 123
79 96 123
74 93 120
79 97 124
79 98 125
78 97 124
77 96 123
77 95 123
78 96 123
79 96 122
76 94 122
78 96 124
77 96 123
78 97 124
79 96 122
80 98 126
77 96 124
76 95 122
77 95 122
74 93 122
77 95 123
78 96 124
77 95 122
76 95 122
79 98 126
78 97 125
78 96 123
77 96 123
78 96 124
79 97 124
76 95 122
74 93 121
77 96 124
76 94 122
79 97 123
79 97 125
80 98 124
77 96 124
78 96 122
78 96 124
76 95 122
77 95 122
77 96 126
77 94 121
76 95 123
76 94 122
76 94 120
74 92 119
77 96 125
80 97 123
76 95 124
79 98 126
79 97 124
80 98 125
76 94 122
78 96 122
77 94 120
78 96 122
79 97 125
79 97 123
79 97 125
78 96 123
77 95 122
75 94 122
76 94 121
78 96 124
79 97 124
78 98 126
78 97 124
78 96 123
75 94 122
75 93 121
77 95 121
74 93 120
78 96 124
81 99 126
77 95 122
76 94 121
78 96 125
80 98 125
77 95 122
80 98 126
76 94 121
78 97 125
76 94 121
76 96 124
77 95 123
77 95 122
78 97 125
78 96 124
77 95 122
76 95 123
76 94 122
77 95 122
77 95 122
78 97 124
80 97 124
78 96 123
79 98 125
75 95 124
78 96 123
78 96 123
77 95 122
78 95 121
79 97 125
79 97 123
79 98 125
81 99 126
77 95 121
78 96 122
78 97 125
80 98 126
78 96 122
77 96 124
76 95 124
75 93 121
79 97 124
78 97 124
76 94 121
76 95 123
77 95 122
79 97 124
80 98 126
77 95 122
78 97 124
77 95 122
78 96 124
77 95 121
77 96 124
78 96 122
76 94 121
79 97 123
75 94 121
74 93 121
76 94 121
77 96 124
78 97 124
75 93 121
74 91 116
74 92 119
77 95 122
77 96 124
79 97 124
78 96 122
76 95 124
78 96 122
78 96 122
76 94 121
81 99 124
76 94 122
79 97 125
78 95 121
75 93 120
76 93 120
79 97 122
75 93 120
75 95 124
77 95 122
77 97 126
77 95 122
77 97 126
77 96 123
75 93 120
77 96 124
77 95 122
75 93 120
79 97 124
78 97 125
79 97 125
74 94 122
77 96 124
76 94 121
77 95 123
75 93 119
78 97 125
79 98 125
76 94 121
76 94 121
79 97 124
79 96 122
78 96 122
77 96 124
78 96 123
76 93 120
78 97 124
79 97 123
76 95 122
79 98 126
77 96 124
75 94 122
79 97 125
77 94 121
80 98 124
76 94 121
77 96 124
79 97 124
77 96 124
76 95 124
78 96 123
76 95 122
78 96 124
76 95 122
76 95 123
80 98 126
76 95 122
78 96 123
78 97 125
77 96 123
77 94 120
78 96 123
77 95 122
77 96 123
75 93 120
76 94 121
78 95 122
77 95 123
75 93 120
77 95 123
77 95 122
75 94 123
78 97 125
76 94 121
76 95 123
76 94 121
80 97 124
79 97 124
77 96 124
79 97 124
79 97 124
75 94 121
77 96 124
78 96 124
74 94 123
74 93 121
78 97 126
76 95 124
78 97 126
77 95 123
78 96 123
79 97 125
79 97 126
78 97 125
81 99 126
76 94 121
79 96 123
78 97 126
80 98 125
77 95 122
77 95 123
77 95 122
78 97 124
78 97 124
74 92 118
79 97 125
76 93 120
77 94 120
77 95 121
77 95 122
79 97 123
78 98 126
77 96 124
76 96 124
77 95 121
77 95 121
77 95 122
78 96 123
75 94 121
79 96 122
76 94 121
76 94 121
79 95 119
74 92 119
77 96 123
77 96 124
78 97 124
75 93 120
80 98 126
81 100 128
78 95 122
77 95 122
78 96 123
77 96 124
78 97 126
76 95 124
76 94 121
79 97 124
78 97 125
77 95 123
73 92 120
79 97 124
77 95 122
79 97 125
77 96 123
77 95 123
78 97 126
77 95 122
75 93 120
79 97 123
76 94 122
79 97 123
74 93 120
76 95 124
77 95 123
77 95 123
75 92 118
77 95 122
77 96 123
76 94 122
75 94 122
77 95 122
76 95 124
78 97 125
77 95 122
77 95 121
76 94 122
77 95 121
75 93 120
79 98 126
77 94 120
79 97 124
75 93 121
79 98 126
75 94 122
77 96 124
79 97 125
77 95 124
78 96 124
77 95 122
77 95 123
78 95 121
78 96 122
77 96 125
78 96 123
77 95 124
79 97 124
79 97 125
77 95 122
73 93 121
78 96 123
79 97 124
79 98 126
75 93 120
78 96 123
78 96 123
75 93 119
77 95 123
75 93 119
78 95 121
79 97 124
76 95 123
77 95 122
75 94 122
75 93 119
76 94 122
77 96 124
81 99 127
80 98 126
77 96 124
78 97 125
79 97 124
77 95 122
76 95 122
80 98 126
79 96 123
76 95 124
78 96 123
79 97 124
77 95 122
77 95 123
75 94 122
78 96 124
76 95 123
78 96 122
73 91 118
79 97 124
78 97 124
80 98 125
78 96 124
77 95 122
78 96 123
78 96 122
77 96 125
77 95 122
76 93 119
77 95 122
78 96 123
77 94 120
75 94 121
75 94 121
78 97 124
79 97 123
76 94 122
79 97 125
77 95 123
78 95 122
76 94 122
78 96 124
78 97 126
76 95 123
73 91 118
76 94 122
78 96 124
77 95 122
73 90 117
77 95 123
75 94 122
78 96 122
78 96 125
78 97 125
77 96 123
78 96 123
77 95 123
75 92 119
75 93 121
75 93 119
75 93 121
75 93 120
77 95 121
79 98 126
76 94 122
77 95 121
78 97 124
78 95 122
80 98 125
76 94 121
78 97 125
79 97 124
75 93 120
74 93 121
80 99 127
80 97 124
81 98 124
78 96 122
76 94 120
77 96 124
77 95 123
77 94 120
77 96 123
80 98 124
78 96 123
76 94 121
75 93 121
78 97 125
75 94 122
77 95 122
75 94 122
77 94 119
75 93 121
76 94 121
79 98 126
79 97 124
77 96 124
77 96 124
78 96 122
77 96 125
77 96 124
75 94 122
78 96 123
78 96 124
76 95 123
77 95 122
75 93 120
77 95 121
77 95 122
77 95 122
79 97 125
77 96 124
79 98 127
79 97 124
77 94 120
75 93 120
79 98 126
75 94 123
80 97 123
78 97 125
77 95 122
77 95 123
78 97 126
75 93 121
76 94 121
78 96 123
79 96 122
76 93 119
77 95 123
79 98 126
76 94 122
75 94 122
77 96 124
78 96 124
75 93 120
79 97 124
76 95 124
74 92 118
76 94 121
79 96 123
77 94 119
77 94 120
77 95 123
77 96 124
74 92 119
78 95 122
78 97 125
79 97 124
79 97 125
77 96 124
77 95 122
77 94 121
79 97 124
78 97 125
75 94 122
77 95 123
77 96 124
81 99 126
77 96 123
74 93 120
77 96 123
79 97 125
76 95 123
79 98 126
74 93 120
79 98 125
77 96 124
76 95 123
78 97 125
76 95 122
76 95 122
77 94 121
77 95 124
77 95 123
75 93 120
74 93 122
75 93 120
78 97 124
80 97 123
79 97 124
76 96 125
79 97 124
73 91 118
75 93 120
73 91 118
78 96 123
76 94 120
78 97 124
78 96 124
76 94 122
77 95 123
76 95 123
76 93 119
80 97 124
79 97 123
77 95 122
76 94 122
76 94 121
77 95 122
75 94 122
76 95 123
81 98 124
77 95 123
79 97 124
79 97 124
78 97 126
79 98 125
78 98 126
79 97 125
76 94 120
76 94 121
78 96 123
74 92 119
78 96 123
77 96 124
76 95 123
78 96 123
80 98 126
77 94 121
74 92 120
78 96 124
78 97 125
80 98 126
78 96 123
78 96 123
74 92 119
77 95 121
79 97 124
78 97 124
74 94 122
77 96 125
77 95 123
77 96 124
79 97 124
77 95 122
77 95 122
77 94 121
77 95 121
72 91 120
77 95 122
74 92 120
77 95 124
77 93 119
76 94 122
77 95 122
76 95 123
78 97 125
75 95 124
78 97 125
79 98 126
75 93 120
77 95 122
76 94 121
77 96 124
78 97 124
80 98 125
78 96 124
76 95 123
79 97 124
75 94 121
76 94 122
77 95 122
75 95 123
78 97 126
77 95 122
77 95 122
75 93 120
77 95 123
77 95 123
76 94 122
84 100 126
79 97 125
77 96 124
76 95 124
78 96 123
78 97 125
77 96 123
77 96 124
77 95 122
76 94 121
79 96 122
79 97 123
79 97 125
80 99 127
74 92 119
75 93 120
78 96 123
76 94 122
76 95 123
76 93 119
77 96 123
75 94 121
78 96 124
78 97 125
76 94 122
80 98 125
78 95 122
78 96 123
74 92 120
75 92 119
77 95 121
75 94 123
77 95 121
80 98 125
76 94 122
78 96 122
76 95 123
79 97 124
78 97 125
76 95 123
78 96 124
78 96 123
75 94 121
75 94 122
78 96 123
78 96 123
78 96 124
77 95 122
80 98 125
79 97 124
77 95 123
78 96 123
76 95 122
74 91 118
79 96 121
78 97 124
76 95 122
78 97 124
75 94 123
77 96 125
78 97 125
77 95 121
77 96 123
77 94 120
75 93 120
79 97 125
75 92 117
76 93 120
73 92 119
77 95 123
77 96 123
78 97 124
76 95 124
78 96 123
76 95 124
75 92 119
77 95 124
76 95 122
78 96 123
78 96 122
77 95 122
79 97 125
77 95 122
78 96 123
81 99 126
78 96 124
78 96 123
79 96 122
78 96 124
74 93 120
80 99 126
77 94 121
77 95 124
78 95 122
79 98 126
78 97 125
78 97 125
76 94 121
79 98 126
78 96 123
77 96 123
78 97 126
75 94 122
78 96 123
78 95 122
78 96 123
78 96 124
78 96 123
80 98 126
76 95 123
77 96 125
75 94 123
78 96 125
77 95 123
79 97 125
79 97 124
77 94 119
79 97 124
79 97 124
79 97 124
77 95 123
77 95 122
77 96 124
77 95 123
79 97 125
74 93 120
76 94 120
79 98 125
78 96 124
76 95 122
79 97 123
78 96 123
78 95 121
77 96 125
75 93 120
76 94 122
80 97 123
77 96 124
78 96 123
75 94 122
78 96 123
78 95 122
77 96 124
80 98 126
77 94 121
76 94 121
78 97 125
78 97 126
80 98 124
77 94 120
79 97 124
78 96 122
76 93 118
75 94 123
78 96 124
79 97 124
77 96 125
77 95 122
78 95 121
77 94 120
78 96 122
76 95 122
79 97 123
78 96 122
75 94 122
76 93 120
78 96 124
78 96 123
77 95 122
75 93 119
76 94 121
76 95 122
77 95 122
79 97 126
78 96 123
76 94 121
75 93 120
73 90 116
79 97 126
77 95 122
77 95 123
79 97 124
75 93 119
80 98 126
77 95 123
76 93 120
79 96 122
80 98 126
79 97 124
77 95 122
77 95 122
79 97 124
77 96 124
80 97 123
77 96 124
76 95 123
75 94 122
77 94 120
78 97 124
73 90 115
76 95 122
78 96 123
78 97 125
79 97 125
79 98 126
79 97 124
76 94 121
75 93 121
74 92 119
78 97 125
77 94 121
79 98 126
80 98 125
77 95 123
77 95 122
76 94 122
76 94 121
77 96 123
76 94 121
78 95 120
79 97 123
79 97 124
77 96 123
77 94 119
78 97 125
77 96 125
78 97 124
77 96 124
77 95 123
78 97 125
77 96 124
75 94 122
77 95 122
76 95 123
77 95 123
78 97 125
78 96 123
78 96 122
75 94 121
78 96 123
78 96 124
78 96 123
78 96 124
77 95 122
77 96 123
78 97 125
79 97 124
79 96 121
76 95 124
79 97 124
78 96 123
77 95 122
76 95 123
77 96 125
74 91 117
78 96 123
77 95 122
76 95 124
75 94 122
77 95 122
79 97 124
77 95 122
75 94 121
76 95 124
77 95 122
80 98 125
78 97 125
75 93 120
77 96 123
77 95 122
78 96 123
77 94 121
77 96 124
79 97 125
75 93 121
75 94 121
76 94 121
77 95 123
78 95 121
81 97 122
77 96 124
79 97 125
79 96 122
78 96 123
77 95 122
77 96 123
75 93 120
77 95 122
77 96 124
77 95 122
76 95 123
76 94 121
74 93 120
79 98 125
78 97 124
77 96 123
77 95 123
78 97 124
75 94 122
79 97 124
81 98 124
77 96 124
79 97 124
76 94 121
76 95 123
78 97 124
75 93 120
78 96 122
78 95 122
77 94 121
78 96 124
79 96 122
78 96 123
78 96 122
75 92 117
79 98 127
78 96 124
78 96 124
77 95 123
77 96 125
80 97 123
75 92 119
75 94 122
76 95 122
76 94 120
78 96 123
78 96 122
76 94 120
75 93 121
76 94 120
76 95 122
80 98 126
81 98 123
79 97 123
77 95 123
78 95 120
78 95 122
75 93 121
76 95 123
77 95 123
80 99 127
77 95 122
78 97 124
77 96 124
78 97 124
76 95 122
79 96 123
78 94 120
76 94 121
76 95 124
78 96 122
78 96 124
78 96 123
78 96 124
78 96 124
76 95 123
76 94 121
79 97 124
77 95 122
77 95 122
77 96 123
80 99 127
77 95 122
76 94 121
76 94 122
76 94 121
78 96 123
80 98 126
76 96 124
78 96 124
78 97 124
76 94 120
78 96 123
78 96 124
74 91 117
77 95 123
79 97 125
79 97 126
77 96 124
76 96 124
78 96 124
81 99 125
76 96 125
78 96 124
78 95 121
79 97 124
75 93 118
79 97 125
77 95 123
77 94 120
76 95 122
77 95 122
81 99 126
78 96 123
80 98 125
77 95 122
75 92 118
77 95 122
77 95 122
78 96 123
77 96 124
78 97 126
78 96 124
77 95 122
79 97 124
77 96 123
75 94 123
79 96 123
76 94 120
76 95 123
78 97 124
77 95 123
76 95 123
75 93 119
76 95 123
77 95 122
78 96 122
79 97 125
76 95 123
78 96 124
77 95 121
76 94 121
77 96 124
78 96 124
79 96 123
77 95 121
75 94 122
78 96 122
76 95 123
79 97 124
79 97 124
78 96 124
77 96 123
75 93 120
77 95 122
76 95 124
79 97 125
79 96 122
81 98 123
79 97 123
79 96 123
78 96 123
77 96 124
79 97 124
76 95 123
80 97 124
78 95 122
79 97 124
76 95 123
77 95 123
79 98 125
78 97 124
77 96 123
78 97 125
77 95 123
79 97 125
79 97 124
81 99 125
76 94 120
77 95 122
76 94 121
76 94 121
76 95 124
75 94 122
73 92 120
77 95 123
78 96 124
75 92 118
76 94 121
77 95 122
80 98 125
78 96 124
78 96 123
74 92 119
75 94 122
81 98 125
78 96 124
79 97 123
79 97 124
76 95 123
79 98 126
77 96 125
78 96 123
78 97 125
78 96 124
78 96 123
78 96 124
77 96 125
80 98 125
80 99 128
79 97 124
77 96 123
78 97 125
79 97 124
80 98 125
78 96 124
78 97 126
78 96 123
79 97 124
78 97 125
79 97 125
77 96 124
79 97 124
78 95 122
75 94 121
79 97 125
77 95 123
76 94 121
77 95 123
77 96 123
76 94 121
79 97 126
80 98 126
77 94 120
77 95 124
78 96 122
79 98 126
78 97 124
80 98 125
81 98 125
76 94 123
80 98 125
78 96 124
77 95 122
78 97 125
78 97 125
78 95 121
78 96 124
77 95 123
77 96 124
78 97 125
77 96 124
80 98 124
80 99 127
78 95 121
78 96 123
76 95 124
73 91 119
78 96 124
77 96 124
80 98 125
76 95 123
79 97 124
75 93 121
78 97 125
76 94 122
80 98 124
81 99 126
77 95 122
80 98 125
79 97 125
76 93 119
76 95 123
77 95 122
76 95 124
77 96 124
76 93 119
80 98 124
80 98 125
77 96 123
76 95 124
74 92 118
78 95 121
77 94 121
76 95 122
77 95 122
77 96 125
76 96 124
75 93 120
77 95 122
79 97 125
79 97 125
79 97 124
76 93 120
77 95 122
79 97 124
79 98 127
78 97 125
77 95 123
78 96 123
77 96 123
78 96 123
79 98 127
77 96 124
76 94 121
78 96 122
77 96 123
77 96 124
77 94 121
78 96 123
78 96 124
75 94 122
75 94 121
78 96 123
80 99 127
78 96 123
78 96 124
76 94 121
78 96 123
77 95 124
77 95 123
75 93 119
78 96 123
79 97 125
77 95 123
79 97 124
78 96 123
77 96 124
77 95 121
76 94 120
79 97 125
80 99 126
78 97 124
77 95 123
79 98 126
76 94 121
76 94 121
77 95 122
75 94 122
79 97 123
78 96 124
79 97 124
79 97 124
77 95 121
78 96 125
74 93 121
77 96 124
79 97 123
78 95 122
79 96 122
77 96 124
77 95 122
79 98 126
76 95 123
79 97 125
75 93 119
77 95 122
80 98 125
78 96 122
78 97 125
76 94 121
77 96 124
77 96 126
77 96 123
78 96 124
78 96 124
76 94 121
78 96 123
80 98 125
78 96 123
76 95 123
79 97 124
75 94 121
74 92 119
78 96 122
78 95 121
77 95 123
77 97 126
77 96 123
78 96 123
79 98 125
78 97 125
78 97 124
76 94 121
80 98 125
80 99 126
75 93 120
76 94 121
77 95 122
77 96 124
78 96 122
78 97 124
78 95 122
75 93 122
76 95 123
77 96 124
77 95 121
76 95 123
79 97 124
76 94 120
77 95 124
77 96 124
77 94 120
77 94 121
77 94 120
76 94 121
77 96 124
79 98 125
73 93 122
77 95 121
79 97 124
78 95 121
78 95 121
76 96 125
78 96 124
78 96 121
78 96 122
77 95 123
76 95 123
79 97 123
77 95 124
77 95 122
79 98 125
76 94 121
77 96 124
76 94 121
78 96 124
79 98 126
80 98 126
78 96 124
75 93 120
77 96 123
75 93 120
78 96 124
73 92 120
77 96 125
77 95 122
77 96 125
77 94 119
78 96 124
79 97 124
78 96 124
77 96 125
77 94 121
75 93 120
76 94 121
79 98 126
80 99 127
76 94 121
76 95 122
77 95 122
76 94 121
78 96 123
79 98 126
75 94 122
77 95 121
76 94 119
76 95 122
78 97 124
77 95 124
73 91 117
80 98 124
76 94 121
76 95 124
79 97 125
78 97 124
78 96 124
76 94 122
77 96 123
78 96 124
76 95 123
78 96 124
77 95 122
79 98 127
75 94 121
73 91 119
78 95 122
80 98 126
78 96 123
78 96 124
77 94 121
77 95 121
77 96 124
77 95 122
79 97 125
76 94 122
79 97 125
78 97 125
77 95 122
76 95 122
78 96 122
76 93 120
80 98 126
77 96 124
77 95 124
76 94 121
79 97 124
77 96 125
76 94 122
78 97 126
74 93 121
76 94 121
79 97 124
76 94 121
78 97 126
77 95 122
76 94 122
78 97 125
76 95 124
78 96 124
79 98 126
79 97 126
79 97 125
77 95 121
77 96 125
79 97 124
81 98 124
77 95 122
78 96 122
75 93 119
77 96 124
79 97 123
76 94 122
76 94 122
78 97 125
77 94 120
77 96 124
75 93 120
76 94 122
81 99 126
78 96 123
75 94 122
78 97 126
78 96 122
77 96 124
78 96 124
78 96 123
73 90 116
80 98 126
77 95 122
76 95 123
78 96 122
78 96 123
78 96 123
76 94 122
77 96 123
80 97 123
77 95 121
78 96 123
74 93 120
79 98 127
79 97 125
76 94 122
76 95 124
77 95 124
78 97 125
77 94 121
75 94 122
74 94 124
77 95 123
78 96 124
76 94 121
76 94 122
76 94 120
77 96 124
78 97 125
77 95 123
77 96 124
78 96 123
79 97 124
79 97 125
76 94 121
78 97 125
79 97 125
78 96 124
76 95 122
77 95 123
77 96 125
78 97 125
76 94 122
77 94 120
78 96 124
76 95 122
77 95 122
77 95 122
78 96 123
78 97 125
81 98 125
77 94 119
77 95 123
77 95 121
78 96 125
77 95 123
78 97 125
78 97 125
78 97 125
77 95 122
78 96 125
75 92 119
76 95 122
77 95 122
78 96 125
76 95 122
76 94 122
79 97 123
78 97 125
77 96 123
77 95 123
77 95 122
80 98 124
78 97 125
77 96 124
77 95 122
77 95 123
78 96 123
76 93 119
78 96 122
79 97 126
77 95 121
76 95 122
77 95 122
78 97 124
78 96 123
77 96 123
76 95 122
78 95 122
78 96 122
79 97 124
77 95 122
77 96 123
77 96 125
79 97 124
78 96 123
78 97 124
79 96 122
80 98 125
74 92 119
76 95 123
79 97 124
78 97 125
79 97 125
76 95 122
79 98 126
79 97 124
76 94 120
79 98 126
77 94 120
78 97 126
76 95 124
79 98 126
77 96 123
77 96 124
79 98 126
76 94 121
77 96 124
78 97 125
78 96 123
77 95 123
77 95 123
75 93 120
78 96 124
80 98 126
78 95 122
78 95 122
79 97 124
77 95 123
78 96 124
76 94 121
77 95 122
77 95 123
78 96 123
76 96 125
77 96 123
77 95 121
77 96 124
78 97 124
77 95 123
78 97 125
75 93 120
80 97 123
79 97 125
77 96 124
78 96 122
78 96 124
78 96 123
76 95 123
80 97 123
79 97 124
76 94 121
79 97 124
78 96 123
76 95 122
74 93 121
74 92 120
79 97 125
77 96 123
76 95 124
79 98 126
79 97 124
78 96 122
78 96 124
76 95 123
77 96 124
78 96 123
77 96 123
77 95 122
80 98 125
76 94 120
78 95 121
79 97 125
77 94 120
81 99 125
78 96 123
74 92 119
76 94 122
75 94 122
78 95 121
77 96 124
75 93 120
75 94 121
77 96 123
79 98 126
77 96 124
80 98 124
76 95 123
77 94 120
77 95 122
77 94 120
76 95 123
77 94 120
77 96 124
79 98 126
78 97 126
79 96 123
77 96 125
76 95 122
75 93 121
79 98 125
78 96 123
75 93 120
76 95 122
74 92 119
77 96 123
78 96 124
77 96 125
77 94 121
79 97 124
79 96 123
79 96 122
76 94 122
77 95 121
74 93 120
78 95 122
78 96 124
77 96 123
78 95 122
79 96 121
76 95 123
77 94 121
78 97 126
79 97 124
77 94 120
76 93 119
78 97 125
78 97 125
76 95 124
78 97 124
76 94 122
76 95 123
76 95 124
80 98 126
77 95 122
78 96 123
76 93 119
76 95 123
75 92 119
76 95 124
80 97 124
78 95 121
79 98 126
78 97 126
77 96 125
80 98 126
77 94 121
78 96 123
78 95 121
77 96 125
76 95 123
77 95 123
77 96 125
79 97 124
76 94 121
75 94 121
79 96 121
79 97 123
78 97 125
76 95 123
80 98 125
77 97 126
75 94 121
75 94 121
82 99 126
78 96 122
77 96 123
77 97 126
78 96 123
73 91 119
81 99 125
78 98 127
77 96 124
74 92 118
74 92 119
76 94 121
73 92 119
77 96 123
80 98 126
77 95 121
76 95 123
76 95 123
76 95 124
78 96 124
80 97 124
73 91 118
75 94 122
75 93 119
77 95 123
77 96 125
80 98 125
77 95 121
78 97 125
79 98 126
77 95 122
80 98 125
77 96 123
78 96 124
76 94 121
76 94 121
77 96 123
77 96 124
77 94 120
77 95 122
76 94 122
77 94 121
76 94 122
77 95 122
76 94 122
75 93 121
78 96 123
79 97 123
78 96 123
79 96 123
80 98 126
76 95 123
78 96 124
76 95 124
77 95 123
79 97 124
74 92 120
77 97 126
76 95 123
78 96 123
78 96 124
77 95 122
75 93 119
78 96 123
77 95 122
77 95 121
78 97 125
77 95 122
78 96 124
76 94 121
78 96 124
77 95 122
80 98 125
78 97 126
77 96 124
79 97 124
79 96 123
77 94 119
77 96 124
77 95 122
79 97 125
76 95 125
77 96 124
76 95 123
77 96 124
76 93 120
76 94 122
77 95 123
78 95 122
80 98 125
79 97 125
78 97 126
77 96 124
77 96 123
76 93 119
77 95 121
77 96 123
76 94 120
80 98 124
76 94 120
76 93 120
77 95 123
77 96 124
77 95 124
79 96 123
78 96 124
77 94 120
80 98 124
79 97 124
79 97 125
78 97 125
75 93 119
77 95 123
78 97 125
78 96 123
77 96 123
75 93 121
76 93 118
78 96 122
77 96 124
79 97 125
78 97 125
76 94 121
79 97 124
76 94 121
79 97 125
78 95 121
77 95 123
74 93 122
76 93 118
80 97 124
79 97 124
77 95 122
78 97 124
78 96 125
77 97 125
79 97 123
78 96 123
78 96 124
76 94 121
79 97 124
75 93 120
73 92 120
76 93 120
76 95 122
78 96 123
78 96 123
77 94 120
78 97 125
77 95 123
78 97 124
76 94 121
77 95 122
75 93 120
78 96 122
77 94 120
78 97 124
78 97 124
78 97 125
78 97 124
75 94 123
76 93 119
80 98 126
77 96 123
79 98 126
78 96 123
80 97 124
75 93 120
75 94 122
77 95 122
76 94 121
75 93 120
76 95 122
74 92 119
78 97 125
79 98 125
79 97 124
77 95 122
78 97 126
78 96 124
77 96 123
76 94 121
76 96 124
79 98 126
78 97 125
81 99 127
79 97 126
77 95 121
75 94 123
78 97 124
76 95 123
76 93 119
78 96 123
78 97 125
79 98 126
77 95 122
77 95 121
75 94 123
79 97 124
78 97 124
79 98 126
77 96 124
76 95 122
78 96 124
76 94 122
81 98 125
78 96 123
77 96 124
79 97 124
80 99 127
76 95 124
79 97 124
78 96 124
76 95 122
79 96 122
80 98 124
79 96 122
79 97 124
78 96 123
78 97 125
78 96 124
80 98 125
76 94 122
80 98 125
77 96 125
75 94 121
76 94 122
79 97 124
77 96 124
78 95 122
76 95 122
76 93 120
77 95 122
80 99 126
78 96 124
79 98 126
78 96 122
80 98 125
78 96 124
75 94 121
76 95 123
77 96 124
74 93 120
77 95 121
80 98 124
79 98 125
77 95 122
77 95 122
78 96 123
75 95 125
80 98 125
78 96 124
76 94 122
78 97 125
78 95 121
77 95 123
76 94 120
78 97 125
79 97 123
77 95 122
76 94 121
78 96 123
80 98 127
77 95 123
81 99 126
79 97 124
79 98 125
81 99 125
79 97 123
77 95 122
77 96 125
78 96 124
78 97 125
78 95 122
77 96 123
78 96 123
76 94 121
81 99 126
78 96 124
81 99 126
79 97 124
77 95 122
77 95 123
79 97 125
76 95 123
76 96 125
77 95 122
77 95 123
78 96 124
75 94 122
79 96 123
77 95 123
77 96 124
76 94 122
78 97 125
76 93 118
75 94 121
76 95 123
75 94 121
78 96 124
79 97 125
74 92 120
76 95 122
74 91 117
79 98 126
79 97 123
80 99 127
77 95 123
80 98 126
78 96 123
76 94 121
77 96 124
79 97 124
79 96 123
75 93 121
74 93 121
80 98 125
77 95 122
78 97 124
76 94 121
75 93 121
77 96 125
79 97 124
80 98 125
76 96 124
79 98 127
78 97 125
76 95 123
75 93 120
76 95 123
77 94 121
78 97 125
78 96 123
81 99 125
77 95 122
76 94 121
76 95 124
77 94 120
76 94 121
79 97 125
80 97 123
73 91 119
78 96 124
77 96 124
76 94 122
78 97 124
79 97 123
76 95 122
78 95 122
77 96 125
77 95 123
77 95 123
74 92 118
77 96 124
75 93 120
77 95 123
80 98 125
77 94 120
77 96 124
77 95 122
79 97 123
76 95 122
78 96 122
75 94 123
81 98 125
78 96 123
77 96 124
79 98 125
80 98 125
76 94 122
77 94 120
76 94 120
76 94 122
77 96 124
79 97 124
78 96 124
78 96 124
78 96 123
75 94 123
76 94 122
74 92 120
77 96 123
78 96 124
77 95 122
79 97 124
75 94 122
78 96 123
78 97 125
74 92 118
80 98 124
81 99 127
75 93 121
77 95 122
79 97 125
75 93 120
80 98 125
78 96 124
78 96 123
75 93 121
78 95 121
80 97 124
77 96 123
78 97 125
80 98 125
79 97 123
77 95 121
78 96 124
75 95 124
77 95 122
77 95 122
79 98 125
78 97 125
81 99 126
77 96 125
79 98 125
78 96 123
75 95 124
77 95 123
76 94 121
76 93 119
77 96 124
79 97 123
77 96 123
79 96 123
77 95 122
77 95 123
74 92 119
77 95 122
77 97 126
76 95 122
79 97 124
79 98 126
77 94 120
79 97 125
79 96 123
75 93 120
76 95 122
78 96 122
77 95 121
76 94 121
78 97 125
80 99 127
78 95 121
78 95 122
74 91 116
78 96 122
77 96 124
79 97 124
78 95 121
76 94 121
77 95 123
76 94 121
78 96 124
76 95 123
75 94 123
75 94 122
76 95 123
77 96 123
79 97 124
77 95 123
77 94 120
76 94 121
78 97 124
80 99 126
77 96 123
76 94 121
75 94 122
78 97 125
79 97 125
77 96 125
75 93 119
74 94 123
73 91 119
77 96 123
75 92 118
74 93 120
79 98 126
76 94 121
78 95 122
77 95 121
79 97 124
77 95 122
78 96 124
76 95 124
74 92 119
76 94 122
78 95 120
76 94 120
77 95 120
78 96 123
79 97 124
78 97 124
77 95 123
79 97 124
76 95 123
76 93 119
79 96 122
76 95 123
76 95 122
76 95 123
74 92 120
76 93 120
77 95 121
76 94 120
77 96 124
76 94 120
78 96 124
78 96 123
79 97 125
77 95 123
76 94 121
79 97 123
76 94 121
76 96 126
76 93 118
78 97 124
76 95 123
78 96 122
78 96 123
77 95 122
77 94 120
77 95 122
80 97 123
77 95 121
78 98 127
79 97 126
78 96 123
77 95 123
77 95 122
78 97 126
77 96 124
74 92 120
77 95 122
79 97 124
79 97 125
79 96 123
74 93 120
80 96 122
75 93 120
76 93 120
78 96 124
78 97 126
76 95 123
77 97 125
77 95 123
79 97 124
77 94 119
79 98 126
76 94 121
78 97 126
80 98 125
77 94 121
78 97 124
78 96 123
77 96 123
76 95 123
77 96 124
78 96 122
80 97 124
76 93 119
75 94 121
77 95 123
76 95 123
77 95 122
75 93 120
78 96 122
77 96 124
76 95 122
76 95 123
76 94 121
79 98 125
79 97 125
77 94 121
78 96 123
78 97 125
79 96 122
77 96 123
79 97 124
79 97 123
76 94 122
78 96 124
79 98 126
78 96 123
76 94 122
80 97 124
80 98 124
77 96 123
79 98 126
76 94 121
76 94 121
79 96 123
75 93 120
80 97 124
78 97 125
75 93 121
77 95 122
78 97 125
77 95 123
79 97 125
77 95 123
80 98 125
79 97 124
75 94 122
79 98 125
77 95 123
79 97 123
76 94 120
78 97 126
77 95 122
78 96 123
80 97 123
77 95 120
77 95 123
77 95 122
79 98 126
79 98 125
78 97 125
77 96 124
77 94 121
76 94 121
75 94 122
78 97 125
79 97 124
79 97 124
78 97 124
78 97 125
76 95 123
77 96 124
77 95 122
74 91 118
77 95 122
78 97 125
80 98 125
77 95 123
77 96 124
77 96 123
77 95 123
77 95 121
80 98 124
77 95 123
79 97 124
77 94 121
80 98 126
78 97 124
80 98 125
79 98 126
77 96 125
78 96 122
79 98 126
79 96 121
79 97 124
78 96 124
77 94 120
78 96 123
79 98 126
78 96 124
76 94 121
77 96 125
79 97 124
74 92 120
77 95 122
80 99 126
77 95 121
77 95 121
77 96 124
76 95 122
75 93 120
77 96 124
78 97 125
78 97 125
77 96 125
77 96 124
74 92 120
78 96 124
80 98 124
80 99 126
76 95 122
79 97 125
77 96 123
80 98 126
76 95 123
76 95 122
79 98 125
78 95 121
76 95 123
79 98 126
79 96 123
78 94 118
79 98 127
78 96 123
78 97 125
78 96 124
79 97 124
78 96 123
77 95 122
78 97 126
75 94 121
77 96 124
77 95 120
78 96 124
78 96 123
78 96 123
78 97 124
76 94 123
77 95 122
80 98 126
81 99 126
75 93 121
78 96 124
79 97 123
76 94 121
78 96 123
77 95 122
75 94 121
79 97 123
77 96 125
78 96 124
78 96 122
78 97 125
77 96 124
77 95 123
78 97 125
76 95 122
76 94 122
78 96 123
79 96 122
78 96 124
76 95 123
79 97 125
78 96 124
77 95 121
78 96 123
78 95 121
79 97 124
77 95 121
78 97 124
79 97 124
77 96 123
78 96 124
76 94 120
76 94 121
77 95 122
77 95 123
76 94 121
76 95 123
79 96 123
79 97 125
78 96 122
78 96 123
79 97 123
77 95 122
80 99 126
78 95 121
76 95 122
78 96 124
77 95 122
80 98 124
76 94 120
79 98 126
78 96 123
77 96 124
77 95 123
78 97 125
78 96 124
77 95 121
78 95 122
77 96 125
76 95 124
78 96 124
77 95 122
78 96 123
76 94 121
77 95 123
76 94 121
79 97 124
76 95 124
78 96 124
77 95 123
75 93 121
78 96 123
81 99 127
77 94 121
77 95 124
76 95 124
77 95 122
76 95 122
77 95 121
76 95 124
77 96 123
77 95 122
74 93 121
77 95 121
76 95 123
79 97 124
78 96 122
77 96 124
78 96 123
76 94 122
79 97 125
78 97 124
76 94 121
78 97 124
77 95 122
76 93 119
78 96 123
78 96 123
77 96 124
78 96 124
76 94 121
79 97 124
78 96 123
78 96 122
77 96 124
77 95 122
78 98 127
79 98 126
77 94 120
77 95 122
77 95 123
77 95 122
76 94 121
77 95 123
76 94 122
79 96 123
77 96 125
77 95 121
78 96 122
77 94 121
80 99 127
77 95 123
78 95 122
77 95 123
78 96 123
77 96 124
79 97 125
76 95 123
78 96 123
78 96 123
75 93 119
75 94 122
77 96 125
77 95 122
74 92 120
78 96 122
77 96 123
75 93 119
76 94 120
76 94 121
76 94 121
78 95 121
79 97 124
77 95 123
78 96 125
77 95 122
78 96 124
77 95 122
79 96 123
77 95 122
79 97 125
77 96 124
76 94 120
77 95 123
79 96 123
75 93 121
76 94 120
76 94 121
76 94 121
78 96 124
77 96 124
77 96 124
79 97 125
80 98 125
77 95 123
77 95 122
77 95 122
75 94 122
79 97 124
77 96 123
77 95 121
79 97 124
79 97 125
82 99 126
75 94 123
77 95 123
75 93 121
76 93 118
78 96 123
76 94 121
77 95 122
77 96 124
76 94 121
78 96 123
77 96 123
75 94 121
76 96 124
80 98 124
77 96 125
77 96 124
78 96 123
77 96 126
78 96 123
77 95 123
79 98 126
77 95 123
77 95 122
79 96 122
77 95 123
78 97 125
77 96 124
75 93 120
78 97 125
80 97 123
79 98 126
77 96 123
76 94 123
76 95 123
77 96 123
77 96 123
76 94 122
76 95 123
77 95 121
78 97 126
77 95 122
76 95 124
79 97 125
76 93 120
78 95 121
76 95 122
73 91 118
77 95 121
78 96 122
77 96 124
76 94 122
77 95 122
79 97 125
77 95 122
74 92 120
78 96 124
75 94 121
77 94 120
78 96 123
77 95 123
76 94 121
75 94 122
77 94 121
79 97 125
79 97 124
79 96 122
77 95 121
77 96 124
76 93 120
77 94 120
76 94 120
77 96 124
77 94 121
78 96 124
80 98 126
77 95 124
79 98 126
74 92 120
77 95 122
79 97 125
76 94 121
79 97 122
76 93 119
75 93 120
77 95 122
80 97 124
77 95 123
78 96 123
75 92 119
75 92 119
75 93 120
76 95 124
78 97 124
80 97 124
76 94 121
78 97 124
76 96 125
76 95 123
82 100 127
79 98 125
77 95 122
78 97 125
80 98 125
78 97 125
78 97 124
77 95 122
78 97 125
78 96 123
75 94 122
76 94 121
76 95 123
77 96 125
77 94 119
77 96 124
77 96 124
77 94 121
78 96 122
76 95 122
80 98 126
77 96 125
79 97 125
79 98 125
78 97 125
76 95 123
78 96 123
78 97 124
78 97 126
73 91 118
79 97 125
75 93 121
74 93 122
76 95 123
80 98 126
77 96 123
79 97 123
81 99 126
78 97 124
79 98 125
80 97 123
78 95 121
76 94 121
77 96 123
80 97 124
76 95 124
80 98 125
78 97 126
78 96 123
78 97 126
79 97 123
78 96 124
77 96 124
78 95 120
78 97 125
78 97 125
78 96 123
77 95 123
75 94 121
77 95 122
76 94 122
78 96 123
80 99 126
74 93 120
74 91 118
77 95 122
77 96 124
77 95 122
76 94 122
76 94 121
77 96 124
76 95 123
82 99 124
80 97 123
78 97 124
77 96 123
76 94 121
79 97 124
76 94 121
75 94 122
77 96 123
79 97 124
75 93 119
77 95 122
78 97 125
79 97 125
79 97 124
76 96 125
78 97 125
78 96 123
76 96 125
81 99 126
77 95 124
77 96 125
77 95 122
76 93 119
78 96 124
77 96 125
77 95 122
79 97 124
77 96 124
79 97 125
78 95 121
76 95 122
80 98 125
79 97 125
76 95 123
79 97 125
77 96 124
75 94 121
77 96 125
77 95 124
79 97 125
79 97 123
77 95 122
78 96 123
76 94 122
78 96 123
76 95 124
77 95 122
77 95 122
77 95 122
79 97 123
80 98 125
78 96 123
78 96 124
76 94 121
80 99 127
77 95 121
77 96 123
78 96 122
77 96 124
74 94 122
76 94 120
76 94 121
80 97 123
78 96 123
76 94 121
78 96 124
77 95 122
73 92 119
79 97 125
74 93 122
77 95 122
78 97 124
77 95 123
76 94 121
78 96 123
77 97 126
77 95 122
79 97 124
78 96 124
77 95 123
77 95 122
76 95 123
77 94 121
79 96 122
80 98 126
79 97 126
78 96 123
79 98 127
83 100 126
76 94 122
78 96 124
77 94 121
77 95 122
78 97 125
76 96 125
77 95 122
76 94 122
79 98 127
79 98 126
79 97 125
78 96 123
76 94 121
76 94 121
76 95 123
76 95 124
77 94 121
78 96 124
79 97 124
75 93 119
78 96 124
78 96 124
78 98 127
78 96 123
78 97 125
77 94 120
78 96 123
79 97 125
77 96 124
79 96 123
78 96 122
76 94 122
79 97 124
77 95 123
78 96 122
76 94 121
77 96 123
76 95 123
78 96 124
78 95 122
79 97 125
79 98 126
72 91 119
78 96 123
76 94 122
75 93 120
80 98 125
77 96 123
77 97 126
77 95 123
78 96 124
78 97 125
76 94 121
78 96 122
77 95 122
74 92 119
79 96 122
77 95 123
81 98 124
80 98 126
79 97 124
76 94 120
81 99 125
77 96 124
77 96 125
79 98 125
74 93 121
77 95 121
77 96 124
79 97 123
77 95 122
78 97 125
77 96 123
79 98 125
78 96 123
76 93 119
76 96 124
78 97 124
76 95 124
75 93 120
80 97 124
80 97 124
79 97 124
76 95 123
75 94 123
77 95 122
77 96 123
78 97 125
76 95 124
77 96 124
77 95 123
76 95 123
78 96 123
76 94 122
78 96 124
76 95 125
75 94 122
80 98 125
75 93 120
78 96 124
79 96 123
76 95 124
78 96 123
77 95 123
77 95 122
79 97 125
79 96 123
80 98 125
76 94 121
77 96 123
77 95 123
74 92 118
75 94 122
75 93 120
76 94 121
76 92 116
77 96 124
78 96 124
77 95 123
76 95 123
79 97 126
78 95 122
76 94 120
79 96 123
76 95 123
76 94 121
77 96 123
75 94 123
79 97 123
79 97 124
77 94 121
79 97 124
76 95 122
79 97 125
75 93 121
76 95 123
75 92 118
76 94 122
74 93 120
75 93 121
77 95 122
78 96 124
80 97 124
78 97 125
77 95 123
79 97 125
78 96 123
74 93 121
76 93 120
77 95 122
76 94 121
77 95 121
78 96 122
78 96 124
79 97 124
77 96 124
77 96 124
79 96 123
75 94 122
75 94 122
77 94 120
76 94 122
79 97 124
77 95 123
76 94 120
78 96 123
79 96 123
78 95 122
79 96 122
77 94 119
77 95 123
79 97 124
79 98 126
77 95 123
76 94 122
77 96 124
78 96 123
79 97 125
76 94 123
77 95 122
77 95 123
77 95 123
77 96 125
76 95 123
79 97 124
79 98 126
77 95 123
79 96 122
78 96 123
80 98 126
77 95 121
77 95 123
78 95 121
76 94 121
79 97 124
80 98 125
79 98 126
78 97 124
76 95 124
76 94 121
78 96 122
78 97 125
79 98 125
78 96 124
74 93 121
78 96 124
78 96 123
76 94 120
76 95 122
76 95 122
76 94 121
76 95 122
80 97 123
76 94 122
77 95 122
79 97 124
79 97 125
77 96 125
77 95 123
78 96 124
77 95 121
78 97 124
77 96 124
78 96 124
79 97 124
79 98 125
78 97 125
78 97 126
75 94 123
80 97 124
79 97 124
75 94 121
76 94 121
78 97 125
77 95 122
80 98 125
78 97 126
77 96 124
76 93 119
77 96 126
77 95 122
78 97 124
79 98 126
77 95 123
78 97 124
78 96 123
77 95 123
78 96 124
78 96 123
76 95 124
79 98 125
77 95 123
76 94 121
79 98 126
79 97 125
77 95 123
76 94 121
79 97 124
77 95 122
75 93 120
80 98 124
78 96 123
77 95 122
79 97 124
77 96 124
76 95 122
79 97 123
78 96 124
78 95 120
77 96 124
78 97 124
76 95 122
80 98 126
81 99 126
73 91 119
79 97 124
76 94 123
77 95 123
77 96 123
77 95 123
78 97 125
77 95 123
76 95 122
78 96 123
77 96 126
78 95 121
78 96 124
79 97 125
77 94 121
78 96 124
80 98 124
78 96 123
78 96 125
79 97 124
77 96 124
80 98 125
80 98 124
78 97 125
76 94 121
76 93 119
80 97 122
75 93 121
77 94 120
75 94 122
77 96 124
80 98 124
76 95 123
79 98 125
81 98 125
77 96 123
75 93 121
80 98 125
77 95 121
78 97 126
77 96 123
78 96 124
77 95 122
75 94 122
77 95 124
79 97 125
79 98 126
79 98 126
77 96 124
77 95 123
77 95 122
77 95 123
76 94 120
78 97 125
77 96 124
78 95 121
79 98 125
77 95 122
78 96 124
77 96 124
80 99 126
76 94 121
76 94 121
78 97 124
77 97 125
78 96 123
78 96 124
78 96 122
78 97 124
76 95 122
77 96 124
79 97 123
77 95 123
77 94 120
76 94 122
76 94 121
78 96 123
78 97 126
79 97 124
77 94 121
78 96 123
78 96 124
77 95 122
80 97 124
75 93 119
76 94 121
78 95 122
76 94 121
76 95 123
78 98 127
78 96 123
74 92 120
76 94 121
79 97 124
76 94 121
77 95 122
77 95 123
80 98 125
74 92 120
77 96 124
77 95 122
75 93 121
75 94 123
77 96 124
79 97 124
76 95 123
77 95 121
78 96 125
76 94 120
79 98 126
77 95 123
77 95 121
78 96 124
80 97 123
77 95 123
76 95 122
77 96 124
75 94 122
74 93 120
77 96 124
76 94 121
78 96 124
76 94 120
79 96 123
79 98 125
77 94 119
75 94 122
77 95 122
79 96 123
77 96 123
80 98 126
76 94 123
76 94 120
74 94 123
76 94 121
78 97 124
78 97 126
77 96 124
77 95 123
78 96 123
78 96 124
78 96 123
75 94 121
75 93 121
79 97 123
78 96 123
80 98 125
76 95 123
78 96 122
78 96 123
75 94 122
77 95 121
80 98 126
77 96 124
76 94 121
78 97 125
76 94 122
76 95 124
76 95 123
76 94 121
76 94 121
77 95 122
79 97 125
79 97 124
77 95 124
74 92 120
77 95 123
76 95 124
76 95 124
78 97 126
79 97 124
76 95 124
75 93 120
78 96 124
77 95 120
76 94 120
78 97 125
76 94 121
77 95 121
78 96 124
76 94 121
75 94 122
79 97 124
79 97 125
81 98 125
78 96 124
74 93 121
81 99 126
79 97 123
79 96 123
78 97 124
77 95 121
75 94 122
78 96 122
77 96 125
79 98 126
76 94 121
76 95 124
79 98 126
78 96 124
77 95 122
76 94 122
78 96 124
79 97 124
77 95 123
76 94 121
75 93 120
77 95 123
75 92 119
77 96 125
75 94 122
80 98 124
79 96 122
75 93 120
80 98 125
76 95 122
77 94 120
78 96 123
76 95 123
76 94 121
76 94 120
76 94 123
77 95 123
79 96 123
77 96 125
78 96 123
77 95 122
77 96 123
77 96 124
75 95 123
75 94 122
79 97 124
78 97 125
77 95 122
75 94 122
78 97 124
75 94 122
75 94 121
78 96 123
78 97 125
78 96 124
77 95 121
75 93 120
78 96 124
75 93 119
75 95 124
77 95 122
75 93 121
75 94 121
76 94 121
76 94 122
77 95 123
72 90 116
76 94 122
78 96 123
77 95 122
78 96 124
78 96 123
79 97 125
78 97 125
79 97 124
76 94 122
77 95 123
76 94 121
75 94 121
76 95 123
79 98 127
78 96 122
76 94 122
75 92 119
80 98 125
75 93 120
79 97 124
77 95 121
77 96 124
78 96 122
80 98 126
77 95 122
79 98 125
76 95 123
76 94 122
75 93 120
78 96 122
79 97 124
76 94 121
77 96 124
77 96 124
77 96 125
76 94 120
78 97 125
78 97 124
79 97 124
78 96 124
76 95 122
73 91 119
78 97 124
79 98 125
75 93 120
78 97 124
79 97 124
75 93 121
78 95 120
76 95 123
77 96 124
76 94 121
77 96 125
77 95 123
78 96 122
78 96 124
80 99 126
78 96 124
78 95 120
79 97 125
76 95 124
79 98 126
78 96 124
75 94 123
75 93 119
77 96 125
77 95 123
79 97 125
78 96 125
76 94 122
79 97 125
78 96 124
77 96 125
76 94 122
77 95 122
78 96 125
76 94 121
78 95 122
78 96 124
80 98 126
80 98 125
79 97 124
78 97 126
79 97 125
78 96 124
78 96 122
76 94 123
78 96 122
75 94 122
77 95 123
78 96 122
77 95 122
75 93 121
75 94 122
78 96 124
77 95 122
76 95 123
76 94 121
78 97 126
75 93 120
77 96 123
79 97 123
77 95 122
79 97 123
79 97 125
76 93 120
76 95 123
79 97 124
78 97 124
77 97 126
77 96 123
80 98 124
79 97 125
79 97 123
75 92 118
78 96 125
77 96 126
77 95 121
77 95 122
77 95 122
76 94 121
76 94 122
78 97 126
80 98 125
76 94 122
79 96 122
77 95 122
78 97 125
78 97 125
74 93 120
76 95 122
80 98 125
77 96 123
80 98 125
78 96 123
79 97 125
78 96 122
78 96 123
78 96 123
78 96 124
78 96 124
75 93 121
78 97 125
77 96 126
80 98 126
76 93 120
77 95 122
76 93 119
78 96 123
77 94 120
76 95 123
75 93 120
77 96 123
78 96 124
79 98 125
77 96 124
76 94 123
77 95 122
76 94 121
79 97 125
78 97 126
79 98 125
77 95 123
79 97 124
78 96 123
78 96 124
78 97 125
80 99 127
78 96 124
76 95 124
78 96 123
75 94 122
81 99 126
78 96 123
77 95 122
75 94 121
76 94 122
78 96 123
77 95 123
80 99 127
77 95 123
76 95 124
81 100 127
78 96 124
75 95 123
76 94 121
77 96 124
80 98 126
77 95 122
78 96 124
77 96 123
79 97 123
76 95 124
76 94 121
78 96 125
78 95 121
77 95 122
77 95 123
77 96 124
76 95 124
77 95 122
78 96 123
79 97 125
79 97 125
77 96 124
76 95 123
80 98 126
77 95 123
78 97 126
78 96 124
78 97 125
78 97 126
74 93 121
75 93 120
77 96 123
78 96 122
78 97 124
76 95 122
80 98 125
76 95 124
79 96 123
77 96 124
77 96 123
74 92 120
80 98 124
79 97 124
77 95 123
76 95 123
75 94 121
77 96 124
77 95 122
77 95 122
75 93 121
77 96 124
78 95 122
76 94 121
79 98 125
76 94 122
78 96 122
75 93 120
82 100 127
76 94 121
80 98 125
78 96 124
78 97 125
74 93 120
76 94 120
77 96 123
78 96 124
78 96 124
76 95 123
79 97 124
78 95 122
77 96 123
76 95 124
78 97 124
79 96 122
77 95 124
81 99 125
77 95 121
76 93 120
76 95 124
76 95 124
79 96 123
79 97 125
76 94 121
80 98 126
77 96 124
77 95 121
78 97 126
81 99 126
79 98 125
78 96 123
77 97 126
79 98 126
76 94 122
77 94 121
80 99 126
78 96 123
78 96 123
76 95 123
77 94 120
78 97 124
78 96 123
76 95 123
76 94 121
76 95 123
77 95 122
78 96 124
77 96 123
76 94 122
77 95 122
78 97 125
77 96 124
77 95 122
78 95 121
75 94 121
77 95 122
78 96 124
77 94 120
78 96 123
79 97 123
77 94 120
77 95 122
79 96 123
74 92 120
77 95 122
77 95 121
77 96 124
77 96 123
76 94 122
79 97 124
77 96 124
75 94 122
79 97 125
76 94 121
80 98 126
73 92 120
80 98 126
78 96 124
78 97 125
79 98 127
78 96 123
79 97 125
75 93 120
78 96 123
76 95 123
75 93 120
78 97 125
77 95 122
77 95 122
77 96 124
77 95 123
78 96 123
76 94 120
76 95 122
78 97 124
76 94 121
77 95 122
76 93 120
78 97 125
79 97 124
74 92 119
78 96 124
78 96 124
76 94 120
77 95 122
77 95 123
75 94 121
79 97 124
76 94 121
78 96 124
77 96 123
76 94 121
78 96 124
76 94 120
78 96 124
78 96 124
78 97 124
77 95 122
77 95 122
79 97 124
78 96 123
78 96 124
78 96 123
78 95 122
76 94 120
78 96 125
78 96 123
79 97 124
79 96 123
75 93 120
78 96 123
77 96 123
80 98 126
79 97 123
77 95 122
78 96 123
79 97 124
76 94 120
77 95 122
75 94 122
76 94 122
76 94 120
76 94 122
80 98 124
76 94 123
76 95 123
75 93 120
77 96 124
77 96 125
77 94 121
78 96 122
73 91 119
78 97 125
80 98 124
75 94 122
77 96 124
77 95 123
78 95 121
78 96 124
74 93 121
77 95 122
78 97 126
79 97 124
79 97 123
78 97 125
75 94 123
78 95 122
78 95 121
79 97 124
76 96 126
76 95 123
77 95 123
78 95 121
78 95 122
77 95 122
79 96 122
76 94 121
76 94 120
77 96 123
79 97 124
78 97 125
76 95 122
77 96 124
76 94 121
77 95 122
77 96 125
76 94 120
77 94 121
79 97 126
79 98 127
77 96 124
77 95 123
78 96 122
77 95 123
79 98 126
78 96 122
76 95 123
75 93 120
75 94 122
77 95 123
76 95 122
79 97 124
78 96 123
76 94 120
77 96 124
79 97 124
77 95 121
76 94 121
76 94 122
76 94 121
79 97 124
76 95 122
80 97 124
77 95 122
76 94 121
79 98 125
77 95 120
77 95 122
75 93 120
75 94 123
78 95 121
78 95 122
75 93 120
78 97 125
76 94 122
78 96 124
78 96 124
78 97 125
78 97 124
76 94 123
77 96 124
77 96 125
74 92 119
79 97 125
78 97 124
80 98 125
76 94 121
77 96 124
76 93 118
78 96 125
79 97 124
78 96 124
75 94 123
79 98 126
81 99 127
77 95 122
77 96 124
76 95 123
77 96 124
78 95 122
75 93 120
79 97 125
76 94 122
80 98 125
78 95 122
78 95 121
74 93 122
80 99 126
77 95 123
79 96 123
76 93 120
77 96 123
81 99 126
77 96 124
80 97 124
75 95 124
79 97 124
77 95 122
80 98 126
81 99 125
75 93 120
76 95 124
75 93 120
79 97 124
75 93 121
78 96 123
77 96 123
77 96 123
77 94 120
78 96 124
78 95 121
80 98 126
79 97 124
77 96 124
77 95 123
78 97 124
79 97 125
80 97 123
76 94 121
81 99 126
81 99 126
77 95 123
75 94 122
79 97 124
79 96 121
75 94 122
76 94 122
79 97 123
80 98 125
78 96 123
77 96 124
77 95 122
77 94 121
76 95 123
76 94 122
75 94 121
80 98 126
79 97 125
78 96 123
80 98 124
77 95 122
80 97 124
77 95 123
81 99 126
81 99 125
77 96 124
76 94 120
77 95 123
76 95 123
78 96 124
77 96 124
79 97 124
80 98 126
77 96 125
79 97 124
77 95 122
80 99 127
76 95 123
79 97 125
81 99 126
78 96 123
79 98 126
78 97 125
75 94 122
79 97 124
77 94 120
77 96 123
75 94 123
77 96 123
80 98 125
77 95 123
77 95 124
77 96 123
78 97 125
76 95 123
78 97 126
77 95 122
78 97 125
77 96 125
77 95 123
78 96 124
79 97 123
78 97 125
76 95 123
78 97 124
79 98 127
78 96 123
76 94 122
76 94 122
75 94 122
78 97 124
79 96 122
77 96 124
80 97 123
76 92 117
78 95 120
75 94 123
75 94 123
76 95 124
77 96 125
76 94 121
81 98 124
73 91 118
80 99 128
78 96 123
76 94 120
80 98 125
77 96 123
76 94 121
76 94 121
77 95 121
78 97 125
79 98 126
76 95 124
78 96 123
77 96 124
77 95 122
77 96 124
77 95 122
75 94 123
78 96 124
78 97 125
78 96 124
80 97 123
77 95 123
78 96 122
78 96 123
79 97 125
79 97 125
78 96 124
78 97 126
78 96 123
79 96 123
76 94 120
75 93 121
75 92 119
79 97 124
77 94 120
78 96 123
77 95 123
76 95 122
77 94 121
77 96 124
80 98 125
77 95 121
79 97 124
78 96 124
77 94 120
79 98 125
77 95 122
76 95 123
81 98 124
77 96 124
77 95 121
78 97 124
82 100 128
78 96 123
78 96 123
75 93 121
76 96 125
79 97 124
77 96 123
79 98 126
78 96 124
78 96 123
78 96 124
75 93 119
76 94 122
79 97 125
78 96 123
77 95 120
77 95 122
77 95 122
78 96 122
79 98 126
78 97 125
77 96 125
77 95 122
80 98 126
78 96 122
77 95 123
79 97 124
76 94 122
75 94 122
78 97 125
78 97 125
77 96 124
74 92 120
75 93 120
78 96 123
77 96 124
76 95 124
77 95 122
77 95 122
79 96 122
77 95 122
78 96 122
76 95 123
76 94 122
78 96 124
78 97 125
78 96 124
75 94 122
77 95 122
79 97 125
76 94 121
78 96 123
77 95 123
76 95 123
79 97 124
78 96 124
78 96 123
75 93 120
80 99 126
80 97 123
76 95 122
77 96 124
75 93 120
77 97 126
76 95 122
77 96 125
78 96 124
78 96 122
79 97 124
78 97 125
76 95 122
79 97 124
77 96 123
79 96 121
80 98 125
76 95 123
78 96 123
81 100 127
76 95 123
77 95 121
75 93 120
78 97 126
77 95 122
79 97 125
75 94 122
78 95 122
76 95 123
79 96 123
77 96 123
79 97 123
77 94 119
77 96 125
78 97 125
78 97 125
76 95 123
76 94 122
80 97 124
76 95 123
79 98 125
78 96 123
76 95 123
77 95 121
75 94 122
74 92 119
75 93 120
77 95 122
78 97 125
80 98 126
77 96 125
77 95 121
76 94 122
76 94 121
76 94 122
75 93 120
75 94 121
76 94 120
77 96 124
77 95 123
75 93 120
76 94 122
78 97 124
79 96 122
79 97 123
80 98 125
78 96 124
78 96 122
78 96 123
78 96 124
78 95 122
78 97 125
79 96 122
76 96 124
78 96 124
79 97 125
78 96 123
78 95 121
78 97 125
73 93 121
78 96 124
78 96 123
76 94 120
80 98 125
74 92 119
80 98 125
78 96 123
79 97 125
78 95 122
76 94 121
79 97 123
77 97 127
78 96 122
80 97 123
77 96 125
79 97 123
75 93 121
78 97 125
79 97 124
77 96 124
79 98 125
77 94 121
77 96 123
77 95 123
79 97 124
77 96 125
78 96 124
79 97 124
78 97 125
79 97 123
76 94 121
72 90 117
80 98 124
78 96 124
77 95 123
77 96 125
77 96 123
78 95 122
78 96 123
79 98 126
78 96 123
78 97 125
75 94 122
76 94 120
76 95 122
80 98 125
77 95 122
78 95 120
79 97 124
79 97 123
76 95 122
76 95 122
78 96 122
78 96 123
82 99 125
79 98 126
76 95 124
78 97 124
78 96 123
78 96 123
77 96 123
77 95 121
76 95 122
79 97 124
74 91 116
78 97 125
77 95 122
80 98 125
76 95 123
80 98 126
78 96 123
78 96 122
78 97 124
81 98 124
80 97 124
77 95 123
78 97 126
79 97 125
79 97 125
78 96 124
79 97 124
77 96 124
76 94 121
79 97 123
76 94 121
76 95 123
78 97 124
79 97 124
79 98 126
76 94 121
80 97 124
77 95 123
78 97 125
80 98 124
78 96 124
77 96 123
81 99 126
78 96 122
78 96 123
78 95 121
80 98 126
78 96 124
77 95 121
76 95 123
78 96 123
77 95 122
76 94 122
77 95 124
77 96 125
75 93 121
76 94 121
79 97 125
77 95 123
79 97 125
76 94 122
79 97 125
78 96 124
77 95 122
77 94 119
78 97 125
79 98 126
77 95 122
79 98 126
78 97 124
77 95 122
78 96 123
77 94 119
77 95 121
78 96 123
78 96 123
78 96 124
78 97 125
77 96 124
76 95 124
77 97 126
77 95 122
77 95 123
76 94 122
78 96 125
77 96 125
79 97 125
79 98 125
81 99 126
79 98 126
80 99 128
78 96 123
77 95 121
77 96 124
76 95 124
79 98 126
73 91 119
76 95 124
79 96 122
78 95 122
78 96 122
78 95 122
78 96 124
77 96 124
79 98 126
79 97 125
76 94 121
77 96 123
75 93 121
77 95 122
79 98 126
76 94 122
80 98 126
78 96 123
76 94 120
79 97 123
78 96 122
77 96 125
75 93 120
79 98 126
77 96 124
79 96 122
77 96 123
78 96 124
80 98 124
76 94 121
80 98 124
78 96 123
77 94 120
75 91 116
79 97 125
78 96 124
76 94 121
77 96 124
82 100 127
79 98 126
77 95 123
79 97 123
77 95 122
78 97 124
79 98 126
78 97 125
76 94 122
80 97 124
77 96 125
75 94 121
77 95 123
77 96 123
78 96 122
77 95 122
79 97 125
78 96 123
76 94 121
77 95 122
80 98 125
79 97 124
78 96 124
78 96 123
78 96 122
80 98 124
80 98 125
78 96 124
77 95 123
77 96 125
80 99 126
78 96 123
80 99 128
79 98 126
78 96 123
76 94 122
77 96 123
77 95 123
79 96 122
77 95 123
77 96 123
80 98 125
76 95 123
78 97 124
78 96 123
78 96 123
77 95 121
75 93 119
78 96 123
79 97 124
78 96 123
77 95 123
76 94 121
80 98 125
78 97 124
78 95 121
78 97 125
79 97 123
75 95 124
78 96 123
75 93 121
80 98 126
77 96 125
77 95 122
79 97 124
79 97 124
78 95 120
77 95 122
75 94 121
78 96 123
78 96 124
80 98 126
79 97 124
81 99 126
79 97 125
79 97 126
77 95 123
75 93 122
77 96 124
79 97 125
76 95 123
76 95 124
79 98 125
78 97 126
76 94 122
77 96 123
76 95 122
76 94 120
78 95 121
77 95 123
77 95 122
80 99 126
79 97 123
77 95 122
76 94 122
78 96 123
77 96 124
75 94 122
79 98 125
80 98 126
78 96 122
78 96 124
78 96 123
75 94 121
77 95 123
79 97 125
76 94 121
77 96 123
78 97 124
77 96 124
77 95 124
80 98 124
74 92 120
77 96 124
78 95 120
76 95 123
74 93 121
77 95 121
75 94 121
79 95 120
79 97 123
76 94 121
75 94 121
78 96 123
74 93 121
79 98 125
78 96 124
79 97 125
75 94 121
79 96 121
78 97 125
79 97 124
77 95 122
78 95 121
79 98 126
79 97 123
76 94 121
78 97 124
77 95 123
76 95 123
78 97 124
76 95 122
80 97 123
76 94 122
77 94 121
78 96 122
78 96 123
77 96 125
78 97 125
80 98 124
78 96 124
76 95 122
76 94 120
76 95 123
80 98 126
78 97 125
77 96 124
77 96 124
78 96 123
75 93 121
76 95 123
77 95 123
77 95 123
76 94 121
78 97 125
76 93 120
75 93 121
75 93 120
78 95 121
78 97 124
76 95 122
77 94 120
75 93 120
79 97 125
74 92 119
77 95 121
78 97 125
76 96 126
79 97 124
78 97 124
77 95 123
78 96 124
79 97 123
78 96 122
79 97 125
80 98 125
78 96 124
78 96 124
77 96 124
78 96 124
75 93 119
80 98 126
76 94 122
76 95 123
80 97 123
76 94 122
74 93 121
79 97 123
77 95 124
74 93 121
78 97 126
76 94 120
77 95 122
79 97 124
77 94 121
77 95 122
78 96 122
79 97 126
78 97 125
77 95 123
76 94 122
78 96 123
77 95 123
80 98 125
77 94 121
79 97 124
74 93 121
74 92 120
76 95 123
80 98 126
79 97 124
80 98 125
75 94 122
77 96 124
80 98 125
77 95 122
77 96 124
78 96 123
75 93 121
74 92 119
77 94 119
80 98 126
76 95 124
79 97 125
74 91 118
75 94 122
78 96 122
79 98 126
78 97 125
77 95 123
74 92 119
76 94 121
78 95 121
77 96 124
78 95 121
77 96 123
76 94 122
76 95 123
77 95 122
75 93 120
76 94 121
78 96 123
76 93 120
77 96 123
77 96 124
76 94 122
78 97 126
78 97 125
73 92 119
79 97 124
80 98 125
78 96 125
80 99 128
76 94 121
77 95 121
80 98 125
79 97 123
78 97 125
78 96 124
77 95 122
76 95 122
79 97 125
74 92 119
78 97 126
78 96 123
79 97 123
78 96 123
75 94 121
80 98 125
78 96 123
78 96 123
80 98 124
78 96 124
78 97 126
75 93 119
80 98 126
78 96 123
75 93 120
77 95 123
79 97 125
74 93 120
78 96 125
75 93 120
81 99 126
77 95 123
77 95 121
79 97 124
78 97 126
80 98 125
78 96 124
78 96 123
77 95 122
78 97 124
79 98 126
76 95 123
78 97 125
78 97 124
78 96 122
76 95 123
76 94 121
78 96 123
75 94 122
77 96 125
78 96 124
79 97 125
78 96 123
76 94 122
78 96 123
79 97 124
80 99 126
79 97 124
78 97 125
78 96 123
76 95 124
79 97 123
79 98 126
78 97 125
75 93 120
79 98 125
79 97 124
78 96 124
76 93 120
79 97 126
76 96 124
76 95 122
79 97 124
77 95 121
79 97 123
77 96 125
80 97 123
78 96 124
77 96 125
78 96 124
78 96 124
79 96 122
76 94 121
76 95 123
78 96 124
78 96 122
77 96 124
76 94 121
78 97 125
76 94 121
77 96 125
78 97 126
76 94 122
77 96 123
80 98 124
79 97 124
78 96 124
76 95 123
79 96 122
77 96 123
80 98 125
80 98 126
78 96 122
80 99 127
77 96 123
78 96 123
78 96 122
76 94 121
77 96 123
79 98 125
78 96 124
76 95 123
77 95 123
79 97 124
76 95 122
78 96 123
76 94 121
75 94 121
78 97 126
79 97 124
79 97 125
76 93 119
77 95 123
78 96 123
79 96 123
77 96 124
75 93 120
78 96 123
79 97 124
78 96 123
77 96 125
76 94 121
76 94 120
76 95 123
79 97 123
76 94 120
78 97 125
79 97 125
78 96 123
78 96 123
76 95 123
77 96 123
76 95 122
78 97 125
77 94 121
78 96 124
79 97 123
76 94 120
80 99 127
79 96 122
76 94 121
77 95 122
79 98 126
75 94 122
80 98 125
78 97 124
73 91 118
79 96 122
77 95 122
79 97 124
75 93 120
80 98 125
78 96 122
81 99 126
77 95 123
76 94 122
78 97 125
77 95 122
76 94 122
75 94 122
80 98 125
79 97 124
76 95 123
80 99 126
79 96 123
80 98 126
79 98 126
77 95 121
79 97 126
81 99 126
76 94 120
81 99 126
78 96 122
77 95 121
78 96 122
78 97 125
77 96 123
75 93 120
78 96 122
78 96 124
79 98 126
78 96 123
77 96 123
75 93 119
80 98 125
77 94 120
75 93 121
80 98 127
76 94 120
76 94 121
77 96 124
77 96 124
76 94 121
78 96 123
78 96 124
77 95 122
76 95 123
72 90 116
76 94 121
77 94 121
77 95 123
77 96 123
75 93 119
75 94 123
77 96 124
78 96 124
79 97 125
79 97 124
76 94 121
74 92 120
76 95 123
78 96 122
77 95 122
77 95 123
78 95 121
77 95 122
78 96 124
77 94 120
78 97 125
77 95 122
76 95 122
77 95 122
78 96 122
77 96 124
77 96 125
78 96 124
78 96 123
77 95 123
77 96 124
78 97 125
74 92 119
78 96 124
76 94 122
77 94 121
77 95 123
77 95 123
78 96 124
77 95 123
77 94 120
79 98 127
77 96 125
79 97 123
77 96 123
79 97 124
76 94 120
78 96 124
74 92 119
78 97 124
78 95 122
80 98 125
76 94 121
78 96 124
78 97 125
79 97 124
77 95 123
76 95 122
77 95 123
76 94 122
76 94 122
74 93 121
78 96 122
79 98 125
77 96 124
74 92 118
79 98 126
76 95 122
77 95 123
78 95 121
78 96 123
76 94 122
77 95 122
78 97 125
80 98 124
77 96 124
76 95 124
80 98 126
79 98 126
79 97 124
78 95 122
77 96 124
78 96 123
78 96 122
77 96 124
79 98 126
78 96 123
77 95 122
79 97 125
76 94 121
76 94 122
77 95 122
77 95 122
79 98 126
77 96 123
75 93 120
79 98 127
77 96 123
79 98 125
75 93 120
75 93 121
77 95 123
75 94 122
78 96 122
80 98 125
77 96 124
77 96 124
77 96 123
79 98 126
80 98 126
79 96 123
76 94 122
77 96 124
77 96 124
77 95 123
77 95 122
77 95 122
77 94 120
75 93 121
77 95 121
79 98 125
78 96 123
76 95 122
75 93 121
79 98 127
78 97 124
77 95 123
78 96 123
77 96 124
78 96 123
74 93 121
77 95 121
78 96 122
78 96 124
78 97 125
77 96 124
77 95 124
77 95 122
76 95 123
77 96 123
80 99 126
76 95 122
78 96 123
76 95 123
76 94 122
77 96 124
80 98 125
77 96 124
79 98 126
76 95 122
78 97 125
77 95 122
79 97 126
77 96 125
78 97 124
80 98 125
79 97 124
78 97 125
80 98 125
79 96 123
77 95 122
78 96 124
77 95 121
76 94 122
77 96 124
78 97 124
80 98 125
78 96 123
77 95 122
78 97 125
78 96 122
79 96 123
78 96 123
79 98 126
78 97 125
74 93 121
77 95 120
80 98 126
78 96 124
75 94 121
79 98 126
76 94 123
79 98 126
78 96 124
78 96 123
78 96 122
76 93 120
76 94 122
78 97 124
74 92 119
78 95 122
78 97 126
76 95 124
77 95 122
79 96 122
76 94 121
78 96 122
78 96 122
77 95 122
78 97 125
80 98 125
77 96 123
78 95 122
79 97 125
74 92 120
77 96 123
77 95 122
78 96 123
75 93 121
76 93 120
78 96 124
77 95 122
79 97 125
77 96 124
77 95 121
79 97 125
75 94 122
79 98 125
81 98 124
79 97 124
78 95 121
79 97 125
77 95 124
79 97 126
77 96 123
76 94 122
79 98 125
76 93 120
78 97 124
79 96 123
81 98 124
75 93 120
80 98 125
76 93 118
79 97 125
76 94 120
78 96 123
78 97 125
79 97 123
77 95 121
77 96 125
75 94 122
76 95 123
79 98 125
78 97 124
78 97 125
76 95 123
78 97 125
75 93 120
76 94 122
77 96 123
79 98 125
78 97 126
78 96 124
78 96 123
77 95 122
80 97 123
78 96 124
78 96 122
76 95 124
79 97 124
78 97 125
77 96 124
78 97 124
78 96 123
79 97 125
75 92 119
78 96 123
79 97 125
76 94 120
78 96 124
77 96 123
74 92 120
78 96 122
78 96 123
75 93 121
76 95 123
78 96 123
78 97 125
80 98 125
78 96 123
77 96 124
77 95 122
76 94 121
75 94 122
80 97 124
77 96 124
76 95 122
77 96 124
79 97 125
75 93 120
76 94 121
75 94 122
78 96 124
77 96 124
77 93 119
77 97 126
77 96 123
76 94 121
77 95 122
77 96 123
77 96 124
75 92 119
78 96 123
74 92 120
78 97 125
80 97 124
79 98 125
78 96 124
76 95 124
75 94 121
81 100 128
78 97 124
78 96 122
79 97 124
78 96 124
78 96 123
79 97 124
78 96 123
79 96 123
77 96 124
77 95 123
75 93 120
79 97 123
80 98 124
79 98 126
78 96 123
78 97 124
79 97 124
78 97 125
77 95 123
80 99 126
80 98 125
76 94 122
78 96 123
78 96 123
76 94 122
74 93 122
77 95 123
79 98 126
77 96 123
78 95 122
77 95 123
79 97 125
76 94 121
76 94 121
79 97 124
80 98 126
78 96 123
77 95 123
77 95 122
78 96 123
78 96 124
77 95 123
77 95 123
79 96 122
78 97 125
80 99 126
75 93 120
75 93 120
79 97 123
78 96 123
78 96 123
77 95 122
78 96 122
77 95 122
77 96 124
76 94 122
80 98 125
77 96 124
78 96 124
74 91 116
78 96 123
79 97 124
78 96 124
78 97 125
77 95 123
76 95 124
80 98 126
74 92 119
78 97 124
78 97 125
78 96 124
78 97 126
79 97 123
77 96 123
80 98 124
78 97 124
79 97 124
78 96 124
76 96 124
76 95 124
75 95 123
79 97 124
76 94 122
78 96 124
77 95 122
77 94 120
77 96 124
78 96 123
76 94 120
77 96 123
77 95 121
78 96 123
75 93 120
78 97 124
74 91 117
77 95 122
80 98 126
77 95 122
79 98 126
79 97 124
77 95 123
76 94 121
78 96 123
79 98 126
77 97 126
79 97 124
75 93 120
78 97 125
76 95 122
79 97 125
77 95 123
76 94 122
74 92 120
78 96 124
77 94 120
78 97 125
76 94 121
76 94 122
76 93 120
76 95 122
79 97 125
77 96 125
79 97 125
78 97 126
79 97 124
78 96 124
78 96 123
78 95 121
78 96 124
76 94 122
82 100 126
79 98 125
79 97 124
77 96 123
76 93 120
78 95 121
81 99 127
77 95 124
78 96 123
74 94 124
78 96 123
73 90 116
78 96 124
75 93 121
76 94 122
75 93 121
77 95 123
78 96 123
79 97 125
77 95 123
80 98 126
77 96 124
75 94 122
77 95 121
76 94 121
78 97 124
79 98 126
80 98 125
77 96 125
77 97 126
77 95 121
77 96 123
76 94 123
77 96 125
77 95 124
76 94 122
78 95 122
75 94 123
79 97 123
76 94 121
77 95 122
78 96 123
77 96 123
78 97 124
78 96 123
79 97 125
78 97 126
75 93 121
78 97 125
78 95 122
78 97 125
79 97 124
76 94 121
75 94 123
76 94 121
80 99 127
76 95 122
76 94 120
77 96 124
77 95 123
77 95 123
76 95 122
76 95 123
77 96 123
77 95 124
76 94 122
76 94 121
75 94 122
78 97 125
76 94 121
79 96 121
76 94 120
77 96 124
80 98 126
79 97 124
76 95 122
80 98 125
76 94 121
78 97 124
80 98 126
77 95 123
77 95 121
75 94 121
77 94 121
76 95 122
76 94 121
77 95 123
80 98 125
78 97 125
78 96 122
77 95 122
80 97 124
79 98 126
78 97 125
75 93 121
79 96 123
79 98 126
78 97 125
80 98 125
77 96 124
78 95 121
77 96 124
81 99 126
79 97 124
74 92 120
78 96 123
77 95 122
77 96 124
80 99 127
78 97 125
75 94 122
76 95 122
78 97 124
78 95 121
80 99 127
78 96 124
80 98 125
76 95 123
77 95 121
77 96 125
78 97 126
78 96 123
77 95 122
77 96 123
78 96 123
80 98 125
76 94 121
78 97 125
78 97 125
77 96 124
79 97 124
78 95 121
79 97 124
78 96 122
78 96 124
76 95 124
79 96 122
77 96 125
74 93 121
75 93 121
74 91 118
79 97 124
78 96 124
78 97 126
77 96 124
77 95 122
77 96 124
75 93 119
80 98 126
80 98 125
77 96 124
79 97 125
80 98 126
78 95 122
79 98 126
76 94 121
80 98 125
76 94 122
76 94 121
77 95 121
79 96 121
78 97 124
80 98 125
80 98 126
77 96 124
80 99 126
77 95 122
78 96 124
79 97 125
79 97 123
79 97 125
77 96 123
76 95 124
79 97 124
75 95 124
78 97 125
75 93 121
77 94 121
80 98 124
77 95 122
78 97 124
82 100 127
77 96 125
77 95 123
78 96 124
78 97 124
77 96 124
77 95 122
79 97 125
77 94 121
77 95 124
76 95 123
75 94 122
75 93 120
78 96 124
80 98 125
75 94 121
78 96 123
75 95 123
79 96 122
74 93 121
80 98 126
76 94 121
79 97 122
77 94 119
77 95 122
78 95 122
80 98 125
77 96 123
77 96 124
77 96 123
77 96 124
79 97 125
77 95 121
78 97 125
77 96 124
77 95 123
78 96 122
80 97 124
79 97 124
80 97 123
79 97 124
78 97 124
80 98 123
77 94 120
77 95 124
73 92 119
77 96 123
79 97 125
82 99 125
80 98 125
77 95 122
78 97 125
80 98 126
78 96 123
80 99 126
78 97 125
80 97 123
77 95 123
79 98 126
76 94 121
79 97 123
79 97 124
78 96 122
76 95 122
77 96 123
78 96 123
80 98 126
78 97 125
77 95 123
78 96 124
80 99 127
76 94 120
74 92 120
79 97 124
77 95 122
75 94 121
79 97 124
78 97 126
76 96 125
77 95 123
80 99 126
80 99 126
77 96 123
77 95 122
79 98 126
