P3
400 225
255
163 200 255
163 200 255
163 200 255
163 200 255
163 200 255
163 200 255
163 200 255
163 200 255
163 200 255
163 200 255
163 200 255
162 200 255
162 200 255
162 200 255
162 199 255
162 199 255
162 199 255
162 199 255
162 199 255
162 199 255
162 199 255
161 199 255
161 199 255
161 199 255
161 199 255
161 199 255
161 199 255
161 199 255
161 199 255
161 199 255
161 199 255
161 199 255
160 198 255
160 198 255
160 198 255
160 198 255
160 198 255
160 198 255
160 198 255
160 198 255
160 198 255
160 198 255
159 198 255
159 198 255
159 198 255
159 198 255
159 198 255
159 198 255
159 197 255
159 197 255
159 197 255
159 197 255
158 197 255
158 197 255
158 197 255
158 197 255
158 197 255
158 197 255
158 197 255
158 197 255
158 197 255
157 197 255
157 197 255
157 197 255
157 196 255
157 196 255
157 196 255
157 196 255
157 196 255
157 196 255
157 196 255
156 196 255
156 196 255
156 196 255
156 196 255
156 196 255
156 196 255
156 196 255
156 196 255
156 196 255
155 195 255
155 195 255
155 195 255
155 195 255
155 195 255
155 195 255
155 195 255
155 195 255
155 195 255
154 195 255
154 195 255
154 195 255
154 195 255
154 195 255
154 195 255
154 194 255
154 194 255
154 194 255
153 194 255
153 194 255
153 194 255
153 194 255
153 194 255
153 194 255
153 194 255
153 194 255
153 194 255
152 194 255
152 194 255
152 194 255
152 193 255
152 193 255
152 193 255
152 193 255
152 193 255
152 193 255
152 193 255
151 193 255
151 193 255
151 193 255
151 193 255
151 193 255
151 193 255
151 193 255
151 193 255
151 193 255
151 193 255
150 192 255
150 192 255
150 192 255
150 192 255
150 192 255
150 192 255
150 192 255
150 192 255
150 192 255
150 192 255
149 192 255
149 192 255
149 192 255
149 192 255
149 192 255
149 192 255
149 192 255
149 192 255
149 191 255
149 191 255
149 191 255
149 191 255
148 191 255
148 191 255
148 191 255
148 191 255
148 191 255
148 191 255
148 191 255
148 191 255
148 191 255
148 191 255
148 191 255
148 191 255
148 191 255
148 191 255
148 191 255
147 191 255
147 191 255
147 191 255
147 191 255
147 191 255
147 190 255
147 190 255
147 190 255
147 190 255
147 190 255
147 190 255
147 190 255
147 190 255
147 190 255
147 190 255
147 190 255
147 190 255
147 190 255
147 190 255
147 190 255
147 190 255
147 190 255
147 190 255
146 190 255
146 190 255
146 190 255
146 190 255
146 190 255
146 190 255
146 190 255
146 190 255
146 190 255
146 190 255
146 190 255
146 190 255
146 190 255
146 190 255
146 190 255
146 190 255
146 190 255
146 190 255
146 190 255
146 190 255
146 190 255
146 190 255
146 190 255
146 190 255
146 190 255
146 190 255
147 190 255
147 190 255
147 190 255
147 190 255
147 190 255
147 190 255
147 190 255
147 190 255
147 190 255
147 190 255
147 190 255
147 190 255
147 190 255
147 190 255
147 190 255
147 190 255
147 190 255
147 190 255
147 191 255
147 191 255
147 191 255
147 191 255
147 191 255
147 191 255
148 191 255
148 191 255
148 191 255
148 191 255
148 191 255
148 191 255
148 191 255
148 191 255
148 191 255
148 191 255
148 191 255
148 191 255
148 191 255
148 191 255
149 191 255
149 191 255
149 191 255
149 191 255
149 192 255
149 192 255
149 192 255
149 192 255
149 192 255
149 192 255
149 192 255
149 192 255
150 192 255
150 192 255
150 192 255
150 192 255
150 192 255
150 192 255
150 192 255
150 192 255
150 192 255
150 192 255
151 193 255
151 193 255
151 193 255
151 193 255
151 193 255
151 193 255
151 193 255
151 193 255
151 193 255
151 193 255
152 193 255
152 193 255
152 193 255
152 193 255
152 193 255
152 193 255
152 194 255
152 194 255
152 194 255
152 194 255
153 194 255
153 194 255
153 194 255
153 194 255
153 194 255
153 194 255
153 194 255
153 194 255
153 194 255
154 194 255
154 194 255
154 194 255
154 195 255
154 195 255
154 195 255
154 195 255
154 195 255
154 195 255
155 195 255
155 195 255
155 195 255
155 195 255
155 195 255
155 195 255
155 195 255
155 195 255
155 195 255
156 196 255
156 196 255
156 196 255
156 196 255
156 196 255
156 196 255
156 196 255
156 196 255
156 196 255
157 196 255
157 196 255
157 196 255
157 196 255
157 196 255
157 196 255
157 196 255
157 197 255
157 197 255
157 197 255
158 197 255
158 197 255
158 197 255
158 197 255
158 197 255
158 197 255
158 197 255
158 197 255
158 197 255
159 197 255
159 197 255
159 197 255
159 198 255
159 198 255
159 198 255
159 198 255
159 198 255
159 198 255
159 198 255
160 198 255
160 198 255
160 198 255
160 198 255
160 198 255
160 198 255
160 198 255
160 198 255
160 198 255
160 198 255
161 199 255
161 199 255
161 199 255
161 199 255
161 199 255
161 199 255
161 199 255
161 199 255
161 199 255
161 199 255
162 199 255
162 199 255
162 199 255
162 199 255
162 199 255
162 199 255
162 199 255
162 199 255
162 200 255
162 200 255
162 200 255
163 200 255
163 200 255
163 200 255
163 200 255
163 200 255
163 200 255
163 200 255
163 200 255
163 200 255
163 200 255
163 200 255
164 200 255
164 200 255
163 200 255
163 200 255
163 200 255
163 200 255
163 200 255
163 200 255
163 200 255
163 200 255
163 200 255
163 200 255
163 200 255
162 200 255
162 200 255
162 200 255
162 200 255
162 199 255
162 199 255
162 199 255
162 199 255
162 199 255
162 199 255
162 199 255
161 199 255
161 199 255
161 199 255
161 199 255
161 199 255
161 199 255
161 199 255
161 199 255
161 199 255
161 199 255
160 198 255
160 198 255
160 198 255
160 198 255
160 198 255
160 198 255
160 198 255
160 198 255
160 198 255
160 198 255
159 198 255
159 198 255
159 198 255
159 198 255
159 198 255
159 198 255
159 198 255
159 197 255
159 197 255
159 197 255
158 197 255
158 197 255
158 197 255
158 197 255
158 197 255
158 197 255
158 197 255
158 197 255
158 197 255
158 197 255
157 197 255
157 197 255
157 196 255
157 196 255
157 196 255
157 196 255
157 196 255
157 196 255
157 196 255
156 196 255
156 196 255
156 196 255
156 196 255
156 196 255
156 196 255
156 196 255
156 196 255
156 196 255
155 195 255
155 195 255
155 195 255
155 195 255
155 195 255
155 195 255
155 195 255
155 195 255
155 195 255
154 195 255
154 195 255
154 195 255
154 195 255
154 195 255
154 195 255
154 194 255
154 194 255
154 194 255
153 194 255
153 194 255
153 194 255
153 194 255
153 194 255
153 194 255
153 194 255
153 194 255
153 194 255
153 194 255
152 194 255
152 194 255
152 194 255
152 193 255
152 193 255
152 193 255
152 193 255
152 193 255
152 193 255
151 193 255
151 193 255
151 193 255
151 193 255
151 193 255
151 193 255
151 193 255
151 193 255
151 193 255
151 193 255
150 192 255
150 192 255
150 192 255
150 192 255
150 192 255
150 192 255
150 192 255
150 192 255
150 192 255
150 192 255
150 192 255
149 192 255
149 192 255
149 192 255
149 192 255
149 192 255
149 192 255
149 192 255
149 192 255
149 191 255
149 191 255
149 191 255
149 191 255
148 191 255
148 191 255
148 191 255
148 191 255
148 191 255
148 191 255
148 191 255
148 191 255
148 191 255
148 191 255
148 191 255
148 191 255
148 191 255
148 191 255
148 191 255
147 191 255
147 191 255
147 191 255
147 191 255
147 191 255
147 191 255
147 191 255
147 190 255
147 190 255
147 190 255
147 190 255
147 190 255
147 190 255
147 190 255
147 190 255
147 190 255
147 190 255
147 190 255
147 190 255
147 190 255
147 190 255
147 190 255
147 190 255
147 190 255
147 190 255
147 190 255
147 190 255
147 190 255
147 190 255
147 190 255
147 190 255
147 190 255
147 190 255
147 190 255
147 190 255
147 190 255
147 190 255
147 190 255
147 190 255
147 190 255
147 190 255
147 190 255
147 190 255
147 190 255
147 190 255
147 190 255
147 190 255
147 190 255
147 190 255
147 190 255
147 190 255
147 190 255
147 190 255
147 190 255
147 190 255
147 190 255
147 190 255
147 190 255
147 190 255
147 191 255
147 191 255
147 191 255
147 191 255
147 191 255
147 191 255
147 191 255
148 191 255
148 191 255
148 191 255
148 191 255
148 191 255
148 191 255
148 191 255
148 191 255
148 191 255
148 191 255
148 191 255
148 191 255
148 191 255
148 191 255
148 191 255
149 191 255
149 191 255
149 191 255
149 191 255
149 191 255
149 192 255
149 192 255
149 192 255
149 192 255
149 192 255
149 192 255
149 192 255
150 192 255
150 192 255
150 192 255
150 192 255
150 192 255
150 192 255
150 192 255
150 192 255
150 192 255
150 192 255
150 192 255
151 193 255
151 193 255
151 193 255
151 193 255
151 193 255
151 193 255
151 193 255
151 193 255
151 193 255
151 193 255
152 193 255
152 193 255
152 193 255
152 193 255
152 193 255
152 193 255
152 194 255
152 194 255
152 194 255
152 194 255
153 194 255
153 194 255
153 194 255
153 194 255
153 194 255
153 194 255
153 194 255
153 194 255
153 194 255
154 194 255
154 194 255
154 194 255
154 195 255
154 195 255
154 195 255
154 195 255
154 195 255
154 195 255
155 195 255
155 195 255
155 195 255
155 195 255
155 195 255
155 195 255
155 195 255
155 195 255
155 195 255
156 196 255
156 196 255
156 196 255
156 196 255
156 196 255
156 196 255
156 196 255
156 196 255
156 196 255
157 196 255
157 196 255
157 196 255
157 196 255
157 196 255
157 196 255
157 196 255
157 197 255
157 197 255
157 197 255
158 197 255
158 197 255
158 197 255
158 197 255
158 197 255
158 197 255
158 197 255
158 197 255
158 197 255
159 197 255
159 197 255
159 197 255
159 198 255
159 198 255
159 198 255
159 198 255
159 198 255
159 198 255
159 198 255
160 198 255
160 198 255
160 198 255
160 198 255
160 198 255
160 198 255
160 198 255
160 198 255
160 198 255
160 198 255
161 199 255
161 199 255
161 199 255
161 199 255
161 199 255
161 199 255
161 199 255
161 199 255
161 199 255
161 199 255
162 199 255
162 199 255
162 199 255
162 199 255
162 199 255
162 199 255
162 199 255
162 199 255
162 200 255
162 200 255
162 200 255
163 200 255
163 200 255
163 200 255
163 200 255
163 200 255
163 200 255
163 200 255
163 200 255
163 200 255
163 200 255
163 200 255
164 200 255
164 200 255
164 200 255
164 200 255
164 200 255
164 200 255
163 200 255
163 200 255
163 200 255
163 200 255
163 200 255
163 200 255
163 200 255
163 200 255
163 200 255
163 200 255
163 200 255
162 200 255
162 200 255
162 200 255
162 200 255
162 199 255
162 199 255
162 199 255
162 199 255
162 199 255
162 199 255
162 199 255
161 199 255
161 199 255
161 199 255
161 199 255
161 199 255
161 199 255
161 199 255
161 199 255
161 199 255
161 199 255
160 198 255
160 198 255
160 198 255
160 198 255
160 198 255
160 198 255
160 198 255
160 198 255
160 198 255
160 198 255
159 198 255
159 198 255
159 198 255
159 198 255
159 198 255
159 198 255
159 198 255
159 197 255
159 197 255
159 197 255
158 197 255
158 197 255
158 197 255
158 197 255
158 197 255
158 197 255
158 197 255
158 197 255
158 197 255
158 197 255
157 197 255
157 197 255
157 196 255
157 196 255
157 196 255
157 196 255
157 196 255
157 196 255
157 196 255
156 196 255
156 196 255
156 196 255
156 196 255
156 196 255
156 196 255
156 196 255
156 196 255
156 196 255
155 195 255
155 195 255
155 195 255
155 195 255
155 195 255
155 195 255
155 195 255
155 195 255
155 195 255
154 195 255
154 195 255
154 195 255
154 195 255
154 195 255
154 195 255
154 194 255
154 194 255
154 194 255
153 194 255
153 194 255
153 194 255
153 194 255
153 194 255
153 194 255
153 194 255
153 194 255
153 194 255
153 194 255
152 194 255
152 194 255
152 194 255
152 193 255
152 193 255
152 193 255
152 193 255
152 193 255
152 193 255
151 193 255
151 193 255
151 193 255
151 193 255
151 193 255
151 193 255
151 193 255
151 193 255
151 193 255
151 193 255
150 192 255
150 192 255
150 192 255
150 192 255
150 192 255
150 192 255
150 192 255
150 192 255
150 192 255
150 192 255
150 192 255
149 192 255
149 192 255
149 192 255
149 192 255
149 192 255
149 192 255
149 192 255
149 192 255
149 191 255
149 191 255
149 191 255
149 191 255
149 191 255
148 191 255
148 191 255
148 191 255
148 191 255
148 191 255
148 191 255
148 191 255
148 191 255
148 191 255
148 191 255
148 191 255
148 191 255
148 191 255
148 191 255
148 191 255
148 191 255
147 191 255
147 191 255
147 191 255
147 191 255
147 191 255
147 191 255
147 191 255
147 191 255
147 190 255
147 190 255
147 190 255
147 190 255
147 190 255
147 190 255
147 190 255
147 190 255
147 190 255
147 190 255
147 190 255
147 190 255
147 190 255
147 190 255
147 190 255
147 190 255
147 190 255
147 190 255
147 190 255
147 190 255
147 190 255
147 190 255
147 190 255
147 190 255
147 190 255
147 190 255
147 190 255
147 190 255
147 190 255
147 190 255
147 190 255
147 190 255
147 190 255
147 190 255
147 190 255
147 190 255
147 190 255
147 190 255
147 190 255
147 190 255
147 190 255
147 190 255
147 190 255
147 191 255
147 191 255
147 191 255
147 191 255
147 191 255
147 191 255
147 191 255
148 191 255
148 191 255
148 191 255
148 191 255
148 191 255
148 191 255
148 191 255
148 191 255
148 191 255
148 191 255
148 191 255
148 191 255
148 191 255
148 191 255
148 191 255
148 191 255
149 191 255
149 191 255
149 191 255
149 191 255
149 191 255
149 192 255
149 192 255
149 192 255
149 192 255
149 192 255
149 192 255
149 192 255
149 192 255
150 192 255
150 192 255
150 192 255
150 192 255
150 192 255
150 192 255
150 192 255
150 192 255
150 192 255
150 192 255
150 192 255
151 193 255
151 193 255
151 193 255
151 193 255
151 193 255
151 193 255
151 193 255
151 193 255
151 193 255
151 193 255
152 193 255
152 193 255
152 193 255
152 193 255
152 193 255
152 193 255
152 194 255
152 194 255
152 194 255
153 194 255
153 194 255
153 194 255
153 194 255
153 194 255
153 194 255
153 194 255
153 194 255
153 194 255
153 194 255
154 194 255
154 194 255
154 194 255
154 195 255
154 195 255
154 195 255
154 195 255
154 195 255
154 195 255
155 195 255
155 195 255
155 195 255
155 195 255
155 195 255
155 195 255
155 195 255
155 195 255
155 195 255
156 196 255
156 196 255
156 196 255
156 196 255
156 196 255
156 196 255
156 196 255
156 196 255
156 196 255
157 196 255
157 196 255
157 196 255
157 196 255
157 196 255
157 196 255
157 197 255
157 197 255
157 197 255
157 197 255
158 197 255
158 197 255
158 197 255
158 197 255
158 197 255
158 197 255
158 197 255
158 197 255
158 197 255
159 197 255
159 197 255
159 197 255
159 198 255
159 198 255
159 198 255
159 198 255
159 198 255
159 198 255
159 198 255
160 198 255
160 198 255
160 198 255
160 198 255
160 198 255
160 198 255
160 198 255
160 198 255
160 198 255
160 198 255
161 199 255
161 199 255
161 199 255
161 199 255
161 199 255
161 199 255
161 199 255
161 199 255
161 199 255
161 199 255
162 199 255
162 199 255
162 199 255
162 199 255
162 199 255
162 199 255
162 199 255
162 200 255
162 200 255
162 200 255
162 200 255
163 200 255
163 200 255
163 200 255
163 200 255
163 200 255
163 200 255
163 200 255
163 200 255
163 200 255
163 200 255
163 200 255
164 200 255
164 200 255
164 200 255
164 200 255
164 201 255
164 201 255
164 200 255
164 200 255
164 200 255
164 200 255
163 200 255
163 200 255
163 200 255
163 200 255
163 200 255
163 200 255
163 200 255
163 200 255
163 200 255
163 200 255
163 200 255
162 200 255
162 200 255
162 200 255
162 200 255
162 199 255
162 199 255
162 199 255
162 199 255
162 199 255
162 199 255
162 199 255
161 199 255
161 199 255
161 199 255
161 199 255
161 199 255
161 199 255
161 199 255
161 199 255
161 199 255
161 199 255
160 198 255
160 198 255
160 198 255
160 198 255
160 198 255
160 198 255
160 198 255
160 198 255
160 198 255
160 198 255
159 198 255
159 198 255
159 198 255
159 198 255
159 198 255
159 198 255
159 198 255
159 197 255
159 197 255
159 197 255
158 197 255
158 197 255
158 197 255
158 197 255
158 197 255
158 197 255
158 197 255
158 197 255
158 197 255
158 197 255
157 197 255
157 197 255
157 197 255
157 196 255
157 196 255
157 196 255
157 196 255
157 196 255
157 196 255
156 196 255
156 196 255
156 196 255
156 196 255
156 196 255
156 196 255
156 196 255
156 196 255
156 196 255
155 195 255
155 195 255
155 195 255
155 195 255
155 195 255
155 195 255
155 195 255
155 195 255
155 195 255
154 195 255
154 195 255
154 195 255
154 195 255
154 195 255
154 195 255
154 194 255
154 194 255
154 194 255
153 194 255
153 194 255
153 194 255
153 194 255
153 194 255
153 194 255
153 194 255
153 194 255
153 194 255
153 194 255
152 194 255
152 194 255
152 194 255
152 193 255
152 193 255
152 193 255
152 193 255
152 193 255
152 193 255
151 193 255
151 193 255
151 193 255
151 193 255
151 193 255
151 193 255
151 193 255
151 193 255
151 193 255
151 193 255
150 192 255
150 192 255
150 192 255
150 192 255
150 192 255
150 192 255
150 192 255
150 192 255
150 192 255
150 192 255
150 192 255
150 192 255
149 192 255
149 192 255
149 192 255
149 192 255
149 192 255
149 192 255
149 192 255
149 192 255
149 191 255
149 191 255
149 191 255
149 191 255
149 191 255
148 191 255
148 191 255
148 191 255
148 191 255
148 191 255
148 191 255
148 191 255
148 191 255
148 191 255
148 191 255
148 191 255
148 191 255
148 191 255
148 191 255
148 191 255
148 191 255
148 191 255
147 191 255
147 191 255
147 191 255
147 191 255
147 191 255
147 191 255
147 191 255
147 191 255
147 191 255
147 191 255
147 190 255
147 190 255
147 190 255
147 190 255
147 190 255
147 190 255
147 190 255
147 190 255
147 190 255
147 190 255
147 190 255
147 190 255
147 190 255
147 190 255
147 190 255
147 190 255
147 190 255
147 190 255
147 190 255
147 190 255
147 190 255
147 190 255
147 190 255
147 190 255
147 190 255
147 190 255
147 190 255
147 190 255
147 190 255
147 190 255
147 191 255
147 191 255
147 191 255
147 191 255
147 191 255
147 191 255
147 191 255
147 191 255
147 191 255
148 191 255
148 191 255
148 191 255
148 191 255
148 191 255
148 191 255
148 191 255
148 191 255
148 191 255
148 191 255
148 191 255
148 191 255
148 191 255
148 191 255
148 191 255
148 191 255
148 191 255
148 191 255
149 191 255
149 191 255
149 191 255
149 191 255
149 191 255
149 192 255
149 192 255
149 192 255
149 192 255
149 192 255
149 192 255
149 192 255
149 192 255
150 192 255
150 192 255
150 192 255
150 192 255
150 192 255
150 192 255
150 192 255
150 192 255
150 192 255
150 192 255
150 192 255
151 193 255
151 193 255
151 193 255
151 193 255
151 193 255
151 193 255
151 193 255
151 193 255
151 193 255
151 193 255
151 193 255
152 193 255
152 193 255
152 193 255
152 193 255
152 193 255
152 193 255
152 194 255
152 194 255
152 194 255
153 194 255
153 194 255
153 194 255
153 194 255
153 194 255
153 194 255
153 194 255
153 194 255
153 194 255
153 194 255
154 194 255
154 194 255
154 194 255
154 195 255
154 195 255
154 195 255
154 195 255
154 195 255
154 195 255
155 195 255
155 195 255
155 195 255
155 195 255
155 195 255
155 195 255
155 195 255
155 195 255
155 195 255
156 196 255
156 196 255
156 196 255
156 196 255
156 196 255
156 196 255
156 196 255
156 196 255
156 196 255
157 196 255
157 196 255
157 196 255
157 196 255
157 196 255
157 196 255
157 197 255
157 197 255
157 197 255
158 197 255
158 197 255
158 197 255
158 197 255
158 197 255
158 197 255
158 197 255
158 197 255
158 197 255
158 197 255
159 197 255
159 197 255
159 197 255
159 198 255
159 198 255
159 198 255
159 198 255
159 198 255
159 198 255
159 198 255
160 198 255
160 198 255
160 198 255
160 198 255
160 198 255
160 198 255
160 198 255
160 198 255
160 198 255
160 198 255
161 199 255
161 199 255
161 199 255
161 199 255
161 199 255
161 199 255
161 199 255
161 199 255
161 199 255
161 199 255
162 199 255
162 199 255
162 199 255
162 199 255
162 199 255
162 199 255
162 199 255
162 200 255
162 200 255
162 200 255
163 200 255
163 200 255
163 200 255
163 200 255
163 200 255
163 200 255
163 200 255
163 200 255
163 200 255
163 200 255
163 200 255
163 200 255
164 200 255
164 200 255
164 200 255
164 200 255
164 201 255
164 201 255
164 201 255
164 201 255
164 201 255
164 201 255
164 201 255
164 200 255
164 200 255
164 200 255
164 200 255
163 200 255
163 200 255
163 200 255
163 200 255
163 200 255
163 200 255
163 200 255
163 200 255
163 200 255
163 200 255
163 200 255
162 200 255
162 200 255
162 200 255
162 199 255
162 199 255
162 199 255
162 199 255
162 199 255
162 199 255
162 199 255
161 199 255
161 199 255
161 199 255
161 199 255
161 199 255
161 199 255
161 199 255
161 199 255
161 199 255
161 199 255
161 199 255
160 198 255
160 198 255
160 198 255
160 198 255
160 198 255
160 198 255
160 198 255
160 198 255
160 198 255
160 198 255
159 198 255
159 198 255
159 198 255
159 198 255
159 198 255
159 198 255
159 197 255
159 197 255
159 197 255
158 197 255
158 197 255
158 197 255
158 197 255
158 197 255
158 197 255
158 197 255
158 197 255
158 197 255
158 197 255
157 197 255
157 197 255
157 197 255
157 196 255
157 196 255
157 196 255
157 196 255
157 196 255
157 196 255
156 196 255
156 196 255
156 196 255
156 196 255
156 196 255
156 196 255
156 196 255
156 196 255
156 196 255
155 195 255
155 195 255
155 195 255
155 195 255
155 195 255
155 195 255
155 195 255
155 195 255
155 195 255
154 195 255
154 195 255
154 195 255
154 195 255
154 195 255
154 195 255
154 194 255
154 194 255
154 194 255
153 194 255
153 194 255
153 194 255
153 194 255
153 194 255
153 194 255
153 194 255
153 194 255
153 194 255
153 194 255
152 194 255
152 194 255
152 194 255
152 193 255
152 193 255
152 193 255
152 193 255
152 193 255
152 193 255
152 193 255
151 193 255
151 193 255
151 193 255
151 193 255
151 193 255
151 193 255
151 193 255
151 193 255
151 193 255
151 193 255
150 192 255
150 192 255
150 192 255
150 192 255
150 192 255
150 192 255
150 192 255
150 192 255
150 192 255
150 192 255
150 192 255
149 192 255
149 192 255
149 192 255
149 192 255
149 192 255
149 192 255
149 192 255
149 192 255
149 192 255
149 191 255
149 191 255
149 191 255
149 191 255
149 191 255
148 191 255
148 191 255
148 191 255
148 191 255
148 191 255
148 191 255
148 191 255
148 191 255
148 191 255
148 191 255
148 191 255
148 191 255
148 191 255
148 191 255
148 191 255
148 191 255
148 191 255
148 191 255
148 191 255
148 191 255
147 191 255
147 191 255
147 191 255
147 191 255
147 191 255
147 191 255
147 191 255
147 191 255
147 191 255
147 191 255
147 191 255
147 191 255
147 191 255
147 191 255
147 191 255
147 191 255
147 191 255
147 191 255
147 191 255
147 191 255
147 191 255
147 191 255
147 191 255
147 191 255
147 191 255
147 191 255
147 191 255
147 191 255
147 191 255
147 191 255
147 191 255
147 191 255
147 191 255
147 191 255
147 191 255
147 191 255
147 191 255
147 191 255
148 191 255
148 191 255
148 191 255
148 191 255
148 191 255
148 191 255
148 191 255
148 191 255
148 191 255
148 191 255
148 191 255
148 191 255
148 191 255
148 191 255
148 191 255
148 191 255
148 191 255
148 191 255
148 191 255
148 191 255
149 191 255
149 191 255
149 191 255
149 191 255
149 191 255
149 192 255
149 192 255
149 192 255
149 192 255
149 192 255
149 192 255
149 192 255
149 192 255
149 192 255
150 192 255
150 192 255
150 192 255
150 192 255
150 192 255
150 192 255
150 192 255
150 192 255
150 192 255
150 192 255
150 192 255
151 193 255
151 193 255
151 193 255
151 193 255
151 193 255
151 193 255
151 193 255
151 193 255
151 193 255
151 193 255
152 193 255
152 193 255
152 193 255
152 193 255
152 193 255
152 193 255
152 193 255
152 194 255
152 194 255
152 194 255
153 194 255
153 194 255
153 194 255
153 194 255
153 194 255
153 194 255
153 194 255
153 194 255
153 194 255
153 194 255
154 194 255
154 194 255
154 194 255
154 195 255
154 195 255
154 195 255
154 195 255
154 195 255
154 195 255
155 195 255
155 195 255
155 195 255
155 195 255
155 195 255
155 195 255
155 195 255
155 195 255
155 195 255
156 196 255
156 196 255
156 196 255
156 196 255
156 196 255
156 196 255
156 196 255
156 196 255
156 196 255
157 196 255
157 196 255
157 196 255
157 196 255
157 196 255
157 196 255
157 197 255
157 197 255
157 197 255
158 197 255
158 197 255
158 197 255
158 197 255
158 197 255
158 197 255
158 197 255
158 197 255
158 197 255
158 197 255
159 197 255
159 197 255
159 197 255
159 198 255
159 198 255
159 198 255
159 198 255
159 198 255
159 198 255
160 198 255
160 198 255
160 198 255
160 198 255
160 198 255
160 198 255
160 198 255
160 198 255
160 198 255
160 198 255
161 199 255
161 199 255
161 199 255
161 199 255
161 199 255
161 199 255
161 199 255
161 199 255
161 199 255
161 199 255
161 199 255
162 199 255
162 199 255
162 199 255
162 199 255
162 199 255
162 199 255
162 199 255
162 200 255
162 200 255
162 200 255
163 200 255
163 200 255
163 200 255
163 200 255
163 200 255
163 200 255
163 200 255
163 200 255
163 200 255
163 200 255
163 200 255
164 200 255
164 200 255
164 200 255
164 200 255
164 201 255
164 201 255
164 201 255
164 201 255
164 201 255
164 201 255
164 201 255
164 201 255
164 201 255
164 201 255
164 201 255
164 201 255
164 200 255
164 200 255
164 200 255
164 200 255
163 200 255
163 200 255
163 200 255
163 200 255
163 200 255
163 200 255
163 200 255
163 200 255
163 200 255
163 200 255
163 200 255
162 200 255
162 200 255
162 200 255
162 200 255
162 199 255
162 199 255
162 199 255
162 199 255
162 199 255
162 199 255
162 199 255
161 199 255
161 199 255
161 199 255
161 199 255
161 199 255
161 199 255
161 199 255
161 199 255
161 199 255
161 199 255
160 198 255
160 198 255
160 198 255
160 198 255
160 198 255
160 198 255
160 198 255
160 198 255
160 198 255
160 198 255
159 198 255
159 198 255
159 198 255
159 198 255
159 198 255
159 198 255
159 197 255
159 197 255
159 197 255
158 197 255
158 197 255
158 197 255
158 197 255
158 197 255
158 197 255
158 197 255
158 197 255
158 197 255
158 197 255
157 197 255
157 197 255
157 197 255
157 196 255
157 196 255
157 196 255
157 196 255
157 196 255
157 196 255
156 196 255
156 196 255
156 196 255
156 196 255
156 196 255
156 196 255
156 196 255
156 196 255
156 196 255
155 195 255
155 195 255
155 195 255
155 195 255
155 195 255
155 195 255
155 195 255
155 195 255
155 195 255
154 195 255
154 195 255
154 195 255
154 195 255
154 195 255
154 195 255
154 194 255
154 194 255
154 194 255
154 194 255
153 194 255
153 194 255
153 194 255
153 194 255
153 194 255
153 194 255
153 194 255
153 194 255
153 194 255
152 194 255
152 194 255
152 194 255
152 193 255
152 193 255
152 193 255
152 193 255
152 193 255
152 193 255
152 193 255
151 193 255
151 193 255
151 193 255
151 193 255
151 193 255
151 193 255
151 193 255
151 193 255
151 193 255
151 193 255
151 193 255
150 192 255
150 192 255
150 192 255
150 192 255
150 192 255
150 192 255
150 192 255
150 192 255
150 192 255
150 192 255
150 192 255
149 192 255
149 192 255
149 192 255
149 192 255
149 192 255
149 192 255
149 192 255
149 192 255
149 192 255
149 191 255
149 191 255
149 191 255
149 191 255
149 191 255
149 191 255
148 191 255
148 191 255
148 191 255
148 191 255
148 191 255
148 191 255
148 191 255
148 191 255
148 191 255
148 191 255
148 191 255
148 191 255
148 191 255
148 191 255
148 191 255
148 191 255
148 191 255
148 191 255
148 191 255
148 191 255
148 191 255
148 191 255
148 191 255
148 191 255
147 191 255
147 191 255
147 191 255
147 191 255
147 191 255
147 191 255
147 191 255
147 191 255
147 191 255
147 191 255
147 191 255
147 191 255
147 191 255
147 191 255
147 191 255
147 191 255
147 191 255
147 191 255
147 191 255
147 191 255
147 191 255
147 191 255
148 191 255
148 191 255
148 191 255
148 191 255
148 191 255
148 191 255
148 191 255
148 191 255
148 191 255
148 191 255
148 191 255
148 191 255
148 191 255
148 191 255
148 191 255
148 191 255
148 191 255
148 191 255
148 191 255
148 191 255
148 191 255
148 191 255
148 191 255
148 191 255
148 191 255
149 191 255
149 191 255
149 191 255
149 191 255
149 191 255
149 192 255
149 192 255
149 192 255
149 192 255
149 192 255
149 192 255
149 192 255
149 192 255
149 192 255
150 192 255
150 192 255
150 192 255
150 192 255
150 192 255
150 192 255
150 192 255
150 192 255
150 192 255
150 192 255
150 192 255
150 192 255
151 193 255
151 193 255
151 193 255
151 193 255
151 193 255
151 193 255
151 193 255
151 193 255
151 193 255
151 193 255
152 193 255
152 193 255
152 193 255
152 193 255
152 193 255
152 193 255
152 193 255
152 194 255
152 194 255
152 194 255
153 194 255
153 194 255
153 194 255
153 194 255
153 194 255
153 194 255
153 194 255
153 194 255
153 194 255
153 194 255
154 194 255
154 194 255
154 194 255
154 195 255
154 195 255
154 195 255
154 195 255
154 195 255
154 195 255
155 195 255
155 195 255
155 195 255
155 195 255
155 195 255
155 195 255
155 195 255
155 195 255
155 195 255
156 196 255
156 196 255
156 196 255
156 196 255
156 196 255
156 196 255
156 196 255
156 196 255
156 196 255
157 196 255
157 196 255
157 196 255
157 196 255
157 196 255
157 196 255
157 197 255
157 197 255
157 197 255
158 197 255
158 197 255
158 197 255
158 197 255
158 197 255
158 197 255
158 197 255
158 197 255
158 197 255
158 197 255
159 197 255
159 197 255
159 197 255
159 198 255
159 198 255
159 198 255
159 198 255
159 198 255
159 198 255
160 198 255
160 198 255
160 198 255
160 198 255
160 198 255
160 198 255
160 198 255
160 198 255
160 198 255
160 198 255
161 199 255
161 199 255
161 199 255
161 199 255
161 199 255
161 199 255
161 199 255
161 199 255
161 199 255
161 199 255
162 199 255
162 199 255
162 199 255
162 199 255
162 199 255
162 199 255
162 199 255
162 200 255
162 200 255
162 200 255
162 200 255
163 200 255
163 200 255
163 200 255
163 200 255
163 200 255
163 200 255
163 200 255
163 200 255
163 200 255
163 200 255
163 200 255
164 200 255
164 200 255
164 200 255
164 200 255
164 201 255
164 201 255
164 201 255
164 201 255
164 201 255
164 201 255
164 201 255
165 201 255
165 201 255
164 201 255
164 201 255
164 201 255
164 201 255
164 201 255
164 201 255
164 201 255
164 201 255
164 200 255
164 200 255
164 200 255
163 200 255
163 200 255
163 200 255
163 200 255
163 200 255
163 200 255
163 200 255
163 200 255
163 200 255
163 200 255
163 200 255
162 200 255
162 200 255
162 200 255
162 200 255
162 199 255
162 199 255
162 199 255
162 199 255
162 199 255
162 199 255
162 199 255
161 199 255
161 199 255
161 199 255
161 199 255
161 199 255
161 199 255
161 199 255
161 199 255
161 199 255
161 199 255
160 198 255
160 198 255
160 198 255
160 198 255
160 198 255
160 198 255
160 198 255
160 198 255
160 198 255
160 198 255
159 198 255
159 198 255
159 198 255
159 198 255
159 198 255
159 198 255
159 197 255
159 197 255
159 197 255
159 197 255
158 197 255
158 197 255
158 197 255
158 197 255
158 197 255
158 197 255
158 197 255
158 197 255
158 197 255
157 197 255
157 197 255
157 197 255
157 196 255
157 196 255
157 196 255
157 196 255
157 196 255
157 196 255
156 196 255
156 196 255
156 196 255
156 196 255
156 196 255
156 196 255
156 196 255
156 196 255
156 196 255
155 195 255
155 195 255
155 195 255
155 195 255
155 195 255
155 195 255
155 195 255
155 195 255
155 195 255
154 195 255
154 195 255
154 195 255
154 195 255
154 195 255
154 195 255
154 195 255
154 194 255
154 194 255
154 194 255
153 194 255
153 194 255
153 194 255
153 194 255
153 194 255
153 194 255
153 194 255
153 194 255
153 194 255
152 194 255
152 194 255
152 194 255
152 193 255
152 193 255
152 193 255
152 193 255
152 193 255
152 193 255
152 193 255
151 193 255
151 193 255
151 193 255
151 193 255
151 193 255
151 193 255
151 193 255
151 193 255
151 193 255
151 193 255
151 193 255
150 192 255
150 192 255
150 192 255
150 192 255
150 192 255
150 192 255
150 192 255
150 192 255
150 192 255
150 192 255
150 192 255
150 192 255
149 192 255
149 192 255
149 192 255
149 192 255
149 192 255
149 192 255
149 192 255
149 192 255
149 192 255
149 192 255
149 191 255
149 191 255
149 191 255
149 191 255
149 191 255
148 191 255
148 191 255
148 191 255
148 191 255
148 191 255
148 191 255
148 191 255
148 191 255
148 191 255
148 191 255
148 191 255
148 191 255
148 191 255
148 191 255
148 191 255
148 191 255
148 191 255
148 191 255
148 191 255
148 191 255
148 191 255
148 191 255
148 191 255
148 191 255
148 191 255
148 191 255
148 191 255
148 191 255
148 191 255
148 191 255
148 191 255
148 191 255
148 191 255
148 191 255
148 191 255
148 191 255
148 191 255
148 191 255
148 191 255
148 191 255
148 191 255
148 191 255
148 191 255
148 191 255
148 191 255
148 191 255
148 191 255
148 191 255
148 191 255
148 191 255
148 191 255
148 191 255
148 191 255
148 191 255
148 191 255
148 191 255
148 191 255
148 191 255
148 191 255
148 191 255
148 191 255
148 191 255
148 191 255
148 191 255
149 191 255
149 191 255
149 191 255
149 191 255
149 191 255
149 192 255
149 192 255
149 192 255
149 192 255
149 192 255
149 192 255
149 192 255
149 192 255
149 192 255
149 192 255
150 192 255
150 192 255
150 192 255
150 192 255
150 192 255
150 192 255
150 192 255
150 192 255
150 192 255
150 192 255
150 192 255
150 192 255
151 193 255
151 193 255
151 193 255
151 193 255
151 193 255
151 193 255
151 193 255
151 193 255
151 193 255
151 193 255
151 193 255
152 193 255
152 193 255
152 193 255
152 193 255
152 193 255
152 193 255
152 193 255
152 194 255
152 194 255
152 194 255
153 194 255
153 194 255
153 194 255
153 194 255
153 194 255
153 194 255
153 194 255
153 194 255
153 194 255
154 194 255
154 194 255
154 194 255
154 195 255
154 195 255
154 195 255
154 195 255
154 195 255
154 195 255
154 195 255
155 195 255
155 195 255
155 195 255
155 195 255
155 195 255
155 195 255
155 195 255
155 195 255
155 195 255
156 196 255
156 196 255
156 196 255
156 196 255
156 196 255
156 196 255
156 196 255
156 196 255
156 196 255
157 196 255
157 196 255
157 196 255
157 196 255
157 196 255
157 196 255
157 197 255
157 197 255
157 197 255
158 197 255
158 197 255
158 197 255
158 197 255
158 197 255
158 197 255
158 197 255
158 197 255
158 197 255
158 197 255
159 197 255
159 197 255
159 197 255
159 198 255
159 198 255
159 198 255
159 198 255
159 198 255
159 198 255
160 198 255
160 198 255
160 198 255
160 198 255
160 198 255
160 198 255
160 198 255
160 198 255
160 198 255
160 198 255
161 199 255
161 199 255
161 199 255
161 199 255
161 199 255
161 199 255
161 199 255
161 199 255
161 199 255
161 199 255
162 199 255
162 199 255
162 199 255
162 199 255
162 199 255
162 199 255
162 199 255
162 200 255
162 200 255
162 200 255
162 200 255
163 200 255
163 200 255
163 200 255
163 200 255
163 200 255
163 200 255
163 200 255
163 200 255
163 200 255
163 200 255
163 200 255
164 200 255
164 200 255
164 200 255
164 201 255
164 201 255
164 201 255
164 201 255
164 201 255
164 201 255
164 201 255
164 201 255
165 201 255
165 201 255
165 201 255
165 201 255
165 201 255
165 201 255
164 201 255
164 201 255
164 201 255
164 201 255
164 201 255
164 201 255
164 201 255
164 201 255
164 200 255
164 200 255
164 200 255
164 200 255
163 200 255
163 200 255
163 200 255
163 200 255
163 200 255
163 200 255
163 200 255
163 200 255
163 200 255
163 200 255
163 200 255
162 200 255
162 200 255
162 200 255
162 199 255
162 199 255
162 199 255
162 199 255
162 199 255
162 199 255
162 199 255
161 199 255
161 199 255
161 199 255
161 199 255
161 199 255
161 199 255
161 199 255
161 199 255
161 199 255
161 199 255
160 198 255
160 198 255
160 198 255
160 198 255
160 198 255
160 198 255
160 198 255
160 198 255
160 198 255
160 198 255
159 198 255
159 198 255
159 198 255
159 198 255
159 198 255
159 198 255
159 198 255
159 197 255
159 197 255
159 197 255
158 197 255
158 197 255
158 197 255
158 197 255
158 197 255
158 197 255
158 197 255
158 197 255
158 197 255
157 197 255
157 197 255
157 197 255
157 196 255
157 196 255
157 196 255
157 196 255
157 196 255
157 196 255
156 196 255
156 196 255
156 196 255
156 196 255
156 196 255
156 196 255
156 196 255
156 196 255
156 196 255
155 195 255
155 195 255
155 195 255
155 195 255
155 195 255
155 195 255
155 195 255
155 195 255
155 195 255
155 195 255
154 195 255
154 195 255
154 195 255
154 195 255
154 195 255
154 195 255
154 194 255
154 194 255
154 194 255
153 194 255
153 194 255
153 194 255
153 194 255
153 194 255
153 194 255
153 194 255
153 194 255
153 194 255
152 194 255
152 194 255
152 194 255
152 194 255
152 193 255
152 193 255
152 193 255
152 193 255
152 193 255
152 193 255
152 193 255
151 193 255
151 193 255
151 193 255
151 193 255
151 193 255
151 193 255
151 193 255
151 193 255
151 193 255
151 193 255
151 193 255
150 192 255
150 192 255
150 192 255
150 192 255
150 192 255
150 192 255
150 192 255
150 192 255
150 192 255
150 192 255
150 192 255
150 192 255
149 192 255
149 192 255
149 192 255
149 192 255
149 192 255
149 192 255
149 192 255
149 192 255
149 192 255
149 192 255
149 191 255
149 191 255
149 191 255
149 191 255
149 191 255
149 191 255
149 191 255
148 191 255
148 191 255
148 191 255
148 191 255
148 191 255
148 191 255
148 191 255
148 191 255
148 191 255
148 191 255
148 191 255
148 191 255
148 191 255
148 191 255
148 191 255
148 191 255
148 191 255
148 191 255
148 191 255
148 191 255
148 191 255
148 191 255
148 191 255
148 191 255
148 191 255
148 191 255
148 191 255
148 191 255
148 191 255
148 191 255
148 191 255
148 191 255
148 191 255
148 191 255
148 191 255
148 191 255
148 191 255
148 191 255
148 191 255
148 191 255
148 191 255
148 191 255
148 191 255
148 191 255
148 191 255
148 191 255
148 191 255
148 191 255
148 191 255
148 191 255
148 191 255
148 191 255
148 191 255
148 191 255
149 191 255
149 191 255
149 191 255
149 191 255
149 191 255
149 191 255
149 191 255
149 192 255
149 192 255
149 192 255
149 192 255
149 192 255
149 192 255
149 192 255
149 192 255
149 192 255
149 192 255
150 192 255
150 192 255
150 192 255
150 192 255
150 192 255
150 192 255
150 192 255
150 192 255
150 192 255
150 192 255
150 192 255
150 192 255
151 193 255
151 193 255
151 193 255
151 193 255
151 193 255
151 193 255
151 193 255
151 193 255
151 193 255
151 193 255
151 193 255
151 193 255
152 193 255
152 193 255
152 193 255
152 193 255
152 193 255
152 193 255
152 194 255
152 194 255
152 194 255
152 194 255
153 194 255
153 194 255
153 194 255
153 194 255
153 194 255
153 194 255
153 194 255
153 194 255
153 194 255
154 194 255
154 194 255
154 194 255
154 195 255
154 195 255
154 195 255
154 195 255
154 195 255
154 195 255
155 195 255
155 195 255
155 195 255
155 195 255
155 195 255
155 195 255
155 195 255
155 195 255
155 195 255
155 195 255
156 196 255
156 196 255
156 196 255
156 196 255
156 196 255
156 196 255
156 196 255
156 196 255
156 196 255
157 196 255
157 196 255
157 196 255
157 196 255
157 196 255
157 196 255
157 197 255
157 197 255
157 197 255
158 197 255
158 197 255
158 197 255
158 197 255
158 197 255
158 197 255
158 197 255
158 197 255
158 197 255
159 197 255
159 197 255
159 197 255
159 198 255
159 198 255
159 198 255
159 198 255
159 198 255
159 198 255
159 198 255
160 198 255
160 198 255
160 198 255
160 198 255
160 198 255
160 198 255
160 198 255
160 198 255
160 198 255
160 198 255
161 199 255
161 199 255
161 199 255
161 199 255
161 199 255
161 199 255
161 199 255
161 199 255
161 199 255
161 199 255
162 199 255
162 199 255
162 199 255
162 199 255
162 199 255
162 199 255
162 199 255
162 200 255
162 200 255
162 200 255
163 200 255
163 200 255
163 200 255
163 200 255
163 200 255
163 200 255
163 200 255
163 200 255
163 200 255
163 200 255
163 200 255
164 200 255
164 200 255
164 200 255
164 200 255
164 201 255
164 201 255
164 201 255
164 201 255
164 201 255
164 201 255
164 201 255
164 201 255
165 201 255
165 201 255
165 201 255
165 201 255
165 201 255
165 201 255
165 201 255
165 201 255
165 201 255
165 201 255
165 201 255
164 201 255
164 201 255
164 201 255
164 201 255
164 201 255
164 201 255
164 201 255
164 200 255
164 200 255
164 200 255
164 200 255
163 200 255
163 200 255
163 200 255
163 200 255
163 200 255
163 200 255
163 200 255
163 200 255
163 200 255
163 200 255
163 200 255
162 200 255
162 200 255
162 200 255
162 200 255
162 199 255
162 199 255
162 199 255
162 199 255
162 199 255
162 199 255
162 199 255
161 199 255
161 199 255
161 199 255
161 199 255
161 199 255
161 199 255
161 199 255
161 199 255
161 199 255
161 199 255
160 198 255
160 198 255
160 198 255
160 198 255
160 198 255
160 198 255
160 198 255
160 198 255
160 198 255
159 198 255
159 198 255
159 198 255
159 198 255
159 198 255
159 198 255
159 198 255
159 197 255
159 197 255
159 197 255
158 197 255
158 197 255
158 197 255
158 197 255
158 197 255
158 197 255
158 197 255
158 197 255
158 197 255
157 197 255
157 197 255
157 197 255
157 196 255
157 196 255
157 196 255
157 196 255
157 196 255
157 196 255
156 196 255
156 196 255
156 196 255
156 196 255
156 196 255
156 196 255
156 196 255
156 196 255
156 196 255
156 196 255
155 195 255
155 195 255
155 195 255
155 195 255
155 195 255
155 195 255
155 195 255
155 195 255
155 195 255
154 195 255
154 195 255
154 195 255
154 195 255
154 195 255
154 195 255
154 194 255
154 194 255
154 194 255
153 194 255
153 194 255
153 194 255
153 194 255
153 194 255
153 194 255
153 194 255
153 194 255
153 194 255
153 194 255
152 194 255
152 194 255
152 194 255
152 193 255
152 193 255
152 193 255
152 193 255
152 193 255
152 193 255
152 193 255
151 193 255
151 193 255
151 193 255
151 193 255
151 193 255
151 193 255
151 193 255
151 193 255
151 193 255
151 193 255
151 193 255
150 192 255
150 192 255
150 192 255
150 192 255
150 192 255
150 192 255
150 192 255
150 192 255
150 192 255
150 192 255
150 192 255
150 192 255
150 192 255
149 192 255
149 192 255
149 192 255
149 192 255
149 192 255
149 192 255
149 192 255
149 192 255
149 192 255
149 192 255
149 192 255
149 192 255
149 191 255
149 191 255
149 191 255
149 191 255
149 191 255
149 191 255
149 191 255
148 191 255
148 191 255
148 191 255
148 191 255
148 191 255
148 191 255
148 191 255
148 191 255
148 191 255
148 191 255
148 191 255
148 191 255
148 191 255
148 191 255
148 191 255
148 191 255
148 191 255
148 191 255
148 191 255
148 191 255
148 191 255
148 191 255
148 191 255
148 191 255
148 191 255
148 191 255
148 191 255
148 191 255
148 191 255
148 191 255
148 191 255
148 191 255
148 191 255
148 191 255
148 191 255
148 191 255
148 191 255
148 191 255
148 191 255
148 191 255
148 191 255
148 191 255
148 191 255
148 191 255
149 191 255
149 191 255
149 191 255
149 191 255
149 191 255
149 191 255
149 191 255
149 191 255
149 192 255
149 192 255
149 192 255
149 192 255
149 192 255
149 192 255
149 192 255
149 192 255
149 192 255
149 192 255
149 192 255
150 192 255
150 192 255
150 192 255
150 192 255
150 192 255
150 192 255
150 192 255
150 192 255
150 192 255
150 192 255
150 192 255
150 192 255
150 192 255
151 193 255
151 193 255
151 193 255
151 193 255
151 193 255
151 193 255
151 193 255
151 193 255
151 193 255
151 193 255
151 193 255
152 193 255
152 193 255
152 193 255
152 193 255
152 193 255
152 193 255
152 193 255
152 194 255
152 194 255
152 194 255
153 194 255
153 194 255
153 194 255
153 194 255
153 194 255
153 194 255
153 194 255
153 194 255
153 194 255
153 194 255
154 194 255
154 194 255
154 194 255
154 195 255
154 195 255
154 195 255
154 195 255
154 195 255
154 195 255
155 195 255
155 195 255
155 195 255
155 195 255
155 195 255
155 195 255
155 195 255
155 195 255
155 195 255
156 196 255
156 196 255
156 196 255
156 196 255
156 196 255
156 196 255
156 196 255
156 196 255
156 196 255
156 196 255
157 196 255
157 196 255
157 196 255
157 196 255
157 196 255
157 196 255
157 197 255
157 197 255
157 197 255
158 197 255
158 197 255
158 197 255
158 197 255
158 197 255
158 197 255
158 197 255
158 197 255
158 197 255
159 197 255
159 197 255
159 197 255
159 198 255
159 198 255
159 198 255
159 198 255
159 198 255
159 198 255
159 198 255
160 198 255
160 198 255
160 198 255
160 198 255
160 198 255
160 198 255
160 198 255
160 198 255
160 198 255
161 199 255
161 199 255
161 199 255
161 199 255
161 199 255
161 199 255
161 199 255
161 199 255
161 199 255
161 199 255
162 199 255
162 199 255
162 199 255
162 199 255
162 199 255
162 199 255
162 199 255
162 200 255
162 200 255
162 200 255
162 200 255
163 200 255
163 200 255
163 200 255
163 200 255
163 200 255
163 200 255
163 200 255
163 200 255
163 200 255
163 200 255
163 200 255
164 200 255
164 200 255
164 200 255
164 200 255
164 201 255
164 201 255
164 201 255
164 201 255
164 201 255
164 201 255
164 201 255
165 201 255
165 201 255
165 201 255
165 201 255
165 201 255
165 201 255
165 201 255
165 201 255
165 201 255
165 201 255
165 201 255
165 201 255
165 201 255
165 201 255
165 201 255
165 201 255
164 201 255
164 201 255
164 201 255
164 201 255
164 201 255
164 201 255
164 201 255
164 201 255
164 200 255
164 200 255
164 200 255
164 200 255
163 200 255
163 200 255
163 200 255
163 200 255
163 200 255
163 200 255
163 200 255
163 200 255
163 200 255
163 200 255
162 200 255
162 200 255
162 200 255
162 200 255
162 199 255
162 199 255
162 199 255
162 199 255
162 199 255
162 199 255
162 199 255
161 199 255
161 199 255
161 199 255
161 199 255
161 199 255
161 199 255
161 199 255
161 199 255
161 199 255
161 199 255
160 198 255
160 198 255
160 198 255
160 198 255
160 198 255
160 198 255
160 198 255
160 198 255
160 198 255
159 198 255
159 198 255
159 198 255
159 198 255
159 198 255
159 198 255
159 198 255
159 197 255
159 197 255
159 197 255
158 197 255
158 197 255
158 197 255
158 197 255
158 197 255
158 197 255
158 197 255
158 197 255
158 197 255
157 197 255
157 197 255
157 197 255
157 197 255
157 196 255
157 196 255
157 196 255
157 196 255
157 196 255
157 196 255
156 196 255
156 196 255
156 196 255
156 196 255
156 196 255
156 196 255
156 196 255
156 196 255
156 196 255
155 195 255
155 195 255
155 195 255
155 195 255
155 195 255
155 195 255
155 195 255
155 195 255
155 195 255
154 195 255
154 195 255
154 195 255
154 195 255
154 195 255
154 195 255
154 194 255
154 194 255
154 194 255
153 194 255
153 194 255
153 194 255
153 194 255
153 194 255
153 194 255
153 194 255
153 194 255
153 194 255
153 194 255
152 194 255
152 194 255
152 194 255
152 194 255
152 193 255
152 193 255
152 193 255
152 193 255
152 193 255
152 193 255
152 193 255
151 193 255
151 193 255
151 193 255
151 193 255
151 193 255
151 193 255
151 193 255
151 193 255
151 193 255
151 193 255
151 193 255
150 192 255
150 192 255
150 192 255
150 192 255
150 192 255
150 192 255
150 192 255
150 192 255
150 192 255
150 192 255
150 192 255
150 192 255
150 192 255
150 192 255
149 192 255
149 192 255
149 192 255
149 192 255
149 192 255
149 192 255
149 192 255
149 192 255
149 192 255
149 192 255
149 192 255
149 192 255
149 191 255
149 191 255
149 191 255
149 191 255
149 191 255
149 191 255
149 191 255
149 191 255
149 191 255
149 191 255
148 191 255
148 191 255
148 191 255
148 191 255
148 191 255
148 191 255
148 191 255
148 191 255
148 191 255
148 191 255
148 191 255
148 191 255
148 191 255
148 191 255
148 191 255
148 191 255
148 191 255
148 191 255
148 191 255
148 191 255
148 191 255
148 191 255
148 191 255
148 191 255
148 191 255
148 191 255
148 191 255
148 191 255
148 191 255
148 191 255
148 191 255
149 191 255
149 191 255
149 191 255
149 191 255
149 191 255
149 191 255
149 191 255
149 191 255
149 192 255
149 192 255
149 192 255
149 192 255
149 192 255
149 192 255
149 192 255
149 192 255
149 192 255
149 192 255
149 192 255
149 192 255
149 192 255
150 192 255
150 192 255
150 192 255
150 192 255
150 192 255
150 192 255
150 192 255
150 192 255
150 192 255
150 192 255
150 192 255
150 192 255
150 192 255
150 192 255
151 193 255
151 193 255
151 193 255
151 193 255
151 193 255
151 193 255
151 193 255
151 193 255
151 193 255
151 193 255
151 193 255
152 193 255
152 193 255
152 193 255
152 193 255
152 193 255
152 193 255
152 193 255
152 194 255
152 194 255
152 194 255
152 194 255
153 194 255
153 194 255
153 194 255
153 194 255
153 194 255
153 194 255
153 194 255
153 194 255
153 194 255
153 194 255
154 194 255
154 194 255
154 194 255
154 195 255
154 195 255
154 195 255
154 195 255
154 195 255
154 195 255
155 195 255
155 195 255
155 195 255
155 195 255
155 195 255
155 195 255
155 195 255
155 195 255
155 195 255
156 196 255
156 196 255
156 196 255
156 196 255
156 196 255
156 196 255
156 196 255
156 196 255
156 196 255
156 196 255
157 196 255
157 196 255
157 196 255
157 196 255
157 196 255
157 196 255
157 197 255
157 197 255
157 197 255
158 197 255
158 197 255
158 197 255
158 197 255
158 197 255
158 197 255
158 197 255
158 197 255
158 197 255
159 197 255
159 197 255
159 197 255
159 198 255
159 198 255
159 198 255
159 198 255
159 198 255
159 198 255
160 198 255
160 198 255
160 198 255
160 198 255
160 198 255
160 198 255
160 198 255
160 198 255
160 198 255
160 198 255
161 199 255
161 199 255
161 199 255
161 199 255
161 199 255
161 199 255
161 199 255
161 199 255
161 199 255
161 199 255
162 199 255
162 199 255
162 199 255
162 199 255
162 199 255
162 199 255
162 199 255
162 200 255
162 200 255
162 200 255
163 200 255
163 200 255
163 200 255
163 200 255
163 200 255
163 200 255
163 200 255
163 200 255
163 200 255
163 200 255
163 200 255
164 200 255
164 200 255
164 200 255
164 200 255
164 201 255
164 201 255
164 201 255
164 201 255
164 201 255
164 201 255
164 201 255
164 201 255
165 201 255
165 201 255
165 201 255
165 201 255
165 201 255
165 201 255
165 201 255
165 201 255
165 201 255
165 201 255
165 201 255
165 201 255
165 201 255
165 201 255
165 201 255
165 201 255
165 201 255
165 201 255
165 201 255
165 201 255
165 201 255
164 201 255
164 201 255
164 201 255
164 201 255
164 201 255
164 201 255
164 201 255
164 200 255
164 200 255
164 200 255
164 200 255
163 200 255
163 200 255
163 200 255
163 200 255
163 200 255
163 200 255
163 200 255
163 200 255
163 200 255
163 200 255
163 200 255
162 200 255
162 200 255
162 200 255
162 199 255
162 199 255
162 199 255
162 199 255
162 199 255
162 199 255
162 199 255
161 199 255
161 199 255
161 199 255
161 199 255
161 199 255
161 199 255
161 199 255
161 199 255
161 199 255
161 199 255
160 198 255
160 198 255
160 198 255
160 198 255
160 198 255
160 198 255
160 198 255
160 198 255
160 198 255
160 198 255
159 198 255
159 198 255
159 198 255
159 198 255
159 198 255
159 198 255
159 197 255
159 197 255
159 197 255
158 197 255
158 197 255
158 197 255
158 197 255
158 197 255
158 197 255
158 197 255
158 197 255
158 197 255
158 197 255
157 197 255
157 197 255
157 197 255
157 196 255
157 196 255
157 196 255
157 196 255
157 196 255
157 196 255
156 196 255
156 196 255
156 196 255
156 196 255
156 196 255
156 196 255
156 196 255
156 196 255
156 196 255
155 195 255
155 195 255
155 195 255
155 195 255
155 195 255
155 195 255
155 195 255
155 195 255
155 195 255
154 195 255
154 195 255
154 195 255
154 195 255
154 195 255
154 195 255
154 195 255
154 194 255
154 194 255
154 194 255
153 194 255
153 194 255
153 194 255
153 194 255
153 194 255
153 194 255
153 194 255
153 194 255
153 194 255
153 194 255
152 194 255
152 194 255
152 194 255
152 193 255
152 193 255
152 193 255
152 193 255
152 193 255
152 193 255
152 193 255
151 193 255
151 193 255
151 193 255
151 193 255
151 193 255
151 193 255
151 193 255
151 193 255
151 193 255
151 193 255
151 193 255
151 193 255
150 192 255
150 192 255
150 192 255
150 192 255
150 192 255
150 192 255
150 192 255
150 192 255
150 192 255
150 192 255
150 192 255
150 192 255
150 192 255
150 192 255
150 192 255
149 192 255
149 192 255
149 192 255
149 192 255
149 192 255
149 192 255
149 192 255
149 192 255
149 192 255
149 192 255
149 192 255
149 192 255
149 192 255
149 192 255
149 191 255
149 191 255
149 191 255
149 191 255
149 191 255
149 191 255
149 191 255
149 191 255
149 191 255
149 191 255
149 191 255
149 191 255
149 191 255
149 191 255
149 191 255
149 191 255
149 191 255
149 191 255
149 191 255
149 191 255
149 191 255
149 191 255
149 191 255
149 191 255
149 191 255
149 191 255
149 191 255
149 191 255
149 191 255
149 191 255
149 191 255
149 191 255
149 191 255
149 191 255
149 191 255
149 191 255
149 191 255
149 191 255
149 192 255
149 192 255
149 192 255
149 192 255
149 192 255
149 192 255
149 192 255
149 192 255
149 192 255
149 192 255
149 192 255
149 192 255
149 192 255
149 192 255
150 192 255
150 192 255
150 192 255
150 192 255
150 192 255
150 192 255
150 192 255
150 192 255
150 192 255
150 192 255
150 192 255
150 192 255
150 192 255
150 192 255
150 192 255
151 193 255
151 193 255
151 193 255
151 193 255
151 193 255
151 193 255
151 193 255
151 193 255
151 193 255
151 193 255
151 193 255
151 193 255
152 193 255
152 193 255
152 193 255
152 193 255
152 193 255
152 193 255
152 193 255
152 194 255
152 194 255
152 194 255
153 194 255
153 194 255
153 194 255
153 194 255
153 194 255
153 194 255
153 194 255
153 194 255
153 194 255
153 194 255
154 194 255
154 194 255
154 194 255
154 195 255
154 195 255
154 195 255
154 195 255
154 195 255
154 195 255
154 195 255
155 195 255
155 195 255
155 195 255
155 195 255
155 195 255
155 195 255
155 195 255
155 195 255
155 195 255
156 196 255
156 196 255
156 196 255
156 196 255
156 196 255
156 196 255
156 196 255
156 196 255
156 196 255
157 196 255
157 196 255
157 196 255
157 196 255
157 196 255
157 196 255
157 197 255
157 197 255
157 197 255
158 197 255
158 197 255
158 197 255
158 197 255
158 197 255
158 197 255
158 197 255
158 197 255
158 197 255
158 197 255
159 197 255
159 197 255
159 197 255
159 198 255
159 198 255
159 198 255
159 198 255
159 198 255
159 198 255
160 198 255
160 198 255
160 198 255
160 198 255
160 198 255
160 198 255
160 198 255
160 198 255
160 198 255
160 198 255
161 199 255
161 199 255
161 199 255
161 199 255
161 199 255
161 199 255
161 199 255
161 199 255
161 199 255
161 199 255
162 199 255
162 199 255
162 199 255
162 199 255
162 199 255
162 199 255
162 199 255
162 200 255
162 200 255
162 200 255
163 200 255
163 200 255
163 200 255
163 200 255
163 200 255
163 200 255
163 200 255
163 200 255
163 200 255
163 200 255
163 200 255
164 200 255
164 200 255
164 200 255
164 200 255
164 201 255
164 201 255
164 201 255
164 201 255
164 201 255
164 201 255
164 201 255
165 201 255
165 201 255
165 201 255
165 201 255
165 201 255
165 201 255
165 201 255
165 201 255
165 201 255
165 201 255
165 201 255
165 201 255
166 202 255
166 202 255
166 202 255
165 201 255
165 201 255
165 201 255
165 201 255
165 201 255
165 201 255
165 201 255
165 201 255
165 201 255
165 201 255
165 201 255
164 201 255
164 201 255
164 201 255
164 201 255
164 201 255
164 201 255
164 201 255
164 201 255
164 200 255
164 200 255
164 200 255
164 200 255
163 200 255
163 200 255
163 200 255
163 200 255
163 200 255
163 200 255
163 200 255
163 200 255
163 200 255
163 200 255
162 200 255
162 200 255
162 200 255
162 200 255
162 199 255
162 199 255
162 199 255
162 199 255
162 199 255
162 199 255
161 199 255
161 199 255
161 199 255
161 199 255
161 199 255
161 199 255
161 199 255
161 199 255
161 199 255
161 199 255
160 198 255
160 198 255
160 198 255
160 198 255
160 198 255
160 198 255
160 198 255
160 198 255
160 198 255
160 198 255
159 198 255
159 198 255
159 198 255
159 198 255
159 198 255
159 198 255
159 197 255
159 197 255
159 197 255
159 197 255
158 197 255
158 197 255
158 197 255
158 197 255
158 197 255
158 197 255
158 197 255
158 197 255
158 197 255
157 197 255
157 197 255
157 197 255
157 196 255
157 196 255
157 196 255
157 196 255
157 196 255
157 196 255
156 196 255
156 196 255
156 196 255
156 196 255
156 196 255
156 196 255
156 196 255
156 196 255
156 196 255
155 195 255
155 195 255
155 195 255
155 195 255
155 195 255
155 195 255
155 195 255
155 195 255
155 195 255
154 195 255
154 195 255
154 195 255
154 195 255
154 195 255
154 195 255
154 195 255
154 194 255
154 194 255
154 194 255
153 194 255
153 194 255
153 194 255
153 194 255
153 194 255
153 194 255
153 194 255
153 194 255
153 194 255
153 194 255
152 194 255
152 194 255
152 194 255
152 194 255
152 193 255
152 193 255
152 193 255
152 193 255
152 193 255
152 193 255
152 193 255
151 193 255
151 193 255
151 193 255
151 193 255
151 193 255
151 193 255
151 193 255
151 193 255
151 193 255
151 193 255
151 193 255
151 193 255
150 192 255
150 192 255
150 192 255
150 192 255
150 192 255
150 192 255
150 192 255
150 192 255
150 192 255
150 192 255
150 192 255
150 192 255
150 192 255
150 192 255
150 192 255
150 192 255
149 192 255
149 192 255
149 192 255
149 192 255
149 192 255
149 192 255
149 192 255
149 192 255
149 192 255
149 192 255
149 192 255
149 192 255
149 192 255
149 192 255
149 192 255
149 192 255
149 192 255
149 192 255
149 192 255
149 192 255
149 191 255
149 191 255
149 191 255
149 191 255
149 191 255
149 191 255
149 191 255
149 191 255
149 191 255
149 191 255
149 191 255
149 191 255
149 191 255
149 191 255
149 191 255
149 191 255
149 191 255
149 191 255
149 191 255
149 192 255
149 192 255
149 192 255
149 192 255
149 192 255
149 192 255
149 192 255
149 192 255
149 192 255
149 192 255
149 192 255
149 192 255
149 192 255
149 192 255
149 192 255
149 192 255
149 192 255
149 192 255
149 192 255
150 192 255
150 192 255
150 192 255
150 192 255
150 192 255
150 192 255
150 192 255
150 192 255
150 192 255
150 192 255
150 192 255
150 192 255
150 192 255
150 192 255
150 192 255
150 192 255
151 193 255
151 193 255
151 193 255
151 193 255
151 193 255
151 193 255
151 193 255
151 193 255
151 193 255
151 193 255
151 193 255
151 193 255
152 193 255
152 193 255
152 193 255
152 193 255
152 193 255
152 193 255
152 193 255
152 194 255
152 194 255
152 194 255
152 194 255
153 194 255
153 194 255
153 194 255
153 194 255
153 194 255
153 194 255
153 194 255
153 194 255
153 194 255
153 194 255
154 194 255
154 194 255
154 194 255
154 195 255
154 195 255
154 195 255
154 195 255
154 195 255
154 195 255
154 195 255
155 195 255
155 195 255
155 195 255
155 195 255
155 195 255
155 195 255
155 195 255
155 195 255
155 195 255
156 196 255
156 196 255
156 196 255
156 196 255
156 196 255
156 196 255
156 196 255
156 196 255
156 196 255
157 196 255
157 196 255
157 196 255
157 196 255
157 196 255
157 196 255
157 197 255
157 197 255
157 197 255
158 197 255
158 197 255
158 197 255
158 197 255
158 197 255
158 197 255
158 197 255
158 197 255
158 197 255
158 197 255
159 197 255
159 197 255
159 198 255
159 198 255
159 198 255
159 198 255
159 198 255
159 198 255
159 198 255
160 198 255
160 198 255
160 198 255
160 198 255
160 198 255
160 198 255
160 198 255
160 198 255
160 198 255
161 199 255
161 199 255
161 199 255
161 199 255
161 199 255
161 199 255
161 199 255
161 199 255
161 199 255
161 199 255
161 199 255
162 199 255
162 199 255
162 199 255
162 199 255
162 199 255
162 199 255
162 200 255
162 200 255
162 200 255
162 200 255
163 200 255
163 200 255
163 200 255
163 200 255
163 200 255
163 200 255
163 200 255
163 200 255
163 200 255
163 200 255
164 200 255
164 200 255
164 200 255
164 200 255
164 201 255
164 201 255
164 201 255
164 201 255
164 201 255
164 201 255
164 201 255
164 201 255
165 201 255
165 201 255
165 201 255
165 201 255
165 201 255
165 201 255
165 201 255
165 201 255
165 201 255
165 201 255
165 201 255
166 202 255
166 202 255
166 202 255
166 202 255
166 202 255
166 202 255
166 202 255
166 202 255
165 201 255
165 201 255
165 201 255
165 201 255
165 201 255
165 201 255
165 201 255
165 201 255
165 201 255
165 201 255
165 201 255
165 201 255
164 201 255
164 201 255
164 201 255
164 201 255
164 201 255
164 201 255
164 201 255
164 200 255
164 200 255
164 200 255
164 200 255
163 200 255
163 200 255
163 200 255
163 200 255
163 200 255
163 200 255
163 200 255
163 200 255
163 200 255
163 200 255
163 200 255
162 200 255
162 200 255
162 200 255
162 199 255
162 199 255
162 199 255
162 199 255
162 199 255
162 199 255
162 199 255
161 199 255
161 199 255
161 199 255
161 199 255
161 199 255
161 199 255
161 199 255
161 199 255
161 199 255
161 199 255
160 198 255
160 198 255
160 198 255
160 198 255
160 198 255
160 198 255
160 198 255
160 198 255
160 198 255
159 198 255
159 198 255
159 198 255
159 198 255
159 198 255
159 198 255
159 197 255
159 197 255
159 197 255
159 197 255
158 197 255
158 197 255
158 197 255
158 197 255
158 197 255
158 197 255
158 197 255
158 197 255
158 197 255
157 197 255
157 197 255
157 197 255
157 196 255
157 196 255
157 196 255
157 196 255
157 196 255
157 196 255
156 196 255
156 196 255
156 196 255
156 196 255
156 196 255
156 196 255
156 196 255
156 196 255
156 196 255
155 195 255
155 195 255
155 195 255
155 195 255
155 195 255
155 195 255
155 195 255
155 195 255
155 195 255
155 195 255
154 195 255
154 195 255
154 195 255
154 195 255
154 195 255
154 195 255
154 194 255
154 194 255
154 194 255
153 194 255
153 194 255
153 194 255
153 194 255
153 194 255
153 194 255
153 194 255
153 194 255
153 194 255
153 194 255
153 194 255
152 194 255
152 194 255
152 194 255
152 193 255
152 193 255
152 193 255
152 193 255
152 193 255
152 193 255
152 193 255
152 193 255
151 193 255
151 193 255
151 193 255
151 193 255
151 193 255
151 193 255
151 193 255
151 193 255
151 193 255
151 193 255
151 193 255
151 193 255
151 193 255
150 192 255
150 192 255
150 192 255
150 192 255
150 192 255
150 192 255
150 192 255
150 192 255
150 192 255
150 192 255
150 192 255
150 192 255
150 192 255
150 192 255
150 192 255
150 192 255
150 192 255
149 192 255
149 192 255
149 192 255
149 192 255
149 192 255
149 192 255
149 192 255
149 192 255
149 192 255
149 192 255
149 192 255
149 192 255
149 192 255
149 192 255
149 192 255
149 192 255
149 192 255
149 192 255
149 192 255
149 192 255
149 192 255
149 192 255
149 192 255
149 192 255
149 192 255
149 192 255
149 192 255
149 192 255
149 192 255
149 192 255
149 192 255
149 192 255
149 192 255
149 192 255
149 192 255
149 192 255
149 192 255
149 192 255
149 192 255
149 192 255
149 192 255
149 192 255
149 192 255
149 192 255
149 192 255
149 192 255
149 192 255
149 192 255
150 192 255
150 192 255
150 192 255
150 192 255
150 192 255
150 192 255
150 192 255
150 192 255
150 192 255
150 192 255
150 192 255
150 192 255
150 192 255
150 192 255
150 192 255
150 192 255
150 192 255
151 193 255
151 193 255
151 193 255
151 193 255
151 193 255
151 193 255
151 193 255
151 193 255
151 193 255
151 193 255
151 193 255
151 193 255
151 193 255
152 193 255
152 193 255
152 193 255
152 193 255
152 193 255
152 193 255
152 193 255
152 193 255
152 194 255
152 194 255
152 194 255
153 194 255
153 194 255
153 194 255
153 194 255
153 194 255
153 194 255
153 194 255
153 194 255
153 194 255
153 194 255
153 194 255
154 194 255
154 194 255
154 194 255
154 195 255
154 195 255
154 195 255
154 195 255
154 195 255
154 195 255
155 195 255
155 195 255
155 195 255
155 195 255
155 195 255
155 195 255
155 195 255
155 195 255
155 195 255
155 195 255
156 196 255
156 196 255
156 196 255
156 196 255
156 196 255
156 196 255
156 196 255
156 196 255
156 196 255
157 196 255
157 196 255
157 196 255
157 196 255
157 196 255
157 196 255
157 197 255
157 197 255
157 197 255
158 197 255
158 197 255
158 197 255
158 197 255
158 197 255
158 197 255
158 197 255
158 197 255
158 197 255
159 197 255
159 197 255
159 197 255
159 198 255
159 198 255
159 198 255
159 198 255
159 198 255
159 198 255
159 198 255
160 198 255
160 198 255
160 198 255
160 198 255
160 198 255
160 198 255
160 198 255
160 198 255
160 198 255
160 198 255
161 199 255
161 199 255
161 199 255
161 199 255
161 199 255
161 199 255
161 199 255
161 199 255
161 199 255
162 199 255
162 199 255
162 199 255
162 199 255
162 199 255
162 199 255
162 199 255
162 200 255
162 200 255
162 200 255
163 200 255
163 200 255
163 200 255
163 200 255
163 200 255
163 200 255
163 200 255
163 200 255
163 200 255
163 200 255
163 200 255
164 200 255
164 200 255
164 200 255
164 200 255
164 201 255
164 201 255
164 201 255
164 201 255
164 201 255
164 201 255
164 201 255
165 201 255
165 201 255
165 201 255
165 201 255
165 201 255
165 201 255
165 201 255
165 201 255
165 201 255
165 201 255
165 201 255
165 201 255
166 202 255
166 202 255
166 202 255
166 202 255
166 202 255
166 202 255
166 202 255
166 202 255
166 202 255
166 202 255
166 202 255
166 202 255
166 202 255
165 201 255
165 201 255
165 201 255
165 201 255
165 201 255
165 201 255
165 201 255
165 201 255
165 201 255
165 201 255
165 201 255
164 201 255
164 201 255
164 201 255
164 201 255
164 201 255
164 201 255
164 201 255
164 201 255
164 200 255
164 200 255
164 200 255
163 200 255
163 200 255
163 200 255
163 200 255
163 200 255
163 200 255
163 200 255
163 200 255
163 200 255
163 200 255
163 200 255
162 200 255
162 200 255
162 200 255
162 199 255
162 199 255
162 199 255
162 199 255
162 199 255
162 199 255
162 199 255
161 199 255
161 199 255
161 199 255
161 199 255
161 199 255
161 199 255
161 199 255
161 199 255
161 199 255
161 199 255
160 198 255
160 198 255
160 198 255
160 198 255
160 198 255
160 198 255
160 198 255
160 198 255
160 198 255
160 198 255
159 198 255
159 198 255
159 198 255
159 198 255
159 198 255
159 198 255
159 197 255
159 197 255
159 197 255
158 197 255
158 197 255
158 197 255
158 197 255
158 197 255
158 197 255
158 197 255
158 197 255
158 197 255
157 197 255
157 197 255
157 197 255
157 196 255
157 196 255
157 196 255
157 196 255
157 196 255
157 196 255
157 196 255
156 196 255
156 196 255
156 196 255
156 196 255
156 196 255
156 196 255
156 196 255
156 196 255
156 196 255
155 195 255
155 195 255
155 195 255
155 195 255
155 195 255
155 195 255
155 195 255
155 195 255
155 195 255
154 195 255
154 195 255
154 195 255
154 195 255
154 195 255
154 195 255
154 195 255
154 194 255
154 194 255
154 194 255
153 194 255
153 194 255
153 194 255
153 194 255
153 194 255
153 194 255
153 194 255
153 194 255
153 194 255
153 194 255
152 194 255
152 194 255
152 194 255
152 194 255
152 193 255
152 193 255
152 193 255
152 193 255
152 193 255
152 193 255
152 193 255
152 193 255
151 193 255
151 193 255
151 193 255
151 193 255
151 193 255
151 193 255
151 193 255
151 193 255
151 193 255
151 193 255
151 193 255
151 193 255
151 193 255
150 192 255
150 192 255
150 192 255
150 192 255
150 192 255
150 192 255
150 192 255
150 192 255
150 192 255
150 192 255
150 192 255
150 192 255
150 192 255
150 192 255
150 192 255
150 192 255
150 192 255
150 192 255
150 192 255
150 192 255
150 192 255
149 192 255
149 192 255
149 192 255
149 192 255
149 192 255
149 192 255
149 192 255
149 192 255
149 192 255
149 192 255
149 192 255
149 192 255
149 192 255
149 192 255
149 192 255
149 192 255
149 192 255
149 192 255
149 192 255
149 192 255
149 192 255
149 192 255
149 192 255
149 192 255
149 192 255
149 192 255
149 192 255
149 192 255
149 192 255
149 192 255
149 192 255
149 192 255
149 192 255
149 192 255
150 192 255
150 192 255
150 192 255
150 192 255
150 192 255
150 192 255
150 192 255
150 192 255
150 192 255
150 192 255
150 192 255
150 192 255
150 192 255
150 192 255
150 192 255
150 192 255
150 192 255
150 192 255
150 192 255
150 192 255
150 192 255
151 193 255
151 193 255
151 193 255
151 193 255
151 193 255
151 193 255
151 193 255
151 193 255
151 193 255
151 193 255
151 193 255
151 193 255
151 193 255
152 193 255
152 193 255
152 193 255
152 193 255
152 193 255
152 193 255
152 193 255
152 193 255
152 194 255
152 194 255
152 194 255
152 194 255
153 194 255
153 194 255
153 194 255
153 194 255
153 194 255
153 194 255
153 194 255
153 194 255
153 194 255
153 194 255
154 194 255
154 194 255
154 194 255
154 195 255
154 195 255
154 195 255
154 195 255
154 195 255
154 195 255
154 195 255
155 195 255
155 195 255
155 195 255
155 195 255
155 195 255
155 195 255
155 195 255
155 195 255
155 195 255
156 196 255
156 196 255
156 196 255
156 196 255
156 196 255
156 196 255
156 196 255
156 196 255
156 196 255
156 196 255
157 196 255
157 196 255
157 196 255
157 196 255
157 196 255
157 196 255
157 197 255
157 197 255
157 197 255
158 197 255
158 197 255
158 197 255
158 197 255
158 197 255
158 197 255
158 197 255
158 197 255
158 197 255
159 197 255
159 197 255
159 197 255
159 198 255
159 198 255
159 198 255
159 198 255
159 198 255
159 198 255
160 198 255
160 198 255
160 198 255
160 198 255
160 198 255
160 198 255
160 198 255
160 198 255
160 198 255
160 198 255
161 199 255
161 199 255
161 199 255
161 199 255
161 199 255
161 199 255
161 199 255
161 199 255
161 199 255
161 199 255
162 199 255
162 199 255
162 199 255
162 199 255
162 199 255
162 199 255
162 199 255
162 200 255
162 200 255
162 200 255
163 200 255
163 200 255
163 200 255
163 200 255
163 200 255
163 200 255
163 200 255
163 200 255
163 200 255
163 200 255
163 200 255
164 200 255
164 200 255
164 200 255
164 201 255
164 201 255
164 201 255
164 201 255
164 201 255
164 201 255
164 201 255
165 201 255
165 201 255
165 201 255
165 201 255
165 201 255
165 201 255
165 201 255
165 201 255
165 201 255
165 201 255
165 201 255
165 201 255
166 202 255
166 202 255
166 202 255
166 202 255
166 202 255
166 202 255
166 202 255
166 202 255
166 202 255
166 202 255
166 202 255
166 202 255
166 202 255
166 202 255
166 202 255
166 202 255
166 202 255
166 202 255
165 201 255
165 201 255
165 201 255
165 201 255
165 201 255
165 201 255
165 201 255
165 201 255
165 201 255
165 201 255
165 201 255
165 201 255
164 201 255
164 201 255
164 201 255
164 201 255
164 201 255
164 201 255
164 201 255
164 200 255
164 200 255
164 200 255
164 200 255
163 200 255
163 200 255
163 200 255
163 200 255
163 200 255
163 200 255
163 200 255
163 200 255
163 200 255
163 200 255
162 200 255
162 200 255
162 200 255
162 200 255
162 199 255
162 199 255
162 199 255
162 199 255
162 199 255
162 199 255
162 199 255
161 199 255
161 199 255
161 199 255
161 199 255
161 199 255
161 199 255
161 199 255
161 199 255
161 199 255
160 198 255
160 198 255
160 198 255
160 198 255
160 198 255
160 198 255
160 198 255
160 198 255
160 198 255
160 198 255
159 198 255
159 198 255
159 198 255
159 198 255
159 198 255
159 198 255
159 197 255
159 197 255
159 197 255
158 197 255
158 197 255
158 197 255
158 197 255
158 197 255
158 197 255
158 197 255
158 197 255
158 197 255
157 197 255
157 197 255
157 197 255
157 197 255
157 196 255
157 196 255
157 196 255
157 196 255
157 196 255
157 196 255
156 196 255
156 196 255
156 196 255
156 196 255
156 196 255
156 196 255
156 196 255
156 196 255
156 196 255
155 195 255
155 195 255
155 195 255
155 195 255
155 195 255
155 195 255
155 195 255
155 195 255
155 195 255
155 195 255
154 195 255
154 195 255
154 195 255
154 195 255
154 195 255
154 195 255
154 194 255
154 194 255
154 194 255
153 194 255
153 194 255
153 194 255
153 194 255
153 194 255
153 194 255
153 194 255
153 194 255
153 194 255
153 194 255
153 194 255
152 194 255
152 194 255
152 194 255
152 194 255
152 193 255
152 193 255
152 193 255
152 193 255
152 193 255
152 193 255
152 193 255
152 193 255
151 193 255
151 193 255
151 193 255
151 193 255
151 193 255
151 193 255
151 193 255
151 193 255
151 193 255
151 193 255
151 193 255
151 193 255
151 193 255
151 193 255
150 192 255
150 192 255
150 192 255
150 192 255
150 192 255
150 192 255
150 192 255
150 192 255
150 192 255
150 192 255
150 192 255
150 192 255
150 192 255
150 192 255
150 192 255
150 192 255
150 192 255
150 192 255
150 192 255
150 192 255
150 192 255
150 192 255
150 192 255
150 192 255
150 192 255
150 192 255
150 192 255
150 192 255
149 192 255
149 192 255
149 192 255
149 192 255
149 192 255
149 192 255
149 192 255
149 192 255
149 192 255
149 192 255
149 192 255
149 192 255
150 192 255
150 192 255
150 192 255
150 192 255
150 192 255
150 192 255
150 192 255
150 192 255
150 192 255
150 192 255
150 192 255
150 192 255
150 192 255
150 192 255
150 192 255
150 192 255
150 192 255
150 192 255
150 192 255
150 192 255
150 192 255
150 192 255
150 192 255
150 192 255
150 192 255
150 192 255
150 192 255
150 192 255
151 193 255
151 193 255
151 193 255
151 193 255
151 193 255
151 193 255
151 193 255
151 193 255
151 193 255
151 193 255
151 193 255
151 193 255
151 193 255
151 193 255
152 193 255
152 193 255
152 193 255
152 193 255
152 193 255
152 193 255
152 193 255
152 193 255
152 194 255
152 194 255
152 194 255
152 194 255
153 194 255
153 194 255
153 194 255
153 194 255
153 194 255
153 194 255
153 194 255
153 194 255
153 194 255
153 194 255
153 194 255
154 194 255
154 194 255
154 194 255
154 195 255
154 195 255
154 195 255
154 195 255
154 195 255
154 195 255
155 195 255
155 195 255
155 195 255
155 195 255
155 195 255
155 195 255
155 195 255
155 195 255
155 195 255
155 195 255
156 196 255
156 196 255
156 196 255
156 196 255
156 196 255
156 196 255
156 196 255
156 196 255
156 196 255
157 196 255
157 196 255
157 196 255
157 196 255
157 196 255
157 196 255
157 197 255
157 197 255
157 197 255
158 197 255
158 197 255
158 197 255
158 197 255
158 197 255
158 197 255
158 197 255
158 197 255
158 197 255
158 197 255
159 197 255
159 197 255
159 197 255
159 198 255
159 198 255
159 198 255
159 198 255
159 198 255
159 198 255
160 198 255
160 198 255
160 198 255
160 198 255
160 198 255
160 198 255
160 198 255
160 198 255
160 198 255
160 198 255
161 199 255
161 199 255
161 199 255
161 199 255
161 199 255
161 199 255
161 199 255
161 199 255
161 199 255
161 199 255
162 199 255
162 199 255
162 199 255
162 199 255
162 199 255
162 199 255
162 200 255
162 200 255
162 200 255
162 200 255
163 200 255
163 200 255
163 200 255
163 200 255
163 200 255
163 200 255
163 200 255
163 200 255
163 200 255
163 200 255
164 200 255
164 200 255
164 200 255
164 200 255
164 201 255
164 201 255
164 201 255
164 201 255
164 201 255
164 201 255
164 201 255
165 201 255
165 201 255
165 201 255
165 201 255
165 201 255
165 201 255
165 201 255
165 201 255
165 201 255
165 201 255
165 201 255
165 201 255
166 202 255
166 202 255
166 202 255
166 202 255
166 202 255
166 202 255
166 202 255
166 202 255
166 202 255
166 202 255
167 202 255
166 202 255
166 202 255
166 202 255
166 202 255
166 202 255
166 202 255
166 202 255
166 202 255
166 202 255
166 202 255
166 202 255
166 202 255
165 201 255
165 201 255
165 201 255
165 201 255
165 201 255
165 201 255
165 201 255
165 201 255
165 201 255
165 201 255
165 201 255
165 201 255
164 201 255
164 201 255
164 201 255
164 201 255
164 201 255
164 201 255
164 201 255
164 200 255
164 200 255
164 200 255
163 200 255
163 200 255
163 200 255
163 200 255
163 200 255
163 200 255
163 200 255
163 200 255
163 200 255
163 200 255
163 200 255
162 200 255
162 200 255
162 200 255
162 199 255
162 199 255
162 199 255
162 199 255
162 199 255
162 199 255
162 199 255
161 199 255
161 199 255
161 199 255
161 199 255
161 199 255
161 199 255
161 199 255
161 199 255
161 199 255
161 199 255
160 198 255
160 198 255
160 198 255
160 198 255
160 198 255
160 198 255
160 198 255
160 198 255
160 198 255
159 198 255
159 198 255
159 198 255
159 198 255
159 198 255
159 198 255
159 198 255
159 197 255
159 197 255
159 197 255
158 197 255
158 197 255
158 197 255
158 197 255
158 197 255
158 197 255
158 197 255
158 197 255
158 197 255
157 197 255
157 197 255
157 197 255
157 196 255
157 196 255
157 196 255
157 196 255
157 196 255
157 196 255
156 196 255
156 196 255
156 196 255
156 196 255
156 196 255
156 196 255
156 196 255
156 196 255
156 196 255
155 195 255
155 195 255
155 195 255
155 195 255
155 195 255
155 195 255
155 195 255
155 195 255
155 195 255
155 195 255
154 195 255
154 195 255
154 195 255
154 195 255
154 195 255
154 195 255
154 195 255
154 194 255
154 194 255
154 194 255
153 194 255
153 194 255
153 194 255
153 194 255
153 194 255
153 194 255
153 194 255
153 194 255
153 194 255
153 194 255
153 194 255
152 194 255
152 194 255
152 194 255
152 194 255
152 193 255
152 193 255
152 193 255
152 193 255
152 193 255
152 193 255
152 193 255
152 193 255
151 193 255
151 193 255
151 193 255
151 193 255
151 193 255
151 193 255
151 193 255
151 193 255
151 193 255
151 193 255
151 193 255
151 193 255
151 193 255
151 193 255
151 193 255
151 193 255
150 192 255
150 192 255
150 192 255
150 192 255
150 192 255
150 192 255
150 192 255
150 192 255
150 192 255
150 192 255
150 192 255
150 192 255
150 192 255
150 192 255
150 192 255
150 192 255
150 192 255
150 192 255
150 192 255
150 192 255
150 192 255
150 192 255
150 192 255
150 192 255
150 192 255
150 192 255
150 192 255
150 192 255
150 192 255
150 192 255
150 192 255
150 192 255
150 192 255
150 192 255
150 192 255
150 192 255
150 192 255
150 192 255
150 192 255
150 192 255
150 192 255
150 192 255
150 192 255
150 192 255
150 192 255
150 192 255
150 192 255
150 192 255
150 192 255
150 192 255
150 192 255
150 192 255
150 192 255
150 192 255
150 192 255
150 192 255
150 192 255
150 192 255
151 193 255
151 193 255
151 193 255
151 193 255
151 193 255
151 193 255
151 193 255
151 193 255
151 193 255
151 193 255
151 193 255
151 193 255
151 193 255
151 193 255
151 193 255
151 193 255
152 193 255
152 193 255
152 193 255
152 193 255
152 193 255
152 193 255
152 193 255
152 193 255
152 194 255
152 194 255
152 194 255
152 194 255
153 194 255
153 194 255
153 194 255
153 194 255
153 194 255
153 194 255
153 194 255
153 194 255
153 194 255
153 194 255
153 194 255
154 194 255
154 194 255
154 194 255
154 195 255
154 195 255
154 195 255
154 195 255
154 195 255
154 195 255
154 195 255
155 195 255
155 195 255
155 195 255
155 195 255
155 195 255
155 195 255
155 195 255
155 195 255
155 195 255
156 196 255
156 196 255
156 196 255
156 196 255
156 196 255
156 196 255
156 196 255
156 196 255
156 196 255
156 196 255
157 196 255
157 196 255
157 196 255
157 196 255
157 196 255
157 196 255
157 197 255
157 197 255
157 197 255
158 197 255
158 197 255
158 197 255
158 197 255
158 197 255
158 197 255
158 197 255
158 197 255
158 197 255
159 197 255
159 197 255
159 197 255
159 197 255
159 198 255
159 198 255
159 198 255
159 198 255
159 198 255
159 198 255
160 198 255
160 198 255
160 198 255
160 198 255
160 198 255
160 198 255
160 198 255
160 198 255
160 198 255
161 199 255
161 199 255
161 199 255
161 199 255
161 199 255
161 199 255
161 199 255
161 199 255
161 199 255
161 199 255
162 199 255
162 199 255
162 199 255
162 199 255
162 199 255
162 199 255
162 199 255
162 200 255
162 200 255
162 200 255
163 200 255
163 200 255
163 200 255
163 200 255
163 200 255
163 200 255
163 200 255
163 200 255
163 200 255
163 200 255
163 200 255
164 200 255
164 200 255
164 200 255
164 201 255
164 201 255
164 201 255
164 201 255
164 201 255
164 201 255
164 201 255
164 201 255
165 201 255
165 201 255
165 201 255
165 201 255
165 201 255
165 201 255
165 201 255
165 201 255
165 201 255
165 201 255
165 201 255
166 202 255
166 202 255
166 202 255
166 202 255
166 202 255
166 202 255
166 202 255
166 202 255
166 202 255
166 202 255
166 202 255
166 202 255
167 202 255
167 202 255
167 202 255
167 202 255
167 202 255
166 202 255
166 202 255
166 202 255
166 202 255
166 202 255
166 202 255
166 202 255
166 202 255
166 202 255
166 202 255
166 202 255
166 202 255
165 201 255
165 201 255
165 201 255
165 201 255
165 201 255
165 201 255
165 201 255
165 201 255
165 201 255
165 201 255
165 201 255
164 201 255
164 201 255
164 201 255
164 201 255
164 201 255
164 201 255
164 201 255
164 200 255
164 200 255
164 200 255
164 200 255
163 200 255
163 200 255
163 200 255
163 200 255
163 200 255
163 200 255
163 200 255
163 200 255
163 200 255
163 200 255
162 200 255
162 200 255
162 200 255
162 200 255
162 199 255
162 199 255
162 199 255
162 199 255
162 199 255
162 199 255
162 199 255
161 199 255
161 199 255
161 199 255
161 199 255
161 199 255
161 199 255
161 199 255
161 199 255
161 199 255
160 198 255
160 198 255
160 198 255
160 198 255
160 198 255
160 198 255
160 198 255
160 198 255
160 198 255
159 198 255
159 198 255
159 198 255
159 198 255
159 198 255
159 198 255
159 198 255
159 197 255
159 197 255
159 197 255
158 197 255
158 197 255
158 197 255
158 197 255
158 197 255
158 197 255
158 197 255
158 197 255
158 197 255
157 197 255
157 197 255
157 197 255
157 196 255
157 196 255
157 196 255
157 196 255
157 196 255
157 196 255
156 196 255
156 196 255
156 196 255
156 196 255
156 196 255
156 196 255
156 196 255
156 196 255
156 196 255
156 196 255
155 195 255
155 195 255
155 195 255
155 195 255
155 195 255
155 195 255
155 195 255
155 195 255
155 195 255
155 195 255
154 195 255
154 195 255
154 195 255
154 195 255
154 195 255
154 195 255
154 194 255
154 194 255
154 194 255
154 194 255
153 194 255
153 194 255
153 194 255
153 194 255
153 194 255
153 194 255
153 194 255
153 194 255
153 194 255
153 194 255
153 194 255
152 194 255
152 194 255
152 194 255
152 194 255
152 193 255
152 193 255
152 193 255
152 193 255
152 193 255
152 193 255
152 193 255
152 193 255
152 193 255
151 193 255
151 193 255
151 193 255
151 193 255
151 193 255
151 193 255
151 193 255
151 193 255
151 193 255
151 193 255
151 193 255
151 193 255
151 193 255
151 193 255
151 193 255
151 193 255
151 193 255
150 192 255
150 192 255
150 192 255
150 192 255
150 192 255
150 192 255
150 192 255
150 192 255
150 192 255
150 192 255
150 192 255
150 192 255
150 192 255
150 192 255
150 192 255
150 192 255
150 192 255
150 192 255
150 192 255
150 192 255
150 192 255
150 192 255
150 192 255
150 192 255
150 192 255
150 192 255
150 192 255
150 192 255
150 192 255
150 192 255
150 192 255
150 192 255
150 192 255
150 192 255
150 192 255
150 192 255
150 192 255
150 192 255
150 192 255
150 192 255
150 192 255
150 192 255
150 192 255
150 192 255
150 192 255
150 192 255
150 192 255
150 192 255
151 193 255
151 193 255
151 193 255
151 193 255
151 193 255
151 193 255
151 193 255
151 193 255
151 193 255
151 193 255
151 193 255
151 193 255
151 193 255
151 193 255
151 193 255
151 193 255
151 193 255
152 193 255
152 193 255
152 193 255
152 193 255
152 193 255
152 193 255
152 193 255
152 193 255
152 193 255
152 194 255
152 194 255
152 194 255
152 194 255
153 194 255
153 194 255
153 194 255
153 194 255
153 194 255
153 194 255
153 194 255
153 194 255
153 194 255
153 194 255
153 194 255
154 194 255
154 194 255
154 194 255
154 194 255
154 195 255
154 195 255
154 195 255
154 195 255
154 195 255
154 195 255
154 195 255
155 195 255
155 195 255
155 195 255
155 195 255
155 195 255
155 195 255
155 195 255
155 195 255
155 195 255
156 196 255
156 196 255
156 196 255
156 196 255
156 196 255
156 196 255
156 196 255
156 196 255
156 196 255
156 196 255
157 196 255
157 196 255
157 196 255
157 196 255
157 196 255
157 196 255
157 197 255
157 197 255
157 197 255
158 197 255
158 197 255
158 197 255
158 197 255
158 197 255
158 197 255
158 197 255
158 197 255
158 197 255
159 197 255
159 197 255
159 197 255
159 198 255
159 198 255
159 198 255
159 198 255
159 198 255
159 198 255
160 198 255
160 198 255
160 198 255
160 198 255
160 198 255
160 198 255
160 198 255
160 198 255
160 198 255
160 198 255
161 199 255
161 199 255
161 199 255
161 199 255
161 199 255
161 199 255
161 199 255
161 199 255
161 199 255
161 199 255
162 199 255
162 199 255
162 199 255
162 199 255
162 199 255
162 199 255
162 200 255
162 200 255
162 200 255
162 200 255
163 200 255
163 200 255
163 200 255
163 200 255
163 200 255
163 200 255
163 200 255
163 200 255
163 200 255
163 200 255
164 200 255
164 200 255
164 200 255
164 200 255
164 201 255
164 201 255
164 201 255
164 201 255
164 201 255
164 201 255
164 201 255
165 201 255
165 201 255
165 201 255
165 201 255
165 201 255
165 201 255
165 201 255
165 201 255
165 201 255
165 201 255
165 201 255
166 202 255
166 202 255
166 202 255
166 202 255
166 202 255
166 202 255
166 202 255
166 202 255
166 202 255
166 202 255
166 202 255
166 202 255
167 202 255
167 202 255
167 202 255
167 202 255
167 202 255
167 202 255
167 202 255
167 202 255
167 202 255
167 202 255
167 202 255
166 202 255
166 202 255
166 202 255
166 202 255
166 202 255
166 202 255
166 202 255
166 202 255
166 202 255
166 202 255
166 202 255
165 201 255
165 201 255
165 201 255
165 201 255
165 201 255
165 201 255
165 201 255
165 201 255
165 201 255
165 201 255
165 201 255
165 201 255
164 201 255
164 201 255
164 201 255
164 201 255
164 201 255
164 201 255
164 201 255
164 200 255
164 200 255
164 200 255
163 200 255
163 200 255
163 200 255
163 200 255
163 200 255
163 200 255
163 200 255
163 200 255
163 200 255
163 200 255
163 200 255
162 200 255
162 200 255
162 200 255
162 199 255
162 199 255
162 199 255
162 199 255
162 199 255
162 199 255
162 199 255
161 199 255
161 199 255
161 199 255
161 199 255
161 199 255
161 199 255
161 199 255
161 199 255
161 199 255
160 198 255
160 198 255
160 198 255
160 198 255
160 198 255
160 198 255
160 198 255
160 198 255
160 198 255
160 198 255
159 198 255
159 198 255
159 198 255
159 198 255
159 198 255
159 198 255
159 197 255
159 197 255
159 197 255
158 197 255
158 197 255
158 197 255
158 197 255
158 197 255
158 197 255
158 197 255
158 197 255
158 197 255
157 197 255
157 197 255
157 197 255
157 197 255
157 196 255
157 196 255
157 196 255
157 196 255
157 196 255
157 196 255
156 196 255
156 196 255
156 196 255
156 196 255
156 196 255
156 196 255
156 196 255
156 196 255
156 196 255
155 195 255
155 195 255
155 195 255
155 195 255
155 195 255
155 195 255
155 195 255
155 195 255
155 195 255
155 195 255
154 195 255
154 195 255
154 195 255
154 195 255
154 195 255
154 195 255
154 195 255
154 194 255
154 194 255
154 194 255
153 194 255
153 194 255
153 194 255
153 194 255
153 194 255
153 194 255
153 194 255
153 194 255
153 194 255
153 194 255
153 194 255
153 194 255
152 194 255
152 194 255
152 194 255
152 194 255
152 193 255
152 193 255
152 193 255
152 193 255
152 193 255
152 193 255
152 193 255
152 193 255
152 193 255
152 193 255
151 193 255
151 193 255
151 193 255
151 193 255
151 193 255
151 193 255
151 193 255
151 193 255
151 193 255
151 193 255
151 193 255
151 193 255
151 193 255
151 193 255
151 193 255
151 193 255
151 193 255
151 193 255
151 193 255
150 192 255
150 192 255
150 192 255
150 192 255
150 192 255
150 192 255
150 192 255
150 192 255
150 192 255
150 192 255
150 192 255
150 192 255
150 192 255
150 192 255
150 192 255
150 192 255
150 192 255
150 192 255
150 192 255
150 192 255
150 192 255
150 192 255
150 192 255
150 192 255
150 192 255
150 192 255
150 192 255
150 192 255
150 192 255
150 192 255
150 192 255
150 192 255
150 192 255
150 192 255
150 192 255
150 192 255
151 193 255
151 193 255
151 193 255
151 193 255
151 193 255
151 193 255
151 193 255
151 193 255
151 193 255
151 193 255
151 193 255
151 193 255
151 193 255
151 193 255
151 193 255
151 193 255
151 193 255
151 193 255
151 193 255
152 193 255
152 193 255
152 193 255
152 193 255
152 193 255
152 193 255
152 193 255
152 193 255
152 193 255
152 193 255
152 194 255
152 194 255
152 194 255
152 194 255
153 194 255
153 194 255
153 194 255
153 194 255
153 194 255
153 194 255
153 194 255
153 194 255
153 194 255
153 194 255
153 194 255
153 194 255
154 194 255
154 194 255
154 194 255
154 195 255
154 195 255
154 195 255
154 195 255
154 195 255
154 195 255
154 195 255
155 195 255
155 195 255
155 195 255
155 195 255
155 195 255
155 195 255
155 195 255
155 195 255
155 195 255
155 195 255
156 196 255
156 196 255
156 196 255
156 196 255
156 196 255
156 196 255
156 196 255
156 196 255
156 196 255
157 196 255
157 196 255
157 196 255
157 196 255
157 196 255
157 196 255
157 197 255
157 197 255
157 197 255
157 197 255
158 197 255
158 197 255
158 197 255
158 197 255
158 197 255
158 197 255
158 197 255
158 197 255
158 197 255
159 197 255
159 197 255
159 197 255
159 198 255
159 198 255
159 198 255
159 198 255
159 198 255
159 198 255
160 198 255
160 198 255
160 198 255
160 198 255
160 198 255
160 198 255
160 198 255
160 198 255
160 198 255
160 198 255
161 199 255
161 199 255
161 199 255
161 199 255
161 199 255
161 199 255
161 199 255
161 199 255
161 199 255
162 199 255
162 199 255
162 199 255
162 199 255
162 199 255
162 199 255
162 199 255
162 200 255
162 200 255
162 200 255
163 200 255
163 200 255
163 200 255
163 200 255
163 200 255
163 200 255
163 200 255
163 200 255
163 200 255
163 200 255
163 200 255
164 200 255
164 200 255
164 200 255
164 201 255
164 201 255
164 201 255
164 201 255
164 201 255
164 201 255
164 201 255
165 201 255
165 201 255
165 201 255
165 201 255
165 201 255
165 201 255
165 201 255
165 201 255
165 201 255
165 201 255
165 201 255
165 201 255
166 202 255
166 202 255
166 202 255
166 202 255
166 202 255
166 202 255
166 202 255
166 202 255
166 202 255
166 202 255
166 202 255
166 202 255
167 202 255
167 202 255
167 202 255
167 202 255
167 202 255
167 202 255
167 203 255
167 202 255
167 202 255
167 202 255
167 202 255
167 202 255
167 202 255
167 202 255
167 202 255
166 202 255
166 202 255
166 202 255
166 202 255
166 202 255
166 202 255
166 202 255
166 202 255
166 202 255
166 202 255
166 202 255
166 202 255
165 201 255
165 201 255
165 201 255
165 201 255
165 201 255
165 201 255
165 201 255
165 201 255
165 201 255
165 201 255
165 201 255
164 201 255
164 201 255
164 201 255
164 201 255
164 201 255
164 201 255
164 201 255
164 200 255
164 200 255
164 200 255
164 200 255
163 200 255
163 200 255
163 200 255
163 200 255
163 200 255
163 200 255
163 200 255
163 200 255
163 200 255
163 200 255
162 200 255
162 200 255
162 200 255
162 200 255
162 199 255
162 199 255
162 199 255
162 199 255
162 199 255
162 199 255
161 199 255
161 199 255
161 199 255
161 199 255
161 199 255
161 199 255
161 199 255
161 199 255
161 199 255
161 199 255
160 198 255
160 198 255
160 198 255
160 198 255
160 198 255
160 198 255
160 198 255
160 198 255
160 198 255
159 198 255
159 198 255
159 198 255
159 198 255
159 198 255
159 198 255
159 197 255
159 197 255
159 197 255
159 197 255
158 197 255
158 197 255
158 197 255
158 197 255
158 197 255
158 197 255
158 197 255
158 197 255
158 197 255
157 197 255
157 197 255
157 197 255
157 196 255
157 196 255
157 196 255
157 196 255
157 196 255
157 196 255
156 196 255
156 196 255
156 196 255
156 196 255
156 196 255
156 196 255
156 196 255
156 196 255
156 196 255
156 196 255
155 195 255
155 195 255
155 195 255
155 195 255
155 195 255
155 195 255
155 195 255
155 195 255
155 195 255
155 195 255
154 195 255
154 195 255
154 195 255
154 195 255
154 195 255
154 195 255
154 195 255
154 194 255
154 194 255
154 194 255
153 194 255
153 194 255
153 194 255
153 194 255
153 194 255
153 194 255
153 194 255
153 194 255
153 194 255
153 194 255
153 194 255
153 194 255
152 194 255
152 194 255
152 194 255
152 194 255
152 193 255
152 193 255
152 193 255
152 193 255
152 193 255
152 193 255
152 193 255
152 193 255
152 193 255
152 193 255
152 193 255
151 193 255
151 193 255
151 193 255
151 193 255
151 193 255
151 193 255
151 193 255
151 193 255
151 193 255
151 193 255
151 193 255
151 193 255
151 193 255
151 193 255
151 193 255
151 193 255
151 193 255
151 193 255
151 193 255
151 193 255
151 193 255
151 193 255
151 193 255
151 193 255
151 193 255
151 193 255
150 192 255
151 193 255
150 192 255
150 192 255
150 192 255
150 192 255
150 192 255
150 192 255
150 192 255
150 192 255
150 192 255
150 192 255
150 192 255
151 193 255
151 193 255
151 193 255
151 193 255
151 193 255
151 193 255
151 193 255
151 193 255
151 193 255
151 193 255
151 193 255
151 193 255
151 193 255
151 193 255
151 193 255
151 193 255
151 193 255
151 193 255
151 193 255
151 193 255
151 193 255
151 193 255
151 193 255
151 193 255
151 193 255
151 193 255
151 193 255
152 193 255
152 193 255
152 193 255
152 193 255
152 193 255
152 193 255
152 193 255
152 193 255
152 193 255
152 193 255
152 193 255
152 194 255
152 194 255
152 194 255
152 194 255
153 194 255
153 194 255
153 194 255
153 194 255
153 194 255
153 194 255
153 194 255
153 194 255
153 194 255
153 194 255
153 194 255
153 194 255
154 194 255
154 194 255
154 194 255
154 195 255
154 195 255
154 195 255
154 195 255
154 195 255
154 195 255
154 195 255
155 195 255
155 195 255
155 195 255
155 195 255
155 195 255
155 195 255
155 195 255
155 195 255
155 195 255
155 195 255
156 196 255
156 196 255
156 196 255
156 196 255
156 196 255
156 196 255
156 196 255
156 196 255
156 196 255
156 196 255
157 196 255
157 196 255
157 196 255
157 196 255
157 196 255
157 196 255
157 197 255
157 197 255
157 197 255
158 197 255
158 197 255
158 197 255
158 197 255
158 197 255
158 197 255
158 197 255
158 197 255
158 197 255
159 197 255
159 197 255
159 197 255
159 197 255
159 198 255
159 198 255
159 198 255
159 198 255
159 198 255
159 198 255
160 198 255
160 198 255
160 198 255
160 198 255
160 198 255
160 198 255
160 198 255
160 198 255
160 198 255
161 199 255
161 199 255
161 199 255
161 199 255
161 199 255
161 199 255
161 199 255
161 199 255
161 199 255
161 199 255
162 199 255
162 199 255
162 199 255
162 199 255
162 199 255
162 199 255
162 199 255
162 200 255
162 200 255
162 200 255
163 200 255
163 200 255
163 200 255
163 200 255
163 200 255
163 200 255
163 200 255
163 200 255
163 200 255
163 200 255
164 200 255
164 200 255
164 200 255
164 201 255
164 201 255
164 201 255
164 201 255
164 201 255
164 201 255
164 201 255
164 201 255
165 201 255
165 201 255
165 201 255
165 201 255
165 201 255
165 201 255
165 201 255
165 201 255
165 201 255
165 201 255
165 201 255
166 202 255
166 202 255
166 202 255
166 202 255
166 202 255
166 202 255
166 202 255
166 202 255
166 202 255
166 202 255
166 202 255
166 202 255
167 202 255
167 202 255
167 202 255
167 202 255
167 202 255
167 202 255
167 202 255
167 202 255
167 203 255
167 203 255
167 203 255
167 203 255
167 203 255
167 202 255
167 202 255
167 202 255
167 202 255
167 202 255
167 202 255
167 202 255
167 202 255
166 202 255
166 202 255
166 202 255
166 202 255
166 202 255
166 202 255
166 202 255
166 202 255
166 202 255
166 202 255
166 202 255
166 202 255
165 201 255
165 201 255
165 201 255
165 201 255
165 201 255
165 201 255
165 201 255
165 201 255
165 201 255
165 201 255
165 201 255
164 201 255
164 201 255
164 201 255
164 201 255
164 201 255
164 201 255
164 201 255
164 200 255
164 200 255
164 200 255
163 200 255
163 200 255
163 200 255
163 200 255
163 200 255
163 200 255
163 200 255
163 200 255
163 200 255
163 200 255
163 200 255
162 200 255
162 200 255
162 200 255
162 199 255
162 199 255
162 199 255
162 199 255
162 199 255
162 199 255
162 199 255
161 199 255
161 199 255
161 199 255
161 199 255
161 199 255
161 199 255
161 199 255
161 199 255
161 199 255
160 198 255
160 198 255
160 198 255
160 198 255
160 198 255
160 198 255
160 198 255
160 198 255
160 198 255
160 198 255
159 198 255
159 198 255
159 198 255
159 198 255
159 198 255
159 198 255
159 197 255
159 197 255
159 197 255
158 197 255
158 197 255
158 197 255
158 197 255
158 197 255
158 197 255
158 197 255
158 197 255
158 197 255
157 197 255
157 197 255
157 197 255
157 196 255
157 196 255
157 196 255
157 196 255
157 196 255
157 196 255
157 196 255
156 196 255
156 196 255
156 196 255
156 196 255
156 196 255
156 196 255
156 196 255
156 196 255
156 196 255
155 195 255
155 195 255
155 195 255
155 195 255
155 195 255
155 195 255
155 195 255
155 195 255
155 195 255
155 195 255
154 195 255
154 195 255
154 195 255
154 195 255
154 195 255
154 195 255
154 195 255
154 195 255
154 194 255
154 194 255
154 194 255
153 194 255
153 194 255
153 194 255
153 194 255
153 194 255
153 194 255
153 194 255
153 194 255
153 194 255
153 194 255
153 194 255
153 194 255
152 194 255
152 194 255
152 194 255
152 194 255
152 194 255
152 193 255
152 193 255
152 193 255
152 193 255
152 193 255
152 193 255
152 193 255
152 193 255
152 193 255
152 193 255
152 193 255
151 193 255
151 193 255
151 193 255
151 193 255
151 193 255
151 193 255
151 193 255
151 193 255
151 193 255
151 193 255
151 193 255
151 193 255
151 193 255
151 193 255
151 193 255
151 193 255
151 193 255
151 193 255
151 193 255
151 193 255
151 193 255
151 193 255
151 193 255
151 193 255
151 193 255
151 193 255
151 193 255
151 193 255
151 193 255
151 193 255
151 193 255
151 193 255
151 193 255
151 193 255
151 193 255
151 193 255
151 193 255
151 193 255
151 193 255
151 193 255
151 193 255
151 193 255
151 193 255
151 193 255
151 193 255
151 193 255
151 193 255
151 193 255
151 193 255
151 193 255
151 193 255
151 193 255
151 193 255
151 193 255
151 193 255
151 193 255
151 193 255
151 193 255
152 193 255
152 193 255
152 193 255
152 193 255
152 193 255
152 193 255
152 193 255
152 193 255
152 193 255
152 193 255
152 193 255
152 194 255
152 194 255
152 194 255
152 194 255
153 194 255
153 194 255
153 194 255
153 194 255
153 194 255
153 194 255
153 194 255
153 194 255
153 194 255
153 194 255
153 194 255
153 194 255
153 194 255
154 194 255
154 194 255
154 194 255
154 195 255
154 195 255
154 195 255
154 195 255
154 195 255
154 195 255
154 195 255
154 195 255
155 195 255
155 195 255
155 195 255
155 195 255
155 195 255
155 195 255
155 195 255
155 195 255
155 195 255
155 195 255
156 196 255
156 196 255
156 196 255
156 196 255
156 196 255
156 196 255
156 196 255
156 196 255
156 196 255
157 196 255
157 196 255
157 196 255
157 196 255
157 196 255
157 196 255
157 196 255
157 197 255
157 197 255
157 197 255
158 197 255
158 197 255
158 197 255
158 197 255
158 197 255
158 197 255
158 197 255
158 197 255
158 197 255
159 197 255
159 197 255
159 197 255
159 198 255
159 198 255
159 198 255
159 198 255
159 198 255
159 198 255
160 198 255
160 198 255
160 198 255
160 198 255
160 198 255
160 198 255
160 198 255
160 198 255
160 198 255
160 198 255
161 199 255
161 199 255
161 199 255
161 199 255
161 199 255
161 199 255
161 199 255
161 199 255
161 199 255
162 199 255
162 199 255
162 199 255
162 199 255
162 199 255
162 199 255
162 199 255
162 200 255
162 200 255
162 200 255
163 200 255
163 200 255
163 200 255
163 200 255
163 200 255
163 200 255
163 200 255
163 200 255
163 200 255
163 200 255
163 200 255
164 200 255
164 200 255
164 200 255
164 201 255
164 201 255
164 201 255
164 201 255
164 201 255
164 201 255
164 201 255
165 201 255
165 201 255
165 201 255
165 201 255
165 201 255
165 201 255
165 201 255
165 201 255
165 201 255
165 201 255
165 201 255
166 202 255
166 202 255
166 202 255
166 202 255
166 202 255
166 202 255
166 202 255
166 202 255
166 202 255
166 202 255
166 202 255
166 202 255
167 202 255
167 202 255
167 202 255
167 202 255
167 202 255
167 202 255
167 202 255
167 202 255
167 203 255
167 203 255
167 203 255
167 203 255
168 203 255
168 203 255
167 203 255
167 203 255
167 203 255
167 203 255
167 202 255
167 202 255
167 202 255
167 202 255
167 202 255
167 202 255
167 202 255
167 202 255
167 202 255
166 202 255
166 202 255
166 202 255
166 202 255
166 202 255
166 202 255
166 202 255
166 202 255
166 202 255
166 202 255
166 202 255
165 201 255
165 201 255
165 201 255
165 201 255
165 201 255
165 201 255
165 201 255
165 201 255
165 201 255
165 201 255
165 201 255
164 201 255
164 201 255
164 201 255
164 201 255
164 201 255
164 201 255
164 201 255
164 200 255
164 200 255
164 200 255
164 200 255
163 200 255
163 200 255
163 200 255
163 200 255
163 200 255
163 200 255
163 200 255
163 200 255
163 200 255
163 200 255
162 200 255
162 200 255
162 200 255
162 199 255
162 199 255
162 199 255
162 199 255
162 199 255
162 199 255
162 199 255
161 199 255
161 199 255
161 199 255
161 199 255
161 199 255
161 199 255
161 199 255
161 199 255
161 199 255
161 199 255
160 198 255
160 198 255
160 198 255
160 198 255
160 198 255
160 198 255
160 198 255
160 198 255
160 198 255
159 198 255
159 198 255
159 198 255
159 198 255
159 198 255
159 198 255
159 197 255
159 197 255
159 197 255
159 197 255
158 197 255
158 197 255
158 197 255
158 197 255
158 197 255
158 197 255
158 197 255
158 197 255
158 197 255
157 197 255
157 197 255
157 197 255
157 196 255
157 196 255
157 196 255
157 196 255
157 196 255
157 196 255
156 196 255
156 196 255
156 196 255
156 196 255
156 196 255
156 196 255
156 196 255
156 196 255
156 196 255
156 196 255
155 195 255
155 195 255
155 195 255
155 195 255
155 195 255
155 195 255
155 195 255
155 195 255
155 195 255
155 195 255
154 195 255
154 195 255
154 195 255
154 195 255
154 195 255
154 195 255
154 195 255
154 194 255
154 194 255
154 194 255
154 194 255
153 194 255
153 194 255
153 194 255
153 194 255
153 194 255
153 194 255
153 194 255
153 194 255
153 194 255
153 194 255
153 194 255
153 194 255
153 194 255
152 194 255
152 194 255
152 194 255
152 194 255
152 194 255
152 193 255
152 193 255
152 193 255
152 193 255
152 193 255
152 193 255
152 193 255
152 193 255
152 193 255
152 193 255
152 193 255
152 193 255
152 193 255
151 193 255
151 193 255
151 193 255
151 193 255
151 193 255
151 193 255
151 193 255
151 193 255
151 193 255
151 193 255
151 193 255
151 193 255
151 193 255
151 193 255
151 193 255
151 193 255
151 193 255
151 193 255
151 193 255
151 193 255
151 193 255
151 193 255
151 193 255
151 193 255
151 193 255
151 193 255
151 193 255
151 193 255
151 193 255
151 193 255
151 193 255
151 193 255
151 193 255
151 193 255
151 193 255
151 193 255
151 193 255
151 193 255
151 193 255
151 193 255
151 193 255
151 193 255
151 193 255
151 193 255
151 193 255
151 193 255
151 193 255
152 193 255
152 193 255
152 193 255
152 193 255
152 193 255
152 193 255
152 193 255
152 193 255
152 193 255
152 193 255
152 193 255
152 193 255
152 194 255
152 194 255
152 194 255
152 194 255
152 194 255
153 194 255
153 194 255
153 194 255
153 194 255
153 194 255
153 194 255
153 194 255
153 194 255
153 194 255
153 194 255
153 194 255
153 194 255
153 194 255
154 194 255
154 194 255
154 194 255
154 194 255
154 195 255
154 195 255
154 195 255
154 195 255
154 195 255
154 195 255
154 195 255
155 195 255
155 195 255
155 195 255
155 195 255
155 195 255
155 195 255
155 195 255
155 195 255
155 195 255
155 195 255
156 196 255
156 196 255
156 196 255
156 196 255
156 196 255
156 196 255
156 196 255
156 196 255
156 196 255
156 196 255
157 196 255
157 196 255
157 196 255
157 196 255
157 196 255
157 196 255
157 197 255
157 197 255
157 197 255
158 197 255
158 197 255
158 197 255
158 197 255
158 197 255
158 197 255
158 197 255
158 197 255
158 197 255
158 197 255
159 197 255
159 197 255
159 197 255
159 198 255
159 198 255
159 198 255
159 198 255
159 198 255
159 198 255
160 198 255
160 198 255
160 198 255
160 198 255
160 198 255
160 198 255
160 198 255
160 198 255
160 198 255
161 199 255
161 199 255
161 199 255
161 199 255
161 199 255
161 199 255
161 199 255
161 199 255
161 199 255
161 199 255
162 199 255
162 199 255
162 199 255
162 199 255
162 199 255
162 199 255
162 200 255
162 200 255
162 200 255
162 200 255
163 200 255
163 200 255
163 200 255
163 200 255
163 200 255
163 200 255
163 200 255
163 200 255
163 200 255
163 200 255
164 200 255
164 200 255
164 200 255
164 201 255
164 201 255
164 201 255
164 201 255
164 201 255
164 201 255
164 201 255
164 201 255
165 201 255
165 201 255
165 201 255
165 201 255
165 201 255
165 201 255
165 201 255
165 201 255
165 201 255
165 201 255
165 201 255
166 202 255
166 202 255
166 202 255
166 202 255
166 202 255
166 202 255
166 202 255
166 202 255
166 202 255
166 202 255
166 202 255
167 202 255
167 202 255
167 202 255
167 202 255
167 202 255
167 202 255
167 202 255
167 202 255
167 202 255
167 203 255
167 203 255
167 203 255
167 203 255
168 203 255
168 203 255
168 203 255
168 203 255
168 203 255
168 203 255
168 203 255
167 203 255
167 203 255
167 203 255
167 203 255
167 202 255
167 202 255
167 202 255
167 202 255
167 202 255
167 202 255
167 202 255
167 202 255
166 202 255
166 202 255
166 202 255
166 202 255
166 202 255
166 202 255
166 202 255
166 202 255
166 202 255
166 202 255
166 202 255
166 202 255
165 201 255
165 201 255
165 201 255
165 201 255
165 201 255
165 201 255
165 201 255
165 201 255
165 201 255
165 201 255
165 201 255
164 201 255
164 201 255
164 201 255
164 201 255
164 201 255
164 201 255
164 201 255
164 200 255
164 200 255
164 200 255
164 200 255
163 200 255
163 200 255
163 200 255
163 200 255
163 200 255
163 200 255
163 200 255
163 200 255
163 200 255
163 200 255
162 200 255
162 200 255
162 200 255
162 199 255
162 199 255
162 199 255
162 199 255
162 199 255
162 199 255
162 199 255
161 199 255
161 199 255
161 199 255
161 199 255
161 199 255
161 199 255
161 199 255
161 199 255
161 199 255
160 198 255
160 198 255
160 198 255
160 198 255
160 198 255
160 198 255
160 198 255
160 198 255
160 198 255
160 198 255
159 198 255
159 198 255
159 198 255
159 198 255
159 198 255
159 198 255
159 197 255
159 197 255
159 197 255
158 197 255
158 197 255
158 197 255
158 197 255
158 197 255
158 197 255
158 197 255
158 197 255
158 197 255
157 197 255
157 197 255
157 197 255
157 197 255
157 196 255
157 196 255
157 196 255
157 196 255
157 196 255
157 196 255
156 196 255
156 196 255
156 196 255
156 196 255
156 196 255
156 196 255
156 196 255
156 196 255
156 196 255
156 196 255
155 195 255
155 195 255
155 195 255
155 195 255
155 195 255
155 195 255
155 195 255
155 195 255
155 195 255
155 195 255
154 195 255
154 195 255
154 195 255
154 195 255
154 195 255
154 195 255
154 195 255
154 194 255
154 194 255
154 194 255
154 194 255
153 194 255
153 194 255
153 194 255
153 194 255
153 194 255
153 194 255
153 194 255
153 194 255
153 194 255
153 194 255
153 194 255
153 194 255
153 194 255
153 194 255
152 194 255
152 194 255
152 194 255
152 194 255
152 194 255
152 194 255
152 193 255
152 193 255
152 193 255
152 193 255
152 193 255
152 193 255
152 193 255
152 193 255
152 193 255
152 193 255
152 193 255
152 193 255
152 193 255
152 193 255
151 193 255
151 193 255
151 193 255
151 193 255
151 193 255
151 193 255
151 193 255
151 193 255
151 193 255
151 193 255
151 193 255
151 193 255
151 193 255
151 193 255
151 193 255
151 193 255
151 193 255
151 193 255
151 193 255
151 193 255
151 193 255
151 193 255
151 193 255
151 193 255
151 193 255
151 193 255
151 193 255
151 193 255
151 193 255
151 193 255
151 193 255
151 193 255
151 193 255
152 193 255
152 193 255
152 193 255
152 193 255
152 193 255
152 193 255
152 193 255
152 193 255
152 193 255
152 193 255
152 193 255
152 193 255
152 193 255
152 193 255
152 193 255
152 193 255
152 194 255
152 194 255
152 194 255
152 194 255
152 194 255
153 194 255
153 194 255
153 194 255
153 194 255
153 194 255
153 194 255
153 194 255
153 194 255
153 194 255
153 194 255
153 194 255
153 194 255
153 194 255
153 194 255
154 194 255
154 194 255
154 194 255
154 195 255
154 195 255
154 195 255
154 195 255
154 195 255
154 195 255
154 195 255
154 195 255
155 195 255
155 195 255
155 195 255
155 195 255
155 195 255
155 195 255
155 195 255
155 195 255
155 195 255
155 195 255
156 196 255
156 196 255
156 196 255
156 196 255
156 196 255
156 196 255
156 196 255
156 196 255
156 196 255
156 196 255
157 196 255
157 196 255
157 196 255
157 196 255
157 196 255
157 196 255
157 197 255
157 197 255
157 197 255
157 197 255
158 197 255
158 197 255
158 197 255
158 197 255
158 197 255
158 197 255
158 197 255
158 197 255
158 197 255
159 197 255
159 197 255
159 197 255
159 198 255
159 198 255
159 198 255
159 198 255
159 198 255
159 198 255
160 198 255
160 198 255
160 198 255
160 198 255
160 198 255
160 198 255
160 198 255
160 198 255
160 198 255
160 198 255
161 199 255
161 199 255
161 199 255
161 199 255
161 199 255
161 199 255
161 199 255
161 199 255
161 199 255
162 199 255
162 199 255
162 199 255
162 199 255
162 199 255
162 199 255
162 199 255
162 200 255
162 200 255
162 200 255
163 200 255
163 200 255
163 200 255
163 200 255
163 200 255
163 200 255
163 200 255
163 200 255
163 200 255
163 200 255
164 200 255
164 200 255
164 200 255
164 200 255
164 201 255
164 201 255
164 201 255
164 201 255
164 201 255
164 201 255
164 201 255
165 201 255
165 201 255
165 201 255
165 201 255
165 201 255
165 201 255
165 201 255
165 201 255
165 201 255
165 201 255
165 201 255
166 202 255
166 202 255
166 202 255
166 202 255
166 202 255
166 202 255
166 202 255
166 202 255
166 202 255
166 202 255
166 202 255
167 202 255
167 202 255
167 202 255
167 202 255
167 202 255
167 202 255
167 202 255
167 202 255
167 202 255
167 203 255
167 203 255
167 203 255
167 203 255
168 203 255
168 203 255
168 203 255
168 203 255
168 203 255
168 203 255
168 203 255
168 203 255
168 203 255
168 203 255
168 203 255
168 203 255
168 203 255
167 203 255
167 203 255
167 203 255
167 203 255
167 202 255
167 202 255
167 202 255
167 202 255
167 202 255
167 202 255
167 202 255
167 202 255
166 202 255
166 202 255
166 202 255
166 202 255
166 202 255
166 202 255
166 202 255
166 202 255
166 202 255
166 202 255
166 202 255
166 202 255
165 201 255
165 201 255
165 201 255
165 201 255
165 201 255
165 201 255
165 201 255
165 201 255
165 201 255
165 201 255
165 201 255
164 201 255
164 201 255
164 201 255
164 201 255
164 201 255
164 201 255
164 201 255
164 200 255
164 200 255
164 200 255
163 200 255
163 200 255
163 200 255
163 200 255
163 200 255
163 200 255
163 200 255
163 200 255
163 200 255
163 200 255
162 200 255
162 200 255
162 200 255
162 199 255
162 199 255
162 199 255
162 199 255
162 199 255
162 199 255
162 199 255
161 199 255
161 199 255
161 199 255
161 199 255
161 199 255
161 199 255
161 199 255
161 199 255
161 199 255
161 199 255
160 198 255
160 198 255
160 198 255
160 198 255
160 198 255
160 198 255
160 198 255
160 198 255
160 198 255
159 198 255
159 198 255
159 198 255
159 198 255
159 198 255
159 198 255
159 197 255
159 197 255
159 197 255
158 197 255
158 197 255
158 197 255
158 197 255
158 197 255
158 197 255
158 197 255
158 197 255
158 197 255
158 197 255
157 197 255
157 197 255
157 197 255
157 196 255
157 196 255
157 196 255
157 196 255
157 196 255
157 196 255
156 196 255
156 196 255
156 196 255
156 196 255
156 196 255
156 196 255
156 196 255
156 196 255
156 196 255
156 196 255
155 195 255
155 195 255
155 195 255
155 195 255
155 195 255
155 195 255
155 195 255
155 195 255
155 195 255
155 195 255
155 195 255
154 195 255
154 195 255
154 195 255
154 195 255
154 195 255
154 195 255
154 195 255
154 195 255
154 194 255
154 194 255
154 194 255
154 194 255
153 194 255
153 194 255
153 194 255
153 194 255
153 194 255
153 194 255
153 194 255
153 194 255
153 194 255
153 194 255
153 194 255
153 194 255
153 194 255
153 194 255
153 194 255
152 194 255
152 194 255
152 194 255
152 194 255
152 194 255
152 194 255
152 193 255
152 193 255
152 193 255
152 193 255
152 193 255
152 193 255
152 193 255
152 193 255
152 193 255
152 193 255
152 193 255
152 193 255
152 193 255
152 193 255
152 193 255
152 193 255
152 193 255
152 193 255
152 193 255
152 193 255
152 193 255
152 193 255
152 193 255
152 193 255
152 193 255
152 193 255
152 193 255
152 193 255
152 193 255
152 193 255
152 193 255
152 193 255
152 193 255
152 193 255
152 193 255
152 193 255
152 193 255
152 193 255
152 193 255
152 193 255
152 193 255
152 193 255
152 193 255
152 193 255
152 193 255
152 193 255
152 193 255
152 193 255
152 193 255
152 193 255
152 193 255
152 193 255
152 194 255
152 194 255
152 194 255
152 194 255
152 194 255
152 194 255
152 194 255
153 194 255
153 194 255
153 194 255
153 194 255
153 194 255
153 194 255
153 194 255
153 194 255
153 194 255
153 194 255
153 194 255
153 194 255
153 194 255
153 194 255
154 194 255
154 194 255
154 194 255
154 194 255
154 195 255
154 195 255
154 195 255
154 195 255
154 195 255
154 195 255
154 195 255
154 195 255
155 195 255
155 195 255
155 195 255
155 195 255
155 195 255
155 195 255
155 195 255
155 195 255
155 195 255
155 195 255
155 195 255
156 196 255
156 196 255
156 196 255
156 196 255
156 196 255
156 196 255
156 196 255
156 196 255
156 196 255
156 196 255
157 196 255
157 196 255
157 196 255
157 196 255
157 196 255
157 196 255
157 197 255
157 197 255
157 197 255
158 197 255
158 197 255
158 197 255
158 197 255
158 197 255
158 197 255
158 197 255
158 197 255
158 197 255
158 197 255
159 197 255
159 197 255
159 197 255
159 198 255
159 198 255
159 198 255
159 198 255
159 198 255
159 198 255
160 198 255
160 198 255
160 198 255
160 198 255
160 198 255
160 198 255
160 198 255
160 198 255
160 198 255
161 199 255
161 199 255
161 199 255
161 199 255
161 199 255
161 199 255
161 199 255
161 199 255
161 199 255
161 199 255
162 199 255
162 199 255
162 199 255
162 199 255
162 199 255
162 199 255
162 199 255
162 200 255
162 200 255
162 200 255
163 200 255
163 200 255
163 200 255
163 200 255
163 200 255
163 200 255
163 200 255
163 200 255
163 200 255
163 200 255
164 200 255
164 200 255
164 200 255
164 201 255
164 201 255
164 201 255
164 201 255
164 201 255
164 201 255
164 201 255
165 201 255
165 201 255
165 201 255
165 201 255
165 201 255
165 201 255
165 201 255
165 201 255
165 201 255
165 201 255
165 201 255
166 202 255
166 202 255
166 202 255
166 202 255
166 202 255
166 202 255
166 202 255
166 202 255
166 202 255
166 202 255
166 202 255
166 202 255
167 202 255
167 202 255
167 202 255
167 202 255
167 202 255
167 202 255
167 202 255
167 202 255
167 203 255
167 203 255
167 203 255
167 203 255
168 203 255
168 203 255
168 203 255
168 203 255
168 203 255
168 203 255
168 203 255
168 203 255
168 203 255
168 203 255
168 203 255
168 203 255
168 203 255
168 203 255
168 203 255
168 203 255
168 203 255
168 203 255
168 203 255
167 203 255
167 203 255
167 203 255
167 203 255
167 202 255
167 202 255
167 202 255
167 202 255
167 202 255
167 202 255
167 202 255
167 202 255
166 202 255
166 202 255
166 202 255
166 202 255
166 202 255
166 202 255
166 202 255
166 202 255
166 202 255
166 202 255
166 202 255
166 202 255
165 201 255
165 201 255
165 201 255
165 201 255
165 201 255
165 201 255
165 201 255
165 201 255
165 201 255
165 201 255
164 201 255
164 201 255
164 201 255
164 201 255
164 201 255
164 201 255
164 201 255
164 200 255
164 200 255
164 200 255
164 200 255
163 200 255
163 200 255
163 200 255
163 200 255
163 200 255
163 200 255
163 200 255
163 200 255
163 200 255
163 200 255
162 200 255
162 200 255
162 200 255
162 199 255
162 199 255
162 199 255
162 199 255
162 199 255
162 199 255
162 199 255
161 199 255
161 199 255
161 199 255
161 199 255
161 199 255
161 199 255
161 199 255
161 199 255
161 199 255
160 198 255
160 198 255
160 198 255
160 198 255
160 198 255
160 198 255
160 198 255
160 198 255
160 198 255
160 198 255
159 198 255
159 198 255
159 198 255
159 198 255
159 198 255
159 198 255
159 197 255
159 197 255
159 197 255
158 197 255
158 197 255
158 197 255
158 197 255
158 197 255
158 197 255
158 197 255
158 197 255
158 197 255
158 197 255
157 197 255
157 197 255
157 197 255
157 196 255
157 196 255
157 196 255
157 196 255
157 196 255
157 196 255
156 196 255
156 196 255
156 196 255
156 196 255
156 196 255
156 196 255
156 196 255
156 196 255
156 196 255
156 196 255
155 195 255
155 195 255
155 195 255
155 195 255
155 195 255
155 195 255
155 195 255
155 195 255
155 195 255
155 195 255
155 195 255
154 195 255
154 195 255
154 195 255
154 195 255
154 195 255
154 195 255
154 195 255
154 195 255
154 194 255
154 194 255
154 194 255
154 194 255
153 194 255
153 194 255
153 194 255
153 194 255
153 194 255
153 194 255
153 194 255
153 194 255
153 194 255
153 194 255
153 194 255
153 194 255
153 194 255
153 194 255
153 194 255
153 194 255
153 194 255
152 194 255
152 194 255
152 194 255
152 194 255
152 194 255
152 194 255
152 194 255
152 193 255
152 193 255
152 193 255
152 193 255
152 193 255
152 193 255
152 193 255
152 193 255
152 193 255
152 193 255
152 193 255
152 193 255
152 193 255
152 193 255
152 193 255
152 193 255
152 193 255
152 193 255
152 193 255
152 193 255
152 193 255
152 193 255
152 193 255
152 193 255
152 193 255
152 193 255
152 193 255
152 193 255
152 193 255
152 193 255
152 193 255
152 193 255
152 193 255
152 193 255
152 193 255
152 193 255
152 193 255
152 193 255
152 193 255
152 193 255
152 194 255
152 194 255
152 194 255
152 194 255
152 194 255
152 194 255
152 194 255
153 194 255
153 194 255
153 194 255
153 194 255
153 194 255
153 194 255
153 194 255
153 194 255
153 194 255
153 194 255
153 194 255
153 194 255
153 194 255
153 194 255
153 194 255
153 194 255
154 194 255
154 194 255
154 194 255
154 194 255
154 194 255
154 195 255
154 195 255
154 195 255
154 195 255
154 195 255
154 195 255
154 195 255
154 195 255
155 195 255
155 195 255
155 195 255
155 195 255
155 195 255
155 195 255
155 195 255
155 195 255
155 195 255
155 195 255
155 195 255
156 196 255
156 196 255
156 196 255
156 196 255
156 196 255
156 196 255
156 196 255
156 196 255
156 196 255
156 196 255
157 196 255
157 196 255
157 196 255
157 196 255
157 196 255
157 196 255
157 197 255
157 197 255
157 197 255
157 197 255
158 197 255
158 197 255
158 197 255
158 197 255
158 197 255
158 197 255
158 197 255
158 197 255
158 197 255
159 197 255
159 197 255
159 197 255
159 198 255
159 198 255
159 198 255
159 198 255
159 198 255
159 198 255
160 198 255
160 198 255
160 198 255
160 198 255
160 198 255
160 198 255
160 198 255
160 198 255
160 198 255
160 198 255
161 199 255
161 199 255
161 199 255
161 199 255
161 199 255
161 199 255
161 199 255
161 199 255
161 199 255
162 199 255
162 199 255
162 199 255
162 199 255
162 199 255
162 199 255
162 199 255
162 200 255
162 200 255
162 200 255
163 200 255
163 200 255
163 200 255
163 200 255
163 200 255
163 200 255
163 200 255
163 200 255
163 200 255
163 200 255
164 200 255
164 200 255
164 200 255
164 200 255
164 201 255
164 201 255
164 201 255
164 201 255
164 201 255
164 201 255
164 201 255
165 201 255
165 201 255
165 201 255
165 201 255
165 201 255
165 201 255
165 201 255
165 201 255
165 201 255
165 201 255
165 201 255
166 202 255
166 202 255
166 202 255
166 202 255
166 202 255
166 202 255
166 202 255
166 202 255
166 202 255
166 202 255
166 202 255
167 202 255
167 202 255
167 202 255
167 202 255
167 202 255
167 202 255
167 202 255
167 202 255
167 203 255
167 203 255
167 203 255
167 203 255
168 203 255
168 203 255
168 203 255
168 203 255
168 203 255
168 203 255
168 203 255
168 203 255
168 203 255
168 203 255
168 203 255
169 203 255
168 203 255
168 203 255
168 203 255
168 203 255
168 203 255
168 203 255
168 203 255
168 203 255
168 203 255
168 203 255
168 203 255
168 203 255
168 203 255
167 203 255
167 203 255
167 203 255
167 203 255
167 202 255
167 202 255
167 202 255
167 202 255
167 202 255
167 202 255
167 202 255
167 202 255
166 202 255
166 202 255
166 202 255
166 202 255
166 202 255
166 202 255
166 202 255
166 202 255
166 202 255
166 202 255
166 202 255
165 201 255
165 201 255
165 201 255
165 201 255
165 201 255
165 201 255
165 201 255
165 201 255
165 201 255
165 201 255
165 201 255
164 201 255
164 201 255
164 201 255
164 201 255
164 201 255
164 201 255
164 201 255
164 200 255
164 200 255
164 200 255
163 200 255
163 200 255
163 200 255
163 200 255
163 200 255
163 200 255
163 200 255
163 200 255
163 200 255
163 200 255
162 200 255
162 200 255
162 200 255
162 200 255
162 199 255
162 199 255
162 199 255
162 199 255
162 199 255
162 199 255
161 199 255
161 199 255
161 199 255
161 199 255
161 199 255
161 199 255
161 199 255
161 199 255
161 199 255
161 199 255
160 198 255
160 198 255
160 198 255
160 198 255
160 198 255
160 198 255
160 198 255
160 198 255
160 198 255
159 198 255
159 198 255
159 198 255
159 198 255
159 198 255
159 198 255
159 197 255
159 197 255
159 197 255
159 197 255
158 197 255
158 197 255
158 197 255
158 197 255
158 197 255
158 197 255
158 197 255
158 197 255
158 197 255
157 197 255
157 197 255
157 197 255
157 196 255
157 196 255
157 196 255
157 196 255
157 196 255
157 196 255
157 196 255
156 196 255
156 196 255
156 196 255
156 196 255
156 196 255
156 196 255
156 196 255
156 196 255
156 196 255
156 196 255
155 195 255
155 195 255
155 195 255
155 195 255
155 195 255
155 195 255
155 195 255
155 195 255
155 195 255
155 195 255
155 195 255
154 195 255
154 195 255
154 195 255
154 195 255
154 195 255
154 195 255
154 195 255
154 195 255
154 195 255
154 194 255
154 194 255
154 194 255
154 194 255
153 194 255
153 194 255
153 194 255
153 194 255
153 194 255
153 194 255
153 194 255
153 194 255
153 194 255
153 194 255
153 194 255
153 194 255
153 194 255
153 194 255
153 194 255
153 194 255
153 194 255
153 194 255
153 194 255
152 194 255
152 194 255
152 194 255
152 194 255
152 194 255
152 194 255
152 194 255
152 194 255
152 194 255
152 194 255
152 194 255
152 193 255
152 193 255
152 193 255
152 193 255
152 193 255
152 193 255
152 193 255
152 193 255
152 193 255
152 193 255
152 193 255
152 193 255
152 193 255
152 193 255
152 193 255
152 193 255
152 193 255
152 193 255
152 193 255
152 193 255
152 194 255
152 194 255
152 194 255
152 194 255
152 194 255
152 194 255
152 194 255
152 194 255
152 194 255
152 194 255
152 194 255
153 194 255
153 194 255
153 194 255
153 194 255
153 194 255
153 194 255
153 194 255
153 194 255
153 194 255
153 194 255
153 194 255
153 194 255
153 194 255
153 194 255
153 194 255
153 194 255
153 194 255
153 194 255
153 194 255
154 194 255
154 194 255
154 194 255
154 194 255
154 195 255
154 195 255
154 195 255
154 195 255
154 195 255
154 195 255
154 195 255
154 195 255
154 195 255
155 195 255
155 195 255
155 195 255
155 195 255
155 195 255
155 195 255
155 195 255
155 195 255
155 195 255
155 195 255
155 195 255
156 196 255
156 196 255
156 196 255
156 196 255
156 196 255
156 196 255
156 196 255
156 196 255
156 196 255
156 196 255
157 196 255
157 196 255
157 196 255
157 196 255
157 196 255
157 196 255
157 196 255
157 197 255
157 197 255
157 197 255
158 197 255
158 197 255
158 197 255
158 197 255
158 197 255
158 197 255
158 197 255
158 197 255
158 197 255
158 197 255
159 197 255
159 197 255
159 197 255
159 198 255
159 198 255
159 198 255
159 198 255
159 198 255
159 198 255
160 198 255
160 198 255
160 198 255
160 198 255
160 198 255
160 198 255
160 198 255
160 198 255
160 198 255
161 199 255
161 199 255
161 199 255
161 199 255
161 199 255
161 199 255
161 199 255
161 199 255
161 199 255
161 199 255
162 199 255
162 199 255
162 199 255
162 199 255
162 199 255
162 199 255
162 200 255
162 200 255
162 200 255
162 200 255
163 200 255
163 200 255
163 200 255
163 200 255
163 200 255
163 200 255
163 200 255
163 200 255
163 200 255
163 200 255
164 200 255
164 200 255
164 200 255
164 201 255
164 201 255
164 201 255
164 201 255
164 201 255
164 201 255
164 201 255
165 201 255
165 201 255
165 201 255
165 201 255
165 201 255
165 201 255
165 201 255
165 201 255
165 201 255
165 201 255
165 201 255
166 202 255
166 202 255
166 202 255
166 202 255
166 202 255
166 202 255
166 202 255
166 202 255
166 202 255
166 202 255
166 202 255
167 202 255
167 202 255
167 202 255
167 202 255
167 202 255
167 202 255
167 202 255
167 202 255
167 203 255
167 203 255
167 203 255
167 203 255
168 203 255
168 203 255
168 203 255
168 203 255
168 203 255
168 203 255
168 203 255
168 203 255
168 203 255
168 203 255
168 203 255
168 203 255
168 203 255
169 203 255
169 203 255
169 203 255
169 203 255
169 203 255
168 203 255
168 203 255
168 203 255
168 203 255
168 203 255
168 203 255
168 203 255
168 203 255
168 203 255
168 203 255
168 203 255
168 203 255
168 203 255
167 203 255
167 203 255
167 203 255
167 203 255
167 202 255
167 202 255
167 202 255
167 202 255
167 202 255
167 202 255
167 202 255
167 202 255
166 202 255
166 202 255
166 202 255
166 202 255
166 202 255
166 202 255
166 202 255
166 202 255
166 202 255
166 202 255
166 202 255
165 201 255
165 201 255
165 201 255
165 201 255
165 201 255
165 201 255
165 201 255
165 201 255
165 201 255
165 201 255
165 201 255
164 201 255
164 201 255
164 201 255
164 201 255
164 201 255
164 201 255
164 201 255
164 200 255
164 200 255
164 200 255
163 200 255
163 200 255
163 200 255
163 200 255
163 200 255
163 200 255
163 200 255
163 200 255
163 200 255
163 200 255
162 200 255
162 200 255
162 200 255
162 199 255
162 199 255
162 199 255
162 199 255
162 199 255
162 199 255
162 199 255
161 199 255
161 199 255
161 199 255
161 199 255
161 199 255
161 199 255
161 199 255
161 199 255
161 199 255
160 198 255
160 198 255
160 198 255
160 198 255
160 198 255
160 198 255
160 198 255
160 198 255
160 198 255
160 198 255
159 198 255
159 198 255
159 198 255
159 198 255
159 198 255
159 198 255
159 197 255
159 197 255
159 197 255
158 197 255
158 197 255
158 197 255
158 197 255
158 197 255
158 197 255
158 197 255
158 197 255
158 197 255
158 197 255
157 197 255
157 197 255
157 197 255
157 196 255
157 196 255
157 196 255
157 196 255
157 196 255
157 196 255
157 196 255
156 196 255
156 196 255
156 196 255
156 196 255
156 196 255
156 196 255
156 196 255
156 196 255
156 196 255
156 196 255
155 195 255
155 195 255
155 195 255
155 195 255
155 195 255
155 195 255
155 195 255
155 195 255
155 195 255
155 195 255
155 195 255
155 195 255
154 195 255
154 195 255
154 195 255
154 195 255
154 195 255
154 195 255
154 195 255
154 195 255
154 195 255
154 194 255
154 194 255
154 194 255
154 194 255
154 194 255
153 194 255
153 194 255
153 194 255
153 194 255
153 194 255
153 194 255
153 194 255
153 194 255
153 194 255
153 194 255
153 194 255
153 194 255
153 194 255
153 194 255
153 194 255
153 194 255
153 194 255
153 194 255
153 194 255
153 194 255
153 194 255
153 194 255
152 194 255
152 194 255
152 194 255
152 194 255
152 194 255
152 194 255
152 194 255
152 194 255
152 194 255
152 194 255
152 194 255
152 194 255
152 194 255
152 194 255
152 194 255
152 194 255
152 194 255
152 194 255
152 194 255
152 194 255
152 194 255
152 194 255
152 194 255
152 194 255
152 194 255
152 194 255
153 194 255
153 194 255
153 194 255
153 194 255
153 194 255
153 194 255
153 194 255
153 194 255
153 194 255
153 194 255
153 194 255
153 194 255
153 194 255
153 194 255
153 194 255
153 194 255
153 194 255
153 194 255
153 194 255
153 194 255
153 194 255
153 194 255
154 194 255
154 194 255
154 194 255
154 194 255
154 194 255
154 195 255
154 195 255
154 195 255
154 195 255
154 195 255
154 195 255
154 195 255
154 195 255
154 195 255
155 195 255
155 195 255
155 195 255
155 195 255
155 195 255
155 195 255
155 195 255
155 195 255
155 195 255
155 195 255
155 195 255
155 195 255
156 196 255
156 196 255
156 196 255
156 196 255
156 196 255
156 196 255
156 196 255
156 196 255
156 196 255
156 196 255
157 196 255
157 196 255
157 196 255
157 196 255
157 196 255
157 196 255
157 196 255
157 197 255
157 197 255
157 197 255
158 197 255
158 197 255
158 197 255
158 197 255
158 197 255
158 197 255
158 197 255
158 197 255
158 197 255
158 197 255
159 197 255
159 197 255
159 197 255
159 198 255
159 198 255
159 198 255
159 198 255
159 198 255
159 198 255
160 198 255
160 198 255
160 198 255
160 198 255
160 198 255
160 198 255
160 198 255
160 198 255
160 198 255
160 198 255
161 199 255
161 199 255
161 199 255
161 199 255
161 199 255
161 199 255
161 199 255
161 199 255
161 199 255
162 199 255
162 199 255
162 199 255
162 199 255
162 199 255
162 199 255
162 199 255
162 200 255
162 200 255
162 200 255
163 200 255
163 200 255
163 200 255
163 200 255
163 200 255
163 200 255
163 200 255
163 200 255
163 200 255
163 200 255
164 200 255
164 200 255
164 200 255
164 201 255
164 201 255
164 201 255
164 201 255
164 201 255
164 201 255
164 201 255
165 201 255
165 201 255
165 201 255
165 201 255
165 201 255
165 201 255
165 201 255
165 201 255
165 201 255
165 201 255
165 201 255
166 202 255
166 202 255
166 202 255
166 202 255
166 202 255
166 202 255
166 202 255
166 202 255
166 202 255
166 202 255
166 202 255
167 202 255
167 202 255
167 202 255
167 202 255
167 202 255
167 202 255
167 202 255
167 202 255
167 203 255
167 203 255
167 203 255
167 203 255
168 203 255
168 203 255
168 203 255
168 203 255
168 203 255
168 203 255
168 203 255
168 203 255
168 203 255
168 203 255
168 203 255
168 203 255
168 203 255
169 203 255
169 203 255
169 203 255
169 203 255
169 204 255
169 204 255
169 204 255
169 203 255
169 203 255
169 203 255
169 203 255
168 203 255
168 203 255
168 203 255
168 203 255
168 203 255
168 203 255
168 203 255
168 203 255
168 203 255
168 203 255
168 203 255
168 203 255
168 203 255
167 203 255
167 203 255
167 203 255
167 203 255
167 202 255
167 202 255
167 202 255
167 202 255
167 202 255
167 202 255
167 202 255
166 202 255
166 202 255
166 202 255
166 202 255
166 202 255
166 202 255
166 202 255
166 202 255
166 202 255
166 202 255
166 202 255
166 202 255
165 201 255
165 201 255
165 201 255
165 201 255
165 201 255
165 201 255
165 201 255
165 201 255
165 201 255
165 201 255
164 201 255
164 201 255
164 201 255
164 201 255
164 201 255
164 201 255
164 201 255
164 200 255
164 200 255
164 200 255
164 200 255
163 200 255
163 200 255
163 200 255
163 200 255
163 200 255
163 200 255
163 200 255
163 200 255
163 200 255
163 200 255
162 200 255
162 200 255
162 200 255
162 199 255
162 199 255
162 199 255
162 199 255
162 199 255
162 199 255
161 199 255
161 199 255
161 199 255
161 199 255
161 199 255
161 199 255
161 199 255
161 199 255
161 199 255
161 199 255
160 198 255
160 198 255
160 198 255
160 198 255
160 198 255
160 198 255
160 198 255
160 198 255
160 198 255
159 198 255
159 198 255
159 198 255
159 198 255
159 198 255
159 198 255
159 198 255
159 197 255
159 197 255
159 197 255
158 197 255
158 197 255
158 197 255
158 197 255
158 197 255
158 197 255
158 197 255
158 197 255
158 197 255
158 197 255
157 197 255
157 197 255
157 197 255
157 196 255
157 196 255
157 196 255
157 196 255
157 196 255
157 196 255
157 196 255
156 196 255
156 196 255
156 196 255
156 196 255
156 196 255
156 196 255
156 196 255
156 196 255
156 196 255
156 196 255
155 195 255
155 195 255
155 195 255
155 195 255
155 195 255
155 195 255
155 195 255
155 195 255
155 195 255
155 195 255
155 195 255
155 195 255
154 195 255
154 195 255
154 195 255
154 195 255
154 195 255
154 195 255
154 195 255
154 195 255
154 195 255
154 195 255
154 194 255
154 194 255
154 194 255
154 194 255
154 194 255
154 194 255
153 194 255
153 194 255
153 194 255
153 194 255
153 194 255
153 194 255
153 194 255
153 194 255
153 194 255
153 194 255
153 194 255
153 194 255
153 194 255
153 194 255
153 194 255
153 194 255
153 194 255
153 194 255
153 194 255
153 194 255
153 194 255
153 194 255
153 194 255
153 194 255
153 194 255
153 194 255
153 194 255
153 194 255
153 194 255
153 194 255
153 194 255
153 194 255
153 194 255
153 194 255
153 194 255
153 194 255
153 194 255
153 194 255
153 194 255
153 194 255
153 194 255
153 194 255
153 194 255
153 194 255
153 194 255
153 194 255
153 194 255
153 194 255
153 194 255
153 194 255
153 194 255
153 194 255
153 194 255
153 194 255
153 194 255
153 194 255
153 194 255
153 194 255
153 194 255
153 194 255
154 194 255
154 194 255
154 194 255
154 194 255
154 194 255
154 194 255
154 195 255
154 195 255
154 195 255
154 195 255
154 195 255
154 195 255
154 195 255
154 195 255
154 195 255
154 195 255
155 195 255
155 195 255
155 195 255
155 195 255
155 195 255
155 195 255
155 195 255
155 195 255
155 195 255
155 195 255
155 195 255
155 195 255
156 196 255
156 196 255
156 196 255
156 196 255
156 196 255
156 196 255
156 196 255
156 196 255
156 196 255
156 196 255
157 196 255
157 196 255
157 196 255
157 196 255
157 196 255
157 196 255
157 196 255
157 197 255
157 197 255
157 197 255
158 197 255
158 197 255
158 197 255
158 197 255
158 197 255
158 197 255
158 197 255
158 197 255
158 197 255
158 197 255
159 197 255
159 197 255
159 197 255
159 198 255
159 198 255
159 198 255
159 198 255
159 198 255
159 198 255
159 198 255
160 198 255
160 198 255
160 198 255
160 198 255
160 198 255
160 198 255
160 198 255
160 198 255
160 198 255
161 199 255
161 199 255
161 199 255
161 199 255
161 199 255
161 199 255
161 199 255
161 199 255
161 199 255
161 199 255
162 199 255
162 199 255
162 199 255
162 199 255
162 199 255
162 199 255
162 200 255
162 200 255
162 200 255
163 200 255
163 200 255
163 200 255
163 200 255
163 200 255
163 200 255
163 200 255
163 200 255
163 200 255
163 200 255
164 200 255
164 200 255
164 200 255
164 200 255
164 201 255
164 201 255
164 201 255
164 201 255
164 201 255
164 201 255
164 201 255
165 201 255
165 201 255
165 201 255
165 201 255
165 201 255
165 201 255
165 201 255
165 201 255
165 201 255
165 201 255
166 202 255
166 202 255
166 202 255
166 202 255
166 202 255
166 202 255
166 202 255
166 202 255
166 202 255
166 202 255
166 202 255
166 202 255
167 202 255
167 202 255
167 202 255
167 202 255
167 202 255
167 202 255
167 202 255
167 203 255
167 203 255
167 203 255
167 203 255
168 203 255
168 203 255
168 203 255
168 203 255
168 203 255
168 203 255
168 203 255
168 203 255
168 203 255
168 203 255
168 203 255
168 203 255
168 203 255
169 203 255
169 203 255
169 203 255
169 203 255
169 204 255
169 204 255
169 204 255
169 204 255
169 204 255
169 204 255
169 204 255
169 204 255
169 204 255
169 203 255
169 203 255
169 203 255
169 203 255
168 203 255
168 203 255
168 203 255
168 203 255
168 203 255
168 203 255
168 203 255
168 203 255
168 203 255
168 203 255
168 203 255
168 203 255
167 203 255
167 203 255
167 203 255
167 203 255
167 203 255
167 202 255
167 202 255
167 202 255
167 202 255
167 202 255
167 202 255
167 202 255
166 202 255
166 202 255
166 202 255
166 202 255
166 202 255
166 202 255
166 202 255
166 202 255
166 202 255
166 202 255
166 202 255
165 201 255
165 201 255
165 201 255
165 201 255
165 201 255
165 201 255
165 201 255
165 201 255
165 201 255
165 201 255
165 201 255
164 201 255
164 201 255
164 201 255
164 201 255
164 201 255
164 201 255
164 201 255
164 200 255
164 200 255
164 200 255
163 200 255
163 200 255
163 200 255
163 200 255
163 200 255
163 200 255
163 200 255
163 200 255
163 200 255
163 200 255
162 200 255
162 200 255
162 200 255
162 200 255
162 199 255
162 199 255
162 199 255
162 199 255
162 199 255
162 199 255
161 199 255
161 199 255
161 199 255
161 199 255
161 199 255
161 199 255
161 199 255
161 199 255
161 199 255
160 198 255
160 198 255
160 198 255
160 198 255
160 198 255
160 198 255
160 198 255
160 198 255
160 198 255
160 198 255
159 198 255
159 198 255
159 198 255
159 198 255
159 198 255
159 198 255
159 198 255
159 197 255
159 197 255
159 197 255
158 197 255
158 197 255
158 197 255
158 197 255
158 197 255
158 197 255
158 197 255
158 197 255
158 197 255
157 197 255
157 197 255
157 197 255
157 197 255
157 196 255
157 196 255
157 196 255
157 196 255
157 196 255
157 196 255
157 196 255
156 196 255
156 196 255
156 196 255
156 196 255
156 196 255
156 196 255
156 196 255
156 196 255
156 196 255
156 196 255
156 196 255
155 195 255
155 195 255
155 195 255
155 195 255
155 195 255
155 195 255
155 195 255
155 195 255
155 195 255
155 195 255
155 195 255
155 195 255
154 195 255
154 195 255
154 195 255
154 195 255
154 195 255
154 195 255
154 195 255
154 195 255
154 195 255
154 195 255
154 195 255
154 194 255
154 194 255
154 194 255
154 194 255
154 194 255
154 194 255
153 194 255
153 194 255
153 194 255
153 194 255
153 194 255
153 194 255
153 194 255
153 194 255
153 194 255
153 194 255
153 194 255
153 194 255
153 194 255
153 194 255
153 194 255
153 194 255
153 194 255
153 194 255
153 194 255
153 194 255
153 194 255
153 194 255
153 194 255
153 194 255
153 194 255
153 194 255
153 194 255
153 194 255
153 194 255
153 194 255
153 194 255
153 194 255
153 194 255
153 194 255
153 194 255
153 194 255
153 194 255
153 194 255
153 194 255
153 194 255
153 194 255
153 194 255
153 194 255
153 194 255
153 194 255
153 194 255
153 194 255
153 194 255
153 194 255
153 194 255
154 194 255
154 194 255
154 194 255
154 194 255
154 194 255
154 194 255
154 195 255
154 195 255
154 195 255
154 195 255
154 195 255
154 195 255
154 195 255
154 195 255
154 195 255
154 195 255
154 195 255
155 195 255
155 195 255
155 195 255
155 195 255
155 195 255
155 195 255
155 195 255
155 195 255
155 195 255
155 195 255
155 195 255
155 195 255
156 196 255
156 196 255
156 196 255
156 196 255
156 196 255
156 196 255
156 196 255
156 196 255
156 196 255
156 196 255
156 196 255
156 196 255
157 196 255
157 196 255
157 196 255
157 196 255
157 196 255
157 196 255
157 197 255
157 197 255
157 197 255
157 197 255
158 197 255
158 197 255
158 197 255
158 197 255
158 197 255
158 197 255
158 197 255
158 197 255
158 197 255
159 197 255
159 197 255
159 197 255
159 198 255
159 198 255
159 198 255
159 198 255
159 198 255
159 198 255
159 198 255
160 198 255
160 198 255
160 198 255
160 198 255
160 198 255
160 198 255
160 198 255
160 198 255
160 198 255
160 198 255
161 199 255
161 199 255
161 199 255
161 199 255
161 199 255
161 199 255
161 199 255
161 199 255
161 199 255
162 199 255
162 199 255
162 199 255
162 199 255
162 199 255
162 199 255
162 200 255
162 200 255
162 200 255
162 200 255
163 200 255
163 200 255
163 200 255
163 200 255
163 200 255
163 200 255
163 200 255
163 200 255
163 200 255
163 200 255
164 200 255
164 200 255
164 200 255
164 201 255
164 201 255
164 201 255
164 201 255
164 201 255
164 201 255
164 201 255
165 201 255
165 201 255
165 201 255
165 201 255
165 201 255
165 201 255
165 201 255
165 201 255
165 201 255
165 201 255
165 201 255
166 202 255
166 202 255
166 202 255
166 202 255
166 202 255
166 202 255
166 202 255
166 202 255
166 202 255
166 202 255
166 202 255
167 202 255
167 202 255
167 202 255
167 202 255
167 202 255
167 202 255
167 202 255
167 202 255
167 203 255
167 203 255
167 203 255
168 203 255
168 203 255
168 203 255
168 203 255
168 203 255
168 203 255
168 203 255
168 203 255
168 203 255
168 203 255
168 203 255
168 203 255
168 203 255
169 203 255
169 203 255
169 203 255
169 203 255
169 204 255
169 204 255
169 204 255
169 204 255
169 204 255
169 204 255
169 204 255
169 204 255
169 204 255
169 204 255
169 204 255
169 204 255
169 204 255
169 204 255
169 204 255
169 203 255
169 203 255
169 203 255
169 203 255
168 203 255
168 203 255
168 203 255
168 203 255
168 203 255
168 203 255
168 203 255
168 203 255
168 203 255
168 203 255
168 203 255
168 203 255
167 203 255
167 203 255
167 203 255
167 203 255
167 202 255
167 202 255
167 202 255
167 202 255
167 202 255
167 202 255
167 202 255
167 202 255
166 202 255
166 202 255
166 202 255
166 202 255
166 202 255
166 202 255
166 202 255
166 202 255
166 202 255
166 202 255
166 202 255
165 201 255
165 201 255
165 201 255
165 201 255
165 201 255
165 201 255
165 201 255
165 201 255
165 201 255
165 201 255
165 201 255
164 201 255
164 201 255
164 201 255
164 201 255
164 201 255
164 201 255
164 201 255
164 200 255
164 200 255
164 200 255
163 200 255
163 200 255
163 200 255
163 200 255
163 200 255
163 200 255
163 200 255
163 200 255
163 200 255
163 200 255
162 200 255
162 200 255
162 200 255
162 199 255
162 199 255
162 199 255
162 199 255
162 199 255
162 199 255
161 199 255
161 199 255
161 199 255
161 199 255
161 199 255
161 199 255
161 199 255
161 199 255
161 199 255
161 199 255
160 198 255
160 198 255
160 198 255
160 198 255
160 198 255
160 198 255
160 198 255
160 198 255
160 198 255
160 198 255
159 198 255
159 198 255
159 198 255
159 198 255
159 198 255
159 198 255
159 197 255
159 197 255
159 197 255
158 197 255
158 197 255
158 197 255
158 197 255
158 197 255
158 197 255
158 197 255
158 197 255
158 197 255
158 197 255
157 197 255
157 197 255
157 197 255
157 197 255
157 196 255
157 196 255
157 196 255
157 196 255
157 196 255
157 196 255
157 196 255
156 196 255
156 196 255
156 196 255
156 196 255
156 196 255
156 196 255
156 196 255
156 196 255
156 196 255
156 196 255
156 196 255
155 195 255
155 195 255
155 195 255
155 195 255
155 195 255
155 195 255
155 195 255
155 195 255
155 195 255
155 195 255
155 195 255
155 195 255
155 195 255
155 195 255
154 195 255
154 195 255
154 195 255
154 195 255
154 195 255
154 195 255
154 195 255
154 195 255
154 195 255
154 195 255
154 195 255
154 195 255
154 194 255
154 194 255
154 194 255
154 194 255
154 194 255
154 194 255
154 194 255
154 194 255
153 194 255
153 194 255
153 194 255
153 194 255
153 194 255
153 194 255
153 194 255
153 194 255
153 194 255
153 194 255
153 194 255
153 194 255
153 194 255
153 194 255
153 194 255
153 194 255
153 194 255
153 194 255
153 194 255
153 194 255
153 194 255
153 194 255
153 194 255
153 194 255
153 194 255
153 194 255
153 194 255
153 194 255
153 194 255
153 194 255
153 194 255
153 194 255
153 194 255
153 194 255
154 194 255
154 194 255
154 194 255
154 194 255
154 194 255
154 194 255
154 194 255
154 194 255
154 195 255
154 195 255
154 195 255
154 195 255
154 195 255
154 195 255
154 195 255
154 195 255
154 195 255
154 195 255
154 195 255
154 195 255
155 195 255
155 195 255
155 195 255
155 195 255
155 195 255
155 195 255
155 195 255
155 195 255
155 195 255
155 195 255
155 195 255
155 195 255
155 195 255
155 195 255
156 196 255
156 196 255
156 196 255
156 196 255
156 196 255
156 196 255
156 196 255
156 196 255
156 196 255
156 196 255
156 196 255
157 196 255
157 196 255
157 196 255
157 196 255
157 196 255
157 196 255
157 196 255
157 197 255
157 197 255
157 197 255
157 197 255
158 197 255
158 197 255
158 197 255
158 197 255
158 197 255
158 197 255
158 197 255
158 197 255
158 197 255
158 197 255
159 197 255
159 197 255
159 197 255
159 198 255
159 198 255
159 198 255
159 198 255
159 198 255
159 198 255
160 198 255
160 198 255
160 198 255
160 198 255
160 198 255
160 198 255
160 198 255
160 198 255
160 198 255
160 198 255
161 199 255
161 199 255
161 199 255
161 199 255
161 199 255
161 199 255
161 199 255
161 199 255
161 199 255
162 199 255
162 199 255
162 199 255
162 199 255
162 199 255
162 199 255
162 199 255
162 200 255
162 200 255
162 200 255
163 200 255
163 200 255
163 200 255
163 200 255
163 200 255
163 200 255
163 200 255
163 200 255
163 200 255
163 200 255
164 200 255
164 200 255
164 200 255
164 201 255
164 201 255
164 201 255
164 201 255
164 201 255
164 201 255
164 201 255
165 201 255
165 201 255
165 201 255
165 201 255
165 201 255
165 201 255
165 201 255
165 201 255
165 201 255
165 201 255
165 201 255
166 202 255
166 202 255
166 202 255
166 202 255
166 202 255
166 202 255
166 202 255
166 202 255
166 202 255
166 202 255
166 202 255
167 202 255
167 202 255
167 202 255
167 202 255
167 202 255
167 202 255
167 202 255
167 202 255
167 203 255
167 203 255
167 203 255
168 203 255
168 203 255
168 203 255
168 203 255
168 203 255
168 203 255
168 203 255
168 203 255
168 203 255
168 203 255
168 203 255
168 203 255
168 203 255
169 203 255
169 203 255
169 203 255
169 203 255
169 204 255
169 204 255
169 204 255
169 204 255
169 204 255
169 204 255
169 204 255
169 204 255
169 204 255
170 204 255
170 204 255
170 204 255
169 204 255
169 204 255
169 204 255
169 204 255
169 204 255
169 204 255
169 204 255
169 204 255
169 204 255
169 203 255
169 203 255
169 203 255
169 203 255
168 203 255
168 203 255
168 203 255
168 203 255
168 203 255
168 203 255
168 203 255
168 203 255
168 203 255
168 203 255
168 203 255
168 203 255
167 203 255
167 203 255
167 203 255
167 203 255
167 202 255
167 202 255
167 202 255
167 202 255
167 202 255
167 202 255
167 202 255
167 202 255
166 202 255
166 202 255
166 202 255
166 202 255
166 202 255
166 202 255
166 202 255
166 202 255
166 202 255
166 202 255
166 202 255
165 201 255
165 201 255
165 201 255
165 201 255
165 201 255
165 201 255
165 201 255
165 201 255
165 201 255
165 201 255
165 201 255
164 201 255
164 201 255
164 201 255
164 201 255
164 201 255
164 201 255
164 200 255
164 200 255
164 200 255
164 200 255
163 200 255
163 200 255
163 200 255
163 200 255
163 200 255
163 200 255
163 200 255
163 200 255
163 200 255
163 200 255
162 200 255
162 200 255
162 200 255
162 199 255
162 199 255
162 199 255
162 199 255
162 199 255
162 199 255
161 199 255
161 199 255
161 199 255
161 199 255
161 199 255
161 199 255
161 199 255
161 199 255
161 199 255
161 199 255
160 198 255
160 198 255
160 198 255
160 198 255
160 198 255
160 198 255
160 198 255
160 198 255
160 198 255
160 198 255
159 198 255
159 198 255
159 198 255
159 198 255
159 198 255
159 198 255
159 197 255
159 197 255
159 197 255
158 197 255
158 197 255
158 197 255
158 197 255
158 197 255
158 197 255
158 197 255
158 197 255
158 197 255
158 197 255
157 197 255
157 197 255
157 197 255
157 197 255
157 196 255
157 196 255
157 196 255
157 196 255
157 196 255
157 196 255
157 196 255
156 196 255
156 196 255
156 196 255
156 196 255
156 196 255
156 196 255
156 196 255
156 196 255
156 196 255
156 196 255
156 196 255
156 196 255
155 195 255
155 195 255
155 195 255
155 195 255
155 195 255
155 195 255
155 195 255
155 195 255
155 195 255
155 195 255
155 195 255
155 195 255
155 195 255
155 195 255
154 195 255
154 195 255
154 195 255
154 195 255
154 195 255
154 195 255
154 195 255
154 195 255
154 195 255
154 195 255
154 195 255
154 195 255
154 195 255
154 195 255
154 195 255
154 194 255
154 194 255
154 194 255
154 194 255
154 194 255
154 194 255
154 194 255
154 194 255
154 194 255
154 194 255
154 194 255
154 194 255
154 194 255
154 194 255
154 194 255
154 194 255
153 194 255
154 194 255
154 194 255
154 194 255
153 194 255
154 194 255
154 194 255
154 194 255
154 194 255
154 194 255
154 194 255
154 194 255
154 194 255
154 194 255
154 194 255
154 194 255
154 194 255
154 194 255
154 194 255
154 194 255
154 194 255
154 195 255
154 195 255
154 195 255
154 195 255
154 195 255
154 195 255
154 195 255
154 195 255
154 195 255
154 195 255
154 195 255
154 195 255
154 195 255
154 195 255
155 195 255
155 195 255
155 195 255
155 195 255
155 195 255
155 195 255
155 195 255
155 195 255
155 195 255
155 195 255
155 195 255
155 195 255
155 195 255
155 195 255
156 196 255
156 196 255
156 196 255
156 196 255
156 196 255
156 196 255
156 196 255
156 196 255
156 196 255
156 196 255
156 196 255
156 196 255
157 196 255
157 196 255
157 196 255
157 196 255
157 196 255
157 196 255
157 196 255
157 197 255
157 197 255
157 197 255
157 197 255
158 197 255
158 197 255
158 197 255
158 197 255
158 197 255
158 197 255
158 197 255
158 197 255
158 197 255
158 197 255
159 197 255
159 197 255
159 197 255
159 198 255
159 198 255
159 198 255
159 198 255
159 198 255
159 198 255
160 198 255
160 198 255
160 198 255
160 198 255
160 198 255
160 198 255
160 198 255
160 198 255
160 198 255
160 198 255
161 199 255
161 199 255
161 199 255
161 199 255
161 199 255
161 199 255
161 199 255
161 199 255
161 199 255
161 199 255
162 199 255
162 199 255
162 199 255
162 199 255
162 199 255
162 199 255
162 200 255
162 200 255
162 200 255
163 200 255
163 200 255
163 200 255
163 200 255
163 200 255
163 200 255
163 200 255
163 200 255
163 200 255
163 200 255
164 200 255
164 200 255
164 200 255
164 200 255
164 201 255
164 201 255
164 201 255
164 201 255
164 201 255
164 201 255
165 201 255
165 201 255
165 201 255
165 201 255
165 201 255
165 201 255
165 201 255
165 201 255
165 201 255
165 201 255
165 201 255
166 202 255
166 202 255
166 202 255
166 202 255
166 202 255
166 202 255
166 202 255
166 202 255
166 202 255
166 202 255
166 202 255
167 202 255
167 202 255
167 202 255
167 202 255
167 202 255
167 202 255
167 202 255
167 202 255
167 203 255
167 203 255
167 203 255
167 203 255
168 203 255
168 203 255
168 203 255
168 203 255
168 203 255
168 203 255
168 203 255
168 203 255
168 203 255
168 203 255
168 203 255
168 203 255
169 203 255
169 203 255
169 203 255
169 203 255
169 204 255
169 204 255
169 204 255
169 204 255
169 204 255
169 204 255
169 204 255
169 204 255
169 204 255
170 204 255
170 204 255
170 204 255
170 204 255
170 204 255
170 204 255
170 204 255
170 204 255
170 204 255
169 204 255
169 204 255
169 204 255
169 204 255
169 204 255
169 204 255
169 204 255
169 204 255
169 204 255
169 203 255
169 203 255
169 203 255
169 203 255
168 203 255
168 203 255
168 203 255
168 203 255
168 203 255
168 203 255
168 203 255
168 203 255
168 203 255
168 203 255
168 203 255
168 203 255
167 203 255
167 203 255
167 203 255
167 203 255
167 202 255
167 202 255
167 202 255
167 202 255
167 202 255
167 202 255
167 202 255
167 202 255
166 202 255
166 202 255
166 202 255
166 202 255
166 202 255
166 202 255
166 202 255
166 202 255
166 202 255
166 202 255
166 202 255
165 201 255
165 201 255
165 201 255
165 201 255
165 201 255
165 201 255
165 201 255
165 201 255
165 201 255
165 201 255
164 201 255
164 201 255
164 201 255
164 201 255
164 201 255
164 201 255
164 201 255
164 200 255
164 200 255
164 200 255
163 200 255
163 200 255
163 200 255
163 200 255
163 200 255
163 200 255
163 200 255
163 200 255
163 200 255
163 200 255
162 200 255
162 200 255
162 200 255
162 200 255
162 199 255
162 199 255
162 199 255
162 199 255
162 199 255
162 199 255
161 199 255
161 199 255
161 199 255
161 199 255
161 199 255
161 199 255
161 199 255
161 199 255
161 199 255
161 199 255
160 198 255
160 198 255
160 198 255
160 198 255
160 198 255
160 198 255
160 198 255
160 198 255
160 198 255
159 198 255
159 198 255
159 198 255
159 198 255
159 198 255
159 198 255
159 198 255
159 197 255
159 197 255
159 197 255
158 197 255
158 197 255
158 197 255
158 197 255
158 197 255
158 197 255
158 197 255
158 197 255
158 197 255
158 197 255
157 197 255
157 197 255
157 197 255
157 197 255
157 196 255
157 196 255
157 196 255
157 196 255
157 196 255
157 196 255
157 196 255
156 196 255
156 196 255
156 196 255
156 196 255
156 196 255
156 196 255
156 196 255
156 196 255
156 196 255
156 196 255
156 196 255
156 196 255
156 196 255
155 195 255
155 195 255
155 195 255
155 195 255
155 195 255
155 195 255
155 195 255
155 195 255
155 195 255
155 195 255
155 195 255
155 195 255
155 195 255
155 195 255
155 195 255
155 195 255
154 195 255
154 195 255
154 195 255
154 195 255
154 195 255
154 195 255
154 195 255
154 195 255
154 195 255
154 195 255
154 195 255
154 195 255
154 195 255
154 195 255
154 195 255
154 195 255
154 195 255
154 195 255
154 195 255
154 195 255
154 194 255
154 195 255
154 195 255
154 194 255
154 194 255
154 194 255
154 194 255
154 194 255
154 194 255
154 194 255
154 194 255
154 194 255
154 195 255
154 195 255
154 195 255
154 195 255
154 195 255
154 195 255
154 195 255
154 195 255
154 195 255
154 195 255
154 195 255
154 195 255
154 195 255
154 195 255
154 195 255
154 195 255
154 195 255
154 195 255
154 195 255
154 195 255
154 195 255
154 195 255
155 195 255
155 195 255
155 195 255
155 195 255
155 195 255
155 195 255
155 195 255
155 195 255
155 195 255
155 195 255
155 195 255
155 195 255
155 195 255
155 195 255
155 195 255
155 195 255
156 196 255
156 196 255
156 196 255
156 196 255
156 196 255
156 196 255
156 196 255
156 196 255
156 196 255
156 196 255
156 196 255
156 196 255
156 196 255
157 196 255
157 196 255
157 196 255
157 196 255
157 196 255
157 196 255
157 196 255
157 197 255
157 197 255
157 197 255
157 197 255
158 197 255
158 197 255
158 197 255
158 197 255
158 197 255
158 197 255
158 197 255
158 197 255
158 197 255
158 197 255
159 197 255
159 197 255
159 197 255
159 198 255
159 198 255
159 198 255
159 198 255
159 198 255
159 198 255
159 198 255
160 198 255
160 198 255
160 198 255
160 198 255
160 198 255
160 198 255
160 198 255
160 198 255
160 198 255
161 199 255
161 199 255
161 199 255
161 199 255
161 199 255
161 199 255
161 199 255
161 199 255
161 199 255
161 199 255
162 199 255
162 199 255
162 199 255
162 199 255
162 199 255
162 199 255
162 199 255
162 200 255
162 200 255
163 200 255
163 200 255
163 200 255
163 200 255
163 200 255
163 200 255
163 200 255
163 200 255
163 200 255
163 200 255
164 200 255
164 200 255
164 200 255
164 200 255
164 201 255
164 201 255
164 201 255
164 201 255
164 201 255
164 201 255
164 201 255
165 201 255
165 201 255
165 201 255
165 201 255
165 201 255
165 201 255
165 201 255
165 201 255
165 201 255
165 201 255
166 202 255
166 202 255
166 202 255
166 202 255
166 202 255
166 202 255
166 202 255
166 202 255
166 202 255
166 202 255
166 202 255
167 202 255
167 202 255
167 202 255
167 202 255
167 202 255
167 202 255
167 202 255
167 202 255
167 203 255
167 203 255
167 203 255
167 203 255
168 203 255
168 203 255
168 203 255
168 203 255
168 203 255
168 203 255
168 203 255
168 203 255
168 203 255
168 203 255
168 203 255
168 203 255
169 203 255
169 203 255
169 203 255
169 203 255
169 204 255
169 204 255
169 204 255
169 204 255
169 204 255
169 204 255
169 204 255
169 204 255
169 204 255
170 204 255
170 204 255
170 204 255
170 204 255
170 204 255
170 204 255
170 204 255
170 204 255
170 204 255
170 204 255
170 204 255
170 204 255
170 204 255
170 204 255
170 204 255
169 204 255
169 204 255
169 204 255
169 204 255
169 204 255
169 204 255
169 204 255
169 204 255
169 204 255
169 203 255
169 203 255
169 203 255
169 203 255
168 203 255
168 203 255
168 203 255
168 203 255
168 203 255
168 203 255
168 203 255
168 203 255
168 203 255
168 203 255
168 203 255
168 203 255
167 203 255
167 203 255
167 203 255
167 203 255
167 202 255
167 202 255
167 202 255
167 202 255
167 202 255
167 202 255
167 202 255
167 202 255
166 202 255
166 202 255
166 202 255
166 202 255
166 202 255
166 202 255
166 202 255
166 202 255
166 202 255
166 202 255
166 202 255
165 201 255
165 201 255
165 201 255
165 201 255
165 201 255
165 201 255
165 201 255
165 201 255
165 201 255
165 201 255
164 201 255
164 201 255
164 201 255
164 201 255
164 201 255
164 201 255
164 201 255
164 200 255
164 200 255
164 200 255
163 200 255
163 200 255
163 200 255
163 200 255
163 200 255
163 200 255
163 200 255
163 200 255
163 200 255
163 200 255
162 200 255
162 200 255
162 200 255
162 199 255
162 199 255
162 199 255
162 199 255
162 199 255
162 199 255
162 199 255
161 199 255
161 199 255
161 199 255
161 199 255
161 199 255
161 199 255
161 199 255
161 199 255
161 199 255
160 198 255
160 198 255
160 198 255
160 198 255
160 198 255
160 198 255
160 198 255
160 198 255
160 198 255
160 198 255
159 198 255
159 198 255
159 198 255
159 198 255
159 198 255
159 198 255
159 198 255
159 197 255
159 197 255
159 197 255
158 197 255
158 197 255
158 197 255
158 197 255
158 197 255
158 197 255
158 197 255
158 197 255
158 197 255
158 197 255
157 197 255
157 197 255
157 197 255
157 197 255
157 196 255
157 196 255
157 196 255
157 196 255
157 196 255
157 196 255
157 196 255
157 196 255
156 196 255
156 196 255
156 196 255
156 196 255
156 196 255
156 196 255
156 196 255
156 196 255
156 196 255
156 196 255
156 196 255
156 196 255
156 196 255
155 195 255
155 195 255
155 195 255
155 195 255
155 195 255
155 195 255
155 195 255
155 195 255
155 195 255
155 195 255
155 195 255
155 195 255
155 195 255
155 195 255
155 195 255
155 195 255
155 195 255
155 195 255
155 195 255
154 195 255
154 195 255
154 195 255
154 195 255
154 195 255
154 195 255
154 195 255
154 195 255
154 195 255
154 195 255
154 195 255
154 195 255
154 195 255
154 195 255
154 195 255
154 195 255
154 195 255
154 195 255
154 195 255
154 195 255
154 195 255
154 195 255
154 195 255
154 195 255
154 195 255
154 195 255
154 195 255
154 195 255
154 195 255
154 195 255
154 195 255
154 195 255
154 195 255
154 195 255
154 195 255
154 195 255
154 195 255
154 195 255
154 195 255
154 195 255
155 195 255
155 195 255
155 195 255
155 195 255
155 195 255
155 195 255
155 195 255
155 195 255
155 195 255
155 195 255
155 195 255
155 195 255
155 195 255
155 195 255
155 195 255
155 195 255
155 195 255
155 195 255
155 195 255
156 196 255
156 196 255
156 196 255
156 196 255
156 196 255
156 196 255
156 196 255
156 196 255
156 196 255
156 196 255
156 196 255
156 196 255
156 196 255
157 196 255
157 196 255
157 196 255
157 196 255
157 196 255
157 196 255
157 196 255
157 196 255
157 197 255
157 197 255
157 197 255
157 197 255
158 197 255
158 197 255
158 197 255
158 197 255
158 197 255
158 197 255
158 197 255
158 197 255
158 197 255
158 197 255
159 197 255
159 197 255
159 197 255
159 198 255
159 198 255
159 198 255
159 198 255
159 198 255
159 198 255
159 198 255
160 198 255
160 198 255
160 198 255
160 198 255
160 198 255
160 198 255
160 198 255
160 198 255
160 198 255
161 199 255
161 199 255
161 199 255
161 199 255
161 199 255
161 199 255
161 199 255
161 199 255
161 199 255
161 199 255
162 199 255
162 199 255
162 199 255
162 199 255
162 199 255
162 199 255
162 199 255
162 200 255
162 200 255
162 200 255
163 200 255
163 200 255
163 200 255
163 200 255
163 200 255
163 200 255
163 200 255
163 200 255
163 200 255
163 200 255
164 200 255
164 200 255
164 200 255
164 201 255
164 201 255
164 201 255
164 201 255
164 201 255
164 201 255
164 201 255
165 201 255
165 201 255
165 201 255
165 201 255
165 201 255
165 201 255
165 201 255
165 201 255
165 201 255
165 201 255
166 202 255
166 202 255
166 202 255
166 202 255
166 202 255
166 202 255
166 202 255
166 202 255
166 202 255
166 202 255
166 202 255
167 202 255
167 202 255
167 202 255
167 202 255
167 202 255
167 202 255
167 202 255
167 202 255
167 203 255
167 203 255
167 203 255
167 203 255
168 203 255
168 203 255
168 203 255
168 203 255
168 203 255
168 203 255
168 203 255
168 203 255
168 203 255
168 203 255
168 203 255
168 203 255
169 203 255
169 203 255
169 203 255
169 203 255
169 204 255
169 204 255
169 204 255
169 204 255
169 204 255
169 204 255
169 204 255
169 204 255
170 204 255
170 204 255
170 204 255
170 204 255
170 204 255
170 204 255
170 204 255
170 204 255
170 204 255
170 204 255
170 204 255
170 204 255
170 204 255
170 204 255
170 204 255
170 204 255
170 204 255
170 204 255
170 204 255
170 204 255
170 204 255
170 204 255
170 204 255
169 204 255
169 204 255
169 204 255
169 204 255
169 204 255
169 204 255
169 204 255
169 204 255
169 203 255
169 203 255
169 203 255
169 203 255
168 203 255
168 203 255
168 203 255
168 203 255
168 203 255
168 203 255
168 203 255
168 203 255
168 203 255
168 203 255
168 203 255
168 203 255
167 203 255
167 203 255
167 203 255
167 203 255
167 202 255
167 202 255
167 202 255
167 202 255
167 202 255
167 202 255
167 202 255
167 202 255
166 202 255
166 202 255
166 202 255
166 202 255
166 202 255
166 202 255
166 202 255
166 202 255
166 202 255
166 202 255
166 202 255
165 201 255
165 201 255
165 201 255
165 201 255
165 201 255
165 201 255
165 201 255
165 201 255
165 201 255
165 201 255
164 201 255
164 201 255
164 201 255
164 201 255
164 201 255
164 201 255
164 201 255
164 200 255
164 200 255
164 200 255
163 200 255
163 200 255
163 200 255
163 200 255
163 200 255
163 200 255
163 200 255
163 200 255
163 200 255
163 200 255
162 200 255
162 200 255
162 200 255
162 199 255
162 199 255
162 199 255
162 199 255
162 199 255
162 199 255
162 199 255
161 199 255
161 199 255
161 199 255
161 199 255
161 199 255
161 199 255
161 199 255
161 199 255
161 199 255
160 198 255
160 198 255
160 198 255
160 198 255
160 198 255
160 198 255
160 198 255
160 198 255
160 198 255
160 198 255
159 198 255
159 198 255
159 198 255
159 198 255
159 198 255
159 198 255
159 198 255
159 197 255
159 197 255
159 197 255
158 197 255
158 197 255
158 197 255
158 197 255
158 197 255
158 197 255
158 197 255
158 197 255
158 197 255
158 197 255
158 197 255
157 197 255
157 197 255
157 197 255
157 197 255
157 196 255
157 196 255
157 196 255
157 196 255
157 196 255
157 196 255
157 196 255
157 196 255
156 196 255
156 196 255
156 196 255
156 196 255
156 196 255
156 196 255
156 196 255
156 196 255
156 196 255
156 196 255
156 196 255
156 196 255
156 196 255
156 196 255
155 195 255
155 195 255
155 195 255
155 195 255
155 195 255
155 195 255
155 195 255
155 195 255
155 195 255
155 195 255
155 195 255
155 195 255
155 195 255
155 195 255
155 195 255
155 195 255
155 195 255
155 195 255
155 195 255
155 195 255
155 195 255
155 195 255
155 195 255
155 195 255
154 195 255
154 195 255
154 195 255
154 195 255
154 195 255
154 195 255
154 195 255
154 195 255
154 195 255
154 195 255
154 195 255
154 195 255
154 195 255
154 195 255
154 195 255
154 195 255
154 195 255
154 195 255
154 195 255
154 195 255
155 195 255
155 195 255
155 195 255
155 195 255
155 195 255
155 195 255
155 195 255
155 195 255
155 195 255
155 195 255
155 195 255
155 195 255
155 195 255
155 195 255
155 195 255
155 195 255
155 195 255
155 195 255
155 195 255
155 195 255
155 195 255
155 195 255
155 195 255
155 195 255
156 196 255
156 196 255
156 196 255
156 196 255
156 196 255
156 196 255
156 196 255
156 196 255
156 196 255
156 196 255
156 196 255
156 196 255
156 196 255
156 196 255
157 196 255
157 196 255
157 196 255
157 196 255
157 196 255
157 196 255
157 196 255
157 196 255
157 197 255
157 197 255
157 197 255
157 197 255
158 197 255
158 197 255
158 197 255
158 197 255
158 197 255
158 197 255
158 197 255
158 197 255
158 197 255
158 197 255
158 197 255
159 197 255
159 197 255
159 197 255
159 198 255
159 198 255
159 198 255
159 198 255
159 198 255
159 198 255
159 198 255
160 198 255
160 198 255
160 198 255
160 198 255
160 198 255
160 198 255
160 198 255
160 198 255
160 198 255
160 198 255
161 199 255
161 199 255
161 199 255
161 199 255
161 199 255
161 199 255
161 199 255
161 199 255
161 199 255
162 199 255
162 199 255
162 199 255
162 199 255
162 199 255
162 199 255
162 199 255
162 200 255
162 200 255
162 200 255
163 200 255
163 200 255
163 200 255
163 200 255
163 200 255
163 200 255
163 200 255
163 200 255
163 200 255
163 200 255
164 200 255
164 200 255
164 200 255
164 201 255
164 201 255
164 201 255
164 201 255
164 201 255
164 201 255
164 201 255
165 201 255
165 201 255
165 201 255
165 201 255
165 201 255
165 201 255
165 201 255
165 201 255
165 201 255
165 201 255
166 202 255
166 202 255
166 202 255
166 202 255
166 202 255
166 202 255
166 202 255
166 202 255
166 202 255
166 202 255
166 202 255
167 202 255
167 202 255
167 202 255
167 202 255
167 202 255
167 202 255
167 202 255
167 202 255
167 203 255
167 203 255
167 203 255
167 203 255
168 203 255
168 203 255
168 203 255
168 203 255
168 203 255
168 203 255
168 203 255
168 203 255
168 203 255
168 203 255
168 203 255
168 203 255
169 203 255
169 203 255
169 203 255
169 203 255
169 204 255
169 204 255
169 204 255
169 204 255
169 204 255
169 204 255
169 204 255
169 204 255
170 204 255
170 204 255
170 204 255
170 204 255
170 204 255
170 204 255
170 204 255
170 204 255
170 204 255
170 204 255
170 204 255
170 204 255
170 204 255
171 205 255
171 205 255
170 204 255
170 204 255
170 204 255
170 204 255
170 204 255
170 204 255
170 204 255
170 204 255
170 204 255
170 204 255
170 204 255
170 204 255
170 204 255
170 204 255
169 204 255
169 204 255
169 204 255
169 204 255
169 204 255
169 204 255
169 204 255
169 204 255
169 203 255
169 203 255
169 203 255
169 203 255
168 203 255
168 203 255
168 203 255
168 203 255
168 203 255
168 203 255
168 203 255
168 203 255
168 203 255
168 203 255
168 203 255
168 203 255
167 203 255
167 203 255
167 203 255
167 203 255
167 202 255
167 202 255
167 202 255
167 202 255
167 202 255
167 202 255
167 202 255
167 202 255
166 202 255
166 202 255
166 202 255
166 202 255
166 202 255
166 202 255
166 202 255
166 202 255
166 202 255
166 202 255
165 201 255
165 201 255
165 201 255
165 201 255
165 201 255
165 201 255
165 201 255
165 201 255
165 201 255
165 201 255
165 201 255
164 201 255
164 201 255
164 201 255
164 201 255
164 201 255
164 201 255
164 201 255
164 200 255
164 200 255
164 200 255
163 200 255
163 200 255
163 200 255
163 200 255
163 200 255
163 200 255
163 200 255
163 200 255
163 200 255
163 200 255
162 200 255
162 200 255
162 200 255
162 199 255
162 199 255
162 199 255
162 199 255
162 199 255
162 199 255
162 199 255
161 199 255
161 199 255
161 199 255
161 199 255
161 199 255
161 199 255
161 199 255
161 199 255
161 199 255
160 198 255
160 198 255
160 198 255
160 198 255
160 198 255
160 198 255
160 198 255
160 198 255
160 198 255
160 198 255
159 198 255
159 198 255
159 198 255
159 198 255
159 198 255
159 198 255
159 198 255
159 197 255
159 197 255
159 197 255
158 197 255
158 197 255
158 197 255
158 197 255
158 197 255
158 197 255
158 197 255
158 197 255
158 197 255
158 197 255
158 197 255
157 197 255
157 197 255
157 197 255
157 197 255
157 196 255
157 196 255
157 196 255
157 196 255
157 196 255
157 196 255
157 196 255
157 196 255
157 196 255
156 196 255
156 196 255
156 196 255
156 196 255
156 196 255
156 196 255
156 196 255
156 196 255
156 196 255
156 196 255
156 196 255
156 196 255
156 196 255
156 196 255
156 196 255
155 195 255
155 195 255
155 195 255
155 195 255
155 195 255
155 195 255
155 195 255
155 195 255
155 195 255
155 195 255
155 195 255
155 195 255
155 195 255
155 195 255
155 195 255
155 195 255
155 195 255
155 195 255
155 195 255
155 195 255
155 195 255
155 195 255
155 195 255
155 195 255
155 195 255
155 195 255
155 195 255
155 195 255
155 195 255
155 195 255
155 195 255
155 195 255
155 195 255
155 195 255
155 195 255
155 195 255
155 195 255
155 195 255
155 195 255
155 195 255
155 195 255
155 195 255
155 195 255
155 195 255
155 195 255
155 195 255
155 195 255
155 195 255
155 195 255
155 195 255
155 195 255
155 195 255
155 195 255
155 195 255
155 195 255
155 195 255
155 195 255
155 195 255
156 196 255
156 196 255
156 196 255
156 196 255
156 196 255
156 196 255
156 196 255
156 196 255
156 196 255
156 196 255
156 196 255
156 196 255
156 196 255
156 196 255
156 196 255
157 196 255
157 196 255
157 196 255
157 196 255
157 196 255
157 196 255
157 196 255
157 196 255
157 196 255
157 197 255
157 197 255
157 197 255
157 197 255
158 197 255
158 197 255
158 197 255
158 197 255
158 197 255
158 197 255
158 197 255
158 197 255
158 197 255
158 197 255
158 197 255
159 197 255
159 197 255
159 197 255
159 198 255
159 198 255
159 198 255
159 198 255
159 198 255
159 198 255
159 198 255
160 198 255
160 198 255
160 198 255
160 198 255
160 198 255
160 198 255
160 198 255
160 198 255
160 198 255
160 198 255
161 199 255
161 199 255
161 199 255
161 199 255
161 199 255
161 199 255
161 199 255
161 199 255
161 199 255
161 199 255
162 199 255
162 199 255
162 199 255
162 199 255
162 199 255
162 199 255
162 200 255
162 200 255
162 200 255
163 200 255
163 200 255
163 200 255
163 200 255
163 200 255
163 200 255
163 200 255
163 200 255
163 200 255
163 200 255
164 200 255
164 200 255
164 200 255
164 201 255
164 201 255
164 201 255
164 201 255
164 201 255
164 201 255
164 201 255
165 201 255
165 201 255
165 201 255
165 201 255
165 201 255
165 201 255
165 201 255
165 201 255
165 201 255
165 201 255
166 202 255
166 202 255
166 202 255
166 202 255
166 202 255
166 202 255
166 202 255
166 202 255
166 202 255
166 202 255
166 202 255
167 202 255
167 202 255
167 202 255
167 202 255
167 202 255
167 202 255
167 202 255
167 202 255
167 203 255
167 203 255
167 203 255
167 203 255
168 203 255
168 203 255
168 203 255
168 203 255
168 203 255
168 203 255
168 203 255
168 203 255
168 203 255
168 203 255
168 203 255
168 203 255
169 203 255
169 203 255
169 203 255
169 203 255
169 204 255
169 204 255
169 204 255
169 204 255
169 204 255
169 204 255
169 204 255
169 204 255
170 204 255
170 204 255
170 204 255
170 204 255
170 204 255
170 204 255
170 204 255
170 204 255
170 204 255
170 204 255
170 204 255
170 204 255
170 204 255
170 204 255
171 205 255
171 205 255
171 205 255
171 205 255
171 205 255
171 205 255
171 205 255
171 205 255
170 204 255
170 204 255
170 204 255
170 204 255
170 204 255
170 204 255
170 204 255
170 204 255
170 204 255
170 204 255
170 204 255
170 204 255
170 204 255
169 204 255
169 204 255
169 204 255
169 204 255
169 204 255
169 204 255
169 204 255
169 204 255
169 204 255
169 203 255
169 203 255
169 203 255
169 203 255
168 203 255
168 203 255
168 203 255
168 203 255
168 203 255
168 203 255
168 203 255
168 203 255
168 203 255
168 203 255
168 203 255
168 203 255
167 203 255
167 203 255
167 203 255
167 202 255
167 202 255
167 202 255
167 202 255
167 202 255
167 202 255
167 202 255
167 202 255
166 202 255
166 202 255
166 202 255
166 202 255
166 202 255
166 202 255
166 202 255
166 202 255
166 202 255
166 202 255
165 201 255
165 201 255
165 201 255
165 201 255
165 201 255
165 201 255
165 201 255
165 201 255
165 201 255
165 201 255
165 201 255
164 201 255
164 201 255
164 201 255
164 201 255
164 201 255
164 201 255
164 200 255
164 200 255
164 200 255
164 200 255
163 200 255
163 200 255
163 200 255
163 200 255
163 200 255
163 200 255
163 200 255
163 200 255
163 200 255
163 200 255
162 200 255
162 200 255
162 200 255
162 199 255
162 199 255
162 199 255
162 199 255
162 199 255
162 199 255
161 199 255
161 199 255
161 199 255
161 199 255
161 199 255
161 199 255
161 199 255
161 199 255
161 199 255
161 199 255
160 198 255
160 198 255
160 198 255
160 198 255
160 198 255
160 198 255
160 198 255
160 198 255
160 198 255
160 198 255
159 198 255
159 198 255
159 198 255
159 198 255
159 198 255
159 198 255
159 198 255
159 197 255
159 197 255
159 197 255
159 197 255
158 197 255
158 197 255
158 197 255
158 197 255
158 197 255
158 197 255
158 197 255
158 197 255
158 197 255
158 197 255
158 197 255
157 197 255
157 197 255
157 197 255
157 197 255
157 196 255
157 196 255
157 196 255
157 196 255
157 196 255
157 196 255
157 196 255
157 196 255
157 196 255
156 196 255
156 196 255
156 196 255
156 196 255
156 196 255
156 196 255
156 196 255
156 196 255
156 196 255
156 196 255
156 196 255
156 196 255
156 196 255
156 196 255
156 196 255
156 196 255
156 196 255
156 196 255
155 195 255
155 195 255
155 195 255
155 195 255
155 195 255
155 195 255
155 195 255
155 195 255
155 195 255
155 195 255
155 195 255
155 195 255
155 195 255
155 195 255
155 195 255
155 195 255
155 195 255
155 195 255
155 195 255
155 195 255
155 195 255
155 195 255
155 195 255
155 195 255
155 195 255
155 195 255
155 195 255
155 195 255
155 195 255
155 195 255
155 195 255
155 195 255
155 195 255
155 195 255
155 195 255
155 195 255
155 195 255
155 195 255
155 195 255
155 195 255
155 195 255
155 195 255
155 195 255
155 195 255
156 196 255
156 196 255
156 196 255
156 196 255
156 196 255
156 196 255
156 196 255
156 196 255
156 196 255
156 196 255
156 196 255
156 196 255
156 196 255
156 196 255
156 196 255
156 196 255
156 196 255
156 196 255
157 196 255
157 196 255
157 196 255
157 196 255
157 196 255
157 196 255
157 196 255
157 196 255
157 196 255
157 197 255
157 197 255
157 197 255
157 197 255
158 197 255
158 197 255
158 197 255
158 197 255
158 197 255
158 197 255
158 197 255
158 197 255
158 197 255
158 197 255
158 197 255
159 197 255
159 197 255
159 197 255
159 197 255
159 198 255
159 198 255
159 198 255
159 198 255
159 198 255
159 198 255
159 198 255
160 198 255
160 198 255
160 198 255
160 198 255
160 198 255
160 198 255
160 198 255
160 198 255
160 198 255
160 198 255
161 199 255
161 199 255
161 199 255
161 199 255
161 199 255
161 199 255
161 199 255
161 199 255
161 199 255
161 199 255
162 199 255
162 199 255
162 199 255
162 199 255
162 199 255
162 199 255
162 200 255
162 200 255
162 200 255
163 200 255
163 200 255
163 200 255
163 200 255
163 200 255
163 200 255
163 200 255
163 200 255
163 200 255
163 200 255
164 200 255
164 200 255
164 200 255
164 201 255
164 201 255
164 201 255
164 201 255
164 201 255
164 201 255
164 201 255
165 201 255
165 201 255
165 201 255
165 201 255
165 201 255
165 201 255
165 201 255
165 201 255
165 201 255
165 201 255
165 201 255
166 202 255
166 202 255
166 202 255
166 202 255
166 202 255
166 202 255
166 202 255
166 202 255
166 202 255
166 202 255
167 202 255
167 202 255
167 202 255
167 202 255
167 202 255
167 202 255
167 202 255
167 202 255
167 203 255
167 203 255
167 203 255
167 203 255
168 203 255
168 203 255
168 203 255
168 203 255
168 203 255
168 203 255
168 203 255
168 203 255
168 203 255
168 203 255
168 203 255
169 203 255
169 203 255
169 203 255
169 203 255
169 203 255
169 204 255
169 204 255
169 204 255
169 204 255
169 204 255
169 204 255
169 204 255
169 204 255
170 204 255
170 204 255
170 204 255
170 204 255
170 204 255
170 204 255
170 204 255
170 204 255
170 204 255
170 204 255
170 204 255
170 204 255
170 204 255
171 205 255
171 205 255
171 205 255
171 205 255
171 205 255
171 205 255
171 205 255
171 205 255
171 205 255
171 205 255
171 205 255
171 205 255
171 205 255
171 205 255
171 205 255
170 204 255
170 204 255
170 204 255
170 204 255
170 204 255
170 204 255
170 204 255
170 204 255
170 204 255
170 204 255
170 204 255
170 204 255
170 204 255
169 204 255
169 204 255
169 204 255
169 204 255
169 204 255
169 204 255
169 204 255
169 204 255
169 203 255
169 203 255
169 203 255
169 203 255
169 203 255
168 203 255
168 203 255
168 203 255
168 203 255
168 203 255
168 203 255
168 203 255
168 203 255
168 203 255
168 203 255
168 203 255
167 203 255
167 203 255
167 203 255
167 203 255
167 202 255
167 202 255
167 202 255
167 202 255
167 202 255
167 202 255
167 202 255
167 202 255
166 202 255
166 202 255
166 202 255
166 202 255
166 202 255
166 202 255
166 202 255
166 202 255
166 202 255
166 202 255
165 201 255
165 201 255
165 201 255
165 201 255
165 201 255
165 201 255
165 201 255
165 201 255
165 201 255
165 201 255
165 201 255
164 201 255
164 201 255
164 201 255
164 201 255
164 201 255
164 201 255
164 201 255
164 200 255
164 200 255
164 200 255
163 200 255
163 200 255
163 200 255
163 200 255
163 200 255
163 200 255
163 200 255
163 200 255
163 200 255
163 200 255
162 200 255
162 200 255
162 200 255
162 199 255
162 199 255
162 199 255
162 199 255
162 199 255
162 199 255
161 199 255
161 199 255
161 199 255
161 199 255
161 199 255
161 199 255
161 199 255
161 199 255
161 199 255
161 199 255
160 198 255
160 198 255
160 198 255
160 198 255
160 198 255
160 198 255
160 198 255
160 198 255
160 198 255
160 198 255
159 198 255
159 198 255
159 198 255
159 198 255
159 198 255
159 198 255
159 198 255
159 197 255
159 197 255
159 197 255
159 197 255
158 197 255
158 197 255
158 197 255
158 197 255
158 197 255
158 197 255
158 197 255
158 197 255
158 197 255
158 197 255
158 197 255
158 197 255
157 197 255
157 197 255
157 197 255
157 197 255
157 196 255
157 196 255
157 196 255
157 196 255
157 196 255
157 196 255
157 196 255
157 196 255
157 196 255
157 196 255
156 196 255
156 196 255
156 196 255
156 196 255
156 196 255
156 196 255
156 196 255
156 196 255
156 196 255
156 196 255
156 196 255
156 196 255
156 196 255
156 196 255
156 196 255
156 196 255
156 196 255
156 196 255
156 196 255
156 196 255
156 196 255
156 196 255
156 196 255
155 195 255
155 195 255
155 195 255
155 195 255
155 195 255
155 195 255
155 195 255
155 195 255
155 195 255
155 195 255
155 195 255
155 195 255
155 195 255
155 195 255
155 195 255
155 195 255
155 195 255
155 195 255
155 195 255
155 195 255
155 195 255
155 195 255
155 195 255
155 195 255
156 196 255
156 196 255
156 196 255
156 196 255
156 196 255
156 196 255
156 196 255
156 196 255
156 196 255
156 196 255
156 196 255
156 196 255
156 196 255
156 196 255
156 196 255
156 196 255
156 196 255
156 196 255
156 196 255
156 196 255
156 196 255
156 196 255
156 196 255
157 196 255
157 196 255
157 196 255
157 196 255
157 196 255
157 196 255
157 196 255
157 196 255
157 196 255
157 196 255
157 197 255
157 197 255
157 197 255
157 197 255
158 197 255
158 197 255
158 197 255
158 197 255
158 197 255
158 197 255
158 197 255
158 197 255
158 197 255
158 197 255
158 197 255
158 197 255
159 197 255
159 197 255
159 197 255
159 197 255
159 198 255
159 198 255
159 198 255
159 198 255
159 198 255
159 198 255
159 198 255
160 198 255
160 198 255
160 198 255
160 198 255
160 198 255
160 198 255
160 198 255
160 198 255
160 198 255
160 198 255
161 199 255
161 199 255
161 199 255
161 199 255
161 199 255
161 199 255
161 199 255
161 199 255
161 199 255
161 199 255
162 199 255
162 199 255
162 199 255
162 199 255
162 199 255
162 199 255
162 200 255
162 200 255
162 200 255
163 200 255
163 200 255
163 200 255
163 200 255
163 200 255
163 200 255
163 200 255
163 200 255
163 200 255
163 200 255
164 200 255
164 200 255
164 200 255
164 200 255
164 201 255
164 201 255
164 201 255
164 201 255
164 201 255
164 201 255
165 201 255
165 201 255
165 201 255
165 201 255
165 201 255
165 201 255
165 201 255
165 201 255
165 201 255
165 201 255
165 201 255
166 202 255
166 202 255
166 202 255
166 202 255
166 202 255
166 202 255
166 202 255
166 202 255
166 202 255
166 202 255
167 202 255
167 202 255
167 202 255
167 202 255
167 202 255
167 202 255
167 202 255
167 202 255
167 203 255
167 203 255
167 203 255
167 203 255
168 203 255
168 203 255
168 203 255
168 203 255
168 203 255
168 203 255
168 203 255
168 203 255
168 203 255
168 203 255
168 203 255
169 203 255
169 203 255
169 203 255
169 203 255
169 204 255
169 204 255
169 204 255
169 204 255
169 204 255
169 204 255
169 204 255
169 204 255
169 204 255
170 204 255
170 204 255
170 204 255
170 204 255
170 204 255
170 204 255
170 204 255
170 204 255
170 204 255
170 204 255
170 204 255
170 204 255
170 204 255
171 205 255
171 205 255
171 205 255
171 205 255
171 205 255
171 205 255
171 205 255
171 205 255
171 205 255
171 205 255
171 205 255
171 205 255
171 205 255
171 205 255
171 205 255
171 205 255
171 205 255
171 205 255
171 205 255
171 205 255
171 205 255
170 204 255
170 204 255
170 204 255
170 204 255
170 204 255
170 204 255
170 204 255
170 204 255
170 204 255
170 204 255
170 204 255
170 204 255
170 204 255
169 204 255
169 204 255
169 204 255
169 204 255
169 204 255
169 204 255
169 204 255
169 204 255
169 204 255
169 203 255
169 203 255
169 203 255
169 203 255
168 203 255
168 203 255
168 203 255
168 203 255
168 203 255
168 203 255
168 203 255
168 203 255
168 203 255
168 203 255
168 203 255
168 203 255
167 203 255
167 203 255
167 203 255
167 202 255
167 202 255
167 202 255
167 202 255
167 202 255
167 202 255
167 202 255
167 202 255
166 202 255
166 202 255
166 202 255
166 202 255
166 202 255
166 202 255
166 202 255
166 202 255
166 202 255
166 202 255
165 201 255
165 201 255
165 201 255
165 201 255
165 201 255
165 201 255
165 201 255
165 201 255
165 201 255
165 201 255
165 201 255
164 201 255
164 201 255
164 201 255
164 201 255
164 201 255
164 201 255
164 200 255
164 200 255
164 200 255
163 200 255
163 200 255
163 200 255
163 200 255
163 200 255
163 200 255
163 200 255
163 200 255
163 200 255
163 200 255
163 200 255
162 200 255
162 200 255
162 200 255
162 199 255
162 199 255
162 199 255
162 199 255
162 199 255
162 199 255
161 199 255
161 199 255
161 199 255
161 199 255
161 199 255
161 199 255
161 199 255
161 199 255
161 199 255
161 199 255
160 198 255
160 198 255
160 198 255
160 198 255
160 198 255
160 198 255
160 198 255
160 198 255
160 198 255
160 198 255
160 198 255
159 198 255
159 198 255
159 198 255
159 198 255
159 198 255
159 198 255
159 198 255
159 197 255
159 197 255
159 197 255
158 197 255
158 197 255
158 197 255
158 197 255
158 197 255
158 197 255
158 197 255
158 197 255
158 197 255
158 197 255
158 197 255
158 197 255
158 197 255
157 197 255
157 197 255
157 197 255
157 197 255
157 197 255
157 196 255
157 196 255
157 196 255
157 196 255
157 196 255
157 196 255
157 196 255
157 196 255
157 196 255
157 196 255
156 196 255
156 196 255
156 196 255
156 196 255
156 196 255
156 196 255
156 196 255
156 196 255
156 196 255
156 196 255
156 196 255
156 196 255
156 196 255
156 196 255
156 196 255
156 196 255
156 196 255
156 196 255
156 196 255
156 196 255
156 196 255
156 196 255
156 196 255
156 196 255
156 196 255
156 196 255
156 196 255
156 196 255
156 196 255
156 196 255
156 196 255
156 196 255
156 196 255
156 196 255
156 196 255
156 196 255
156 196 255
156 196 255
156 196 255
156 196 255
156 196 255
156 196 255
156 196 255
156 196 255
156 196 255
156 196 255
156 196 255
156 196 255
156 196 255
156 196 255
156 196 255
156 196 255
156 196 255
156 196 255
156 196 255
156 196 255
156 196 255
156 196 255
156 196 255
156 196 255
157 196 255
157 196 255
157 196 255
157 196 255
157 196 255
157 196 255
157 196 255
157 196 255
157 196 255
157 196 255
157 196 255
157 197 255
157 197 255
157 197 255
157 197 255
158 197 255
158 197 255
158 197 255
158 197 255
158 197 255
158 197 255
158 197 255
158 197 255
158 197 255
158 197 255
158 197 255
158 197 255
159 197 255
159 197 255
159 197 255
159 197 255
159 198 255
159 198 255
159 198 255
159 198 255
159 198 255
159 198 255
159 198 255
160 198 255
160 198 255
160 198 255
160 198 255
160 198 255
160 198 255
160 198 255
160 198 255
160 198 255
160 198 255
160 198 255
161 199 255
161 199 255
161 199 255
161 199 255
161 199 255
161 199 255
161 199 255
161 199 255
161 199 255
161 199 255
162 199 255
162 199 255
162 199 255
162 199 255
162 199 255
162 199 255
162 200 255
162 200 255
162 200 255
162 200 255
163 200 255
163 200 255
163 200 255
163 200 255
163 200 255
163 200 255
163 200 255
163 200 255
163 200 255
163 200 255
164 200 255
164 200 255
164 200 255
164 201 255
164 201 255
164 201 255
164 201 255
164 201 255
164 201 255
165 201 255
165 201 255
165 201 255
165 201 255
165 201 255
165 201 255
165 201 255
165 201 255
165 201 255
165 201 255
165 201 255
166 202 255
166 202 255
166 202 255
166 202 255
166 202 255
166 202 255
166 202 255
166 202 255
166 202 255
166 202 255
166 202 255
167 202 255
167 202 255
167 202 255
167 202 255
167 202 255
167 202 255
167 202 255
167 203 255
167 203 255
167 203 255
168 203 255
168 203 255
168 203 255
168 203 255
168 203 255
168 203 255
168 203 255
168 203 255
168 203 255
168 203 255
168 203 255
168 203 255
169 203 255
169 203 255
169 203 255
169 203 255
169 204 255
169 204 255
169 204 255
169 204 255
169 204 255
169 204 255
169 204 255
169 204 255
170 204 255
170 204 255
170 204 255
170 204 255
170 204 255
170 204 255
170 204 255
170 204 255
170 204 255
170 204 255
170 204 255
170 204 255
170 204 255
170 204 255
171 205 255
171 205 255
171 205 255
171 205 255
171 205 255
171 205 255
171 205 255
171 205 255
171 205 255
171 205 255
171 205 255
171 205 255
172 205 255
172 205 255
171 205 255
171 205 255
171 205 255
171 205 255
171 205 255
171 205 255
171 205 255
171 205 255
171 205 255
171 205 255
171 205 255
171 205 255
171 205 255
171 205 255
170 204 255
170 204 255
170 204 255
170 204 255
170 204 255
170 204 255
170 204 255
170 204 255
170 204 255
170 204 255
170 204 255
170 204 255
170 204 255
169 204 255
169 204 255
169 204 255
169 204 255
169 204 255
169 204 255
169 204 255
169 204 255
169 203 255
169 203 255
169 203 255
169 203 255
168 203 255
168 203 255
168 203 255
168 203 255
168 203 255
168 203 255
168 203 255
168 203 255
168 203 255
168 203 255
168 203 255
167 203 255
167 203 255
167 203 255
167 203 255
167 202 255
167 202 255
167 202 255
167 202 255
167 202 255
167 202 255
167 202 255
167 202 255
166 202 255
166 202 255
166 202 255
166 202 255
166 202 255
166 202 255
166 202 255
166 202 255
166 202 255
166 202 255
165 201 255
165 201 255
165 201 255
165 201 255
165 201 255
165 201 255
165 201 255
165 201 255
165 201 255
165 201 255
165 201 255
164 201 255
164 201 255
164 201 255
164 201 255
164 201 255
164 201 255
164 200 255
164 200 255
164 200 255
164 200 255
163 200 255
163 200 255
163 200 255
163 200 255
163 200 255
163 200 255
163 200 255
163 200 255
163 200 255
163 200 255
162 200 255
162 200 255
162 200 255
162 199 255
162 199 255
162 199 255
162 199 255
162 199 255
162 199 255
161 199 255
161 199 255
161 199 255
161 199 255
161 199 255
161 199 255
161 199 255
161 199 255
161 199 255
161 199 255
161 199 255
160 198 255
160 198 255
160 198 255
160 198 255
160 198 255
160 198 255
160 198 255
160 198 255
160 198 255
160 198 255
159 198 255
159 198 255
159 198 255
159 198 255
159 198 255
159 198 255
159 198 255
159 197 255
159 197 255
159 197 255
159 197 255
158 197 255
158 197 255
158 197 255
158 197 255
158 197 255
158 197 255
158 197 255
158 197 255
158 197 255
158 197 255
158 197 255
158 197 255
158 197 255
157 197 255
157 197 255
157 197 255
157 197 255
157 197 255
157 196 255
157 196 255
157 196 255
157 196 255
157 196 255
157 196 255
157 196 255
157 196 255
157 196 255
157 196 255
157 196 255
157 196 255
157 196 255
156 196 255
156 196 255
156 196 255
156 196 255
156 196 255
156 196 255
156 196 255
156 196 255
156 196 255
156 196 255
156 196 255
156 196 255
156 196 255
156 196 255
156 196 255
156 196 255
156 196 255
156 196 255
156 196 255
156 196 255
156 196 255
156 196 255
156 196 255
156 196 255
156 196 255
156 196 255
156 196 255
156 196 255
156 196 255
156 196 255
156 196 255
156 196 255
156 196 255
156 196 255
156 196 255
156 196 255
156 196 255
156 196 255
156 196 255
156 196 255
156 196 255
156 196 255
156 196 255
156 196 255
156 196 255
156 196 255
157 196 255
157 196 255
157 196 255
157 196 255
157 196 255
157 196 255
157 196 255
157 196 255
157 196 255
157 196 255
157 196 255
157 196 255
157 197 255
157 197 255
157 197 255
157 197 255
157 197 255
157 197 255
158 197 255
158 197 255
158 197 255
158 197 255
158 197 255
158 197 255
158 197 255
158 197 255
158 197 255
158 197 255
158 197 255
158 197 255
158 197 255
159 197 255
159 197 255
159 197 255
159 197 255
159 198 255
159 198 255
159 198 255
159 198 255
159 198 255
159 198 255
159 198 255
160 198 255
160 198 255
160 198 255
160 198 255
160 198 255
160 198 255
160 198 255
160 198 255
160 198 255
160 198 255
161 199 255
161 199 255
161 199 255
161 199 255
161 199 255
161 199 255
161 199 255
161 199 255
161 199 255
161 199 255
161 199 255
162 199 255
162 199 255
162 199 255
162 199 255
162 199 255
162 199 255
162 200 255
162 200 255
162 200 255
163 200 255
163 200 255
163 200 255
163 200 255
163 200 255
163 200 255
163 200 255
163 200 255
163 200 255
163 200 255
164 200 255
164 200 255
164 200 255
164 200 255
164 201 255
164 201 255
164 201 255
164 201 255
164 201 255
164 201 255
165 201 255
165 201 255
165 201 255
165 201 255
165 201 255
165 201 255
165 201 255
165 201 255
165 201 255
165 201 255
165 201 255
166 202 255
166 202 255
166 202 255
166 202 255
166 202 255
166 202 255
166 202 255
166 202 255
166 202 255
166 202 255
167 202 255
167 202 255
167 202 255
167 202 255
167 202 255
167 202 255
167 202 255
167 202 255
167 203 255
167 203 255
167 203 255
168 203 255
168 203 255
168 203 255
168 203 255
168 203 255
168 203 255
168 203 255
168 203 255
168 203 255
168 203 255
168 203 255
168 203 255
169 203 255
169 203 255
169 203 255
169 203 255
169 204 255
169 204 255
169 204 255
169 204 255
169 204 255
169 204 255
169 204 255
169 204 255
170 204 255
170 204 255
170 204 255
170 204 255
170 204 255
170 204 255
170 204 255
170 204 255
170 204 255
170 204 255
170 204 255
170 204 255
170 204 255
171 205 255
171 205 255
171 205 255
171 205 255
171 205 255
171 205 255
171 205 255
171 205 255
171 205 255
171 205 255
171 205 255
171 205 255
171 205 255
171 205 255
172 205 255
172 205 255
172 205 255
172 205 255
172 205 255
172 205 255
172 205 255
171 205 255
171 205 255
171 205 255
171 205 255
171 205 255
171 205 255
171 205 255
171 205 255
171 205 255
171 205 255
171 205 255
171 205 255
171 205 255
171 205 255
170 204 255
170 204 255
170 204 255
170 204 255
170 204 255
170 204 255
170 204 255
170 204 255
170 204 255
170 204 255
170 204 255
170 204 255
170 204 255
169 204 255
169 204 255
169 204 255
169 204 255
169 204 255
169 204 255
169 204 255
169 204 255
169 203 255
169 203 255
169 203 255
169 203 255
168 203 255
168 203 255
168 203 255
168 203 255
168 203 255
168 203 255
168 203 255
168 203 255
168 203 255
168 203 255
168 203 255
168 203 255
167 203 255
167 203 255
167 203 255
167 202 255
167 202 255
167 202 255
167 202 255
167 202 255
167 202 255
167 202 255
167 202 255
166 202 255
166 202 255
166 202 255
166 202 255
166 202 255
166 202 255
166 202 255
166 202 255
166 202 255
166 202 255
165 201 255
165 201 255
165 201 255
165 201 255
165 201 255
165 201 255
165 201 255
165 201 255
165 201 255
165 201 255
164 201 255
164 201 255
164 201 255
164 201 255
164 201 255
164 201 255
164 201 255
164 200 255
164 200 255
164 200 255
163 200 255
163 200 255
163 200 255
163 200 255
163 200 255
163 200 255
163 200 255
163 200 255
163 200 255
163 200 255
162 200 255
162 200 255
162 200 255
162 200 255
162 199 255
162 199 255
162 199 255
162 199 255
162 199 255
162 199 255
162 199 255
161 199 255
161 199 255
161 199 255
161 199 255
161 199 255
161 199 255
161 199 255
161 199 255
161 199 255
161 199 255
160 198 255
160 198 255
160 198 255
160 198 255
160 198 255
160 198 255
160 198 255
160 198 255
160 198 255
160 198 255
160 198 255
159 198 255
159 198 255
159 198 255
159 198 255
159 198 255
159 198 255
159 198 255
159 197 255
159 197 255
159 197 255
159 197 255
159 197 255
158 197 255
158 197 255
158 197 255
158 197 255
158 197 255
158 197 255
158 197 255
158 197 255
158 197 255
158 197 255
158 197 255
158 197 255
158 197 255
157 197 255
157 197 255
157 197 255
157 197 255
157 197 255
157 197 255
157 196 255
157 196 255
157 196 255
157 196 255
157 196 255
157 196 255
157 196 255
157 196 255
157 196 255
157 196 255
157 196 255
157 196 255
157 196 255
157 196 255
157 196 255
157 196 255
157 196 255
156 196 255
156 196 255
156 196 255
156 196 255
156 196 255
156 196 255
156 196 255
156 196 255
156 196 255
156 196 255
156 196 255
156 196 255
156 196 255
156 196 255
156 196 255
156 196 255
156 196 255
156 196 255
156 196 255
156 196 255
156 196 255
156 196 255
156 196 255
156 196 255
156 196 255
156 196 255
157 196 255
157 196 255
157 196 255
157 196 255
157 196 255
157 196 255
157 196 255
157 196 255
157 196 255
157 196 255
157 196 255
157 196 255
157 196 255
157 196 255
157 196 255
157 196 255
157 196 255
157 197 255
157 197 255
157 197 255
157 197 255
157 197 255
158 197 255
158 197 255
158 197 255
158 197 255
158 197 255
158 197 255
158 197 255
158 197 255
158 197 255
158 197 255
158 197 255
158 197 255
158 197 255
158 197 255
158 197 255
159 197 255
159 197 255
159 197 255
159 197 255
159 198 255
159 198 255
159 198 255
159 198 255
159 198 255
159 198 255
159 198 255
160 198 255
160 198 255
160 198 255
160 198 255
160 198 255
160 198 255
160 198 255
160 198 255
160 198 255
160 198 255
160 198 255
161 199 255
161 199 255
161 199 255
161 199 255
161 199 255
161 199 255
161 199 255
161 199 255
161 199 255
161 199 255
162 199 255
162 199 255
162 199 255
162 199 255
162 199 255
162 199 255
162 199 255
162 200 255
162 200 255
162 200 255
163 200 255
163 200 255
163 200 255
163 200 255
163 200 255
163 200 255
163 200 255
163 200 255
163 200 255
163 200 255
164 200 255
164 200 255
164 200 255
164 200 255
164 201 255
164 201 255
164 201 255
164 201 255
164 201 255
164 201 255
165 201 255
165 201 255
165 201 255
165 201 255
165 201 255
165 201 255
165 201 255
165 201 255
165 201 255
165 201 255
165 201 255
166 202 255
166 202 255
166 202 255
166 202 255
166 202 255
166 202 255
166 202 255
166 202 255
166 202 255
166 202 255
167 202 255
167 202 255
167 202 255
167 202 255
167 202 255
167 202 255
167 202 255
167 203 255
167 203 255
167 203 255
167 203 255
168 203 255
168 203 255
168 203 255
168 203 255
168 203 255
168 203 255
168 203 255
168 203 255
168 203 255
168 203 255
168 203 255
168 203 255
169 203 255
169 203 255
169 203 255
169 203 255
169 204 255
169 204 255
169 204 255
169 204 255
169 204 255
169 204 255
169 204 255
169 204 255
170 204 255
170 204 255
170 204 255
170 204 255
170 204 255
170 204 255
170 204 255
170 204 255
170 204 255
170 204 255
170 204 255
170 204 255
170 204 255
171 205 255
171 205 255
171 205 255
171 205 255
171 205 255
171 205 255
171 205 255
171 205 255
171 205 255
171 205 255
171 205 255
171 205 255
171 205 255
171 205 255
172 205 255
172 205 255
172 205 255
172 205 255
172 205 255
172 205 255
172 205 255
172 205 255
172 205 255
172 205 255
172 205 255
172 205 255
172 205 255
172 205 255
171 205 255
171 205 255
171 205 255
171 205 255
171 205 255
171 205 255
171 205 255
171 205 255
171 205 255
171 205 255
171 205 255
171 205 255
171 205 255
171 205 255
170 204 255
170 204 255
170 204 255
170 204 255
170 204 255
170 204 255
170 204 255
170 204 255
170 204 255
170 204 255
170 204 255
170 204 255
169 204 255
169 204 255
169 204 255
169 204 255
169 204 255
169 204 255
169 204 255
169 204 255
169 203 255
169 203 255
169 203 255
169 203 255
168 203 255
168 203 255
168 203 255
168 203 255
168 203 255
168 203 255
168 203 255
168 203 255
168 203 255
168 203 255
168 203 255
168 203 255
167 203 255
167 203 255
167 203 255
167 203 255
167 202 255
167 202 255
167 202 255
167 202 255
167 202 255
167 202 255
167 202 255
166 202 255
166 202 255
166 202 255
166 202 255
166 202 255
166 202 255
166 202 255
166 202 255
166 202 255
166 202 255
165 201 255
165 201 255
165 201 255
165 201 255
165 201 255
165 201 255
165 201 255
165 201 255
165 201 255
165 201 255
165 201 255
164 201 255
164 201 255
164 201 255
164 201 255
164 201 255
164 201 255
164 200 255
164 200 255
164 200 255
164 200 255
163 200 255
163 200 255
163 200 255
163 200 255
163 200 255
163 200 255
163 200 255
163 200 255
163 200 255
163 200 255
162 200 255
162 200 255
162 200 255
162 199 255
162 199 255
162 199 255
162 199 255
162 199 255
162 199 255
162 199 255
161 199 255
161 199 255
161 199 255
161 199 255
161 199 255
161 199 255
161 199 255
161 199 255
161 199 255
161 199 255
160 198 255
160 198 255
160 198 255
160 198 255
160 198 255
160 198 255
160 198 255
160 198 255
160 198 255
160 198 255
160 198 255
159 198 255
159 198 255
159 198 255
159 198 255
159 198 255
159 198 255
159 198 255
159 198 255
159 197 255
159 197 255
159 197 255
159 197 255
159 197 255
158 197 255
158 197 255
158 197 255
158 197 255
158 197 255
158 197 255
158 197 255
158 197 255
158 197 255
158 197 255
158 197 255
158 197 255
158 197 255
158 197 255
158 197 255
157 197 255
157 197 255
157 197 255
157 197 255
157 197 255
157 197 255
157 197 255
157 196 255
157 196 255
157 196 255
157 196 255
157 196 255
157 196 255
157 196 255
157 196 255
157 196 255
157 196 255
157 196 255
157 196 255
157 196 255
157 196 255
157 196 255
157 196 255
157 196 255
157 196 255
157 196 255
157 196 255
157 196 255
157 196 255
157 196 255
157 196 255
157 196 255
157 196 255
157 196 255
157 196 255
157 196 255
157 196 255
157 196 255
157 196 255
157 196 255
157 196 255
157 196 255
157 196 255
157 196 255
157 196 255
157 196 255
157 196 255
157 196 255
157 196 255
157 196 255
157 196 255
157 196 255
157 196 255
157 197 255
157 197 255
157 197 255
157 197 255
157 197 255
157 197 255
157 197 255
158 197 255
158 197 255
158 197 255
158 197 255
158 197 255
158 197 255
158 197 255
158 197 255
158 197 255
158 197 255
158 197 255
158 197 255
158 197 255
158 197 255
158 197 255
159 197 255
159 197 255
159 197 255
159 197 255
159 197 255
159 198 255
159 198 255
159 198 255
159 198 255
159 198 255
159 198 255
159 198 255
159 198 255
160 198 255
160 198 255
160 198 255
160 198 255
160 198 255
160 198 255
160 198 255
160 198 255
160 198 255
160 198 255
160 198 255
161 199 255
161 199 255
161 199 255
161 199 255
161 199 255
161 199 255
161 199 255
161 199 255
161 199 255
161 199 255
162 199 255
162 199 255
162 199 255
162 199 255
162 199 255
162 199 255
162 199 255
162 200 255
162 200 255
162 200 255
163 200 255
163 200 255
163 200 255
163 200 255
163 200 255
163 200 255
163 200 255
163 200 255
163 200 255
163 200 255
164 200 255
164 200 255
164 200 255
164 200 255
164 201 255
164 201 255
164 201 255
164 201 255
164 201 255
164 201 255
165 201 255
165 201 255
165 201 255
165 201 255
165 201 255
165 201 255
165 201 255
165 201 255
165 201 255
165 201 255
165 201 255
166 202 255
166 202 255
166 202 255
166 202 255
166 202 255
166 202 255
166 202 255
166 202 255
166 202 255
166 202 255
167 202 255
167 202 255
167 202 255
167 202 255
167 202 255
167 202 255
167 202 255
167 202 255
167 203 255
167 203 255
167 203 255
168 203 255
168 203 255
168 203 255
168 203 255
168 203 255
168 203 255
168 203 255
168 203 255
168 203 255
168 203 255
168 203 255
168 203 255
169 203 255
169 203 255
169 203 255
169 203 255
169 204 255
169 204 255
169 204 255
169 204 255
169 204 255
169 204 255
169 204 255
169 204 255
170 204 255
170 204 255
170 204 255
170 204 255
170 204 255
170 204 255
170 204 255
170 204 255
170 204 255
170 204 255
170 204 255
170 204 255
171 205 255
171 205 255
171 205 255
171 205 255
171 205 255
171 205 255
171 205 255
171 205 255
171 205 255
171 205 255
171 205 255
171 205 255
171 205 255
171 205 255
172 205 255
172 205 255
172 205 255
172 205 255
172 205 255
172 205 255
172 205 255
172 205 255
172 205 255
172 206 255
172 206 255
172 206 255
172 205 255
172 205 255
172 205 255
172 205 255
172 205 255
172 205 255
172 205 255
172 205 255
172 205 255
171 205 255
171 205 255
171 205 255
171 205 255
171 205 255
171 205 255
171 205 255
171 205 255
171 205 255
171 205 255
171 205 255
171 205 255
171 205 255
171 205 255
170 204 255
170 204 255
170 204 255
170 204 255
170 204 255
170 204 255
170 204 255
170 204 255
170 204 255
170 204 255
170 204 255
170 204 255
170 204 255
169 204 255
169 204 255
169 204 255
169 204 255
169 204 255
169 204 255
169 204 255
169 204 255
169 203 255
169 203 255
169 203 255
169 203 255
168 203 255
168 203 255
168 203 255
168 203 255
168 203 255
168 203 255
168 203 255
168 203 255
168 203 255
168 203 255
168 203 255
167 203 255
167 203 255
167 203 255
167 203 255
167 202 255
167 202 255
167 202 255
167 202 255
167 202 255
167 202 255
167 202 255
166 202 255
166 202 255
166 202 255
166 202 255
166 202 255
166 202 255
166 202 255
166 202 255
166 202 255
166 202 255
165 201 255
165 201 255
165 201 255
165 201 255
165 201 255
165 201 255
165 201 255
165 201 255
165 201 255
165 201 255
165 201 255
164 201 255
164 201 255
164 201 255
164 201 255
164 201 255
164 201 255
164 200 255
164 200 255
164 200 255
164 200 255
163 200 255
163 200 255
163 200 255
163 200 255
163 200 255
163 200 255
163 200 255
163 200 255
163 200 255
163 200 255
162 200 255
162 200 255
162 200 255
162 199 255
162 199 255
162 199 255
162 199 255
162 199 255
162 199 255
162 199 255
161 199 255
161 199 255
161 199 255
161 199 255
161 199 255
161 199 255
161 199 255
161 199 255
161 199 255
161 199 255
161 199 255
160 198 255
160 198 255
160 198 255
160 198 255
160 198 255
160 198 255
160 198 255
160 198 255
160 198 255
160 198 255
160 198 255
159 198 255
159 198 255
159 198 255
159 198 255
159 198 255
159 198 255
159 198 255
159 198 255
159 198 255
159 197 255
159 197 255
159 197 255
159 197 255
158 197 255
158 197 255
158 197 255
158 197 255
158 197 255
158 197 255
158 197 255
158 197 255
158 197 255
158 197 255
158 197 255
158 197 255
158 197 255
158 197 255
158 197 255
158 197 255
158 197 255
158 197 255
157 197 255
157 197 255
157 197 255
157 197 255
157 197 255
157 197 255
157 197 255
157 197 255
157 197 255
157 197 255
157 196 255
157 196 255
157 196 255
157 196 255
157 196 255
157 196 255
157 196 255
157 196 255
157 196 255
157 196 255
157 196 255
157 196 255
157 196 255
157 196 255
157 196 255
157 196 255
157 196 255
157 196 255
157 196 255
157 196 255
157 196 255
157 196 255
157 196 255
157 196 255
157 196 255
157 196 255
157 197 255
157 197 255
157 197 255
157 197 255
157 197 255
157 197 255
157 197 255
157 197 255
157 197 255
157 197 255
158 197 255
158 197 255
158 197 255
158 197 255
158 197 255
158 197 255
158 197 255
158 197 255
158 197 255
158 197 255
158 197 255
158 197 255
158 197 255
158 197 255
158 197 255
158 197 255
158 197 255
158 197 255
159 197 255
159 197 255
159 197 255
159 197 255
159 198 255
159 198 255
159 198 255
159 198 255
159 198 255
159 198 255
159 198 255
159 198 255
159 198 255
160 198 255
160 198 255
160 198 255
160 198 255
160 198 255
160 198 255
160 198 255
160 198 255
160 198 255
160 198 255
160 198 255
161 199 255
161 199 255
161 199 255
161 199 255
161 199 255
161 199 255
161 199 255
161 199 255
161 199 255
161 199 255
161 199 255
162 199 255
162 199 255
162 199 255
162 199 255
162 199 255
162 199 255
162 199 255
162 200 255
162 200 255
162 200 255
163 200 255
163 200 255
163 200 255
163 200 255
163 200 255
163 200 255
163 200 255
163 200 255
163 200 255
163 200 255
164 200 255
164 200 255
164 200 255
164 200 255
164 201 255
164 201 255
164 201 255
164 201 255
164 201 255
164 201 255
165 201 255
165 201 255
165 201 255
165 201 255
165 201 255
165 201 255
165 201 255
165 201 255
165 201 255
165 201 255
166 202 255
166 202 255
166 202 255
166 202 255
166 202 255
166 202 255
166 202 255
166 202 255
166 202 255
166 202 255
166 202 255
167 202 255
167 202 255
167 202 255
167 202 255
167 202 255
167 202 255
167 202 255
167 203 255
167 203 255
167 203 255
167 203 255
168 203 255
168 203 255
168 203 255
168 203 255
168 203 255
168 203 255
168 203 255
168 203 255
168 203 255
168 203 255
168 203 255
169 203 255
169 203 255
169 203 255
169 203 255
169 204 255
169 204 255
169 204 255
169 204 255
169 204 255
169 204 255
169 204 255
169 204 255
170 204 255
170 204 255
170 204 255
170 204 255
170 204 255
170 204 255
170 204 255
170 204 255
170 204 255
170 204 255
170 204 255
170 204 255
170 204 255
171 205 255
171 205 255
171 205 255
171 205 255
171 205 255
171 205 255
171 205 255
171 205 255
171 205 255
171 205 255
171 205 255
171 205 255
171 205 255
171 205 255
172 205 255
172 205 255
172 205 255
172 205 255
172 205 255
172 205 255
172 205 255
172 205 255
172 205 255
172 206 255
172 206 255
172 206 255
173 206 255
172 206 255
172 206 255
172 206 255
172 206 255
172 206 255
172 205 255
172 205 255
172 205 255
172 205 255
172 205 255
172 205 255
172 205 255
172 205 255
172 205 255
172 205 255
171 205 255
171 205 255
171 205 255
171 205 255
171 205 255
171 205 255
171 205 255
171 205 255
171 205 255
171 205 255
171 205 255
171 205 255
171 205 255
170 204 255
170 204 255
170 204 255
170 204 255
170 204 255
170 204 255
170 204 255
170 204 255
170 204 255
170 204 255
170 204 255
170 204 255
170 204 255
169 204 255
169 204 255
169 204 255
169 204 255
169 204 255
169 204 255
169 204 255
169 204 255
169 203 255
169 203 255
169 203 255
169 203 255
168 203 255
168 203 255
168 203 255
168 203 255
168 203 255
168 203 255
168 203 255
168 203 255
168 203 255
168 203 255
168 203 255
167 203 255
167 203 255
167 203 255
167 203 255
167 202 255
167 202 255
167 202 255
167 202 255
167 202 255
167 202 255
167 202 255
166 202 255
166 202 255
166 202 255
166 202 255
166 202 255
166 202 255
166 202 255
166 202 255
166 202 255
166 202 255
166 202 255
165 201 255
165 201 255
165 201 255
165 201 255
165 201 255
165 201 255
165 201 255
165 201 255
165 201 255
165 201 255
164 201 255
164 201 255
164 201 255
164 201 255
164 201 255
164 201 255
164 201 255
164 200 255
164 200 255
164 200 255
163 200 255
163 200 255
163 200 255
163 200 255
163 200 255
163 200 255
163 200 255
163 200 255
163 200 255
163 200 255
162 200 255
162 200 255
162 200 255
162 200 255
162 199 255
162 199 255
162 199 255
162 199 255
162 199 255
162 199 255
162 199 255
161 199 255
161 199 255
161 199 255
161 199 255
161 199 255
161 199 255
161 199 255
161 199 255
161 199 255
161 199 255
160 198 255
160 198 255
160 198 255
160 198 255
160 198 255
160 198 255
160 198 255
160 198 255
160 198 255
160 198 255
160 198 255
160 198 255
159 198 255
159 198 255
159 198 255
159 198 255
159 198 255
159 198 255
159 198 255
159 198 255
159 198 255
159 197 255
159 197 255
159 197 255
159 197 255
159 197 255
159 197 255
158 197 255
158 197 255
158 197 255
158 197 255
158 197 255
158 197 255
158 197 255
158 197 255
158 197 255
158 197 255
158 197 255
158 197 255
158 197 255
158 197 255
158 197 255
158 197 255
158 197 255
158 197 255
158 197 255
158 197 255
158 197 255
158 197 255
157 197 255
157 197 255
157 197 255
157 197 255
157 197 255
157 197 255
157 197 255
157 197 255
157 197 255
157 197 255
157 197 255
157 197 255
157 197 255
157 197 255
157 197 255
157 197 255
157 197 255
157 197 255
157 197 255
157 197 255
157 197 255
157 197 255
157 197 255
157 197 255
157 197 255
157 197 255
158 197 255
158 197 255
158 197 255
158 197 255
158 197 255
158 197 255
158 197 255
158 197 255
158 197 255
158 197 255
158 197 255
158 197 255
158 197 255
158 197 255
158 197 255
158 197 255
158 197 255
158 197 255
158 197 255
158 197 255
158 197 255
158 197 255
158 197 255
159 197 255
159 197 255
159 197 255
159 197 255
159 197 255
159 198 255
159 198 255
159 198 255
159 198 255
159 198 255
159 198 255
159 198 255
159 198 255
160 198 255
160 198 255
160 198 255
160 198 255
160 198 255
160 198 255
160 198 255
160 198 255
160 198 255
160 198 255
160 198 255
160 198 255
160 198 255
161 199 255
161 199 255
161 199 255
161 199 255
161 199 255
161 199 255
161 199 255
161 199 255
161 199 255
161 199 255
162 199 255
162 199 255
162 199 255
162 199 255
162 199 255
162 199 255
162 199 255
162 200 255
162 200 255
162 200 255
162 200 255
163 200 255
163 200 255
163 200 255
163 200 255
163 200 255
163 200 255
163 200 255
163 200 255
163 200 255
163 200 255
164 200 255
164 200 255
164 200 255
164 201 255
164 201 255
164 201 255
164 201 255
164 201 255
164 201 255
164 201 255
165 201 255
165 201 255
165 201 255
165 201 255
165 201 255
165 201 255
165 201 255
165 201 255
165 201 255
165 201 255
166 202 255
166 202 255
166 202 255
166 202 255
166 202 255
166 202 255
166 202 255
166 202 255
166 202 255
166 202 255
166 202 255
167 202 255
167 202 255
167 202 255
167 202 255
167 202 255
167 202 255
167 202 255
167 203 255
167 203 255
167 203 255
167 203 255
168 203 255
168 203 255
168 203 255
168 203 255
168 203 255
168 203 255
168 203 255
168 203 255
168 203 255
168 203 255
168 203 255
169 203 255
169 203 255
169 203 255
169 203 255
169 204 255
169 204 255
169 204 255
169 204 255
169 204 255
169 204 255
169 204 255
169 204 255
170 204 255
170 204 255
170 204 255
170 204 255
170 204 255
170 204 255
170 204 255
170 204 255
170 204 255
170 204 255
170 204 255
170 204 255
170 204 255
171 205 255
171 205 255
171 205 255
171 205 255
171 205 255
171 205 255
171 205 255
171 205 255
171 205 255
171 205 255
171 205 255
171 205 255
171 205 255
172 205 255
172 205 255
172 205 255
172 205 255
172 205 255
172 205 255
172 205 255
172 205 255
172 205 255
172 205 255
172 206 255
172 206 255
172 206 255
172 206 255
172 206 255
173 206 255
173 206 255
173 206 255
173 206 255
173 206 255
173 206 255
172 206 255
172 206 255
172 206 255
172 206 255
172 206 255
172 205 255
172 205 255
172 205 255
172 205 255
172 205 255
172 205 255
172 205 255
172 205 255
172 205 255
171 205 255
171 205 255
171 205 255
171 205 255
171 205 255
171 205 255
171 205 255
171 205 255
171 205 255
171 205 255
171 205 255
171 205 255
171 205 255
171 205 255
170 204 255
170 204 255
170 204 255
170 204 255
170 204 255
170 204 255
170 204 255
170 204 255
170 204 255
170 204 255
170 204 255
170 204 255
169 204 255
169 204 255
169 204 255
169 204 255
169 204 255
169 204 255
169 204 255
169 204 255
169 204 255
169 203 255
169 203 255
169 203 255
168 203 255
168 203 255
168 203 255
168 203 255
168 203 255
168 203 255
168 203 255
168 203 255
168 203 255
168 203 255
168 203 255
167 203 255
167 203 255
167 203 255
167 203 255
167 202 255
167 202 255
167 202 255
167 202 255
167 202 255
167 202 255
167 202 255
166 202 255
166 202 255
166 202 255
166 202 255
166 202 255
166 202 255
166 202 255
166 202 255
166 202 255
166 202 255
166 202 255
165 201 255
165 201 255
165 201 255
165 201 255
165 201 255
165 201 255
165 201 255
165 201 255
165 201 255
165 201 255
164 201 255
164 201 255
164 201 255
164 201 255
164 201 255
164 201 255
164 201 255
164 200 255
164 200 255
164 200 255
163 200 255
163 200 255
163 200 255
163 200 255
163 200 255
163 200 255
163 200 255
163 200 255
163 200 255
163 200 255
163 200 255
162 200 255
162 200 255
162 200 255
162 199 255
162 199 255
162 199 255
162 199 255
162 199 255
162 199 255
162 199 255
161 199 255
161 199 255
161 199 255
161 199 255
161 199 255
161 199 255
161 199 255
161 199 255
161 199 255
161 199 255
161 199 255
160 198 255
160 198 255
160 198 255
160 198 255
160 198 255
160 198 255
160 198 255
160 198 255
160 198 255
160 198 255
160 198 255
160 198 255
160 198 255
159 198 255
159 198 255
159 198 255
159 198 255
159 198 255
159 198 255
159 198 255
159 198 255
159 198 255
159 198 255
159 197 255
159 197 255
159 197 255
159 197 255
159 197 255
159 197 255
158 197 255
158 197 255
158 197 255
158 197 255
158 197 255
158 197 255
158 197 255
158 197 255
158 197 255
158 197 255
158 197 255
158 197 255
158 197 255
158 197 255
158 197 255
158 197 255
158 197 255
158 197 255
158 197 255
158 197 255
158 197 255
158 197 255
158 197 255
158 197 255
158 197 255
158 197 255
158 197 255
158 197 255
158 197 255
158 197 255
158 197 255
158 197 255
158 197 255
158 197 255
158 197 255
158 197 255
158 197 255
158 197 255
158 197 255
158 197 255
158 197 255
158 197 255
158 197 255
158 197 255
158 197 255
158 197 255
158 197 255
158 197 255
158 197 255
158 197 255
158 197 255
158 197 255
158 197 255
158 197 255
158 197 255
158 197 255
158 197 255
158 197 255
158 197 255
159 197 255
159 197 255
159 197 255
159 197 255
159 197 255
159 198 255
159 198 255
159 198 255
159 198 255
159 198 255
159 198 255
159 198 255
159 198 255
159 198 255
159 198 255
160 198 255
160 198 255
160 198 255
160 198 255
160 198 255
160 198 255
160 198 255
160 198 255
160 198 255
160 198 255
160 198 255
160 198 255
160 198 255
161 199 255
161 199 255
161 199 255
161 199 255
161 199 255
161 199 255
161 199 255
161 199 255
161 199 255
161 199 255
161 199 255
162 199 255
162 199 255
162 199 255
162 199 255
162 199 255
162 199 255
162 199 255
162 200 255
162 200 255
162 200 255
163 200 255
163 200 255
163 200 255
163 200 255
163 200 255
163 200 255
163 200 255
163 200 255
163 200 255
163 200 255
163 200 255
164 200 255
164 200 255
164 200 255
164 201 255
164 201 255
164 201 255
164 201 255
164 201 255
164 201 255
164 201 255
165 201 255
165 201 255
165 201 255
165 201 255
165 201 255
165 201 255
165 201 255
165 201 255
165 201 255
165 201 255
166 202 255
166 202 255
166 202 255
166 202 255
166 202 255
166 202 255
166 202 255
166 202 255
166 202 255
166 202 255
166 202 255
167 202 255
167 202 255
167 202 255
167 202 255
167 202 255
167 202 255
167 202 255
167 203 255
167 203 255
167 203 255
167 203 255
168 203 255
168 203 255
168 203 255
168 203 255
168 203 255
168 203 255
168 203 255
168 203 255
168 203 255
168 203 255
168 203 255
169 203 255
169 203 255
169 203 255
169 203 255
169 204 255
169 204 255
169 204 255
169 204 255
169 204 255
169 204 255
169 204 255
169 204 255
170 204 255
170 204 255
170 204 255
170 204 255
170 204 255
170 204 255
170 204 255
170 204 255
170 204 255
170 204 255
170 204 255
170 204 255
171 205 255
171 205 255
171 205 255
171 205 255
171 205 255
171 205 255
171 205 255
171 205 255
171 205 255
171 205 255
171 205 255
171 205 255
171 205 255
171 205 255
172 205 255
172 205 255
172 205 255
172 205 255
172 205 255
172 205 255
172 205 255
172 205 255
172 205 255
172 206 255
172 206 255
172 206 255
172 206 255
172 206 255
173 206 255
173 206 255
173 206 255
173 206 255
173 206 255
173 206 255
173 206 255
173 206 255
173 206 255
173 206 255
173 206 255
173 206 255
173 206 255
173 206 255
172 206 255
172 206 255
172 206 255
172 206 255
172 205 255
172 205 255
172 205 255
172 205 255
172 205 255
172 205 255
172 205 255
172 205 255
172 205 255
172 205 255
171 205 255
171 205 255
171 205 255
171 205 255
171 205 255
171 205 255
171 205 255
171 205 255
171 205 255
171 205 255
171 205 255
171 205 255
171 205 255
170 204 255
170 204 255
170 204 255
170 204 255
170 204 255
170 204 255
170 204 255
170 204 255
170 204 255
170 204 255
170 204 255
170 204 255
170 204 255
169 204 255
169 204 255
169 204 255
169 204 255
169 204 255
169 204 255
169 204 255
169 204 255
169 203 255
169 203 255
169 203 255
169 203 255
168 203 255
168 203 255
168 203 255
168 203 255
168 203 255
168 203 255
168 203 255
168 203 255
168 203 255
168 203 255
168 203 255
167 203 255
167 203 255
167 203 255
167 202 255
167 202 255
167 202 255
167 202 255
167 202 255
167 202 255
167 202 255
167 202 255
166 202 255
166 202 255
166 202 255
166 202 255
166 202 255
166 202 255
166 202 255
166 202 255
166 202 255
166 202 255
165 201 255
165 201 255
165 201 255
165 201 255
165 201 255
165 201 255
165 201 255
165 201 255
165 201 255
165 201 255
164 201 255
164 201 255
164 201 255
164 201 255
164 201 255
164 201 255
164 201 255
164 200 255
164 200 255
164 200 255
164 200 255
163 200 255
163 200 255
163 200 255
163 200 255
163 200 255
163 200 255
163 200 255
163 200 255
163 200 255
163 200 255
162 200 255
162 200 255
162 200 255
162 200 255
162 199 255
162 199 255
162 199 255
162 199 255
162 199 255
162 199 255
162 199 255
161 199 255
161 199 255
161 199 255
161 199 255
161 199 255
161 199 255
161 199 255
161 199 255
161 199 255
161 199 255
161 199 255
160 198 255
160 198 255
160 198 255
160 198 255
160 198 255
160 198 255
160 198 255
160 198 255
160 198 255
160 198 255
160 198 255
160 198 255
160 198 255
160 198 255
159 198 255
159 198 255
159 198 255
159 198 255
159 198 255
159 198 255
159 198 255
159 198 255
159 198 255
159 198 255
159 198 255
159 197 255
159 197 255
159 197 255
159 197 255
159 197 255
159 197 255
159 197 255
158 197 255
158 197 255
158 197 255
158 197 255
158 197 255
158 197 255
158 197 255
158 197 255
158 197 255
158 197 255
158 197 255
158 197 255
158 197 255
158 197 255
158 197 255
158 197 255
158 197 255
158 197 255
158 197 255
158 197 255
158 197 255
158 197 255
158 197 255
158 197 255
158 197 255
158 197 255
158 197 255
158 197 255
158 197 255
158 197 255
158 197 255
158 197 255
158 197 255
158 197 255
158 197 255
158 197 255
158 197 255
158 197 255
158 197 255
158 197 255
158 197 255
158 197 255
158 197 255
158 197 255
159 197 255
159 197 255
159 197 255
159 197 255
159 197 255
159 197 255
159 197 255
159 198 255
159 198 255
159 198 255
159 198 255
159 198 255
159 198 255
159 198 255
159 198 255
159 198 255
159 198 255
159 198 255
160 198 255
160 198 255
160 198 255
160 198 255
160 198 255
160 198 255
160 198 255
160 198 255
160 198 255
160 198 255
160 198 255
160 198 255
160 198 255
160 198 255
161 199 255
161 199 255
161 199 255
161 199 255
161 199 255
161 199 255
161 199 255
161 199 255
161 199 255
161 199 255
161 199 255
162 199 255
162 199 255
162 199 255
162 199 255
162 199 255
162 199 255
162 199 255
162 200 255
162 200 255
162 200 255
162 200 255
163 200 255
163 200 255
163 200 255
163 200 255
163 200 255
163 200 255
163 200 255
163 200 255
163 200 255
163 200 255
164 200 255
164 200 255
164 200 255
164 200 255
164 201 255
164 201 255
164 201 255
164 201 255
164 201 255
164 201 255
164 201 255
165 201 255
165 201 255
165 201 255
165 201 255
165 201 255
165 201 255
165 201 255
165 201 255
165 201 255
165 201 255
166 202 255
166 202 255
166 202 255
166 202 255
166 202 255
166 202 255
166 202 255
166 202 255
166 202 255
166 202 255
166 202 255
167 202 255
167 202 255
167 202 255
167 202 255
167 202 255
167 202 255
167 202 255
167 203 255
167 203 255
167 203 255
168 203 255
168 203 255
168 203 255
168 203 255
168 203 255
168 203 255
168 203 255
168 203 255
168 203 255
168 203 255
168 203 255
169 203 255
169 203 255
169 203 255
169 203 255
169 204 255
169 204 255
169 204 255
169 204 255
169 204 255
169 204 255
169 204 255
169 204 255
170 204 255
170 204 255
170 204 255
170 204 255
170 204 255
170 204 255
170 204 255
170 204 255
170 204 255
170 204 255
170 204 255
170 204 255
170 204 255
171 205 255
171 205 255
171 205 255
171 205 255
171 205 255
171 205 255
171 205 255
171 205 255
171 205 255
171 205 255
171 205 255
171 205 255
171 205 255
172 205 255
172 205 255
172 205 255
172 205 255
172 205 255
172 205 255
172 205 255
172 205 255
172 205 255
172 206 255
172 206 255
172 206 255
172 206 255
172 206 255
173 206 255
173 206 255
173 206 255
173 206 255
173 206 255
173 206 255
173 206 255
173 206 255
173 206 255
173 206 255
173 206 255
173 206 255
173 206 255
173 206 255
173 206 255
173 206 255
173 206 255
173 206 255
173 206 255
173 206 255
173 206 255
172 206 255
172 206 255
172 206 255
172 206 255
172 206 255
172 205 255
172 205 255
172 205 255
172 205 255
172 205 255
172 205 255
172 205 255
172 205 255
172 205 255
172 205 255
171 205 255
171 205 255
171 205 255
171 205 255
171 205 255
171 205 255
171 205 255
171 205 255
171 205 255
171 205 255
171 205 255
171 205 255
171 205 255
170 204 255
170 204 255
170 204 255
170 204 255
170 204 255
170 204 255
170 204 255
170 204 255
170 204 255
170 204 255
170 204 255
170 204 255
169 204 255
169 204 255
169 204 255
169 204 255
169 204 255
169 204 255
169 204 255
169 204 255
169 203 255
169 203 255
169 203 255
169 203 255
168 203 255
168 203 255
168 203 255
168 203 255
168 203 255
168 203 255
168 203 255
168 203 255
168 203 255
168 203 255
168 203 255
167 203 255
167 203 255
167 203 255
167 203 255
167 202 255
167 202 255
167 202 255
167 202 255
167 202 255
167 202 255
167 202 255
166 202 255
166 202 255
166 202 255
166 202 255
166 202 255
166 202 255
166 202 255
166 202 255
166 202 255
166 202 255
165 201 255
165 201 255
165 201 255
165 201 255
165 201 255
165 201 255
165 201 255
165 201 255
165 201 255
165 201 255
165 201 255
164 201 255
164 201 255
164 201 255
164 201 255
164 201 255
164 201 255
164 201 255
164 200 255
164 200 255
164 200 255
163 200 255
163 200 255
163 200 255
163 200 255
163 200 255
163 200 255
163 200 255
163 200 255
163 200 255
163 200 255
162 200 255
162 200 255
162 200 255
162 200 255
162 199 255
162 199 255
162 199 255
162 199 255
162 199 255
162 199 255
162 199 255
162 199 255
161 199 255
161 199 255
161 199 255
161 199 255
161 199 255
161 199 255
161 199 255
161 199 255
161 199 255
161 199 255
161 199 255
161 199 255
160 198 255
160 198 255
160 198 255
160 198 255
160 198 255
160 198 255
160 198 255
160 198 255
160 198 255
160 198 255
160 198 255
160 198 255
160 198 255
160 198 255
159 198 255
159 198 255
159 198 255
159 198 255
159 198 255
159 198 255
159 198 255
159 198 255
159 198 255
159 198 255
159 198 255
159 198 255
159 198 255
159 198 255
159 197 255
159 197 255
159 197 255
159 197 255
159 197 255
159 197 255
159 197 255
159 197 255
159 197 255
159 197 255
159 197 255
158 197 255
158 197 255
158 197 255
158 197 255
158 197 255
158 197 255
158 197 255
158 197 255
158 197 255
158 197 255
158 197 255
158 197 255
158 197 255
158 197 255
158 197 255
158 197 255
158 197 255
158 197 255
158 197 255
158 197 255
158 197 255
159 197 255
159 197 255
159 197 255
159 197 255
159 197 255
159 197 255
159 197 255
159 197 255
159 197 255
159 197 255
159 197 255
159 198 255
159 198 255
159 198 255
159 198 255
159 198 255
159 198 255
159 198 255
159 198 255
159 198 255
159 198 255
159 198 255
159 198 255
159 198 255
160 198 255
160 198 255
160 198 255
160 198 255
160 198 255
160 198 255
160 198 255
160 198 255
160 198 255
160 198 255
160 198 255
160 198 255
160 198 255
160 198 255
161 199 255
161 199 255
161 199 255
161 199 255
161 199 255
161 199 255
161 199 255
161 199 255
161 199 255
161 199 255
161 199 255
161 199 255
162 199 255
162 199 255
162 199 255
162 199 255
162 199 255
162 199 255
162 199 255
162 199 255
162 200 255
162 200 255
162 200 255
162 200 255
163 200 255
163 200 255
163 200 255
163 200 255
163 200 255
163 200 255
163 200 255
163 200 255
163 200 255
163 200 255
164 200 255
164 200 255
164 200 255
164 201 255
164 201 255
164 201 255
164 201 255
164 201 255
164 201 255
164 201 255
165 201 255
165 201 255
165 201 255
165 201 255
165 201 255
165 201 255
165 201 255
165 201 255
165 201 255
165 201 255
165 201 255
166 202 255
166 202 255
166 202 255
166 202 255
166 202 255
166 202 255
166 202 255
166 202 255
166 202 255
166 202 255
167 202 255
167 202 255
167 202 255
167 202 255
167 202 255
167 202 255
167 202 255
167 203 255
167 203 255
167 203 255
167 203 255
168 203 255
168 203 255
168 203 255
168 203 255
168 203 255
168 203 255
168 203 255
168 203 255
168 203 255
168 203 255
168 203 255
169 203 255
169 203 255
169 203 255
169 203 255
169 204 255
169 204 255
169 204 255
169 204 255
169 204 255
169 204 255
169 204 255
169 204 255
170 204 255
170 204 255
170 204 255
170 204 255
170 204 255
170 204 255
170 204 255
170 204 255
170 204 255
170 204 255
170 204 255
170 204 255
171 205 255
171 205 255
171 205 255
171 205 255
171 205 255
171 205 255
171 205 255
171 205 255
171 205 255
171 205 255
171 205 255
171 205 255
171 205 255
172 205 255
172 205 255
172 205 255
172 205 255
172 205 255
172 205 255
172 205 255
172 205 255
172 205 255
172 205 255
172 206 255
172 206 255
172 206 255
172 206 255
172 206 255
173 206 255
173 206 255
173 206 255
173 206 255
173 206 255
173 206 255
173 206 255
173 206 255
173 206 255
173 206 255
173 206 255
173 206 255
174 206 255
173 206 255
173 206 255
173 206 255
173 206 255
173 206 255
173 206 255
173 206 255
173 206 255
173 206 255
173 206 255
173 206 255
173 206 255
173 206 255
173 206 255
173 206 255
172 206 255
172 206 255
172 206 255
172 206 255
172 206 255
172 205 255
172 205 255
172 205 255
172 205 255
172 205 255
172 205 255
172 205 255
172 205 255
172 205 255
171 205 255
171 205 255
171 205 255
171 205 255
171 205 255
171 205 255
171 205 255
171 205 255
171 205 255
171 205 255
171 205 255
171 205 255
171 205 255
170 204 255
170 204 255
170 204 255
170 204 255
170 204 255
170 204 255
170 204 255
170 204 255
170 204 255
170 204 255
170 204 255
170 204 255
170 204 255
169 204 255
169 204 255
169 204 255
169 204 255
169 204 255
169 204 255
169 204 255
169 203 255
169 203 255
169 203 255
169 203 255
168 203 255
168 203 255
168 203 255
168 203 255
168 203 255
168 203 255
168 203 255
168 203 255
168 203 255
168 203 255
168 203 255
168 203 255
167 203 255
167 203 255
167 203 255
167 202 255
167 202 255
167 202 255
167 202 255
167 202 255
167 202 255
167 202 255
166 202 255
166 202 255
166 202 255
166 202 255
166 202 255
166 202 255
166 202 255
166 202 255
166 202 255
166 202 255
166 202 255
165 201 255
165 201 255
165 201 255
165 201 255
165 201 255
165 201 255
165 201 255
165 201 255
165 201 255
165 201 255
164 201 255
164 201 255
164 201 255
164 201 255
164 201 255
164 201 255
164 201 255
164 200 255
164 200 255
164 200 255
164 200 255
163 200 255
163 200 255
163 200 255
163 200 255
163 200 255
163 200 255
163 200 255
163 200 255
163 200 255
163 200 255
162 200 255
162 200 255
162 200 255
162 200 255
162 199 255
162 199 255
162 199 255
162 199 255
162 199 255
162 199 255
162 199 255
162 199 255
161 199 255
161 199 255
161 199 255
161 199 255
161 199 255
161 199 255
161 199 255
161 199 255
161 199 255
161 199 255
161 199 255
161 199 255
160 198 255
160 198 255
160 198 255
160 198 255
160 198 255
160 198 255
160 198 255
160 198 255
160 198 255
160 198 255
160 198 255
160 198 255
160 198 255
160 198 255
160 198 255
160 198 255
159 198 255
159 198 255
159 198 255
159 198 255
159 198 255
159 198 255
159 198 255
159 198 255
159 198 255
159 198 255
159 198 255
159 198 255
159 198 255
159 198 255
159 198 255
159 198 255
159 198 255
159 198 255
159 198 255
159 198 255
159 197 255
159 197 255
159 197 255
159 197 255
159 197 255
159 197 255
159 197 255
159 197 255
159 197 255
159 197 255
159 197 255
159 197 255
159 197 255
159 197 255
159 197 255
159 197 255
159 197 255
159 197 255
159 198 255
159 198 255
159 198 255
159 198 255
159 198 255
159 198 255
159 198 255
159 198 255
159 198 255
159 198 255
159 198 255
159 198 255
159 198 255
159 198 255
159 198 255
159 198 255
159 198 255
159 198 255
159 198 255
160 198 255
160 198 255
160 198 255
160 198 255
160 198 255
160 198 255
160 198 255
160 198 255
160 198 255
160 198 255
160 198 255
160 198 255
160 198 255
160 198 255
160 198 255
160 198 255
161 199 255
161 199 255
161 199 255
161 199 255
161 199 255
161 199 255
161 199 255
161 199 255
161 199 255
161 199 255
161 199 255
161 199 255
161 199 255
162 199 255
162 199 255
162 199 255
162 199 255
162 199 255
162 199 255
162 199 255
162 199 255
162 200 255
162 200 255
162 200 255
162 200 255
163 200 255
163 200 255
163 200 255
163 200 255
163 200 255
163 200 255
163 200 255
163 200 255
163 200 255
163 200 255
164 200 255
164 200 255
164 200 255
164 200 255
164 201 255
164 201 255
164 201 255
164 201 255
164 201 255
164 201 255
164 201 255
165 201 255
165 201 255
165 201 255
165 201 255
165 201 255
165 201 255
165 201 255
165 201 255
165 201 255
165 201 255
166 202 255
166 202 255
166 202 255
166 202 255
166 202 255
166 202 255
166 202 255
166 202 255
166 202 255
166 202 255
166 202 255
167 202 255
167 202 255
167 202 255
167 202 255
167 202 255
167 202 255
167 202 255
167 203 255
167 203 255
167 203 255
167 203 255
168 203 255
168 203 255
168 203 255
168 203 255
168 203 255
168 203 255
168 203 255
168 203 255
168 203 255
168 203 255
168 203 255
169 203 255
169 203 255
169 203 255
169 203 255
169 204 255
169 204 255
169 204 255
169 204 255
169 204 255
169 204 255
169 204 255
170 204 255
170 204 255
170 204 255
170 204 255
170 204 255
170 204 255
170 204 255
170 204 255
170 204 255
170 204 255
170 204 255
170 204 255
170 204 255
171 205 255
171 205 255
171 205 255
171 205 255
171 205 255
171 205 255
171 205 255
171 205 255
171 205 255
171 205 255
171 205 255
171 205 255
171 205 255
172 205 255
172 205 255
172 205 255
172 205 255
172 205 255
172 205 255
172 205 255
172 205 255
172 205 255
172 206 255
172 206 255
172 206 255
172 206 255
172 206 255
173 206 255
173 206 255
173 206 255
173 206 255
173 206 255
173 206 255
173 206 255
173 206 255
173 206 255
173 206 255
173 206 255
173 206 255
173 206 255
173 206 255
173 206 255
174 206 255
174 206 255
174 206 255
174 206 255
174 206 255
174 206 255
173 206 255
173 206 255
173 206 255
173 206 255
173 206 255
173 206 255
173 206 255
173 206 255
173 206 255
173 206 255
173 206 255
173 206 255
173 206 255
173 206 255
173 206 255
172 206 255
172 206 255
172 206 255
172 206 255
172 206 255
172 205 255
172 205 255
172 205 255
172 205 255
172 205 255
172 205 255
172 205 255
172 205 255
172 205 255
171 205 255
171 205 255
171 205 255
171 205 255
171 205 255
171 205 255
171 205 255
171 205 255
171 205 255
171 205 255
171 205 255
171 205 255
171 205 255
170 204 255
170 204 255
170 204 255
170 204 255
170 204 255
170 204 255
170 204 255
170 204 255
170 204 255
170 204 255
170 204 255
170 204 255
169 204 255
169 204 255
169 204 255
169 204 255
169 204 255
169 204 255
169 204 255
169 204 255
169 203 255
169 203 255
169 203 255
169 203 255
168 203 255
168 203 255
168 203 255
168 203 255
168 203 255
168 203 255
168 203 255
168 203 255
168 203 255
168 203 255
168 203 255
167 203 255
167 203 255
167 203 255
167 202 255
167 202 255
167 202 255
167 202 255
167 202 255
167 202 255
167 202 255
166 202 255
166 202 255
166 202 255
166 202 255
166 202 255
166 202 255
166 202 255
166 202 255
166 202 255
166 202 255
166 202 255
165 201 255
165 201 255
165 201 255
165 201 255
165 201 255
165 201 255
165 201 255
165 201 255
165 201 255
165 201 255
165 201 255
164 201 255
164 201 255
164 201 255
164 201 255
164 201 255
164 201 255
164 201 255
164 200 255
164 200 255
164 200 255
163 200 255
163 200 255
163 200 255
163 200 255
163 200 255
163 200 255
163 200 255
163 200 255
163 200 255
163 200 255
163 200 255
162 200 255
162 200 255
162 200 255
162 200 255
162 199 255
162 199 255
162 199 255
162 199 255
162 199 255
162 199 255
162 199 255
162 199 255
161 199 255
161 199 255
161 199 255
161 199 255
161 199 255
161 199 255
161 199 255
161 199 255
161 199 255
161 199 255
161 199 255
161 199 255
161 199 255
161 199 255
160 198 255
160 198 255
160 198 255
160 198 255
160 198 255
160 198 255
160 198 255
160 198 255
160 198 255
160 198 255
160 198 255
160 198 255
160 198 255
160 198 255
160 198 255
160 198 255
160 198 255
160 198 255
160 198 255
159 198 255
159 198 255
159 198 255
159 198 255
159 198 255
159 198 255
159 198 255
159 198 255
159 198 255
159 198 255
159 198 255
159 198 255
159 198 255
159 198 255
159 198 255
159 198 255
159 198 255
159 198 255
159 198 255
159 198 255
159 198 255
159 198 255
159 198 255
159 198 255
159 198 255
159 198 255
159 198 255
159 198 255
159 198 255
159 198 255
159 198 255
159 198 255
159 198 255
159 198 255
159 198 255
159 198 255
159 198 255
159 198 255
159 198 255
159 198 255
160 198 255
160 198 255
160 198 255
160 198 255
160 198 255
160 198 255
160 198 255
160 198 255
160 198 255
160 198 255
160 198 255
160 198 255
160 198 255
160 198 255
160 198 255
160 198 255
160 198 255
160 198 255
160 198 255
161 199 255
161 199 255
161 199 255
161 199 255
161 199 255
161 199 255
161 199 255
161 199 255
161 199 255
161 199 255
161 199 255
161 199 255
161 199 255
161 199 255
162 199 255
162 199 255
162 199 255
162 199 255
162 199 255
162 199 255
162 199 255
162 199 255
162 200 255
162 200 255
162 200 255
162 200 255
163 200 255
163 200 255
163 200 255
163 200 255
163 200 255
163 200 255
163 200 255
163 200 255
163 200 255
163 200 255
163 200 255
164 200 255
164 200 255
164 200 255
164 201 255
164 201 255
164 201 255
164 201 255
164 201 255
164 201 255
164 201 255
165 201 255
165 201 255
165 201 255
165 201 255
165 201 255
165 201 255
165 201 255
165 201 255
165 201 255
165 201 255
165 201 255
166 202 255
166 202 255
166 202 255
166 202 255
166 202 255
166 202 255
166 202 255
166 202 255
166 202 255
166 202 255
167 202 255
167 202 255
167 202 255
167 202 255
167 202 255
167 202 255
167 202 255
167 202 255
167 203 255
167 203 255
167 203 255
168 203 255
168 203 255
168 203 255
168 203 255
168 203 255
168 203 255
168 203 255
168 203 255
168 203 255
168 203 255
168 203 255
169 203 255
169 203 255
169 203 255
169 203 255
169 204 255
169 204 255
169 204 255
169 204 255
169 204 255
169 204 255
169 204 255
169 204 255
170 204 255
170 204 255
170 204 255
170 204 255
170 204 255
170 204 255
170 204 255
170 204 255
170 204 255
170 204 255
170 204 255
170 204 255
171 205 255
171 205 255
171 205 255
171 205 255
171 205 255
171 205 255
171 205 255
171 205 255
171 205 255
171 205 255
171 205 255
171 205 255
171 205 255
172 205 255
172 205 255
172 205 255
172 205 255
172 205 255
172 205 255
172 205 255
172 205 255
172 205 255
172 206 255
172 206 255
172 206 255
172 206 255
172 206 255
173 206 255
173 206 255
173 206 255
173 206 255
173 206 255
173 206 255
173 206 255
173 206 255
173 206 255
173 206 255
173 206 255
173 206 255
173 206 255
173 206 255
173 206 255
174 206 255
174 206 255
174 206 255
174 206 255
174 206 255
174 207 255
174 207 255
174 207 255
174 207 255
174 206 255
174 206 255
174 206 255
174 206 255
174 206 255
173 206 255
173 206 255
173 206 255
173 206 255
173 206 255
173 206 255
173 206 255
173 206 255
173 206 255
173 206 255
173 206 255
173 206 255
173 206 255
173 206 255
173 206 255
172 206 255
172 206 255
172 206 255
172 206 255
172 206 255
172 205 255
172 205 255
172 205 255
172 205 255
172 205 255
172 205 255
172 205 255
172 205 255
172 205 255
171 205 255
171 205 255
171 205 255
171 205 255
171 205 255
171 205 255
171 205 255
171 205 255
171 205 255
171 205 255
171 205 255
171 205 255
170 204 255
170 204 255
170 204 255
170 204 255
170 204 255
170 204 255
170 204 255
170 204 255
170 204 255
170 204 255
170 204 255
170 204 255
169 204 255
169 204 255
169 204 255
169 204 255
169 204 255
169 204 255
169 204 255
169 204 255
169 203 255
169 203 255
169 203 255
169 203 255
168 203 255
168 203 255
168 203 255
168 203 255
168 203 255
168 203 255
168 203 255
168 203 255
168 203 255
168 203 255
168 203 255
168 203 255
167 203 255
167 203 255
167 203 255
167 202 255
167 202 255
167 202 255
167 202 255
167 202 255
167 202 255
167 202 255
166 202 255
166 202 255
166 202 255
166 202 255
166 202 255
166 202 255
166 202 255
166 202 255
166 202 255
166 202 255
166 202 255
165 201 255
165 201 255
165 201 255
165 201 255
165 201 255
165 201 255
165 201 255
165 201 255
165 201 255
165 201 255
164 201 255
164 201 255
164 201 255
164 201 255
164 201 255
164 201 255
164 201 255
164 200 255
164 200 255
164 200 255
164 200 255
163 200 255
163 200 255
163 200 255
163 200 255
163 200 255
163 200 255
163 200 255
163 200 255
163 200 255
163 200 255
163 200 255
162 200 255
162 200 255
162 200 255
162 200 255
162 199 255
162 199 255
162 199 255
162 199 255
162 199 255
162 199 255
162 199 255
162 199 255
162 199 255
161 199 255
161 199 255
161 199 255
161 199 255
161 199 255
161 199 255
161 199 255
161 199 255
161 199 255
161 199 255
161 199 255
161 199 255
161 199 255
161 199 255
160 198 255
160 198 255
160 198 255
160 198 255
160 198 255
160 198 255
160 198 255
160 198 255
160 198 255
160 198 255
160 198 255
160 198 255
160 198 255
160 198 255
160 198 255
160 198 255
160 198 255
160 198 255
160 198 255
160 198 255
160 198 255
160 198 255
160 198 255
160 198 255
160 198 255
160 198 255
157 195 252
150 185 239
140 175 226
138 172 222
130 162 209
124 154 199
121 150 193
129 161 208
120 150 195
120 149 194
130 162 208
140 175 226
134 167 216
148 183 236
151 188 243
154 191 247
160 198 255
160 198 255
160 198 255
160 198 255
160 198 255
160 198 255
160 198 255
160 198 255
160 198 255
160 198 255
160 198 255
160 198 255
160 198 255
160 198 255
160 198 255
160 198 255
160 198 255
160 198 255
160 198 255
160 198 255
160 198 255
160 198 255
160 198 255
160 198 255
160 198 255
160 198 255
161 199 255
161 199 255
161 199 255
161 199 255
161 199 255
161 199 255
161 199 255
161 199 255
161 199 255
161 199 255
161 199 255
161 199 255
161 199 255
161 199 255
161 199 255
162 199 255
162 199 255
162 199 255
162 199 255
162 199 255
162 199 255
162 199 255
162 199 255
162 200 255
162 200 255
162 200 255
162 200 255
163 200 255
163 200 255
163 200 255
163 200 255
163 200 255
163 200 255
163 200 255
163 200 255
163 200 255
163 200 255
163 200 255
164 200 255
164 200 255
164 200 255
164 200 255
164 201 255
164 201 255
164 201 255
164 201 255
164 201 255
164 201 255
164 201 255
165 201 255
165 201 255
165 201 255
165 201 255
165 201 255
165 201 255
165 201 255
165 201 255
165 201 255
165 201 255
166 202 255
166 202 255
166 202 255
166 202 255
166 202 255
166 202 255
166 202 255
166 202 255
166 202 255
166 202 255
166 202 255
167 202 255
167 202 255
167 202 255
167 202 255
167 202 255
167 202 255
167 202 255
167 203 255
167 203 255
167 203 255
167 203 255
168 203 255
168 203 255
168 203 255
168 203 255
168 203 255
168 203 255
168 203 255
168 203 255
168 203 255
168 203 255
168 203 255
169 203 255
169 203 255
169 203 255
169 203 255
169 204 255
169 204 255
169 204 255
169 204 255
169 204 255
169 204 255
169 204 255
170 204 255
170 204 255
170 204 255
170 204 255
170 204 255
170 204 255
170 204 255
170 204 255
170 204 255
170 204 255
170 204 255
170 204 255
171 205 255
171 205 255
171 205 255
171 205 255
171 205 255
171 205 255
171 205 255
171 205 255
171 205 255
171 205 255
171 205 255
171 205 255
171 205 255
172 205 255
172 205 255
172 205 255
172 205 255
172 205 255
172 205 255
172 205 255
172 205 255
172 205 255
172 206 255
172 206 255
172 206 255
172 206 255
172 206 255
173 206 255
173 206 255
173 206 255
173 206 255
173 206 255
173 206 255
173 206 255
173 206 255
173 206 255
173 206 255
173 206 255
173 206 255
173 206 255
173 206 255
173 206 255
174 206 255
174 206 255
174 206 255
174 206 255
174 206 255
174 206 255
174 207 255
174 207 255
174 207 255
174 207 255
174 207 255
174 207 255
174 207 255
174 207 255
174 207 255
174 207 255
174 207 255
174 206 255
174 206 255
174 206 255
174 206 255
174 206 255
173 206 255
173 206 255
173 206 255
173 206 255
173 206 255
173 206 255
173 206 255
173 206 255
173 206 255
173 206 255
173 206 255
173 206 255
173 206 255
173 206 255
173 206 255
172 206 255
172 206 255
172 206 255
172 206 255
172 205 255
172 205 255
172 205 255
172 205 255
172 205 255
172 205 255
172 205 255
172 205 255
172 205 255
171 205 255
171 205 255
171 205 255
171 205 255
171 205 255
171 205 255
171 205 255
171 205 255
171 205 255
171 205 255
171 205 255
171 205 255
171 205 255
170 204 255
170 204 255
170 204 255
170 204 255
170 204 255
170 204 255
170 204 255
170 204 255
170 204 255
170 204 255
170 204 255
170 204 255
169 204 255
169 204 255
169 204 255
169 204 255
169 204 255
169 204 255
169 204 255
169 204 255
169 203 255
169 203 255
169 203 255
169 203 255
168 203 255
168 203 255
168 203 255
168 203 255
168 203 255
168 203 255
168 203 255
168 203 255
168 203 255
168 203 255
168 203 255
167 203 255
167 203 255
167 203 255
167 202 255
167 202 255
167 202 255
167 202 255
167 202 255
167 202 255
167 202 255
167 202 255
166 202 255
166 202 255
166 202 255
166 202 255
166 202 255
166 202 255
166 202 255
166 202 255
166 202 255
166 202 255
165 201 255
165 201 255
165 201 255
165 201 255
165 201 255
165 201 255
165 201 255
165 201 255
165 201 255
165 201 255
165 201 255
164 201 255
164 201 255
164 201 255
164 201 255
164 201 255
164 201 255
164 201 255
164 200 255
164 200 255
164 200 255
164 200 255
163 200 255
163 200 255
163 200 255
163 200 255
163 200 255
163 200 255
163 200 255
163 200 255
163 200 255
163 200 255
163 200 255
162 200 255
162 200 255
162 200 255
162 200 255
162 199 255
162 199 255
162 199 255
162 199 255
162 199 255
162 199 255
162 199 255
162 199 255
162 199 255
162 199 255
161 199 255
161 199 255
161 199 255
161 199 255
161 199 255
161 199 255
161 199 255
161 199 255
161 199 255
161 199 255
161 199 255
161 199 255
161 199 255
161 199 255
161 199 255
161 199 255
161 199 255
160 198 255
160 198 255
160 198 255
160 198 255
160 198 255
160 198 255
160 198 255
160 198 255
160 198 255
160 198 255
160 198 255
160 198 255
154 191 247
143 177 229
127 158 204
108 135 175
102 126 163
86 107 139
77 98 129
78 98 128
79 98 128
78 98 128
77 97 128
79 98 128
79 99 128
77 97 128
79 99 128
80 99 128
77 97 128
80 99 127
78 98 128
79 98 128
79 99 128
78 98 128
87 108 139
95 118 152
109 135 175
127 158 206
139 172 222
158 196 253
160 198 255
160 198 255
160 198 255
160 198 255
160 198 255
160 198 255
160 198 255
160 198 255
160 198 255
160 198 255
160 198 255
160 198 255
161 199 255
161 199 255
161 199 255
161 199 255
161 199 255
161 199 255
161 199 255
161 199 255
161 199 255
161 199 255
161 199 255
161 199 255
161 199 255
161 199 255
161 199 255
161 199 255
161 199 255
162 199 255
162 199 255
162 199 255
162 199 255
162 199 255
162 199 255
162 199 255
162 199 255
162 199 255
162 200 255
162 200 255
162 200 255
162 200 255
162 200 255
163 200 255
163 200 255
163 200 255
163 200 255
163 200 255
163 200 255
163 200 255
163 200 255
163 200 255
163 200 255
163 200 255
164 200 255
164 200 255
164 200 255
164 200 255
164 201 255
164 201 255
164 201 255
164 201 255
164 201 255
164 201 255
164 201 255
165 201 255
165 201 255
165 201 255
165 201 255
165 201 255
165 201 255
165 201 255
165 201 255
165 201 255
165 201 255
165 201 255
166 202 255
166 202 255
166 202 255
166 202 255
166 202 255
166 202 255
166 202 255
166 202 255
166 202 255
166 202 255
166 202 255
167 202 255
167 202 255
167 202 255
167 202 255
167 202 255
167 202 255
167 202 255
167 203 255
167 203 255
167 203 255
168 203 255
168 203 255
168 203 255
168 203 255
168 203 255
168 203 255
168 203 255
168 203 255
168 203 255
168 203 255
168 203 255
169 203 255
169 203 255
169 203 255
169 203 255
169 204 255
169 204 255
169 204 255
169 204 255
169 204 255
169 204 255
169 204 255
169 204 255
170 204 255
170 204 255
170 204 255
170 204 255
170 204 255
170 204 255
170 204 255
170 204 255
170 204 255
170 204 255
170 204 255
170 204 255
171 205 255
171 205 255
171 205 255
171 205 255
171 205 255
171 205 255
171 205 255
171 205 255
171 205 255
171 205 255
171 205 255
171 205 255
171 205 255
172 205 255
172 205 255
172 205 255
172 205 255
172 205 255
172 205 255
172 205 255
172 205 255
172 205 255
172 206 255
172 206 255
172 206 255
172 206 255
173 206 255
173 206 255
173 206 255
173 206 255
173 206 255
173 206 255
173 206 255
173 206 255
173 206 255
173 206 255
173 206 255
173 206 255
173 206 255
173 206 255
173 206 255
174 206 255
174 206 255
174 206 255
174 206 255
174 206 255
174 207 255
174 207 255
174 207 255
174 207 255
174 207 255
174 207 255
174 207 255
174 207 255
175 207 255
174 207 255
174 207 255
174 207 255
174 207 255
174 207 255
174 207 255
174 207 255
174 207 255
174 207 255
174 207 255
174 206 255
174 206 255
174 206 255
174 206 255
174 206 255
174 206 255
173 206 255
173 206 255
173 206 255
173 206 255
173 206 255
173 206 255
173 206 255
173 206 255
173 206 255
173 206 255
173 206 255
173 206 255
173 206 255
173 206 255
172 206 255
172 206 255
172 206 255
172 206 255
172 206 255
172 205 255
172 205 255
172 205 255
172 205 255
172 205 255
172 205 255
172 205 255
172 205 255
172 205 255
171 205 255
171 205 255
171 205 255
171 205 255
171 205 255
171 205 255
171 205 255
171 205 255
171 205 255
171 205 255
171 205 255
171 205 255
171 205 255
170 204 255
170 204 255
170 204 255
170 204 255
170 204 255
170 204 255
170 204 255
170 204 255
170 204 255
170 204 255
170 204 255
170 204 255
169 204 255
169 204 255
169 204 255
169 204 255
169 204 255
169 204 255
169 204 255
169 203 255
169 203 255
169 203 255
169 203 255
168 203 255
168 203 255
168 203 255
168 203 255
168 203 255
168 203 255
168 203 255
168 203 255
168 203 255
168 203 255
168 203 255
167 203 255
167 203 255
167 203 255
167 203 255
167 202 255
167 202 255
167 202 255
167 202 255
167 202 255
167 202 255
167 202 255
166 202 255
166 202 255
166 202 255
166 202 255
166 202 255
166 202 255
166 202 255
166 202 255
166 202 255
166 202 255
166 202 255
165 201 255
165 201 255
165 201 255
165 201 255
165 201 255
165 201 255
165 201 255
165 201 255
165 201 255
165 201 255
165 201 255
164 201 255
164 201 255
164 201 255
164 201 255
164 201 255
164 201 255
164 201 255
164 200 255
164 200 255
164 200 255
164 200 255
163 200 255
163 200 255
163 200 255
163 200 255
163 200 255
163 200 255
163 200 255
163 200 255
163 200 255
163 200 255
163 200 255
163 200 255
162 200 255
162 200 255
162 200 255
162 200 255
162 200 255
162 199 255
162 199 255
162 199 255
162 199 255
162 199 255
162 199 255
162 199 255
162 199 255
162 199 255
161 199 255
161 199 255
161 199 255
161 199 255
161 199 255
161 199 255
161 199 255
161 199 255
161 199 255
161 199 255
161 199 255
161 199 255
161 199 255
161 199 255
161 199 255
161 199 255
161 199 255
161 199 255
161 199 255
161 199 255
153 189 244
132 165 213
117 145 186
99 123 158
81 101 131
78 98 128
77 97 127
78 98 128
78 98 128
79 99 128
79 99 128
79 99 128
79 98 127
79 98 128
78 98 128
81 100 128
80 99 128
80 99 128
78 98 128
79 98 127
79 98 128
77 97 127
80 99 128
79 99 128
78 98 128
79 99 128
78 98 128
79 99 128
79 98 128
78 98 128
79 98 128
80 100 129
94 117 153
111 139 179
137 170 220
155 192 247
161 199 255
161 199 255
161 199 255
161 199 255
161 199 255
161 199 255
161 199 255
161 199 255
161 199 255
161 199 255
161 199 255
161 199 255
161 199 255
161 199 255
161 199 255
161 199 255
161 199 255
161 199 255
161 199 255
161 199 255
162 199 255
162 199 255
162 199 255
162 199 255
162 199 255
162 199 255
162 199 255
162 199 255
162 199 255
162 199 255
162 200 255
162 200 255
162 200 255
162 200 255
163 200 255
163 200 255
163 200 255
163 200 255
163 200 255
163 200 255
163 200 255
163 200 255
163 200 255
163 200 255
163 200 255
163 200 255
164 200 255
164 200 255
164 200 255
164 200 255
164 201 255
164 201 255
164 201 255
164 201 255
164 201 255
164 201 255
164 201 255
165 201 255
165 201 255
165 201 255
165 201 255
165 201 255
165 201 255
165 201 255
165 201 255
165 201 255
165 201 255
165 201 255
166 202 255
166 202 255
166 202 255
166 202 255
166 202 255
166 202 255
166 202 255
166 202 255
166 202 255
166 202 255
166 202 255
167 202 255
167 202 255
167 202 255
167 202 255
167 202 255
167 202 255
167 202 255
167 203 255
167 203 255
167 203 255
167 203 255
168 203 255
168 203 255
168 203 255
168 203 255
168 203 255
168 203 255
168 203 255
168 203 255
168 203 255
168 203 255
168 203 255
169 203 255
169 203 255
169 203 255
169 203 255
169 204 255
169 204 255
169 204 255
169 204 255
169 204 255
169 204 255
169 204 255
170 204 255
170 204 255
170 204 255
170 204 255
170 204 255
170 204 255
170 204 255
170 204 255
170 204 255
170 204 255
170 204 255
170 204 255
171 205 255
171 205 255
171 205 255
171 205 255
171 205 255
171 205 255
171 205 255
171 205 255
171 205 255
171 205 255
171 205 255
171 205 255
171 205 255
172 205 255
172 205 255
172 205 255
172 205 255
172 205 255
172 205 255
172 205 255
172 205 255
172 205 255
172 206 255
172 206 255
172 206 255
172 206 255
173 206 255
173 206 255
173 206 255
173 206 255
173 206 255
173 206 255
173 206 255
173 206 255
173 206 255
173 206 255
173 206 255
173 206 255
173 206 255
173 206 255
173 206 255
174 206 255
174 206 255
174 206 255
174 206 255
174 206 255
174 207 255
174 207 255
174 207 255
174 207 255
174 207 255
174 207 255
174 207 255
174 207 255
174 207 255
174 207 255
174 207 255
175 207 255
175 207 255
175 207 255
175 207 255
175 207 255
175 207 255
174 207 255
174 207 255
174 207 255
174 207 255
174 207 255
174 207 255
174 207 255
174 207 255
174 207 255
174 207 255
174 207 255
174 206 255
174 206 255
174 206 255
174 206 255
174 206 255
173 206 255
173 206 255
173 206 255
173 206 255
173 206 255
173 206 255
173 206 255
173 206 255
173 206 255
173 206 255
173 206 255
173 206 255
173 206 255
173 206 255
172 206 255
172 206 255
172 206 255
172 206 255
172 206 255
172 205 255
172 205 255
172 205 255
172 205 255
172 205 255
172 205 255
172 205 255
172 205 255
172 205 255
171 205 255
171 205 255
171 205 255
171 205 255
171 205 255
171 205 255
171 205 255
171 205 255
171 205 255
171 205 255
171 205 255
171 205 255
170 204 255
170 204 255
170 204 255
170 204 255
170 204 255
170 204 255
170 204 255
170 204 255
170 204 255
170 204 255
170 204 255
170 204 255
169 204 255
169 204 255
169 204 255
169 204 255
169 204 255
169 204 255
169 204 255
169 204 255
169 203 255
169 203 255
169 203 255
169 203 255
168 203 255
168 203 255
168 203 255
168 203 255
168 203 255
168 203 255
168 203 255
168 203 255
168 203 255
168 203 255
168 203 255
167 203 255
167 203 255
167 203 255
167 203 255
167 202 255
167 202 255
167 202 255
167 202 255
167 202 255
167 202 255
167 202 255
166 202 255
166 202 255
166 202 255
166 202 255
166 202 255
166 202 255
166 202 255
166 202 255
166 202 255
166 202 255
165 201 255
165 201 255
165 201 255
165 201 255
165 201 255
165 201 255
165 201 255
165 201 255
165 201 255
165 201 255
165 201 255
165 201 255
164 201 255
164 201 255
164 201 255
164 201 255
164 201 255
164 201 255
164 201 255
164 200 255
164 200 255
164 200 255
164 200 255
163 200 255
163 200 255
163 200 255
163 200 255
163 200 255
163 200 255
163 200 255
163 200 255
163 200 255
163 200 255
163 200 255
163 200 255
163 200 255
162 200 255
162 200 255
162 200 255
162 200 255
162 199 255
162 199 255
162 199 255
162 199 255
162 199 255
162 199 255
162 199 255
162 199 255
162 199 255
162 199 255
162 199 255
162 199 255
161 199 255
161 199 255
161 199 255
161 199 255
161 199 255
161 199 255
161 199 255
161 199 255
161 199 255
161 199 255
153 188 241
127 157 203
102 128 166
80 99 128
76 97 128
77 97 128
78 98 128
78 98 128
79 98 127
80 99 128
82 100 128
82 100 128
82 100 128
83 101 128
80 99 128
81 99 127
80 99 127
79 99 128
81 100 128
81 99 127
82 100 128
79 98 127
79 98 127
78 98 128
80 99 128
80 99 128
80 99 128
80 99 128
78 98 128
79 98 127
79 99 128
79 98 128
80 99 128
81 99 128
79 98 127
79 98 128
78 98 127
80 99 128
77 98 129
98 121 156
130 161 207
149 184 238
161 199 255
161 199 255
161 199 255
161 199 255
161 199 255
161 199 255
161 199 255
161 199 255
161 199 255
161 199 255
162 199 255
162 199 255
162 199 255
162 199 255
162 199 255
162 199 255
162 199 255
162 199 255
162 199 255
162 199 255
162 199 255
162 200 255
162 200 255
162 200 255
162 200 255
162 200 255
163 200 255
163 200 255
163 200 255
163 200 255
163 200 255
163 200 255
163 200 255
163 200 255
163 200 255
163 200 255
163 200 255
163 200 255
163 200 255
164 200 255
164 200 255
164 200 255
164 200 255
164 201 255
164 201 255
164 201 255
164 201 255
164 201 255
164 201 255
164 201 255
165 201 255
165 201 255
165 201 255
165 201 255
165 201 255
165 201 255
165 201 255
165 201 255
165 201 255
165 201 255
165 201 255
166 202 255
166 202 255
166 202 255
166 202 255
166 202 255
166 202 255
166 202 255
166 202 255
166 202 255
166 202 255
166 202 255
167 202 255
167 202 255
167 202 255
167 202 255
167 202 255
167 202 255
167 202 255
167 203 255
167 203 255
167 203 255
167 203 255
168 203 255
168 203 255
168 203 255
168 203 255
168 203 255
168 203 255
168 203 255
168 203 255
168 203 255
168 203 255
168 203 255
169 203 255
169 203 255
169 203 255
169 203 255
169 204 255
169 204 255
169 204 255
169 204 255
169 204 255
169 204 255
169 204 255
169 204 255
170 204 255
170 204 255
170 204 255
170 204 255
170 204 255
170 204 255
170 204 255
170 204 255
170 204 255
170 204 255
170 204 255
170 204 255
171 205 255
171 205 255
171 205 255
171 205 255
171 205 255
171 205 255
171 205 255
171 205 255
171 205 255
171 205 255
171 205 255
171 205 255
172 205 255
172 205 255
172 205 255
172 205 255
172 205 255
172 205 255
172 205 255
172 205 255
172 205 255
172 206 255
172 206 255
172 206 255
172 206 255
173 206 255
173 206 255
173 206 255
173 206 255
173 206 255
173 206 255
173 206 255
173 206 255
173 206 255
173 206 255
173 206 255
173 206 255
173 206 255
173 206 255
173 206 255
174 206 255
174 206 255
174 206 255
174 206 255
174 206 255
174 207 255
174 207 255
174 207 255
174 207 255
174 207 255
174 207 255
174 207 255
174 207 255
174 207 255
174 207 255
174 207 255
175 207 255
175 207 255
175 207 255
175 207 255
175 207 255
175 207 255
175 207 255
175 207 255
175 207 255
175 207 255
175 207 255
175 207 255
175 207 255
175 207 255
174 207 255
174 207 255
174 207 255
174 207 255
174 207 255
174 207 255
174 207 255
174 207 255
174 207 255
174 207 255
174 207 255
174 206 255
174 206 255
174 206 255
174 206 255
174 206 255
173 206 255
173 206 255
173 206 255
173 206 255
173 206 255
173 206 255
173 206 255
173 206 255
173 206 255
173 206 255
173 206 255
173 206 255
173 206 255
173 206 255
172 206 255
172 206 255
172 206 255
172 206 255
172 206 255
172 205 255
172 205 255
172 205 255
172 205 255
172 205 255
172 205 255
172 205 255
172 205 255
172 205 255
171 205 255
171 205 255
171 205 255
171 205 255
171 205 255
171 205 255
171 205 255
171 205 255
171 205 255
171 205 255
171 205 255
171 205 255
170 204 255
170 204 255
170 204 255
170 204 255
170 204 255
170 204 255
170 204 255
170 204 255
170 204 255
170 204 255
170 204 255
170 204 255
169 204 255
169 204 255
169 204 255
169 204 255
169 204 255
169 204 255
169 204 255
169 204 255
169 203 255
169 203 255
169 203 255
169 203 255
168 203 255
168 203 255
168 203 255
168 203 255
168 203 255
168 203 255
168 203 255
168 203 255
168 203 255
168 203 255
168 203 255
167 203 255
167 203 255
167 203 255
167 202 255
167 202 255
167 202 255
167 202 255
167 202 255
167 202 255
167 202 255
167 202 255
166 202 255
166 202 255
166 202 255
166 202 255
166 202 255
166 202 255
166 202 255
166 202 255
166 202 255
166 202 255
165 201 255
165 201 255
165 201 255
165 201 255
165 201 255
165 201 255
165 201 255
165 201 255
165 201 255
165 201 255
165 201 255
165 201 255
164 201 255
164 201 255
164 201 255
164 201 255
164 201 255
164 201 255
164 201 255
164 201 255
164 200 255
164 200 255
164 200 255
164 200 255
163 200 255
163 200 255
163 200 255
163 200 255
163 200 255
163 200 255
163 200 255
163 200 255
163 200 255
163 200 255
163 200 255
163 200 255
163 200 255
162 200 255
162 200 255
162 200 255
162 200 255
162 200 255
162 199 255
162 199 255
162 199 255
162 199 255
162 199 255
162 199 255
162 199 255
162 199 255
162 199 255
162 199 255
162 199 255
162 199 255
162 199 255
152 187 240
126 156 200
91 114 148
82 101 129
79 99 128
82 100 128
79 98 128
80 99 128
82 100 128
80 99 128
80 99 127
81 100 128
81 100 128
81 99 127
80 99 128
79 98 128
79 98 127
82 100 128
80 99 128
81 100 128
80 99 127
81 99 127
80 99 128
81 99 127
81 99 127
81 99 128
82 100 127
79 98 127
82 100 128
80 99 128
79 99 128
80 98 126
81 99 127
79 98 128
79 99 128
78 97 126
79 99 128
79 98 126
79 98 128
79 98 128
80 99 128
79 98 128
80 99 128
79 98 128
81 99 128
95 117 149
134 165 212
152 188 241
162 199 255
162 199 255
162 199 255
162 199 255
162 199 255
162 199 255
162 199 255
162 199 255
162 199 255
162 199 255
162 199 255
162 199 255
162 199 255
162 200 255
162 200 255
162 200 255
162 200 255
162 200 255
163 200 255
163 200 255
163 200 255
163 200 255
163 200 255
163 200 255
163 200 255
163 200 255
163 200 255
163 200 255
163 200 255
163 200 255
163 200 255
164 200 255
164 200 255
164 200 255
164 200 255
164 201 255
164 201 255
164 201 255
164 201 255
164 201 255
164 201 255
164 201 255
164 201 255
165 201 255
165 201 255
165 201 255
165 201 255
165 201 255
165 201 255
165 201 255
165 201 255
165 201 255
165 201 255
165 201 255
165 201 255
166 202 255
166 202 255
166 202 255
166 202 255
166 202 255
166 202 255
166 202 255
166 202 255
166 202 255
166 202 255
166 202 255
167 202 255
167 202 255
167 202 255
167 202 255
167 202 255
167 202 255
167 202 255
167 203 255
167 203 255
167 203 255
167 203 255
168 203 255
168 203 255
168 203 255
168 203 255
168 203 255
168 203 255
168 203 255
168 203 255
168 203 255
168 203 255
169 203 255
169 203 255
169 203 255
169 203 255
169 204 255
169 204 255
169 204 255
169 204 255
169 204 255
169 204 255
169 204 255
169 204 255
170 204 255
170 204 255
170 204 255
170 204 255
170 204 255
170 204 255
170 204 255
170 204 255
170 204 255
170 204 255
170 204 255
170 204 255
171 205 255
171 205 255
171 205 255
171 205 255
171 205 255
171 205 255
171 205 255
171 205 255
171 205 255
171 205 255
171 205 255
171 205 255
171 205 255
172 205 255
172 205 255
172 205 255
172 205 255
172 205 255
172 205 255
172 205 255
172 205 255
172 206 255
172 206 255
172 206 255
172 206 255
172 206 255
173 206 255
173 206 255
173 206 255
173 206 255
173 206 255
173 206 255
173 206 255
173 206 255
173 206 255
173 206 255
173 206 255
173 206 255
173 206 255
173 206 255
174 206 255
174 206 255
174 206 255
174 206 255
174 206 255
174 207 255
174 207 255
174 207 255
174 207 255
174 207 255
174 207 255
174 207 255
174 207 255
174 207 255
174 207 255
174 207 255
175 207 255
175 207 255
175 207 255
175 207 255
175 207 255
175 207 255
175 207 255
175 207 255
175 207 255
175 207 255
175 207 255
175 207 255
175 207 255
175 207 255
175 207 255
175 207 255
175 207 255
175 207 255
175 207 255
175 207 255
175 207 255
175 207 255
175 207 255
174 207 255
174 207 255
174 207 255
174 207 255
174 207 255
174 207 255
174 207 255
174 207 255
174 207 255
174 207 255
174 206 255
174 206 255
174 206 255
174 206 255
174 206 255
173 206 255
173 206 255
173 206 255
173 206 255
173 206 255
173 206 255
173 206 255
173 206 255
173 206 255
173 206 255
173 206 255
173 206 255
173 206 255
173 206 255
172 206 255
172 206 255
172 206 255
172 206 255
172 206 255
172 205 255
172 205 255
172 205 255
172 205 255
172 205 255
172 205 255
172 205 255
172 205 255
171 205 255
171 205 255
171 205 255
171 205 255
171 205 255
171 205 255
171 205 255
171 205 255
171 205 255
171 205 255
171 205 255
171 205 255
171 205 255
170 204 255
170 204 255
170 204 255
170 204 255
170 204 255
170 204 255
170 204 255
170 204 255
170 204 255
170 204 255
170 204 255
170 204 255
169 204 255
169 204 255
169 204 255
169 204 255
169 204 255
169 204 255
169 204 255
169 203 255
169 203 255
169 203 255
169 203 255
168 203 255
168 203 255
168 203 255
168 203 255
168 203 255
168 203 255
168 203 255
168 203 255
168 203 255
168 203 255
168 203 255
167 203 255
167 203 255
167 203 255
167 203 255
167 202 255
167 202 255
167 202 255
167 202 255
167 202 255
167 202 255
167 202 255
166 202 255
166 202 255
166 202 255
166 202 255
166 202 255
166 202 255
166 202 255
166 202 255
166 202 255
166 202 255
166 202 255
165 201 255
165 201 255
165 201 255
165 201 255
165 201 255
165 201 255
165 201 255
165 201 255
165 201 255
165 201 255
165 201 255
165 201 255
164 201 255
164 201 255
164 201 255
164 201 255
164 201 255
164 201 255
164 201 255
164 201 255
164 200 255
164 200 255
164 200 255
164 200 255
164 200 255
163 200 255
163 200 255
163 200 255
163 200 255
163 200 255
163 200 255
163 200 255
163 200 255
163 200 255
163 200 255
163 200 255
163 200 255
163 200 255
163 200 255
163 200 255
162 200 255
162 200 255
162 200 255
162 200 255
162 200 255
162 199 255
162 199 255
162 199 255
162 199 255
145 179 230
113 140 181
83 103 133
78 97 127
81 100 128
78 97 127
79 98 126
80 99 128
80 99 128
80 99 127
79 98 127
82 100 127
80 99 127
81 99 128
77 97 126
80 99 127
80 99 126
80 99 128
79 98 126
82 100 126
79 98 128
80 99 127
79 98 127
83 101 128
81 100 128
80 99 128
80 99 127
80 99 127
79 98 126
80 99 128
78 97 127
80 98 127
81 100 128
81 99 127
80 99 128
80 99 126
79 98 128
81 100 128
81 99 127
80 99 128
81 100 128
84 101 128
79 98 127
79 99 128
81 100 127
80 99 128
79 98 128
79 98 128
79 98 127
81 100 129
107 133 171
135 168 217
162 199 255
162 199 255
162 199 255
162 199 255
162 200 255
162 200 255
162 200 255
162 200 255
162 200 255
162 200 255
163 200 255
163 200 255
163 200 255
163 200 255
163 200 255
163 200 255
163 200 255
163 200 255
163 200 255
163 200 255
163 200 255
163 200 255
163 200 255
163 200 255
164 200 255
164 200 255
164 200 255
164 200 255
164 200 255
164 201 255
164 201 255
164 201 255
164 201 255
164 201 255
164 201 255
164 201 255
164 201 255
165 201 255
165 201 255
165 201 255
165 201 255
165 201 255
165 201 255
165 201 255
165 201 255
165 201 255
165 201 255
165 201 255
165 201 255
166 202 255
166 202 255
166 202 255
166 202 255
166 202 255
166 202 255
166 202 255
166 202 255
166 202 255
166 202 255
166 202 255
167 202 255
167 202 255
167 202 255
167 202 255
167 202 255
167 202 255
167 202 255
167 203 255
167 203 255
167 203 255
167 203 255
168 203 255
168 203 255
168 203 255
168 203 255
168 203 255
168 203 255
168 203 255
168 203 255
168 203 255
168 203 255
168 203 255
169 203 255
169 203 255
169 203 255
169 203 255
169 204 255
169 204 255
169 204 255
169 204 255
169 204 255
169 204 255
169 204 255
170 204 255
170 204 255
170 204 255
170 204 255
170 204 255
170 204 255
170 204 255
170 204 255
170 204 255
170 204 255
170 204 255
170 204 255
171 205 255
171 205 255
171 205 255
171 205 255
171 205 255
171 205 255
171 205 255
171 205 255
171 205 255
171 205 255
171 205 255
171 205 255
171 205 255
172 205 255
172 205 255
172 205 255
172 205 255
172 205 255
172 205 255
172 205 255
172 205 255
172 206 255
172 206 255
172 206 255
172 206 255
172 206 255
173 206 255
173 206 255
173 206 255
173 206 255
173 206 255
173 206 255
173 206 255
173 206 255
173 206 255
173 206 255
173 206 255
173 206 255
173 206 255
173 206 255
174 206 255
174 206 255
174 206 255
174 206 255
174 206 255
174 207 255
174 207 255
174 207 255
174 207 255
174 207 255
174 207 255
174 207 255
174 207 255
174 207 255
174 207 255
175 207 255
175 207 255
175 207 255
175 207 255
175 207 255
175 207 255
175 207 255
175 207 255
175 207 255
175 207 255
175 207 255
175 207 255
175 207 255
175 207 255
176 208 255
175 207 255
175 207 255
175 207 255
175 207 255
175 207 255
175 207 255
175 207 255
175 207 255
175 207 255
175 207 255
175 207 255
175 207 255
175 207 255
175 207 255
175 207 255
175 207 255
175 207 255
174 207 255
174 207 255
174 207 255
174 207 255
174 207 255
174 207 255
174 207 255
174 207 255
174 207 255
174 207 255
174 206 255
174 206 255
174 206 255
174 206 255
174 206 255
173 206 255
173 206 255
173 206 255
173 206 255
173 206 255
173 206 255
173 206 255
173 206 255
173 206 255
173 206 255
173 206 255
173 206 255
173 206 255
173 206 255
172 206 255
172 206 255
172 206 255
172 206 255
172 205 255
172 205 255
172 205 255
172 205 255
172 205 255
172 205 255
172 205 255
172 205 255
172 205 255
171 205 255
171 205 255
171 205 255
171 205 255
171 205 255
171 205 255
171 205 255
171 205 255
171 205 255
171 205 255
171 205 255
171 205 255
171 205 255
170 204 255
170 204 255
170 204 255
170 204 255
170 204 255
170 204 255
170 204 255
170 204 255
170 204 255
170 204 255
170 204 255
170 204 255
169 204 255
169 204 255
169 204 255
169 204 255
169 204 255
169 204 255
169 204 255
169 203 255
169 203 255
169 203 255
169 203 255
168 203 255
168 203 255
168 203 255
168 203 255
168 203 255
168 203 255
168 203 255
168 203 255
168 203 255
168 203 255
168 203 255
167 203 255
167 203 255
167 203 255
167 203 255
167 202 255
167 202 255
167 202 255
167 202 255
167 202 255
167 202 255
167 202 255
166 202 255
166 202 255
166 202 255
166 202 255
166 202 255
166 202 255
166 202 255
166 202 255
166 202 255
166 202 255
166 202 255
166 202 255
165 201 255
165 201 255
165 201 255
165 201 255
165 201 255
165 201 255
165 201 255
165 201 255
165 201 255
165 201 255
165 201 255
165 201 255
164 201 255
164 201 255
164 201 255
164 201 255
164 201 255
164 201 255
164 201 255
164 201 255
164 200 255
164 200 255
164 200 255
164 200 255
164 200 255
163 200 255
163 200 255
163 200 255
163 200 255
163 200 255
163 200 255
163 200 255
163 200 255
163 200 255
163 200 255
163 200 255
163 200 255
163 200 255
163 200 255
163 200 255
163 200 255
161 198 253
145 179 229
95 119 154
80 99 128
80 99 128
79 98 128
82 100 128
80 99 128
79 98 127
81 100 128
80 98 126
79 98 126
80 99 128
80 99 127
80 99 128
79 99 128
83 101 128
79 98 128
81 99 126
80 99 128
79 98 126
82 100 127
79 98 126
81 99 127
81 99 126
80 99 128
82 100 128
80 98 127
81 99 126
85 101 127
81 99 127
77 97 126
82 99 126
80 99 126
83 101 128
80 99 127
83 101 128
80 99 127
78 97 126
80 99 127
79 98 126
81 99 127
79 98 126
82 100 128
81 100 128
79 98 127
79 98 127
79 98 126
81 99 128
81 99 128
78 98 128
81 99 128
79 98 127
82 100 128
79 98 128
95 118 153
135 167 215
162 200 255
163 200 255
163 200 255
163 200 255
163 200 255
163 200 255
163 200 255
163 200 255
163 200 255
163 200 255
163 200 255
163 200 255
163 200 255
163 200 255
163 200 255
163 200 255
163 200 255
164 200 255
164 200 255
164 200 255
164 200 255
164 200 255
164 201 255
164 201 255
164 201 255
164 201 255
164 201 255
164 201 255
164 201 255
164 201 255
164 201 255
165 201 255
165 201 255
165 201 255
165 201 255
165 201 255
165 201 255
165 201 255
165 201 255
165 201 255
165 201 255
165 201 255
166 202 255
166 202 255
166 202 255
166 202 255
166 202 255
166 202 255
166 202 255
166 202 255
166 202 255
166 202 255
166 202 255
166 202 255
167 202 255
167 202 255
167 202 255
167 202 255
167 202 255
167 202 255
167 202 255
167 203 255
167 203 255
167 203 255
167 203 255
168 203 255
168 203 255
168 203 255
168 203 255
168 203 255
168 203 255
168 203 255
168 203 255
168 203 255
168 203 255
168 203 255
169 203 255
169 203 255
169 203 255
169 203 255
169 204 255
169 204 255
169 204 255
169 204 255
169 204 255
169 204 255
169 204 255
170 204 255
170 204 255
170 204 255
170 204 255
170 204 255
170 204 255
170 204 255
170 204 255
170 204 255
170 204 255
170 204 255
170 204 255
171 205 255
171 205 255
171 205 255
171 205 255
171 205 255
171 205 255
171 205 255
171 205 255
171 205 255
171 205 255
171 205 255
171 205 255
171 205 255
172 205 255
172 205 255
172 205 255
172 205 255
172 205 255
172 205 255
172 205 255
172 205 255
172 206 255
172 206 255
172 206 255
172 206 255
172 206 255
173 206 255
173 206 255
173 206 255
173 206 255
173 206 255
173 206 255
173 206 255
173 206 255
173 206 255
173 206 255
173 206 255
173 206 255
173 206 255
173 206 255
174 206 255
174 206 255
174 206 255
174 206 255
174 206 255
174 207 255
174 207 255
174 207 255
174 207 255
174 207 255
174 207 255
174 207 255
174 207 255
174 207 255
174 207 255
175 207 255
175 207 255
175 207 255
175 207 255
175 207 255
175 207 255
175 207 255
175 207 255
175 207 255
175 207 255
175 207 255
175 207 255
175 207 255
175 207 255
175 207 255
175 207 255
175 207 255
176 208 255
176 208 255
176 208 255
176 208 255
176 208 255
176 208 255
176 208 255
175 207 255
175 207 255
175 207 255
175 207 255
175 207 255
175 207 255
175 207 255
175 207 255
175 207 255
175 207 255
175 207 255
175 207 255
175 207 255
175 207 255
175 207 255
175 207 255
174 207 255
174 207 255
174 207 255
174 207 255
174 207 255
174 207 255
174 207 255
174 207 255
174 207 255
174 207 255
174 206 255
174 206 255
174 206 255
174 206 255
174 206 255
173 206 255
173 206 255
173 206 255
173 206 255
173 206 255
173 206 255
173 206 255
173 206 255
173 206 255
173 206 255
173 206 255
173 206 255
173 206 255
173 206 255
172 206 255
172 206 255
172 206 255
172 206 255
172 206 255
172 205 255
172 205 255
172 205 255
172 205 255
172 205 255
172 205 255
172 205 255
172 205 255
171 205 255
171 205 255
171 205 255
171 205 255
171 205 255
171 205 255
171 205 255
171 205 255
171 205 255
171 205 255
171 205 255
171 205 255
171 205 255
170 204 255
170 204 255
170 204 255
170 204 255
170 204 255
170 204 255
170 204 255
170 204 255
170 204 255
170 204 255
170 204 255
169 204 255
169 204 255
169 204 255
169 204 255
169 204 255
169 204 255
169 204 255
169 204 255
169 203 255
169 203 255
169 203 255
169 203 255
168 203 255
168 203 255
168 203 255
168 203 255
168 203 255
168 203 255
168 203 255
168 203 255
168 203 255
168 203 255
168 203 255
167 203 255
167 203 255
167 203 255
167 203 255
167 202 255
167 202 255
167 202 255
167 202 255
167 202 255
167 202 255
167 202 255
166 202 255
166 202 255
166 202 255
166 202 255
166 202 255
166 202 255
166 202 255
166 202 255
166 202 255
166 202 255
166 202 255
166 202 255
165 201 255
165 201 255
165 201 255
165 201 255
165 201 255
165 201 255
165 201 255
165 201 255
165 201 255
165 201 255
165 201 255
165 201 255
164 201 255
164 201 255
164 201 255
164 201 255
164 201 255
164 201 255
164 201 255
164 201 255
164 201 255
164 201 255
164 200 255
164 200 255
164 200 255
164 200 255
164 200 255
163 200 255
163 200 255
163 200 255
163 200 255
163 200 255
163 200 255
163 200 255
163 200 255
162 199 254
137 168 216
89 111 143
78 98 127
80 99 128
79 98 127
78 97 126
80 99 128
81 99 128
80 99 128
83 101 128
81 99 127
81 99 126
82 100 126
78 98 128
80 99 128
80 98 127
82 100 127
79 97 126
81 99 126
81 99 128
81 99 126
78 98 126
84 101 127
82 99 126
82 100 127
82 100 126
81 99 125
79 98 127
82 100 127
80 98 126
78 97 126
79 98 126
80 98 126
82 100 127
81 99 127
83 100 126
79 98 126
80 99 127
78 97 124
83 101 128
79 98 127
83 101 128
80 99 127
82 100 127
82 100 127
79 98 126
78 97 127
81 100 128
79 98 126
80 99 127
81 99 128
81 100 127
79 98 126
81 99 127
81 99 127
80 99 127
80 99 127
80 99 128
97 119 153
130 160 206
163 200 255
163 200 255
163 200 255
163 200 255
163 200 255
163 200 255
163 200 255
163 200 255
163 200 255
163 200 255
164 200 255
164 200 255
164 200 255
164 200 255
164 201 255
164 201 255
164 201 255
164 201 255
164 201 255
164 201 255
164 201 255
164 201 255
164 201 255
164 201 255
165 201 255
165 201 255
165 201 255
165 201 255
165 201 255
165 201 255
165 201 255
165 201 255
165 201 255
165 201 255
165 201 255
165 201 255
166 202 255
166 202 255
166 202 255
166 202 255
166 202 255
166 202 255
166 202 255
166 202 255
166 202 255
166 202 255
166 202 255
167 202 255
167 202 255
167 202 255
167 202 255
167 202 255
167 202 255
167 202 255
167 202 255
167 203 255
167 203 255
167 203 255
167 203 255
168 203 255
168 203 255
168 203 255
168 203 255
168 203 255
168 203 255
168 203 255
168 203 255
168 203 255
168 203 255
168 203 255
169 203 255
169 203 255
169 203 255
169 203 255
169 204 255
169 204 255
169 204 255
169 204 255
169 204 255
169 204 255
169 204 255
169 204 255
170 204 255
170 204 255
170 204 255
170 204 255
170 204 255
170 204 255
170 204 255
170 204 255
170 204 255
170 204 255
170 204 255
171 205 255
171 205 255
171 205 255
171 205 255
171 205 255
171 205 255
171 205 255
171 205 255
171 205 255
171 205 255
171 205 255
171 205 255
171 205 255
172 205 255
172 205 255
172 205 255
172 205 255
172 205 255
172 205 255
172 205 255
172 205 255
172 206 255
172 206 255
172 206 255
172 206 255
172 206 255
173 206 255
173 206 255
173 206 255
173 206 255
173 206 255
173 206 255
173 206 255
173 206 255
173 206 255
173 206 255
173 206 255
173 206 255
173 206 255
173 206 255
174 206 255
174 206 255
174 206 255
174 206 255
174 206 255
174 207 255
174 207 255
174 207 255
174 207 255
174 207 255
174 207 255
174 207 255
174 207 255
174 207 255
174 207 255
175 207 255
175 207 255
175 207 255
175 207 255
175 207 255
175 207 255
175 207 255
175 207 255
175 207 255
175 207 255
175 207 255
175 207 255
175 207 255
175 207 255
175 207 255
175 207 255
176 208 255
176 208 255
176 208 255
176 208 255
176 208 255
176 208 255
176 208 255
176 208 255
176 208 255
176 208 255
176 208 255
176 208 255
176 208 255
176 208 255
176 208 255
176 208 255
175 207 255
175 207 255
175 207 255
175 207 255
175 207 255
175 207 255
175 207 255
175 207 255
175 207 255
175 207 255
175 207 255
175 207 255
175 207 255
175 207 255
175 207 255
175 207 255
175 207 255
174 207 255
174 207 255
174 207 255
174 207 255
174 207 255
174 207 255
174 207 255
174 207 255
174 207 255
174 206 255
174 206 255
174 206 255
174 206 255
174 206 255
173 206 255
173 206 255
173 206 255
173 206 255
173 206 255
173 206 255
173 206 255
173 206 255
173 206 255
173 206 255
173 206 255
173 206 255
173 206 255
173 206 255
172 206 255
172 206 255
172 206 255
172 206 255
172 206 255
172 205 255
172 205 255
172 205 255
172 205 255
172 205 255
172 205 255
172 205 255
172 205 255
171 205 255
171 205 255
171 205 255
171 205 255
171 205 255
171 205 255
171 205 255
171 205 255
171 205 255
171 205 255
171 205 255
171 205 255
170 204 255
170 204 255
170 204 255
170 204 255
170 204 255
170 204 255
170 204 255
170 204 255
170 204 255
170 204 255
170 204 255
170 204 255
169 204 255
169 204 255
169 204 255
169 204 255
169 204 255
169 204 255
169 204 255
169 204 255
169 203 255
169 203 255
169 203 255
169 203 255
168 203 255
168 203 255
168 203 255
168 203 255
168 203 255
168 203 255
168 203 255
168 203 255
168 203 255
168 203 255
168 203 255
167 203 255
167 203 255
167 203 255
167 203 255
167 202 255
167 202 255
167 202 255
167 202 255
167 202 255
167 202 255
167 202 255
167 202 255
166 202 255
166 202 255
166 202 255
166 202 255
166 202 255
166 202 255
166 202 255
166 202 255
166 202 255
166 202 255
166 202 255
165 201 255
165 201 255
165 201 255
165 201 255
165 201 255
165 201 255
165 201 255
165 201 255
165 201 255
165 201 255
165 201 255
165 201 255
165 201 255
165 201 255
164 201 255
164 201 255
164 201 255
164 201 255
164 201 255
164 201 255
164 201 255
164 201 255
164 201 255
164 200 255
164 200 255
164 200 255
164 200 255
164 200 255
164 200 255
163 200 255
135 166 213
92 114 147
79 98 126
79 98 127
80 99 127
83 101 128
78 96 125
82 100 127
81 99 127
80 98 126
81 99 127
80 99 126
83 101 128
81 99 128
80 98 127
79 98 126
81 99 126
81 99 126
80 98 126
82 100 128
79 98 127
82 100 127
81 99 127
81 100 127
79 97 124
82 100 126
84 101 127
80 98 126
81 99 127
81 99 126
82 100 128
80 99 126
81 99 127
82 100 126
81 99 126
78 97 126
80 99 127
82 100 127
82 100 128
82 100 128
83 99 124
81 99 127
81 99 126
80 98 126
79 97 126
79 98 126
82 100 128
82 100 127
84 101 128
78 97 126
81 99 128
81 100 128
80 99 127
80 98 127
81 99 127
81 99 127
82 100 126
80 99 128
81 99 128
80 99 128
79 98 128
78 98 128
89 110 143
144 176 225
163 200 255
164 200 255
164 200 255
164 200 255
164 200 255
164 200 255
164 200 255
164 201 255
164 201 255
164 201 255
164 201 255
164 201 255
164 201 255
164 201 255
164 201 255
164 201 255
164 201 255
165 201 255
165 201 255
165 201 255
165 201 255
165 201 255
165 201 255
165 201 255
165 201 255
165 201 255
165 201 255
165 201 255
165 201 255
165 201 255
166 202 255
166 202 255
166 202 255
166 202 255
166 202 255
166 202 255
166 202 255
166 202 255
166 202 255
166 202 255
166 202 255
167 202 255
167 202 255
167 202 255
167 202 255
167 202 255
167 202 255
167 202 255
167 202 255
167 203 255
167 203 255
167 203 255
167 203 255
168 203 255
168 203 255
168 203 255
168 203 255
168 203 255
168 203 255
168 203 255
168 203 255
168 203 255
168 203 255
168 203 255
169 203 255
169 203 255
169 203 255
169 203 255
169 204 255
169 204 255
169 204 255
169 204 255
169 204 255
169 204 255
169 204 255
169 204 255
170 204 255
170 204 255
170 204 255
170 204 255
170 204 255
170 204 255
170 204 255
170 204 255
170 204 255
170 204 255
170 204 255
170 204 255
171 205 255
171 205 255
171 205 255
171 205 255
171 205 255
171 205 255
171 205 255
171 205 255
171 205 255
171 205 255
171 205 255
171 205 255
172 205 255
172 205 255
172 205 255
172 205 255
172 205 255
172 205 255
172 205 255
172 205 255
172 206 255
172 206 255
172 206 255
172 206 255
172 206 255
173 206 255
173 206 255
173 206 255
173 206 255
173 206 255
173 206 255
173 206 255
173 206 255
173 206 255
173 206 255
173 206 255
173 206 255
173 206 255
173 206 255
174 206 255
174 206 255
174 206 255
174 206 255
174 206 255
174 207 255
174 207 255
174 207 255
174 207 255
174 207 255
174 207 255
174 207 255
174 207 255
174 207 255
174 207 255
175 207 255
175 207 255
175 207 255
175 207 255
175 207 255
175 207 255
175 207 255
175 207 255
175 207 255
175 207 255
175 207 255
175 207 255
175 207 255
175 207 255
175 207 255
175 207 255
176 208 255
176 208 255
176 208 255
176 208 255
176 208 255
176 208 255
176 208 255
176 208 255
176 208 255
176 208 255
176 208 255
176 208 255
176 208 255
176 208 255
176 208 255
176 208 255
176 208 255
176 208 255
176 208 255
176 208 255
176 208 255
176 208 255
176 208 255
176 208 255
176 208 255
175 207 255
175 207 255
175 207 255
175 207 255
175 207 255
175 207 255
175 207 255
175 207 255
175 207 255
175 207 255
175 207 255
175 207 255
175 207 255
175 207 255
175 207 255
174 207 255
174 207 255
174 207 255
174 207 255
174 207 255
174 207 255
174 207 255
174 207 255
174 207 255
174 207 255
174 207 255
174 206 255
174 206 255
174 206 255
174 206 255
174 206 255
173 206 255
173 206 255
173 206 255
173 206 255
173 206 255
173 206 255
173 206 255
173 206 255
173 206 255
173 206 255
173 206 255
173 206 255
173 206 255
172 206 255
172 206 255
172 206 255
172 206 255
172 206 255
172 205 255
172 205 255
172 205 255
172 205 255
172 205 255
172 205 255
172 205 255
172 205 255
171 205 255
171 205 255
171 205 255
171 205 255
171 205 255
171 205 255
171 205 255
171 205 255
171 205 255
171 205 255
171 205 255
171 205 255
171 205 255
170 204 255
170 204 255
170 204 255
170 204 255
170 204 255
170 204 255
170 204 255
170 204 255
170 204 255
170 204 255
170 204 255
169 204 255
169 204 255
169 204 255
169 204 255
169 204 255
169 204 255
169 204 255
169 204 255
169 203 255
169 203 255
169 203 255
169 203 255
168 203 255
168 203 255
168 203 255
168 203 255
168 203 255
168 203 255
168 203 255
168 203 255
168 203 255
168 203 255
168 203 255
167 203 255
167 203 255
167 203 255
167 203 255
167 202 255
167 202 255
167 202 255
167 202 255
167 202 255
167 202 255
167 202 255
167 202 255
166 202 255
166 202 255
166 202 255
166 202 255
166 202 255
166 202 255
166 202 255
166 202 255
166 202 255
166 202 255
166 202 255
166 202 255
165 201 255
165 201 255
165 201 255
165 201 255
165 201 255
165 201 255
165 201 255
165 201 255
165 201 255
165 201 255
165 201 255
165 201 255
165 201 255
165 201 255
164 201 255
164 201 255
164 201 255
164 201 255
164 201 255
164 201 255
164 201 255
164 201 255
164 201 255
151 185 236
103 127 162
80 99 128
80 99 128
81 100 128
80 99 128
81 99 128
81 99 126
81 99 126
80 99 127
80 99 127
82 100 128
78 97 126
80 99 126
81 99 127
81 99 125
84 101 128
80 99 127
79 98 126
83 101 128
79 98 126
81 98 125
81 99 126
81 99 127
81 99 126
84 101 126
79 98 126
80 99 127
83 100 127
81 100 127
82 100 128
82 99 125
80 99 126
81 98 125
83 100 126
82 100 128
80 98 126
82 100 127
81 99 127
82 100 126
81 99 125
80 99 127
83 100 126
79 99 128
81 99 126
82 100 127
81 100 128
79 97 124
81 99 127
80 98 125
85 102 127
81 99 126
81 99 126
82 100 128
83 100 127
81 99 127
81 99 127
83 100 127
81 99 126
80 98 126
81 99 127
82 100 128
79 98 127
81 100 128
81 100 128
82 100 127
105 128 163
153 187 238
164 201 255
164 201 255
164 201 255
164 201 255
164 201 255
164 201 255
164 201 255
164 201 255
164 201 255
165 201 255
165 201 255
165 201 255
165 201 255
165 201 255
165 201 255
165 201 255
165 201 255
165 201 255
165 201 255
165 201 255
165 201 255
165 201 255
165 201 255
166 202 255
166 202 255
166 202 255
166 202 255
166 202 255
166 202 255
166 202 255
166 202 255
166 202 255
166 202 255
166 202 255
166 202 255
167 202 255
167 202 255
167 202 255
167 202 255
167 202 255
167 202 255
167 202 255
167 202 255
167 203 255
167 203 255
167 203 255
167 203 255
168 203 255
168 203 255
168 203 255
168 203 255
168 203 255
168 203 255
168 203 255
168 203 255
168 203 255
168 203 255
168 203 255
169 203 255
169 203 255
169 203 255
169 203 255
169 204 255
169 204 255
169 204 255
169 204 255
169 204 255
169 204 255
169 204 255
169 204 255
170 204 255
170 204 255
170 204 255
170 204 255
170 204 255
170 204 255
170 204 255
170 204 255
170 204 255
170 204 255
170 204 255
171 205 255
171 205 255
171 205 255
171 205 255
171 205 255
171 205 255
171 205 255
171 205 255
171 205 255
171 205 255
171 205 255
171 205 255
171 205 255
172 205 255
172 205 255
172 205 255
172 205 255
172 205 255
172 205 255
172 205 255
172 205 255
172 206 255
172 206 255
172 206 255
172 206 255
172 206 255
173 206 255
173 206 255
173 206 255
173 206 255
173 206 255
173 206 255
173 206 255
173 206 255
173 206 255
173 206 255
173 206 255
173 206 255
173 206 255
173 206 255
174 206 255
174 206 255
174 206 255
174 206 255
174 207 255
174 207 255
174 207 255
174 207 255
174 207 255
174 207 255
174 207 255
174 207 255
174 207 255
174 207 255
175 207 255
175 207 255
175 207 255
175 207 255
175 207 255
175 207 255
175 207 255
175 207 255
175 207 255
175 207 255
175 207 255
175 207 255
175 207 255
175 207 255
175 207 255
175 207 255
175 207 255
176 208 255
176 208 255
176 208 255
176 208 255
176 208 255
176 208 255
176 208 255
176 208 255
176 208 255
176 208 255
176 208 255
176 208 255
176 208 255
176 208 255
177 208 255
176 208 255
176 208 255
176 208 255
176 208 255
176 208 255
176 208 255
176 208 255
176 208 255
176 208 255
176 208 255
176 208 255
176 208 255
176 208 255
176 208 255
176 208 255
176 208 255
176 208 255
176 208 255
175 207 255
175 207 255
175 207 255
175 207 255
175 207 255
175 207 255
175 207 255
175 207 255
175 207 255
175 207 255
175 207 255
175 207 255
175 207 255
175 207 255
175 207 255
175 207 255
174 207 255
174 207 255
174 207 255
174 207 255
174 207 255
174 207 255
174 207 255
174 207 255
174 207 255
174 207 255
174 206 255
174 206 255
174 206 255
174 206 255
174 206 255
173 206 255
173 206 255
173 206 255
173 206 255
173 206 255
173 206 255
173 206 255
173 206 255
173 206 255
173 206 255
173 206 255
173 206 255
173 206 255
172 206 255
172 206 255
172 206 255
172 206 255
172 206 255
172 205 255
172 205 255
172 205 255
172 205 255
172 205 255
172 205 255
172 205 255
172 205 255
171 205 255
171 205 255
171 205 255
171 205 255
171 205 255
171 205 255
171 205 255
171 205 255
171 205 255
171 205 255
171 205 255
171 205 255
170 204 255
170 204 255
170 204 255
170 204 255
170 204 255
170 204 255
170 204 255
170 204 255
170 204 255
170 204 255
170 204 255
170 204 255
169 204 255
169 204 255
169 204 255
169 204 255
169 204 255
169 204 255
169 204 255
169 204 255
169 203 255
169 203 255
169 203 255
169 203 255
168 203 255
168 203 255
168 203 255
168 203 255
168 203 255
168 203 255
168 203 255
168 203 255
168 203 255
168 203 255
168 203 255
168 203 255
167 203 255
167 203 255
167 203 255
167 203 255
167 202 255
167 202 255
167 202 255
167 202 255
167 202 255
167 202 255
167 202 255
166 202 255
166 202 255
166 202 255
166 202 255
166 202 255
166 202 255
166 202 255
166 202 255
166 202 255
166 202 255
166 202 255
166 202 255
166 202 255
166 202 255
165 201 255
165 201 255
165 201 255
165 201 255
165 201 255
165 201 255
165 201 255
165 201 255
165 201 255
165 201 255
165 201 255
165 201 255
165 201 255
165 201 255
165 201 255
161 197 250
124 151 192
81 100 128
79 98 127
80 99 126
82 100 128
80 99 127
79 98 126
78 97 126
79 98 127
81 99 128
82 100 128
79 98 126
79 98 127
80 98 125
81 99 126
79 97 124
79 98 126
81 98 125
83 100 126
82 100 127
83 100 127
81 99 126
82 100 127
82 99 126
82 100 127
81 99 126
80 98 125
81 98 125
81 99 127
81 99 126
80 99 127
82 100 127
83 100 126
79 97 123
80 98 125
80 98 126
83 101 128
81 99 126
82 100 127
80 98 126
83 100 126
83 100 126
81 99 126
82 100 126
79 98 126
81 99 125
83 101 127
79 98 125
82 99 126
80 99 126
82 99 125
82 100 126
81 99 128
82 100 128
82 99 123
79 97 125
80 98 125
80 98 126
80 98 126
81 99 126
81 99 127
82 100 126
81 99 126
81 99 127
77 97 126
80 99 126
81 100 128
80 99 128
83 101 129
121 149 190
162 198 252
165 201 255
165 201 255
165 201 255
165 201 255
165 201 255
165 201 255
165 201 255
165 201 255
165 201 255
165 201 255
165 201 255
165 201 255
165 201 255
165 201 255
165 201 255
166 202 255
166 202 255
166 202 255
166 202 255
166 202 255
166 202 255
166 202 255
166 202 255
166 202 255
166 202 255
166 202 255
166 202 255
166 202 255
167 202 255
167 202 255
167 202 255
167 202 255
167 202 255
167 202 255
167 202 255
167 202 255
167 203 255
167 203 255
167 203 255
167 203 255
168 203 255
168 203 255
168 203 255
168 203 255
168 203 255
168 203 255
168 203 255
168 203 255
168 203 255
168 203 255
168 203 255
168 203 255
169 203 255
169 203 255
169 203 255
169 203 255
169 204 255
169 204 255
169 204 255
169 204 255
169 204 255
169 204 255
169 204 255
169 204 255
170 204 255
170 204 255
170 204 255
170 204 255
170 204 255
170 204 255
170 204 255
170 204 255
170 204 255
170 204 255
170 204 255
171 205 255
171 205 255
171 205 255
171 205 255
171 205 255
171 205 255
171 205 255
171 205 255
171 205 255
171 205 255
171 205 255
171 205 255
171 205 255
172 205 255
172 205 255
172 205 255
172 205 255
172 205 255
172 205 255
172 205 255
172 205 255
172 206 255
172 206 255
172 206 255
172 206 255
173 206 255
173 206 255
173 206 255
173 206 255
173 206 255
173 206 255
173 206 255
173 206 255
173 206 255
173 206 255
173 206 255
173 206 255
173 206 255
173 206 255
174 206 255
174 206 255
174 206 255
174 206 255
174 206 255
174 207 255
174 207 255
174 207 255
174 207 255
174 207 255
174 207 255
174 207 255
174 207 255
174 207 255
174 207 255
175 207 255
175 207 255
175 207 255
175 207 255
175 207 255
175 207 255
175 207 255
175 207 255
175 207 255
175 207 255
175 207 255
175 207 255
175 207 255
175 207 255
175 207 255
175 207 255
176 208 255
176 208 255
176 208 255
176 208 255
176 208 255
176 208 255
176 208 255
176 208 255
176 208 255
176 208 255
176 208 255
176 208 255
176 208 255
176 208 255
176 208 255
176 208 255
176 208 255
177 208 255
177 208 255
177 208 255
177 208 255
177 208 255
177 208 255
177 208 255
177 208 255
176 208 255
176 208 255
176 208 255
176 208 255
176 208 255
176 208 255
176 208 255
176 208 255
176 208 255
176 208 255
176 208 255
176 208 255
176 208 255
176 208 255
176 208 255
176 208 255
176 208 255
176 208 255
175 207 255
175 207 255
175 207 255
175 207 255
175 207 255
175 207 255
175 207 255
175 207 255
175 207 255
175 207 255
175 207 255
175 207 255
175 207 255
175 207 255
175 207 255
175 207 255
174 207 255
174 207 255
174 207 255
174 207 255
174 207 255
174 207 255
174 207 255
174 207 255
174 207 255
174 206 255
174 206 255
174 206 255
174 206 255
174 206 255
173 206 255
173 206 255
173 206 255
173 206 255
173 206 255
173 206 255
173 206 255
173 206 255
173 206 255
173 206 255
173 206 255
173 206 255
173 206 255
173 206 255
172 206 255
172 206 255
172 206 255
172 206 255
172 205 255
172 205 255
172 205 255
172 205 255
172 205 255
172 205 255
172 205 255
172 205 255
171 205 255
171 205 255
171 205 255
171 205 255
171 205 255
171 205 255
171 205 255
171 205 255
171 205 255
171 205 255
171 205 255
171 205 255
171 205 255
170 204 255
170 204 255
170 204 255
170 204 255
170 204 255
170 204 255
170 204 255
170 204 255
170 204 255
170 204 255
170 204 255
170 204 255
169 204 255
169 204 255
169 204 255
169 204 255
169 204 255
169 204 255
169 204 255
169 203 255
169 203 255
169 203 255
169 203 255
168 203 255
168 203 255
168 203 255
168 203 255
168 203 255
168 203 255
168 203 255
168 203 255
168 203 255
168 203 255
168 203 255
168 203 255
167 203 255
167 203 255
167 203 255
167 203 255
167 202 255
167 202 255
167 202 255
167 202 255
167 202 255
167 202 255
167 202 255
167 202 255
166 202 255
166 202 255
166 202 255
166 202 255
166 202 255
166 202 255
166 202 255
166 202 255
166 202 255
166 202 255
166 202 255
166 202 255
166 202 255
166 202 255
165 201 255
165 201 255
165 201 255
165 201 255
165 201 255
165 201 255
165 201 255
165 201 255
165 201 255
146 179 227
97 119 152
79 98 126
79 98 126
80 99 127
82 100 128
81 99 127
82 100 126
81 99 127
79 98 126
81 99 126
82 100 127
82 100 126
80 98 126
82 100 127
82 100 127
81 99 126
79 98 126
83 101 128
80 98 126
84 101 126
82 100 126
80 98 126
82 100 126
80 98 126
78 96 122
82 100 127
81 98 125
81 99 126
81 99 125
80 98 126
82 99 125
80 99 126
81 99 126
81 99 125
80 98 124
81 99 126
80 99 127
83 100 127
81 99 126
80 99 126
82 99 126
80 98 125
82 100 128
84 101 126
82 100 127
79 98 126
82 99 126
82 100 127
79 98 125
81 99 125
81 99 127
84 100 126
81 99 124
83 100 127
83 101 128
82 99 125
79 97 124
83 101 127
82 100 127
84 101 126
82 99 126
81 99 126
83 100 126
81 98 125
79 98 126
81 99 127
78 97 126
80 99 126
81 99 127
80 99 127
80 98 126
87 108 141
148 181 230
165 201 255
165 201 255
165 201 255
165 201 255
165 201 255
165 201 255
165 201 255
165 201 255
165 201 255
166 202 255
166 202 255
166 202 255
166 202 255
166 202 255
166 202 255
166 202 255
166 202 255
166 202 255
166 202 255
166 202 255
166 202 255
166 202 255
166 202 255
167 202 255
167 202 255
167 202 255
167 202 255
167 202 255
167 202 255
167 202 255
167 202 255
167 203 255
167 203 255
167 203 255
167 203 255
168 203 255
168 203 255
168 203 255
168 203 255
168 203 255
168 203 255
168 203 255
168 203 255
168 203 255
168 203 255
168 203 255
168 203 255
169 203 255
169 203 255
169 203 255
169 203 255
169 204 255
169 204 255
169 204 255
169 204 255
169 204 255
169 204 255
169 204 255
170 204 255
170 204 255
170 204 255
170 204 255
170 204 255
170 204 255
170 204 255
170 204 255
170 204 255
170 204 255
170 204 255
170 204 255
171 205 255
171 205 255
171 205 255
171 205 255
171 205 255
171 205 255
171 205 255
171 205 255
171 205 255
171 205 255
171 205 255
171 205 255
171 205 255
172 205 255
172 205 255
172 205 255
172 205 255
172 205 255
172 205 255
172 205 255
172 205 255
172 206 255
172 206 255
172 206 255
172 206 255
173 206 255
173 206 255
173 206 255
173 206 255
173 206 255
173 206 255
173 206 255
173 206 255
173 206 255
173 206 255
173 206 255
173 206 255
173 206 255
173 206 255
174 206 255
174 206 255
174 206 255
174 206 255
174 207 255
174 207 255
174 207 255
174 207 255
174 207 255
174 207 255
174 207 255
174 207 255
174 207 255
174 207 255
175 207 255
175 207 255
175 207 255
175 207 255
175 207 255
175 207 255
175 207 255
175 207 255
175 207 255
175 207 255
175 207 255
175 207 255
175 207 255
175 207 255
175 207 255
175 207 255
176 208 255
176 208 255
176 208 255
176 208 255
176 208 255
176 208 255
176 208 255
176 208 255
176 208 255
176 208 255
176 208 255
176 208 255
176 208 255
176 208 255
176 208 255
176 208 255
176 208 255
176 208 255
177 208 255
177 208 255
177 208 255
177 208 255
177 208 255
177 208 255
177 208 255
177 208 255
177 208 255
177 208 255
177 208 255
177 208 255
177 208 255
177 208 255
177 208 255
177 208 255
177 208 255
176 208 255
176 208 255
176 208 255
176 208 255
176 208 255
176 208 255
176 208 255
176 208 255
176 208 255
176 208 255
176 208 255
176 208 255
176 208 255
176 208 255
176 208 255
176 208 255
176 208 255
175 207 255
175 207 255
175 207 255
175 207 255
175 207 255
175 207 255
175 207 255
175 207 255
175 207 255
175 207 255
175 207 255
175 207 255
175 207 255
175 207 255
175 207 255
175 207 255
174 207 255
174 207 255
174 207 255
174 207 255
174 207 255
174 207 255
174 207 255
174 207 255
174 207 255
174 207 255
174 206 255
174 206 255
174 206 255
174 206 255
173 206 255
173 206 255
173 206 255
173 206 255
173 206 255
173 206 255
173 206 255
173 206 255
173 206 255
173 206 255
173 206 255
173 206 255
173 206 255
173 206 255
172 206 255
172 206 255
172 206 255
172 206 255
172 205 255
172 205 255
172 205 255
172 205 255
172 205 255
172 205 255
172 205 255
172 205 255
172 205 255
171 205 255
171 205 255
171 205 255
171 205 255
171 205 255
171 205 255
171 205 255
171 205 255
171 205 255
171 205 255
171 205 255
171 205 255
170 204 255
170 204 255
170 204 255
170 204 255
170 204 255
170 204 255
170 204 255
170 204 255
170 204 255
170 204 255
170 204 255
170 204 255
169 204 255
169 204 255
169 204 255
169 204 255
169 204 255
169 204 255
169 204 255
169 204 255
169 203 255
169 203 255
169 203 255
169 203 255
168 203 255
168 203 255
168 203 255
168 203 255
168 203 255
168 203 255
168 203 255
168 203 255
168 203 255
168 203 255
168 203 255
168 203 255
167 203 255
167 203 255
167 203 255
167 203 255
167 202 255
167 202 255
167 202 255
167 202 255
167 202 255
167 202 255
167 202 255
167 202 255
167 202 255
166 202 255
166 202 255
166 202 255
166 202 255
166 202 255
166 202 255
166 202 255
166 202 255
166 202 255
166 202 255
166 202 255
166 202 255
166 202 255
166 202 255
166 202 255
164 200 254
118 145 185
82 101 128
82 100 128
82 100 127
82 100 128
81 99 127
83 101 127
79 97 124
80 98 126
81 99 127
81 100 128
81 99 126
84 101 128
81 99 125
81 98 125
83 101 127
82 100 128
81 99 126
78 97 124
81 98 125
81 99 127
81 99 126
80 98 126
80 98 124
83 100 126
82 100 126
79 98 125
80 98 126
81 100 127
82 100 126
85 102 128
82 99 124
83 100 126
81 99 126
79 98 126
82 100 127
81 99 125
81 100 127
82 98 123
82 100 126
81 99 124
82 100 126
80 98 126
83 100 127
80 98 126
80 98 126
78 98 127
82 100 127
83 100 127
80 98 126
79 98 126
80 98 126
82 100 127
82 99 124
79 98 127
83 101 127
82 99 125
80 99 127
83 101 127
82 100 127
79 98 126
79 98 125
78 97 126
81 100 128
84 101 127
79 97 125
82 99 126
82 100 127
81 99 127
80 99 127
80 99 127
81 99 126
81 99 126
81 99 127
79 98 127
123 150 190
164 199 253
166 202 255
166 202 255
166 202 255
166 202 255
166 202 255
166 202 255
166 202 255
166 202 255
166 202 255
166 202 255
166 202 255
166 202 255
166 202 255
166 202 255
166 202 255
167 202 255
167 202 255
167 202 255
167 202 255
167 202 255
167 202 255
167 202 255
167 202 255
167 202 255
167 203 255
167 203 255
167 203 255
167 203 255
168 203 255
168 203 255
168 203 255
168 203 255
168 203 255
168 203 255
168 203 255
168 203 255
168 203 255
168 203 255
168 203 255
168 203 255
169 203 255
169 203 255
169 203 255
169 203 255
169 204 255
169 204 255
169 204 255
169 204 255
169 204 255
169 204 255
169 204 255
169 204 255
170 204 255
170 204 255
170 204 255
170 204 255
170 204 255
170 204 255
170 204 255
170 204 255
170 204 255
170 204 255
170 204 255
170 204 255
171 205 255
171 205 255
171 205 255
171 205 255
171 205 255
171 205 255
171 205 255
171 205 255
171 205 255
171 205 255
171 205 255
171 205 255
172 205 255
172 205 255
172 205 255
172 205 255
172 205 255
172 205 255
172 205 255
172 205 255
172 205 255
172 206 255
172 206 255
172 206 255
172 206 255
173 206 255
173 206 255
173 206 255
173 206 255
173 206 255
173 206 255
173 206 255
173 206 255
173 206 255
173 206 255
173 206 255
173 206 255
173 206 255
173 206 255
174 206 255
174 206 255
174 206 255
174 206 255
174 207 255
174 207 255
174 207 255
174 207 255
174 207 255
174 207 255
174 207 255
174 207 255
174 207 255
174 207 255
175 207 255
175 207 255
175 207 255
175 207 255
175 207 255
175 207 255
175 207 255
175 207 255
175 207 255
175 207 255
175 207 255
175 207 255
175 207 255
175 207 255
175 207 255
175 207 255
176 208 255
176 208 255
176 208 255
176 208 255
176 208 255
176 208 255
176 208 255
176 208 255
176 208 255
176 208 255
176 208 255
176 208 255
176 208 255
176 208 255
176 208 255
176 208 255
176 208 255
177 208 255
177 208 255
177 208 255
177 208 255
177 208 255
177 208 255
177 208 255
177 208 255
177 208 255
177 208 255
177 208 255
177 209 255
177 209 255
177 209 255
177 209 255
177 208 255
177 208 255
177 208 255
177 208 255
177 208 255
177 208 255
177 208 255
177 208 255
177 208 255
177 208 255
177 208 255
177 208 255
176 208 255
176 208 255
176 208 255
176 208 255
176 208 255
176 208 255
176 208 255
176 208 255
176 208 255
176 208 255
176 208 255
176 208 255
176 208 255
176 208 255
176 208 255
176 208 255
176 208 255
175 207 255
175 207 255
175 207 255
175 207 255
175 207 255
175 207 255
175 207 255
175 207 255
175 207 255
175 207 255
175 207 255
175 207 255
175 207 255
175 207 255
175 207 255
175 207 255
174 207 255
174 207 255
174 207 255
174 207 255
174 207 255
174 207 255
174 207 255
174 207 255
174 207 255
174 206 255
174 206 255
174 206 255
174 206 255
174 206 255
173 206 255
173 206 255
173 206 255
173 206 255
173 206 255
173 206 255
173 206 255
173 206 255
173 206 255
173 206 255
173 206 255
173 206 255
173 206 255
172 206 255
172 206 255
172 206 255
172 206 255
172 205 255
172 205 255
172 205 255
172 205 255
172 205 255
172 205 255
172 205 255
172 205 255
172 205 255
171 205 255
171 205 255
171 205 255
171 205 255
171 205 255
171 205 255
171 205 255
171 205 255
171 205 255
171 205 255
171 205 255
171 205 255
170 204 255
170 204 255
170 204 255
170 204 255
170 204 255
170 204 255
170 204 255
170 204 255
170 204 255
170 204 255
170 204 255
170 204 255
169 204 255
169 204 255
169 204 255
169 204 255
169 204 255
169 204 255
169 204 255
169 204 255
169 203 255
169 203 255
169 203 255
169 203 255
168 203 255
168 203 255
168 203 255
168 203 255
168 203 255
168 203 255
168 203 255
168 203 255
168 203 255
168 203 255
168 203 255
168 203 255
168 203 255
167 203 255
167 203 255
167 203 255
167 203 255
167 202 255
167 202 255
167 202 255
167 202 255
167 202 255
167 202 255
167 202 255
167 202 255
167 202 255
166 202 255
166 202 255
166 202 255
166 202 255
166 202 255
166 202 255
166 202 255
166 202 255
166 202 255
158 192 243
104 127 161
80 98 126
81 99 126
83 100 127
78 97 125
84 101 127
82 99 126
83 100 126
83 101 128
80 98 126
78 97 125
84 102 128
82 100 127
80 99 127
79 97 124
81 98 124
81 99 126
80 98 126
83 100 125
82 99 125
80 98 126
81 99 126
83 100 125
79 98 125
80 98 126
81 99 126
81 99 126
84 101 126
80 98 125
83 100 126
83 99 125
83 100 126
84 101 126
83 101 127
83 100 126
79 96 123
83 101 128
80 98 124
81 99 126
83 100 126
78 97 124
82 100 126
80 98 125
81 98 125
83 99 124
81 97 121
81 98 125
81 99 125
81 99 125
82 100 127
81 98 124
80 97 124
81 99 125
81 99 126
82 99 124
83 100 126
82 99 125
82 100 127
82 100 127
81 99 126
81 98 124
82 100 126
80 98 124
81 98 124
83 100 126
81 98 124
81 98 125
78 97 124
80 98 126
81 98 125
81 99 126
79 97 124
78 97 125
81 99 126
81 99 126
79 98 126
79 98 126
102 124 157
155 189 240
166 202 255
166 202 255
166 202 255
166 202 255
166 202 255
166 202 255
166 202 255
166 202 255
166 202 255
167 202 255
167 202 255
167 202 255
167 202 255
167 202 255
167 202 255
167 202 255
167 202 255
167 202 255
167 203 255
167 203 255
167 203 255
167 203 255
168 203 255
168 203 255
168 203 255
168 203 255
168 203 255
168 203 255
168 203 255
168 203 255
168 203 255
168 203 255
168 203 255
168 203 255
168 203 255
169 203 255
169 203 255
169 203 255
169 203 255
169 204 255
169 204 255
169 204 255
169 204 255
169 204 255
169 204 255
169 204 255
169 204 255
170 204 255
170 204 255
170 204 255
170 204 255
170 204 255
170 204 255
170 204 255
170 204 255
170 204 255
170 204 255
170 204 255
170 204 255
171 205 255
171 205 255
171 205 255
171 205 255
171 205 255
171 205 255
171 205 255
171 205 255
171 205 255
171 205 255
171 205 255
171 205 255
172 205 255
172 205 255
172 205 255
172 205 255
172 205 255
172 205 255
172 205 255
172 205 255
172 205 255
172 206 255
172 206 255
172 206 255
172 206 255
173 206 255
173 206 255
173 206 255
173 206 255
173 206 255
173 206 255
173 206 255
173 206 255
173 206 255
173 206 255
173 206 255
173 206 255
173 206 255
174 206 255
174 206 255
174 206 255
174 206 255
174 206 255
174 207 255
174 207 255
174 207 255
174 207 255
174 207 255
174 207 255
174 207 255
174 207 255
174 207 255
174 207 255
175 207 255
175 207 255
175 207 255
175 207 255
175 207 255
175 207 255
175 207 255
175 207 255
175 207 255
175 207 255
175 207 255
175 207 255
175 207 255
175 207 255
175 207 255
176 208 255
176 208 255
176 208 255
176 208 255
176 208 255
176 208 255
176 208 255
176 208 255
176 208 255
176 208 255
176 208 255
176 208 255
176 208 255
176 208 255
176 208 255
176 208 255
176 208 255
177 208 255
177 208 255
177 208 255
177 208 255
177 208 255
177 208 255
177 208 255
177 208 255
177 208 255
177 208 255
177 208 255
177 208 255
177 209 255
177 209 255
177 209 255
177 209 255
178 209 255
178 209 255
177 209 255
177 209 255
177 209 255
177 209 255
177 209 255
177 209 255
177 209 255
177 208 255
177 208 255
177 208 255
177 208 255
177 208 255
177 208 255
177 208 255
177 208 255
177 208 255
177 208 255
177 208 255
177 208 255
176 208 255
176 208 255
176 208 255
176 208 255
176 208 255
176 208 255
176 208 255
176 208 255
176 208 255
176 208 255
176 208 255
176 208 255
176 208 255
176 208 255
176 208 255
176 208 255
176 208 255
175 207 255
175 207 255
175 207 255
175 207 255
175 207 255
175 207 255
175 207 255
175 207 255
175 207 255
175 207 255
175 207 255
175 207 255
175 207 255
175 207 255
175 207 255
174 207 255
174 207 255
174 207 255
174 207 255
174 207 255
174 207 255
174 207 255
174 207 255
174 207 255
174 206 255
174 206 255
174 206 255
174 206 255
174 206 255
173 206 255
173 206 255
173 206 255
173 206 255
173 206 255
173 206 255
173 206 255
173 206 255
173 206 255
173 206 255
173 206 255
173 206 255
173 206 255
173 206 255
172 206 255
172 206 255
172 206 255
172 206 255
172 205 255
172 205 255
172 205 255
172 205 255
172 205 255
172 205 255
172 205 255
172 205 255
171 205 255
171 205 255
171 205 255
171 205 255
171 205 255
171 205 255
171 205 255
171 205 255
171 205 255
171 205 255
171 205 255
171 205 255
170 204 255
170 204 255
170 204 255
170 204 255
170 204 255
170 204 255
170 204 255
170 204 255
170 204 255
170 204 255
170 204 255
170 204 255
170 204 255
169 204 255
169 204 255
169 204 255
169 204 255
169 204 255
169 204 255
169 204 255
169 204 255
169 203 255
169 203 255
169 203 255
169 203 255
168 203 255
168 203 255
168 203 255
168 203 255
168 203 255
168 203 255
168 203 255
168 203 255
168 203 255
168 203 255
168 203 255
168 203 255
168 203 255
167 203 255
167 203 255
167 203 255
167 203 255
167 203 255
167 202 255
167 202 255
167 202 255
167 202 255
167 202 255
167 202 255
167 202 255
167 202 255
167 202 255
167 202 255
166 202 255
134 163 208
86 106 136
82 100 127
80 99 127
80 98 126
81 99 126
80 98 126
79 98 126
80 98 126
82 100 126
81 99 126
81 100 128
82 100 126
80 98 126
82 99 126
78 97 126
80 97 124
80 98 125
83 100 127
82 98 124
79 97 124
81 98 124
80 98 124
82 99 124
81 99 125
79 97 122
84 101 126
82 99 125
82 99 126
80 98 125
81 99 126
80 98 124
82 99 125
83 100 126
85 101 126
83 100 126
82 100 126
81 100 128
81 99 126
81 98 124
82 100 126
80 97 124
84 101 126
80 98 125
82 100 127
81 99 125
80 98 124
82 98 122
81 99 126
81 98 124
82 99 124
83 100 126
81 99 127
83 100 125
80 98 126
81 98 124
80 98 124
82 99 126
79 97 124
82 100 126
81 98 125
81 98 124
80 97 124
82 100 127
80 97 123
82 100 126
81 98 124
80 98 126
82 100 126
83 101 127
80 98 125
82 99 125
82 99 126
80 98 126
83 100 127
81 99 125
80 98 125
80 98 126
81 100 128
83 100 126
89 108 137
141 172 218
166 202 255
167 202 255
167 202 255
167 202 255
167 202 255
167 202 255
167 202 255
167 202 255
167 202 255
167 202 255
167 202 255
167 203 255
167 203 255
167 203 255
167 203 255
167 203 255
168 203 255
168 203 255
168 203 255
168 203 255
168 203 255
168 203 255
168 203 255
168 203 255
168 203 255
168 203 255
168 203 255
168 203 255
168 203 255
169 203 255
169 203 255
169 203 255
169 203 255
169 204 255
169 204 255
169 204 255
169 204 255
169 204 255
169 204 255
169 204 255
169 204 255
170 204 255
170 204 255
170 204 255
170 204 255
170 204 255
170 204 255
170 204 255
170 204 255
170 204 255
170 204 255
170 204 255
170 204 255
171 205 255
171 205 255
171 205 255
171 205 255
171 205 255
171 205 255
171 205 255
171 205 255
171 205 255
171 205 255
171 205 255
171 205 255
171 205 255
172 205 255
172 205 255
172 205 255
172 205 255
172 205 255
172 205 255
172 205 255
172 205 255
172 206 255
172 206 255
172 206 255
172 206 255
172 206 255
173 206 255
173 206 255
173 206 255
173 206 255
173 206 255
173 206 255
173 206 255
173 206 255
173 206 255
173 206 255
173 206 255
173 206 255
173 206 255
174 206 255
174 206 255
174 206 255
174 206 255
174 206 255
174 207 255
174 207 255
174 207 255
174 207 255
174 207 255
174 207 255
174 207 255
174 207 255
174 207 255
175 207 255
175 207 255
175 207 255
175 207 255
175 207 255
175 207 255
175 207 255
175 207 255
175 207 255
175 207 255
175 207 255
175 207 255
175 207 255
175 207 255
175 207 255
176 208 255
176 208 255
176 208 255
176 208 255
176 208 255
176 208 255
176 208 255
176 208 255
176 208 255
176 208 255
176 208 255
176 208 255
176 208 255
176 208 255
176 208 255
176 208 255
176 208 255
177 208 255
177 208 255
177 208 255
177 208 255
177 208 255
177 208 255
177 208 255
177 208 255
177 208 255
177 208 255
177 208 255
177 208 255
177 209 255
177 209 255
177 209 255
177 209 255
177 209 255
177 209 255
177 209 255
178 209 255
178 209 255
178 209 255
178 209 255
178 209 255
178 209 255
178 209 255
178 209 255
178 209 255
178 209 255
177 209 255
177 209 255
177 209 255
177 209 255
177 209 255
177 209 255
177 208 255
177 208 255
177 208 255
177 208 255
177 208 255
177 208 255
177 208 255
177 208 255
177 208 255
177 208 255
177 208 255
177 208 255
176 208 255
176 208 255
176 208 255
176 208 255
176 208 255
176 208 255
176 208 255
176 208 255
176 208 255
176 208 255
176 208 255
176 208 255
176 208 255
176 208 255
176 208 255
176 208 255
175 207 255
175 207 255
175 207 255
175 207 255
175 207 255
175 207 255
175 207 255
175 207 255
175 207 255
175 207 255
175 207 255
175 207 255
175 207 255
175 207 255
175 207 255
175 207 255
174 207 255
174 207 255
174 207 255
174 207 255
174 207 255
174 207 255
174 207 255
174 207 255
174 207 255
174 206 255
174 206 255
174 206 255
174 206 255
174 206 255
173 206 255
173 206 255
173 206 255
173 206 255
173 206 255
173 206 255
173 206 255
173 206 255
173 206 255
173 206 255
173 206 255
173 206 255
173 206 255
172 206 255
172 206 255
172 206 255
172 206 255
172 205 255
172 205 255
172 205 255
172 205 255
172 205 255
172 205 255
172 205 255
172 205 255
172 205 255
171 205 255
171 205 255
171 205 255
171 205 255
171 205 255
171 205 255
171 205 255
171 205 255
171 205 255
171 205 255
171 205 255
171 205 255
170 204 255
170 204 255
170 204 255
170 204 255
170 204 255
170 204 255
170 204 255
170 204 255
170 204 255
170 204 255
170 204 255
170 204 255
170 204 255
169 204 255
169 204 255
169 204 255
169 204 255
169 204 255
169 204 255
169 204 255
169 204 255
169 203 255
169 203 255
169 203 255
169 203 255
168 203 255
168 203 255
168 203 255
168 203 255
168 203 255
168 203 255
168 203 255
168 203 255
168 203 255
168 203 255
168 203 255
168 203 255
168 203 255
168 203 255
167 203 255
167 203 255
167 203 255
167 203 255
167 203 255
167 202 255
167 202 255
167 202 255
167 202 255
131 158 199
82 100 127
80 99 127
79 97 124
81 99 126
84 101 128
80 98 125
80 97 124
81 99 126
77 96 124
81 99 125
82 100 126
83 100 126
80 98 125
83 100 126
82 99 124
82 99 126
80 97 124
82 99 126
83 100 126
84 100 125
80 98 126
81 99 126
83 100 126
84 101 126
81 99 125
82 99 125
82 100 126
83 100 125
80 97 124
83 101 127
82 99 126
80 98 124
82 99 124
80 97 123
84 100 126
82 99 125
81 98 124
81 98 125
80 98 125
84 102 128
84 101 126
79 97 123
81 99 125
79 97 124
81 99 124
80 97 123
82 99 125
80 97 123
81 98 124
81 99 124
83 101 127
80 98 124
80 97 124
80 97 123
81 99 125
82 100 127
83 100 126
82 99 126
79 96 123
81 98 125
83 100 125
82 100 127
80 97 124
80 98 126
79 98 125
81 99 125
79 96 122
83 100 127
82 100 127
83 101 128
81 99 128
81 99 126
80 97 124
81 99 126
81 98 125
81 99 126
79 97 125
80 98 126
81 99 126
81 99 126
83 101 128
83 101 128
126 154 197
167 202 255
167 202 255
167 202 255
167 202 255
167 203 255
167 203 255
167 203 255
167 203 255
167 203 255
168 203 255
168 203 255
168 203 255
168 203 255
168 203 255
168 203 255
168 203 255
168 203 255
168 203 255
168 203 255
168 203 255
168 203 255
168 203 255
169 203 255
169 203 255
169 203 255
169 203 255
169 203 255
169 204 255
169 204 255
169 204 255
169 204 255
169 204 255
169 204 255
169 204 255
169 204 255
169 204 255
170 204 255
170 204 255
170 204 255
170 204 255
170 204 255
170 204 255
170 204 255
170 204 255
170 204 255
170 204 255
170 204 255
170 204 255
171 205 255
171 205 255
171 205 255
171 205 255
171 205 255
171 205 255
171 205 255
171 205 255
171 205 255
171 205 255
171 205 255
171 205 255
172 205 255
172 205 255
172 205 255
172 205 255
172 205 255
172 205 255
172 205 255
172 205 255
172 205 255
172 206 255
172 206 255
172 206 255
172 206 255
173 206 255
173 206 255
173 206 255
173 206 255
173 206 255
173 206 255
173 206 255
173 206 255
173 206 255
173 206 255
173 206 255
173 206 255
173 206 255
174 206 255
174 206 255
174 206 255
174 206 255
174 206 255
174 207 255
174 207 255
174 207 255
174 207 255
174 207 255
174 207 255
174 207 255
174 207 255
174 207 255
174 207 255
175 207 255
175 207 255
175 207 255
175 207 255
175 207 255
175 207 255
175 207 255
175 207 255
175 207 255
175 207 255
175 207 255
175 207 255
175 207 255
175 207 255
175 207 255
176 208 255
176 208 255
176 208 255
176 208 255
176 208 255
176 208 255
176 208 255
176 208 255
176 208 255
176 208 255
176 208 255
176 208 255
176 208 255
176 208 255
176 208 255
176 208 255
177 208 255
177 208 255
177 208 255
177 208 255
177 208 255
177 208 255
177 208 255
177 208 255
177 208 255
177 208 255
177 208 255
177 208 255
177 209 255
177 209 255
177 209 255
177 209 255
177 209 255
177 209 255
177 209 255
178 209 255
178 209 255
178 209 255
178 209 255
178 209 255
178 209 255
178 209 255
178 209 255
178 209 255
178 209 255
178 209 255
178 209 255
178 209 255
178 209 255
178 209 255
178 209 255
178 209 255
178 209 255
178 209 255
177 209 255
177 209 255
177 209 255
177 209 255
177 209 255
177 209 255
177 209 255
177 208 255
177 208 255
177 208 255
177 208 255
177 208 255
177 208 255
177 208 255
177 208 255
177 208 255
177 208 255
177 208 255
177 208 255
176 208 255
176 208 255
176 208 255
176 208 255
176 208 255
176 208 255
176 208 255
176 208 255
176 208 255
176 208 255
176 208 255
176 208 255
176 208 255
176 208 255
176 208 255
176 208 255
175 207 255
175 207 255
175 207 255
175 207 255
175 207 255
175 207 255
175 207 255
175 207 255
175 207 255
175 207 255
175 207 255
175 207 255
175 207 255
175 207 255
175 207 255
174 207 255
174 207 255
174 207 255
174 207 255
174 207 255
174 207 255
174 207 255
174 207 255
174 207 255
174 207 255
174 206 255
174 206 255
174 206 255
174 206 255
173 206 255
173 206 255
173 206 255
173 206 255
173 206 255
173 206 255
173 206 255
173 206 255
173 206 255
173 206 255
173 206 255
173 206 255
173 206 255
173 206 255
172 206 255
172 206 255
172 206 255
172 206 255
172 205 255
172 205 255
172 205 255
172 205 255
172 205 255
172 205 255
172 205 255
172 205 255
171 205 255
171 205 255
171 205 255
171 205 255
171 205 255
171 205 255
171 205 255
171 205 255
171 205 255
171 205 255
171 205 255
171 205 255
171 205 255
170 204 255
170 204 255
170 204 255
170 204 255
170 204 255
170 204 255
170 204 255
170 204 255
170 204 255
170 204 255
170 204 255
170 204 255
169 204 255
169 204 255
169 204 255
169 204 255
169 204 255
169 204 255
169 204 255
169 204 255
169 204 255
169 203 255
169 203 255
169 203 255
169 203 255
169 203 255
168 203 255
168 203 255
168 203 255
168 203 255
168 203 255
168 203 255
168 203 255
168 203 255
168 203 255
168 203 255
168 203 255
168 203 255
168 203 255
168 203 255
167 203 255
167 203 255
114 138 174
81 99 126
81 99 125
82 100 127
81 99 127
80 98 126
82 100 126
82 100 127
82 99 126
83 100 126
79 98 125
78 96 124
83 100 126
81 99 126
82 100 126
82 100 126
79 96 122
84 100 123
81 99 125
78 97 124
82 99 126
80 98 125
84 100 126
83 100 124
82 99 125
80 98 124
82 99 124
81 99 126
82 99 125
82 99 125
81 98 124
83 100 125
84 101 126
78 96 124
83 100 126
83 99 124
79 96 122
82 98 123
81 99 125
82 99 126
80 98 123
82 99 124
81 99 125
80 98 126
82 98 123
82 99 124
82 99 126
79 97 123
81 98 124
82 99 124
79 98 127
83 100 124
81 99 126
83 100 126
80 98 125
82 100 126
83 100 125
81 99 126
80 97 122
82 99 125
83 100 126
81 97 122
81 98 125
82 99 123
82 99 124
79 96 123
81 98 125
80 98 126
82 99 124
82 99 126
82 100 126
82 99 125
81 100 128
84 101 128
81 99 126
81 98 124
82 100 126
82 99 125
79 97 124
79 98 127
80 98 125
80 99 126
83 100 126
81 98 125
84 101 127
117 142 179
166 202 254
167 203 255
168 203 255
168 203 255
168 203 255
168 203 255
168 203 255
168 203 255
168 203 255
168 203 255
168 203 255
168 203 255
168 203 255
168 203 255
168 203 255
168 203 255
169 203 255
169 203 255
169 203 255
169 203 255
169 203 255
169 204 255
169 204 255
169 204 255
169 204 255
169 204 255
169 204 255
169 204 255
169 204 255
169 204 255
170 204 255
170 204 255
170 204 255
170 204 255
170 204 255
170 204 255
170 204 255
170 204 255
170 204 255
170 204 255
170 204 255
170 204 255
171 205 255
171 205 255
171 205 255
171 205 255
171 205 255
171 205 255
171 205 255
171 205 255
171 205 255
171 205 255
171 205 255
171 205 255
171 205 255
172 205 255
172 205 255
172 205 255
172 205 255
172 205 255
172 205 255
172 205 255
172 205 255
172 206 255
172 206 255
172 206 255
172 206 255
173 206 255
173 206 255
173 206 255
173 206 255
173 206 255
173 206 255
173 206 255
173 206 255
173 206 255
173 206 255
173 206 255
173 206 255
173 206 255
173 206 255
174 206 255
174 206 255
174 206 255
174 206 255
174 207 255
174 207 255
174 207 255
174 207 255
174 207 255
174 207 255
174 207 255
174 207 255
174 207 255
174 207 255
175 207 255
175 207 255
175 207 255
175 207 255
175 207 255
175 207 255
175 207 255
175 207 255
175 207 255
175 207 255
175 207 255
175 207 255
175 207 255
175 207 255
175 207 255
176 208 255
176 208 255
176 208 255
176 208 255
176 208 255
176 208 255
176 208 255
176 208 255
176 208 255
176 208 255
176 208 255
176 208 255
176 208 255
176 208 255
176 208 255
176 208 255
176 208 255
177 208 255
177 208 255
177 208 255
177 208 255
177 208 255
177 208 255
177 208 255
177 208 255
177 208 255
177 208 255
177 208 255
177 209 255
177 209 255
177 209 255
177 209 255
177 209 255
177 209 255
178 209 255
178 209 255
178 209 255
178 209 255
178 209 255
178 209 255
178 209 255
178 209 255
178 209 255
178 209 255
178 209 255
178 209 255
178 209 255
178 209 255
178 209 255
178 209 255
178 209 255
178 209 255
178 209 255
178 209 255
178 209 255
178 209 255
178 209 255
178 209 255
178 209 255
178 209 255
178 209 255
178 209 255
178 209 255
178 209 255
178 209 255
177 209 255
177 209 255
177 209 255
177 209 255
177 209 255
177 209 255
177 208 255
177 208 255
177 208 255
177 208 255
177 208 255
177 208 255
177 208 255
177 208 255
177 208 255
177 208 255
177 208 255
177 208 255
176 208 255
176 208 255
176 208 255
176 208 255
176 208 255
176 208 255
176 208 255
176 208 255
176 208 255
176 208 255
176 208 255
176 208 255
176 208 255
176 208 255
176 208 255
176 208 255
175 207 255
175 207 255
175 207 255
175 207 255
175 207 255
175 207 255
175 207 255
175 207 255
175 207 255
175 207 255
175 207 255
175 207 255
175 207 255
175 207 255
175 207 255
174 207 255
174 207 255
174 207 255
174 207 255
174 207 255
174 207 255
174 207 255
174 207 255
174 207 255
174 206 255
174 206 255
174 206 255
174 206 255
174 206 255
173 206 255
173 206 255
173 206 255
173 206 255
173 206 255
173 206 255
173 206 255
173 206 255
173 206 255
173 206 255
173 206 255
173 206 255
173 206 255
172 206 255
172 206 255
172 206 255
172 206 255
172 205 255
172 205 255
172 205 255
172 205 255
172 205 255
172 205 255
172 205 255
172 205 255
172 205 255
171 205 255
171 205 255
171 205 255
171 205 255
171 205 255
171 205 255
171 205 255
171 205 255
171 205 255
171 205 255
171 205 255
171 205 255
171 205 255
170 204 255
170 204 255
170 204 255
170 204 255
170 204 255
170 204 255
170 204 255
170 204 255
170 204 255
170 204 255
170 204 255
170 204 255
170 204 255
169 204 255
169 204 255
169 204 255
169 204 255
169 204 255
169 204 255
169 204 255
169 204 255
169 204 255
169 203 255
169 203 255
169 203 255
169 203 255
168 203 255
168 203 255
168 203 255
168 203 255
168 203 255
168 203 255
168 203 255
168 203 255
168 203 255
165 199 250
108 132 167
81 99 126
81 99 126
81 98 125
82 99 126
82 100 126
80 97 123
79 97 124
81 99 126
81 98 124
81 99 125
81 98 124
84 101 127
83 100 126
83 100 126
82 100 126
81 98 125
79 97 123
83 100 126
85 101 126
80 97 124
83 100 126
83 100 125
79 97 124
85 101 126
81 98 124
80 97 124
82 99 124
80 98 126
81 98 125
81 99 126
80 98 124
80 98 126
79 97 124
83 99 124
83 100 126
79 97 124
82 99 124
83 100 125
80 98 124
84 101 127
80 97 122
80 98 124
85 101 125
80 97 122
78 96 123
81 99 126
81 99 124
82 100 127
83 100 125
83 100 126
82 98 124
80 97 121
82 99 126
80 97 122
80 98 124
81 99 126
83 100 124
82 99 125
82 99 124
79 96 122
80 98 125
83 100 125
82 98 122
80 98 126
81 98 125
82 99 124
82 98 123
84 101 126
85 101 126
77 95 122
82 100 126
82 100 127
81 99 125
79 98 126
81 98 123
81 98 125
83 101 127
85 101 126
81 99 125
78 97 125
82 99 124
82 100 126
81 99 127
80 98 124
79 97 125
81 99 126
106 129 163
162 197 248
168 203 255
168 203 255
168 203 255
168 203 255
168 203 255
168 203 255
168 203 255
168 203 255
169 203 255
169 203 255
169 203 255
169 203 255
169 203 255
169 203 255
169 204 255
169 204 255
169 204 255
169 204 255
169 204 255
169 204 255
169 204 255
169 204 255
169 204 255
170 204 255
170 204 255
170 204 255
170 204 255
170 204 255
170 204 255
170 204 255
170 204 255
170 204 255
170 204 255
170 204 255
170 204 255
171 205 255
171 205 255
171 205 255
171 205 255
171 205 255
171 205 255
171 205 255
171 205 255
171 205 255
171 205 255
171 205 255
171 205 255
171 205 255
172 205 255
172 205 255
172 205 255
172 205 255
172 205 255
172 205 255
172 205 255
172 205 255
172 206 255
172 206 255
172 206 255
172 206 255
172 206 255
173 206 255
173 206 255
173 206 255
173 206 255
173 206 255
173 206 255
173 206 255
173 206 255
173 206 255
173 206 255
173 206 255
173 206 255
173 206 255
174 206 255
174 206 255
174 206 255
174 206 255
174 207 255
174 207 255
174 207 255
174 207 255
174 207 255
174 207 255
174 207 255
174 207 255
174 207 255
174 207 255
175 207 255
175 207 255
175 207 255
175 207 255
175 207 255
175 207 255
175 207 255
175 207 255
175 207 255
175 207 255
175 207 255
175 207 255
175 207 255
175 207 255
175 207 255
176 208 255
176 208 255
176 208 255
176 208 255
176 208 255
176 208 255
176 208 255
176 208 255
176 208 255
176 208 255
176 208 255
176 208 255
176 208 255
176 208 255
176 208 255
176 208 255
177 208 255
177 208 255
177 208 255
177 208 255
177 208 255
177 208 255
177 208 255
177 208 255
177 208 255
177 208 255
177 208 255
177 208 255
177 209 255
177 209 255
177 209 255
177 209 255
177 209 255
177 209 255
178 209 255
178 209 255
178 209 255
178 209 255
178 209 255
178 209 255
178 209 255
178 209 255
178 209 255
178 209 255
178 209 255
178 209 255
178 209 255
178 209 255
178 209 255
178 209 255
178 209 255
178 209 255
179 209 255
179 209 255
179 209 255
178 209 255
178 209 255
178 209 255
178 209 255
178 209 255
178 209 255
178 209 255
178 209 255
178 209 255
178 209 255
178 209 255
178 209 255
178 209 255
178 209 255
178 209 255
178 209 255
178 209 255
178 209 255
178 209 255
178 209 255
177 209 255
177 209 255
177 209 255
177 209 255
177 209 255
177 209 255
177 208 255
177 208 255
177 208 255
177 208 255
177 208 255
177 208 255
177 208 255
177 208 255
177 208 255
177 208 255
177 208 255
177 208 255
176 208 255
176 208 255
176 208 255
176 208 255
176 208 255
176 208 255
176 208 255
176 208 255
176 208 255
176 208 255
176 208 255
176 208 255
176 208 255
176 208 255
176 208 255
176 208 255
175 207 255
175 207 255
175 207 255
175 207 255
175 207 255
175 207 255
175 207 255
175 207 255
175 207 255
175 207 255
175 207 255
175 207 255
175 207 255
175 207 255
175 207 255
174 207 255
174 207 255
174 207 255
174 207 255
174 207 255
174 207 255
174 207 255
174 207 255
174 207 255
174 206 255
174 206 255
174 206 255
174 206 255
173 206 255
173 206 255
173 206 255
173 206 255
173 206 255
173 206 255
173 206 255
173 206 255
173 206 255
173 206 255
173 206 255
173 206 255
173 206 255
173 206 255
172 206 255
172 206 255
172 206 255
172 206 255
172 205 255
172 205 255
172 205 255
172 205 255
172 205 255
172 205 255
172 205 255
172 205 255
172 205 255
171 205 255
171 205 255
171 205 255
171 205 255
171 205 255
171 205 255
171 205 255
171 205 255
171 205 255
171 205 255
171 205 255
171 205 255
171 205 255
170 204 255
170 204 255
170 204 255
170 204 255
170 204 255
170 204 255
170 204 255
170 204 255
170 204 255
170 204 255
170 204 255
170 204 255
170 204 255
169 204 255
169 204 255
169 204 255
169 204 255
169 204 255
169 204 255
169 204 255
169 204 255
169 204 255
169 204 255
169 203 255
169 203 255
169 203 255
169 203 255
168 203 255
168 203 255
163 197 248
106 129 163
79 97 124
81 98 125
81 98 124
83 100 127
82 100 127
82 100 126
82 99 125
79 96 122
79 97 123
82 100 127
82 99 124
77 96 123
84 101 126
81 98 123
83 100 126
82 100 126
80 98 125
79 96 120
81 98 123
85 102 127
82 99 125
84 101 127
83 100 125
81 98 124
79 97 122
84 100 125
81 98 124
81 97 122
81 99 124
82 99 126
85 100 124
82 98 124
81 98 124
78 95 121
83 99 124
80 97 123
82 99 125
81 98 124
79 96 122
81 98 123
82 99 124
84 101 127
83 99 124
82 99 126
80 97 122
83 100 125
80 97 124
84 100 124
82 99 124
81 98 123
81 99 126
82 99 124
80 96 122
81 99 126
79 97 124
81 99 125
82 99 124
81 98 124
82 99 124
84 101 126
83 99 124
80 98 124
82 100 126
79 98 125
81 99 125
85 102 126
81 97 122
81 97 123
81 98 123
81 99 126
83 99 122
80 97 123
79 97 124
82 99 124
83 100 125
82 99 124
78 95 121
84 101 126
80 98 124
80 98 124
79 97 125
85 102 127
82 100 127
81 99 126
81 100 128
81 100 128
84 101 126
82 99 126
100 122 155
162 196 247
168 203 255
169 203 255
169 203 255
169 203 255
169 203 255
169 203 255
169 204 255
169 204 255
169 204 255
169 204 255
169 204 255
169 204 255
169 204 255
169 204 255
169 204 255
169 204 255
170 204 255
170 204 255
170 204 255
170 204 255
170 204 255
170 204 255
170 204 255
170 204 255
170 204 255
170 204 255
170 204 255
170 204 255
170 204 255
171 205 255
171 205 255
171 205 255
171 205 255
171 205 255
171 205 255
171 205 255
171 205 255
171 205 255
171 205 255
171 205 255
171 205 255
171 205 255
171 205 255
172 205 255
172 205 255
172 205 255
172 205 255
172 205 255
172 205 255
172 205 255
172 205 255
172 206 255
172 206 255
172 206 255
172 206 255
173 206 255
173 206 255
173 206 255
173 206 255
173 206 255
173 206 255
173 206 255
173 206 255
173 206 255
173 206 255
173 206 255
173 206 255
173 206 255
174 206 255
174 206 255
174 206 255
174 206 255
174 206 255
174 207 255
174 207 255
174 207 255
174 207 255
174 207 255
174 207 255
174 207 255
174 207 255
174 207 255
175 207 255
175 207 255
175 207 255
175 207 255
175 207 255
175 207 255
175 207 255
175 207 255
175 207 255
175 207 255
175 207 255
175 207 255
175 207 255
175 207 255
175 207 255
176 208 255
176 208 255
176 208 255
176 208 255
176 208 255
176 208 255
176 208 255
176 208 255
176 208 255
176 208 255
176 208 255
176 208 255
176 208 255
176 208 255
176 208 255
176 208 255
177 208 255
177 208 255
177 208 255
177 208 255
177 208 255
177 208 255
177 208 255
177 208 255
177 208 255
177 208 255
177 208 255
177 208 255
177 209 255
177 209 255
177 209 255
177 209 255
177 209 255
177 209 255
178 209 255
178 209 255
178 209 255
178 209 255
178 209 255
178 209 255
178 209 255
178 209 255
178 209 255
178 209 255
178 209 255
178 209 255
178 209 255
178 209 255
178 209 255
178 209 255
178 209 255
178 209 255
178 209 255
178 209 255
179 209 255
179 209 255
179 209 255
179 210 255
179 210 255
179 209 255
179 209 255
179 209 255
179 209 255
179 209 255
179 209 255
179 209 255
178 209 255
178 209 255
178 209 255
178 209 255
178 209 255
178 209 255
178 209 255
178 209 255
178 209 255
178 209 255
178 209 255
178 209 255
178 209 255
178 209 255
178 209 255
178 209 255
178 209 255
178 209 255
178 209 255
178 209 255
177 209 255
177 209 255
177 209 255
177 209 255
177 209 255
177 208 255
177 208 255
177 208 255
177 208 255
177 208 255
177 208 255
177 208 255
177 208 255
177 208 255
177 208 255
177 208 255
177 208 255
176 208 255
176 208 255
176 208 255
176 208 255
176 208 255
176 208 255
176 208 255
176 208 255
176 208 255
176 208 255
176 208 255
176 208 255
176 208 255
176 208 255
176 208 255
176 208 255
175 207 255
175 207 255
175 207 255
175 207 255
175 207 255
175 207 255
175 207 255
175 207 255
175 207 255
175 207 255
175 207 255
175 207 255
175 207 255
175 207 255
175 207 255
174 207 255
174 207 255
174 207 255
174 207 255
174 207 255
174 207 255
174 207 255
174 207 255
174 207 255
174 206 255
174 206 255
174 206 255
174 206 255
173 206 255
173 206 255
173 206 255
173 206 255
173 206 255
173 206 255
173 206 255
173 206 255
173 206 255
173 206 255
173 206 255
173 206 255
173 206 255
173 206 255
172 206 255
172 206 255
172 206 255
172 206 255
172 205 255
172 205 255
172 205 255
172 205 255
172 205 255
172 205 255
172 205 255
172 205 255
172 205 255
171 205 255
171 205 255
171 205 255
171 205 255
171 205 255
171 205 255
171 205 255
171 205 255
171 205 255
171 205 255
171 205 255
171 205 255
171 205 255
170 204 255
170 204 255
170 204 255
170 204 255
170 204 255
170 204 255
170 204 255
170 204 255
170 204 255
170 204 255
170 204 255
170 204 255
170 204 255
170 204 255
169 204 255
169 204 255
169 204 255
169 204 255
169 204 255
169 204 255
169 204 255
169 204 255
169 204 255
160 193 243
94 115 145
80 98 125
82 99 125
81 99 126
80 98 126
81 99 126
79 97 124
81 98 122
81 99 126
81 98 125
84 101 126
86 102 126
80 98 126
80 98 124
81 98 124
80 98 124
81 99 126
83 100 126
81 98 124
80 98 124
78 96 122
82 98 124
80 97 124
81 98 123
83 100 126
82 98 122
79 97 123
82 100 126
82 99 124
81 98 123
82 100 126
81 98 124
81 98 123
80 98 124
81 98 124
81 98 124
79 97 122
83 99 124
82 99 124
80 96 121
80 97 122
83 100 126
80 98 124
77 94 120
81 99 125
81 98 122
82 98 122
79 96 122
79 96 120
83 100 125
81 98 122
83 100 126
82 99 124
81 97 122
84 101 127
82 99 124
81 98 123
79 97 124
81 98 123
82 99 125
81 99 126
81 98 124
79 96 123
80 96 122
82 98 122
80 97 123
79 97 125
80 98 124
82 99 125
83 100 124
82 99 124
81 98 124
80 96 121
81 99 126
82 99 124
84 101 127
81 99 126
81 98 122
80 97 123
80 98 125
83 100 125
79 97 123
83 100 126
83 100 126
81 98 124
81 99 126
82 99 124
82 98 123
82 99 126
80 98 126
85 102 127
95 116 147
161 194 244
169 204 255
169 204 255
169 204 255
169 204 255
169 204 255
169 204 255
169 204 255
169 204 255
169 204 255
170 204 255
170 204 255
170 204 255
170 204 255
170 204 255
170 204 255
170 204 255
170 204 255
170 204 255
170 204 255
170 204 255
170 204 255
170 204 255
170 204 255
171 205 255
171 205 255
171 205 255
171 205 255
171 205 255
171 205 255
171 205 255
171 205 255
171 205 255
171 205 255
171 205 255
171 205 255
171 205 255
172 205 255
172 205 255
172 205 255
172 205 255
172 205 255
172 205 255
172 205 255
172 205 255
172 205 255
172 206 255
172 206 255
172 206 255
172 206 255
173 206 255
173 206 255
173 206 255
173 206 255
173 206 255
173 206 255
173 206 255
173 206 255
173 206 255
173 206 255
173 206 255
173 206 255
173 206 255
173 206 255
174 206 255
174 206 255
174 206 255
174 206 255
174 207 255
174 207 255
174 207 255
174 207 255
174 207 255
174 207 255
174 207 255
174 207 255
174 207 255
174 207 255
175 207 255
175 207 255
175 207 255
175 207 255
175 207 255
175 207 255
175 207 255
175 207 255
175 207 255
175 207 255
175 207 255
175 207 255
175 207 255
175 207 255
176 208 255
176 208 255
176 208 255
176 208 255
176 208 255
176 208 255
176 208 255
176 208 255
176 208 255
176 208 255
176 208 255
176 208 255
176 208 255
176 208 255
176 208 255
176 208 255
177 208 255
177 208 255
177 208 255
177 208 255
177 208 255
177 208 255
177 208 255
177 208 255
177 208 255
177 208 255
177 208 255
177 208 255
177 209 255
177 209 255
177 209 255
177 209 255
177 209 255
178 209 255
178 209 255
178 209 255
178 209 255
178 209 255
178 209 255
178 209 255
178 209 255
178 209 255
178 209 255
178 209 255
178 209 255
178 209 255
178 209 255
178 209 255
178 209 255
178 209 255
178 209 255
178 209 255
178 209 255
179 209 255
179 209 255
179 209 255
179 209 255
179 209 255
179 209 255
179 209 255
179 210 255
179 210 255
179 210 255
179 210 255
179 210 255
179 210 255
179 210 255
179 210 255
179 210 255
179 209 255
179 209 255
179 209 255
179 209 255
179 209 255
179 209 255
179 209 255
178 209 255
178 209 255
178 209 255
178 209 255
178 209 255
178 209 255
178 209 255
178 209 255
178 209 255
178 209 255
178 209 255
178 209 255
178 209 255
178 209 255
178 209 255
178 209 255
178 209 255
178 209 255
178 209 255
178 209 255
177 209 255
177 209 255
177 209 255
177 209 255
177 209 255
177 209 255
177 208 255
177 208 255
177 208 255
177 208 255
177 208 255
177 208 255
177 208 255
177 208 255
177 208 255
177 208 255
177 208 255
176 208 255
176 208 255
176 208 255
176 208 255
176 208 255
176 208 255
176 208 255
176 208 255
176 208 255
176 208 255
176 208 255
176 208 255
176 208 255
176 208 255
176 208 255
176 208 255
175 207 255
175 207 255
175 207 255
175 207 255
175 207 255
175 207 255
175 207 255
175 207 255
175 207 255
175 207 255
175 207 255
175 207 255
175 207 255
175 207 255
175 207 255
174 207 255
174 207 255
174 207 255
174 207 255
174 207 255
174 207 255
174 207 255
174 207 255
174 207 255
174 206 255
174 206 255
174 206 255
174 206 255
174 206 255
173 206 255
173 206 255
173 206 255
173 206 255
173 206 255
173 206 255
173 206 255
173 206 255
173 206 255
173 206 255
173 206 255
173 206 255
173 206 255
172 206 255
172 206 255
172 206 255
172 206 255
172 205 255
172 205 255
172 205 255
172 205 255
172 205 255
172 205 255
172 205 255
172 205 255
172 205 255
171 205 255
171 205 255
171 205 255
171 205 255
171 205 255
171 205 255
171 205 255
171 205 255
171 205 255
171 205 255
171 205 255
171 205 255
171 205 255
171 205 255
170 204 255
170 204 255
170 204 255
170 204 255
170 204 255
170 204 255
170 204 255
170 204 255
170 204 255
170 204 255
170 204 255
170 204 255
170 204 255
170 204 255
169 204 255
169 204 255
168 203 254
99 120 152
81 99 125
81 99 125
81 98 124
83 100 126
81 98 124
81 98 125
83 99 124
82 99 125
81 98 124
83 100 125
81 97 121
81 99 125
82 99 125
83 100 124
82 98 123
84 100 124
80 97 122
82 99 124
81 97 120
81 99 125
78 96 124
81 98 124
83 100 126
87 102 126
81 98 124
82 100 126
82 98 123
79 96 121
82 99 124
82 100 126
81 98 122
83 100 124
84 100 123
81 98 122
80 97 123
81 97 122
82 99 124
82 99 124
85 101 126
85 100 124
82 98 124
82 98 122
83 99 124
82 99 124
82 99 124
81 97 121
83 99 124
80 97 123
81 99 125
83 99 123
82 98 124
82 98 122
83 100 126
79 97 122
80 97 122
80 97 122
83 100 126
84 100 125
86 101 125
80 97 123
80 96 121
78 95 121
82 98 122
80 98 124
81 99 126
80 97 122
82 100 126
83 100 125
83 100 126
80 98 126
79 96 121
81 98 124
83 100 126
83 99 124
84 101 126
80 98 124
82 100 127
80 97 123
80 98 124
82 99 123
83 100 126
82 99 123
81 98 123
85 101 125
84 101 126
79 97 124
84 101 127
85 102 127
81 98 123
81 99 127
82 100 127
80 99 126
96 117 149
165 199 249
169 204 255
169 204 255
170 204 255
170 204 255
170 204 255
170 204 255
170 204 255
170 204 255
170 204 255
170 204 255
170 204 255
170 204 255
170 204 255
170 204 255
170 204 255
170 204 255
170 204 255
171 205 255
171 205 255
171 205 255
171 205 255
171 205 255
171 205 255
171 205 255
171 205 255
171 205 255
171 205 255
171 205 255
171 205 255
171 205 255
172 205 255
172 205 255
172 205 255
172 205 255
172 205 255
172 205 255
172 205 255
172 205 255
172 205 255
172 206 255
172 206 255
172 206 255
172 206 255
173 206 255
173 206 255
173 206 255
173 206 255
173 206 255
173 206 255
173 206 255
173 206 255
173 206 255
173 206 255
173 206 255
173 206 255
173 206 255
173 206 255
174 206 255
174 206 255
174 206 255
174 206 255
174 207 255
174 207 255
174 207 255
174 207 255
174 207 255
174 207 255
174 207 255
174 207 255
174 207 255
175 207 255
175 207 255
175 207 255
175 207 255
175 207 255
175 207 255
175 207 255
175 207 255
175 207 255
175 207 255
175 207 255
175 207 255
175 207 255
175 207 255
175 207 255
176 208 255
176 208 255
176 208 255
176 208 255
176 208 255
176 208 255
176 208 255
176 208 255
176 208 255
176 208 255
176 208 255
176 208 255
176 208 255
176 208 255
176 208 255
176 208 255
177 208 255
177 208 255
177 208 255
177 208 255
177 208 255
177 208 255
177 208 255
177 208 255
177 208 255
177 208 255
177 208 255
177 209 255
177 209 255
177 209 255
177 209 255
177 209 255
177 209 255
178 209 255
178 209 255
178 209 255
178 209 255
178 209 255
178 209 255
178 209 255
178 209 255
178 209 255
178 209 255
178 209 255
178 209 255
178 209 255
178 209 255
178 209 255
178 209 255
178 209 255
178 209 255
178 209 255
178 209 255
179 209 255
179 209 255
179 209 255
179 209 255
179 209 255
179 209 255
179 210 255
179 210 255
179 210 255
179 210 255
179 210 255
179 210 255
179 210 255
179 210 255
179 210 255
179 210 255
179 210 255
179 210 255
179 210 255
179 210 255
179 210 255
179 210 255
179 210 255
179 210 255
179 210 255
179 210 255
179 210 255
179 209 255
179 209 255
179 209 255
179 209 255
179 209 255
179 209 255
179 209 255
178 209 255
178 209 255
178 209 255
178 209 255
178 209 255
178 209 255
178 209 255
178 209 255
178 209 255
178 209 255
178 209 255
178 209 255
178 209 255
178 209 255
178 209 255
178 209 255
178 209 255
178 209 255
178 209 255
177 209 255
177 209 255
177 209 255
177 209 255
177 209 255
177 209 255
177 208 255
177 208 255
177 208 255
177 208 255
177 208 255
177 208 255
177 208 255
177 208 255
177 208 255
177 208 255
177 208 255
176 208 255
176 208 255
176 208 255
176 208 255
176 208 255
176 208 255
176 208 255
176 208 255
176 208 255
176 208 255
176 208 255
176 208 255
176 208 255
176 208 255
176 208 255
176 208 255
175 207 255
175 207 255
175 207 255
175 207 255
175 207 255
175 207 255
175 207 255
175 207 255
175 207 255
175 207 255
175 207 255
175 207 255
175 207 255
175 207 255
175 207 255
174 207 255
174 207 255
174 207 255
174 207 255
174 207 255
174 207 255
174 207 255
174 207 255
174 207 255
174 206 255
174 206 255
174 206 255
174 206 255
173 206 255
173 206 255
173 206 255
173 206 255
173 206 255
173 206 255
173 206 255
173 206 255
173 206 255
173 206 255
173 206 255
173 206 255
173 206 255
173 206 255
172 206 255
172 206 255
172 206 255
172 206 255
172 206 255
172 205 255
172 205 255
172 205 255
172 205 255
172 205 255
172 205 255
172 205 255
172 205 255
171 205 255
171 205 255
171 205 255
171 205 255
171 205 255
171 205 255
171 205 255
171 205 255
171 205 255
171 205 255
171 205 255
171 205 255
171 205 255
171 205 255
171 205 255
170 204 255
170 204 255
170 204 255
170 204 255
170 204 255
170 204 255
170 204 255
170 204 255
170 204 255
167 201 252
111 134 170
81 98 123
82 99 126
82 99 125
82 99 126
81 99 126
79 97 124
81 99 126
84 100 124
83 100 126
81 98 124
82 99 126
79 96 121
81 98 124
83 101 126
82 98 123
81 98 123
80 97 122
83 99 124
82 99 125
81 98 124
81 99 125
78 97 125
81 98 124
80 97 123
84 100 124
81 98 123
83 99 123
82 99 124
81 98 122
82 99 123
80 97 122
82 98 123
80 98 126
82 99 125
82 99 124
84 100 125
81 98 123
81 99 124
82 99 125
83 100 124
81 98 123
81 99 126
81 97 122
82 99 125
83 100 126
82 99 124
83 99 124
79 97 123
81 99 124
80 98 125
81 98 124
80 96 121
80 97 123
84 99 123
80 96 121
81 98 122
84 100 124
81 98 123
79 96 120
79 95 119
84 100 123
82 99 125
84 100 124
80 96 120
79 96 121
83 100 126
82 99 123
79 97 124
80 97 122
83 99 124
82 99 125
83 100 124
82 99 124
80 97 123
85 101 125
81 98 123
82 99 124
81 98 123
81 98 124
81 98 125
87 102 125
82 100 126
79 96 122
82 99 124
83 100 126
82 98 124
80 98 124
83 99 124
82 100 126
82 100 126
80 98 125
80 98 126
84 100 125
83 100 126
104 125 156
165 198 248
170 204 255
170 204 255
170 204 255
170 204 255
170 204 255
170 204 255
170 204 255
170 204 255
170 204 255
171 205 255
171 205 255
171 205 255
171 205 255
171 205 255
171 205 255
171 205 255
171 205 255
171 205 255
171 205 255
171 205 255
171 205 255
171 205 255
171 205 255
171 205 255
172 205 255
172 205 255
172 205 255
172 205 255
172 205 255
172 205 255
172 205 255
172 205 255
172 206 255
172 206 255
172 206 255
172 206 255
172 206 255
173 206 255
173 206 255
173 206 255
173 206 255
173 206 255
173 206 255
173 206 255
173 206 255
173 206 255
173 206 255
173 206 255
173 206 255
173 206 255
174 206 255
174 206 255
174 206 255
174 206 255
174 206 255
174 207 255
174 207 255
174 207 255
174 207 255
174 207 255
174 207 255
174 207 255
174 207 255
174 207 255
175 207 255
175 207 255
175 207 255
175 207 255
175 207 255
175 207 255
175 207 255
175 207 255
175 207 255
175 207 255
175 207 255
175 207 255
175 207 255
175 207 255
175 207 255
176 208 255
176 208 255
176 208 255
176 208 255
176 208 255
176 208 255
176 208 255
176 208 255
176 208 255
176 208 255
176 208 255
176 208 255
176 208 255
176 208 255
176 208 255
176 208 255
177 208 255
177 208 255
177 208 255
177 208 255
177 208 255
177 208 255
177 208 255
177 208 255
177 208 255
177 208 255
177 208 255
177 209 255
177 209 255
177 209 255
177 209 255
177 209 255
177 209 255
178 209 255
178 209 255
178 209 255
178 209 255
178 209 255
178 209 255
178 209 255
178 209 255
178 209 255
178 209 255
178 209 255
178 209 255
178 209 255
178 209 255
178 209 255
178 209 255
178 209 255
178 209 255
178 209 255
179 209 255
179 209 255
179 209 255
179 209 255
179 209 255
179 209 255
179 209 255
179 210 255
179 210 255
179 210 255
179 210 255
179 210 255
179 210 255
179 210 255
179 210 255
179 210 255
179 210 255
179 210 255
179 210 255
179 210 255
180 210 255
180 210 255
180 210 255
180 210 255
180 210 255
179 210 255
179 210 255
179 210 255
179 210 255
179 210 255
179 210 255
179 210 255
179 210 255
179 210 255
179 210 255
179 210 255
179 210 255
179 210 255
179 210 255
179 209 255
179 209 255
179 209 255
179 209 255
179 209 255
179 209 255
179 209 255
178 209 255
178 209 255
178 209 255
178 209 255
178 209 255
178 209 255
178 209 255
178 209 255
178 209 255
178 209 255
178 209 255
178 209 255
178 209 255
178 209 255
178 209 255
178 209 255
178 209 255
178 209 255
178 209 255
177 209 255
177 209 255
177 209 255
177 209 255
177 209 255
177 208 255
177 208 255
177 208 255
177 208 255
177 208 255
177 208 255
177 208 255
177 208 255
177 208 255
177 208 255
177 208 255
177 208 255
176 208 255
176 208 255
176 208 255
176 208 255
176 208 255
176 208 255
176 208 255
176 208 255
176 208 255
176 208 255
176 208 255
176 208 255
176 208 255
176 208 255
176 208 255
175 207 255
175 207 255
175 207 255
175 207 255
175 207 255
175 207 255
175 207 255
175 207 255
175 207 255
175 207 255
175 207 255
175 207 255
175 207 255
175 207 255
175 207 255
174 207 255
174 207 255
174 207 255
174 207 255
174 207 255
174 207 255
174 207 255
174 207 255
174 207 255
174 206 255
174 206 255
174 206 255
174 206 255
174 206 255
173 206 255
173 206 255
173 206 255
173 206 255
173 206 255
173 206 255
173 206 255
173 206 255
173 206 255
173 206 255
173 206 255
173 206 255
173 206 255
172 206 255
172 206 255
172 206 255
172 206 255
172 206 255
172 205 255
172 205 255
172 205 255
172 205 255
172 205 255
172 205 255
172 205 255
172 205 255
172 205 255
172 205 255
171 205 255
171 205 255
171 205 255
171 205 255
171 205 255
171 205 255
171 205 255
171 205 255
171 205 255
171 205 255
171 205 255
171 205 255
171 205 255
171 205 255
170 204 255
170 204 255
170 204 255
109 130 162
83 100 127
82 99 125
83 99 124
81 98 124
82 99 125
82 99 125
83 101 127
80 97 123
82 99 124
83 100 126
78 96 122
82 99 125
82 99 125
84 100 125
81 99 126
80 97 123
81 99 124
79 97 124
82 99 124
82 100 126
81 98 124
80 97 122
81 99 125
82 99 125
83 99 122
85 101 125
83 99 124
83 100 126
78 96 122
80 96 121
81 98 124
80 97 121
82 99 124
81 98 123
80 96 120
84 100 124
81 98 122
80 97 122
82 98 123
79 95 120
82 99 124
82 99 124
79 96 122
82 99 123
84 100 124
79 97 122
79 96 122
80 96 120
82 99 124
81 97 121
80 97 122
82 99 124
84 101 126
82 99 125
84 100 124
82 99 123
83 99 124
83 100 126
81 97 120
83 98 122
80 97 124
81 97 122
80 98 124
81 99 126
82 100 126
82 99 125
82 99 125
82 98 123
81 97 122
83 100 124
84 100 125
80 97 122
82 99 125
82 99 125
81 97 122
77 95 121
81 97 122
81 98 122
84 100 123
85 101 126
81 98 123
79 96 122
80 98 125
80 97 122
82 99 124
81 98 125
81 97 121
79 96 122
81 99 126
83 100 126
80 98 124
82 100 127
84 100 125
82 99 126
80 98 125
80 98 124
112 135 168
170 204 255
170 204 255
170 204 255
171 205 255
171 205 255
171 205 255
171 205 255
171 205 255
171 205 255
171 205 255
171 205 255
171 205 255
171 205 255
171 205 255
171 205 255
171 205 255
171 205 255
171 205 255
172 205 255
172 205 255
172 205 255
172 205 255
172 205 255
172 205 255
172 205 255
172 205 255
172 205 255
172 206 255
172 206 255
172 206 255
172 206 255
173 206 255
173 206 255
173 206 255
173 206 255
173 206 255
173 206 255
173 206 255
173 206 255
173 206 255
173 206 255
173 206 255
173 206 255
173 206 255
173 206 255
174 206 255
174 206 255
174 206 255
174 206 255
174 206 255
174 207 255
174 207 255
174 207 255
174 207 255
174 207 255
174 207 255
174 207 255
174 207 255
174 207 255
175 207 255
175 207 255
175 207 255
175 207 255
175 207 255
175 207 255
175 207 255
175 207 255
175 207 255
175 207 255
175 207 255
175 207 255
175 207 255
175 207 255
175 207 255
176 208 255
176 208 255
176 208 255
176 208 255
176 208 255
176 208 255
176 208 255
176 208 255
176 208 255
176 208 255
176 208 255
176 208 255
176 208 255
176 208 255
176 208 255
177 208 255
177 208 255
177 208 255
177 208 255
177 208 255
177 208 255
177 208 255
177 208 255
177 208 255
177 208 255
177 208 255
177 208 255
177 209 255
177 209 255
177 209 255
177 209 255
177 209 255
178 209 255
178 209 255
178 209 255
178 209 255
178 209 255
178 209 255
178 209 255
178 209 255
178 209 255
178 209 255
178 209 255
178 209 255
178 209 255
178 209 255
178 209 255
178 209 255
178 209 255
178 209 255
178 209 255
179 209 255
179 209 255
179 209 255
179 209 255
179 209 255
179 209 255
179 209 255
179 210 255
179 210 255
179 210 255
179 210 255
179 210 255
179 210 255
179 210 255
179 210 255
179 210 255
179 210 255
179 210 255
179 210 255
179 210 255
179 210 255
180 210 255
180 210 255
180 210 255
180 210 255
180 210 255
180 210 255
180 210 255
180 210 255
180 210 255
180 210 255
180 210 255
180 210 255
180 210 255
180 210 255
180 210 255
180 210 255
179 210 255
179 210 255
179 210 255
179 210 255
179 210 255
179 210 255
179 210 255
179 210 255
179 210 255
179 210 255
179 210 255
179 210 255
179 210 255
179 210 255
179 209 255
179 209 255
179 209 255
179 209 255
179 209 255
179 209 255
178 209 255
178 209 255
178 209 255
178 209 255
178 209 255
178 209 255
178 209 255
178 209 255
178 209 255
178 209 255
178 209 255
178 209 255
178 209 255
178 209 255
178 209 255
178 209 255
178 209 255
178 209 255
178 209 255
177 209 255
177 209 255
177 209 255
177 209 255
177 209 255
177 209 255
177 208 255
177 208 255
177 208 255
177 208 255
177 208 255
177 208 255
177 208 255
177 208 255
177 208 255
177 208 255
177 208 255
176 208 255
176 208 255
176 208 255
176 208 255
176 208 255
176 208 255
176 208 255
176 208 255
176 208 255
176 208 255
176 208 255
176 208 255
176 208 255
176 208 255
176 208 255
175 207 255
175 207 255
175 207 255
175 207 255
175 207 255
175 207 255
175 207 255
175 207 255
175 207 255
175 207 255
175 207 255
175 207 255
175 207 255
175 207 255
175 207 255
174 207 255
174 207 255
174 207 255
174 207 255
174 207 255
174 207 255
174 207 255
174 207 255
174 207 255
174 207 255
174 206 255
174 206 255
174 206 255
174 206 255
173 206 255
173 206 255
173 206 255
173 206 255
173 206 255
173 206 255
173 206 255
173 206 255
173 206 255
173 206 255
173 206 255
173 206 255
173 206 255
173 206 255
172 206 255
172 206 255
172 206 255
172 206 255
172 206 255
172 205 255
172 205 255
172 205 255
172 205 255
172 205 255
172 205 255
172 205 255
172 205 255
172 205 255
172 205 255
171 205 255
171 205 255
171 205 255
171 205 255
171 205 255
171 205 255
171 205 255
171 205 255
171 205 255
171 205 255
121 147 184
82 100 126
79 96 122
80 98 124
82 99 123
83 100 125
82 99 125
82 99 124
85 100 124
81 97 121
83 100 125
81 98 123
81 98 124
79 96 122
79 97 122
81 99 126
81 98 123
82 99 124
79 96 120
79 96 121
82 99 126
81 98 123
83 99 124
81 98 122
84 100 125
79 97 124
83 100 126
81 98 123
79 96 121
79 96 120
81 98 124
81 98 124
81 98 124
83 99 124
80 97 122
82 98 122
84 101 126
78 96 123
81 98 123
80 98 124
80 97 123
83 99 123
80 98 124
80 96 121
78 95 121
78 94 119
81 98 122
78 96 122
82 98 123
82 99 125
81 97 122
79 96 122
81 97 120
81 97 121
81 98 123
82 98 123
81 98 123
81 97 121
78 95 121
84 101 126
79 95 119
81 98 123
80 96 120
86 102 126
81 98 123
80 97 123
80 97 123
82 98 121
82 98 123
80 97 123
83 99 125
82 99 125
81 98 124
83 99 124
80 97 122
80 98 124
82 98 123
81 98 124
81 98 124
83 100 125
82 99 125
86 103 127
83 99 124
80 97 124
82 99 124
83 99 124
82 99 124
81 98 124
82 99 124
82 99 125
81 98 124
80 97 122
83 99 124
81 98 124
82 100 126
82 99 124
81 98 124
83 99 125
81 99 125
120 144 181
171 205 255
171 205 255
171 205 255
171 205 255
171 205 255
171 205 255
171 205 255
171 205 255
171 205 255
171 205 255
172 205 255
172 205 255
172 205 255
172 205 255
172 205 255
172 205 255
172 205 255
172 205 255
172 205 255
172 205 255
172 206 255
172 206 255
172 206 255
172 206 255
172 206 255
173 206 255
173 206 255
173 206 255
173 206 255
173 206 255
173 206 255
173 206 255
173 206 255
173 206 255
173 206 255
173 206 255
173 206 255
173 206 255
173 206 255
174 206 255
174 206 255
174 206 255
174 206 255
174 206 255
174 207 255
174 207 255
174 207 255
174 207 255
174 207 255
174 207 255
174 207 255
174 207 255
174 207 255
175 207 255
175 207 255
175 207 255
175 207 255
175 207 255
175 207 255
175 207 255
175 207 255
175 207 255
175 207 255
175 207 255
175 207 255
175 207 255
175 207 255
175 207 255
176 208 255
176 208 255
176 208 255
176 208 255
176 208 255
176 208 255
176 208 255
176 208 255
176 208 255
176 208 255
176 208 255
176 208 255
176 208 255
176 208 255
176 208 255
177 208 255
177 208 255
177 208 255
177 208 255
177 208 255
177 208 255
177 208 255
177 208 255
177 208 255
177 208 255
177 208 255
177 209 255
177 209 255
177 209 255
177 209 255
177 209 255
177 209 255
178 209 255
178 209 255
178 209 255
178 209 255
178 209 255
178 209 255
178 209 255
178 209 255
178 209 255
178 209 255
178 209 255
178 209 255
178 209 255
178 209 255
178 209 255
178 209 255
178 209 255
178 209 255
179 209 255
179 209 255
179 209 255
179 209 255
179 209 255
179 209 255
179 209 255
179 210 255
179 210 255
179 210 255
179 210 255
179 210 255
179 210 255
179 210 255
179 210 255
179 210 255
179 210 255
179 210 255
179 210 255
179 210 255
179 210 255
180 210 255
180 210 255
180 210 255
180 210 255
180 210 255
180 210 255
180 210 255
180 210 255
180 210 255
180 210 255
180 210 255
180 210 255
180 210 255
180 210 255
180 210 255
180 210 255
180 210 255
180 210 255
180 210 255
180 210 255
180 210 255
180 210 255
180 210 255
180 210 255
180 210 255
180 210 255
180 210 255
180 210 255
179 210 255
179 210 255
179 210 255
179 210 255
179 210 255
179 210 255
179 210 255
179 210 255
179 210 255
179 210 255
179 210 255
179 210 255
179 210 255
179 210 255
179 209 255
179 209 255
179 209 255
179 209 255
179 209 255
179 209 255
178 209 255
178 209 255
178 209 255
178 209 255
178 209 255
178 209 255
178 209 255
178 209 255
178 209 255
178 209 255
178 209 255
178 209 255
178 209 255
178 209 255
178 209 255
178 209 255
178 209 255
178 209 255
178 209 255
177 209 255
177 209 255
177 209 255
177 209 255
177 209 255
177 209 255
177 208 255
177 208 255
177 208 255
177 208 255
177 208 255
177 208 255
177 208 255
177 208 255
177 208 255
177 208 255
176 208 255
176 208 255
176 208 255
176 208 255
176 208 255
176 208 255
176 208 255
176 208 255
176 208 255
176 208 255
176 208 255
176 208 255
176 208 255
176 208 255
176 208 255
176 208 255
175 207 255
175 207 255
175 207 255
175 207 255
175 207 255
175 207 255
175 207 255
175 207 255
175 207 255
175 207 255
175 207 255
175 207 255
175 207 255
175 207 255
175 207 255
174 207 255
174 207 255
174 207 255
174 207 255
174 207 255
174 207 255
174 207 255
174 207 255
174 207 255
174 206 255
174 206 255
174 206 255
174 206 255
174 206 255
173 206 255
173 206 255
173 206 255
173 206 255
173 206 255
173 206 255
173 206 255
173 206 255
173 206 255
173 206 255
173 206 255
173 206 255
173 206 255
173 206 255
172 206 255
172 206 255
172 206 255
172 206 255
172 206 255
172 205 255
172 205 255
172 205 255
172 205 255
172 205 255
172 205 255
172 205 255
172 205 255
172 205 255
172 205 255
171 205 255
171 205 255
171 205 255
136 163 203
80 98 126
84 101 126
83 100 126
82 99 124
83 99 125
78 96 123
83 99 124
81 98 123
82 98 122
82 98 122
80 96 120
80 97 123
83 99 124
82 99 125
80 95 119
83 99 124
81 98 124
80 97 122
81 98 122
81 98 124
77 94 119
80 98 124
81 98 124
81 98 123
79 95 120
82 99 124
84 100 124
84 101 125
79 96 121
82 99 124
82 98 123
79 96 122
84 101 126
80 97 122
79 96 123
85 101 125
81 98 122
82 99 124
80 97 122
81 97 122
80 98 124
84 101 127
79 96 121
80 98 124
82 98 123
83 100 126
81 98 122
83 99 124
80 96 122
79 96 122
82 98 122
83 99 124
82 99 124
82 99 124
81 99 124
77 94 120
81 98 123
82 99 124
81 97 121
84 101 127
82 98 122
83 99 124
79 96 121
82 98 123
84 99 123
81 97 122
81 98 122
81 96 120
80 97 121
83 100 126
81 97 122
76 95 123
82 99 123
81 97 121
80 97 122
83 99 124
84 101 126
81 98 123
81 98 124
80 96 121
83 99 122
82 99 126
83 99 124
84 100 125
81 98 124
83 99 124
83 99 123
82 98 122
79 96 120
83 100 124
81 97 122
84 100 125
79 96 122
80 97 121
82 99 126
81 99 125
84 100 124
82 99 124
79 96 122
83 100 126
141 169 212
171 205 255
171 205 255
171 205 255
172 205 255
172 205 255
172 205 255
172 205 255
172 205 255
172 205 255
172 205 255
172 205 255
172 205 255
172 205 255
172 206 255
172 206 255
172 206 255
172 206 255
172 206 255
173 206 255
173 206 255
173 206 255
173 206 255
173 206 255
173 206 255
173 206 255
173 206 255
173 206 255
173 206 255
173 206 255
173 206 255
173 206 255
173 206 255
174 206 255
174 206 255
174 206 255
174 206 255
174 206 255
174 207 255
174 207 255
174 207 255
174 207 255
174 207 255
174 207 255
174 207 255
174 207 255
174 207 255
175 207 255
175 207 255
175 207 255
175 207 255
175 207 255
175 207 255
175 207 255
175 207 255
175 207 255
175 207 255
175 207 255
175 207 255
175 207 255
175 207 255
175 207 255
176 208 255
176 208 255
176 208 255
176 208 255
176 208 255
176 208 255
176 208 255
176 208 255
176 208 255
176 208 255
176 208 255
176 208 255
176 208 255
176 208 255
176 208 255
177 208 255
177 208 255
177 208 255
177 208 255
177 208 255
177 208 255
177 208 255
177 208 255
177 208 255
177 208 255
177 208 255
177 208 255
177 209 255
177 209 255
177 209 255
177 209 255
177 209 255
178 209 255
178 209 255
178 209 255
178 209 255
178 209 255
178 209 255
178 209 255
178 209 255
178 209 255
178 209 255
178 209 255
178 209 255
178 209 255
178 209 255
178 209 255
178 209 255
178 209 255
178 209 255
178 209 255
179 209 255
179 209 255
179 209 255
179 209 255
179 209 255
179 209 255
179 210 255
179 210 255
179 210 255
179 210 255
179 210 255
179 210 255
179 210 255
179 210 255
179 210 255
179 210 255
179 210 255
179 210 255
179 210 255
179 210 255
180 210 255
180 210 255
180 210 255
180 210 255
180 210 255
180 210 255
180 210 255
180 210 255
180 210 255
180 210 255
180 210 255
180 210 255
180 210 255
180 210 255
180 210 255
180 210 255
180 210 255
180 210 255
180 210 255
180 210 255
180 210 255
180 210 255
180 210 255
180 210 255
180 210 255
180 210 255
180 210 255
180 210 255
180 210 255
180 210 255
180 210 255
180 210 255
180 210 255
180 210 255
180 210 255
180 210 255
180 210 255
180 210 255
180 210 255
180 210 255
179 210 255
179 210 255
179 210 255
179 210 255
179 210 255
179 210 255
179 210 255
179 210 255
179 210 255
179 210 255
179 210 255
179 210 255
179 210 255
179 210 255
179 209 255
179 209 255
179 209 255
179 209 255
179 209 255
179 209 255
178 209 255
178 209 255
178 209 255
178 209 255
178 209 255
178 209 255
178 209 255
178 209 255
178 209 255
178 209 255
178 209 255
178 209 255
178 209 255
178 209 255
178 209 255
178 209 255
178 209 255
178 209 255
178 209 255
177 209 255
177 209 255
177 209 255
177 209 255
177 209 255
177 208 255
177 208 255
177 208 255
177 208 255
177 208 255
177 208 255
177 208 255
177 208 255
177 208 255
177 208 255
177 208 255
176 208 255
176 208 255
176 208 255
176 208 255
176 208 255
176 208 255
176 208 255
176 208 255
176 208 255
176 208 255
176 208 255
176 208 255
176 208 255
176 208 255
176 208 255
176 208 255
175 207 255
175 207 255
175 207 255
175 207 255
175 207 255
175 207 255
175 207 255
175 207 255
175 207 255
175 207 255
175 207 255
175 207 255
175 207 255
175 207 255
174 207 255
174 207 255
174 207 255
174 207 255
174 207 255
174 207 255
174 207 255
174 207 255
174 207 255
174 207 255
174 206 255
174 206 255
174 206 255
174 206 255
174 206 255
173 206 255
173 206 255
173 206 255
173 206 255
173 206 255
173 206 255
173 206 255
173 206 255
173 206 255
173 206 255
173 206 255
173 206 255
173 206 255
173 206 255
172 206 255
172 206 255
172 206 255
172 206 255
172 206 255
172 206 255
172 205 255
172 205 255
172 205 255
172 205 255
172 205 255
154 184 230
88 106 134
81 98 123
79 96 122
81 98 125
84 101 126
84 101 126
80 96 121
81 99 124
81 98 122
83 99 123
77 95 121
78 95 122
80 97 123
81 97 122
83 100 125
86 102 126
81 98 124
79 96 121
80 96 121
82 99 125
80 97 121
82 100 127
79 95 119
82 99 124
79 96 121
83 99 124
85 101 125
79 96 120
81 98 122
78 95 119
84 99 122
84 100 125
82 99 124
80 97 122
82 98 122
80 97 121
81 97 122
85 101 124
80 97 122
85 101 125
80 98 125
81 97 121
81 98 122
85 101 126
80 96 120
80 97 122
80 96 120
84 100 124
82 98 123
83 99 124
81 98 123
82 99 123
81 98 122
81 97 121
83 99 122
81 98 122
80 96 121
81 98 124
83 99 122
83 100 126
79 95 119
82 98 121
82 98 122
81 97 121
79 96 120
80 97 123
82 97 120
82 100 126
79 96 120
79 96 121
79 95 120
79 96 122
83 99 123
82 98 123
79 96 121
82 99 126
81 97 123
81 98 124
82 98 122
81 98 123
81 98 123
77 94 120
83 99 123
82 99 123
81 98 123
81 98 124
81 98 123
81 97 122
85 101 126
80 97 122
83 100 126
80 96 121
79 96 122
84 101 126
83 100 126
78 95 120
82 99 125
81 98 124
83 99 124
80 98 124
82 100 126
79 98 126
156 186 232
172 205 255
172 205 255
172 205 255
172 205 255
172 205 255
172 206 255
172 206 255
172 206 255
172 206 255
172 206 255
173 206 255
173 206 255
173 206 255
173 206 255
173 206 255
173 206 255
173 206 255
173 206 255
173 206 255
173 206 255
173 206 255
173 206 255
173 206 255
173 206 255
173 206 255
173 206 255
174 206 255
174 206 255
174 206 255
174 206 255
174 207 255
174 207 255
174 207 255
174 207 255
174 207 255
174 207 255
174 207 255
174 207 255
174 207 255
174 207 255
175 207 255
175 207 255
175 207 255
175 207 255
175 207 255
175 207 255
175 207 255
175 207 255
175 207 255
175 207 255
175 207 255
175 207 255
175 207 255
175 207 255
176 208 255
176 208 255
176 208 255
176 208 255
176 208 255
176 208 255
176 208 255
176 208 255
176 208 255
176 208 255
176 208 255
176 208 255
176 208 255
176 208 255
176 208 255
176 208 255
177 208 255
177 208 255
177 208 255
177 208 255
177 208 255
177 208 255
177 208 255
177 208 255
177 208 255
177 208 255
177 208 255
177 209 255
177 209 255
177 209 255
177 209 255
177 209 255
177 209 255
178 209 255
178 209 255
178 209 255
178 209 255
178 209 255
178 209 255
178 209 255
178 209 255
178 209 255
178 209 255
178 209 255
178 209 255
178 209 255
178 209 255
178 209 255
178 209 255
178 209 255
179 209 255
179 209 255
179 209 255
179 209 255
179 209 255
179 209 255
179 209 255
179 210 255
179 210 255
179 210 255
179 210 255
179 210 255
179 210 255
179 210 255
179 210 255
179 210 255
179 210 255
179 210 255
179 210 255
179 210 255
179 210 255
180 210 255
180 210 255
180 210 255
180 210 255
180 210 255
180 210 255
180 210 255
180 210 255
180 210 255
180 210 255
180 210 255
180 210 255
180 210 255
180 210 255
180 210 255
180 210 255
180 210 255
180 210 255
180 210 255
180 210 255
180 210 255
180 210 255
180 210 255
181 211 255
181 211 255
181 211 255
181 211 255
181 211 255
181 211 255
181 211 255
180 210 255
180 210 255
180 210 255
180 210 255
180 210 255
180 210 255
180 210 255
180 210 255
180 210 255
180 210 255
180 210 255
180 210 255
180 210 255
180 210 255
180 210 255
180 210 255
180 210 255
180 210 255
180 210 255
180 210 255
180 210 255
180 210 255
179 210 255
179 210 255
179 210 255
179 210 255
179 210 255
179 210 255
179 210 255
179 210 255
179 210 255
179 210 255
179 210 255
179 210 255
179 210 255
179 210 255
179 209 255
179 209 255
179 209 255
179 209 255
179 209 255
179 209 255
178 209 255
178 209 255
178 209 255
178 209 255
178 209 255
178 209 255
178 209 255
178 209 255
178 209 255
178 209 255
178 209 255
178 209 255
178 209 255
178 209 255
178 209 255
178 209 255
178 209 255
178 209 255
177 209 255
177 209 255
177 209 255
177 209 255
177 209 255
177 209 255
177 208 255
177 208 255
177 208 255
177 208 255
177 208 255
177 208 255
177 208 255
177 208 255
177 208 255
177 208 255
177 208 255
176 208 255
176 208 255
176 208 255
176 208 255
176 208 255
176 208 255
176 208 255
176 208 255
176 208 255
176 208 255
176 208 255
176 208 255
176 208 255
176 208 255
176 208 255
175 207 255
175 207 255
175 207 255
175 207 255
175 207 255
175 207 255
175 207 255
175 207 255
175 207 255
175 207 255
175 207 255
175 207 255
175 207 255
175 207 255
175 207 255
174 207 255
174 207 255
174 207 255
174 207 255
174 207 255
174 207 255
174 207 255
174 207 255
174 207 255
174 207 255
174 206 255
174 206 255
174 206 255
174 206 255
174 206 255
173 206 255
173 206 255
173 206 255
173 206 255
173 206 255
173 206 255
173 206 255
173 206 255
173 206 255
173 206 255
173 206 255
173 206 255
173 206 255
173 206 255
173 206 255
173 206 255
172 206 255
172 206 255
170 203 252
96 116 147
83 99 123
79 96 122
81 98 124
84 100 124
81 98 124
80 98 124
79 97 122
80 96 121
83 100 125
77 94 119
79 95 120
78 95 120
79 96 120
84 100 126
77 94 120
80 98 124
82 99 124
81 98 122
81 97 123
84 100 123
83 99 123
78 95 120
82 99 123
83 99 123
81 98 122
83 100 124
80 97 123
80 97 122
83 99 124
83 100 124
84 100 124
81 98 124
87 102 125
82 98 122
81 98 122
79 95 120
84 100 123
82 99 124
80 96 120
81 97 121
82 98 122
80 97 122
83 99 124
76 92 117
78 94 119
82 98 122
82 99 124
82 99 123
82 97 120
81 98 123
80 97 122
79 96 121
80 96 121
81 97 122
79 95 119
80 97 121
80 96 121
80 96 120
81 98 122
80 97 123
83 99 124
76 92 116
76 92 115
80 96 121
82 98 122
83 98 121
82 99 124
80 97 123
83 99 123
82 98 122
78 94 119
83 100 126
80 97 123
83 100 126
80 96 120
79 96 120
79 96 122
81 98 124
79 96 122
83 100 125
79 95 120
76 93 119
85 101 124
79 96 121
83 100 126
83 100 125
86 101 124
82 98 122
78 95 120
80 97 123
78 96 122
80 96 121
81 97 121
79 96 122
81 98 123
82 99 124
80 97 122
83 101 126
79 96 122
85 101 126
81 99 126
81 97 121
95 114 143
167 199 247
172 206 255
172 206 255
173 206 255
173 206 255
173 206 255
173 206 255
173 206 255
173 206 255
173 206 255
173 206 255
173 206 255
173 206 255
173 206 255
173 206 255
173 206 255
173 206 255
173 206 255
173 206 255
174 206 255
174 206 255
174 206 255
174 206 255
174 206 255
174 207 255
174 207 255
174 207 255
174 207 255
174 207 255
174 207 255
174 207 255
174 207 255
174 207 255
174 207 255
175 207 255
175 207 255
175 207 255
175 207 255
175 207 255
175 207 255
175 207 255
175 207 255
175 207 255
175 207 255
175 207 255
175 207 255
175 207 255
175 207 255
175 207 255
176 208 255
176 208 255
176 208 255
176 208 255
176 208 255
176 208 255
176 208 255
176 208 255
176 208 255
176 208 255
176 208 255
176 208 255
176 208 255
176 208 255
176 208 255
177 208 255
177 208 255
177 208 255
177 208 255
177 208 255
177 208 255
177 208 255
177 208 255
177 208 255
177 208 255
177 208 255
177 209 255
177 209 255
177 209 255
177 209 255
177 209 255
177 209 255
178 209 255
178 209 255
178 209 255
178 209 255
178 209 255
178 209 255
178 209 255
178 209 255
178 209 255
178 209 255
178 209 255
178 209 255
178 209 255
178 209 255
178 209 255
178 209 255
178 209 255
179 209 255
179 209 255
179 209 255
179 209 255
179 209 255
179 209 255
179 209 255
179 210 255
179 210 255
179 210 255
179 210 255
179 210 255
179 210 255
179 210 255
179 210 255
179 210 255
179 210 255
179 210 255
179 210 255
179 210 255
180 210 255
180 210 255
180 210 255
180 210 255
180 210 255
180 210 255
180 210 255
180 210 255
180 210 255
180 210 255
180 210 255
180 210 255
180 210 255
180 210 255
180 210 255
180 210 255
180 210 255
180 210 255
180 210 255
180 210 255
180 210 255
180 210 255
180 210 255
181 211 255
181 211 255
181 211 255
181 211 255
181 211 255
181 211 255
181 211 255
181 211 255
181 211 255
181 211 255
181 211 255
181 211 255
181 211 255
181 211 255
181 211 255
181 211 255
181 211 255
181 211 255
181 211 255
181 211 255
181 211 255
180 210 255
180 210 255
180 210 255
180 210 255
180 210 255
180 210 255
180 210 255
180 210 255
180 210 255
180 210 255
180 210 255
180 210 255
180 210 255
180 210 255
180 210 255
180 210 255
180 210 255
180 210 255
180 210 255
180 210 255
180 210 255
180 210 255
179 210 255
179 210 255
179 210 255
179 210 255
179 210 255
179 210 255
179 210 255
179 210 255
179 210 255
179 210 255
179 210 255
179 210 255
179 210 255
179 209 255
179 209 255
179 209 255
179 209 255
179 209 255
179 209 255
178 209 255
178 209 255
178 209 255
178 209 255
178 209 255
178 209 255
178 209 255
178 209 255
178 209 255
178 209 255
178 209 255
178 209 255
178 209 255
178 209 255
178 209 255
178 209 255
178 209 255
178 209 255
177 209 255
177 209 255
177 209 255
177 209 255
177 209 255
177 208 255
177 208 255
177 208 255
177 208 255
177 208 255
177 208 255
177 208 255
177 208 255
177 208 255
177 208 255
177 208 255
177 208 255
176 208 255
176 208 255
176 208 255
176 208 255
176 208 255
176 208 255
176 208 255
176 208 255
176 208 255
176 208 255
176 208 255
176 208 255
176 208 255
176 208 255
176 208 255
175 207 255
175 207 255
175 207 255
175 207 255
175 207 255
175 207 255
175 207 255
175 207 255
175 207 255
175 207 255
175 207 255
175 207 255
175 207 255
175 207 255
175 207 255
174 207 255
174 207 255
174 207 255
174 207 255
174 207 255
174 207 255
174 207 255
174 207 255
174 207 255
174 207 255
174 207 255
174 206 255
174 206 255
174 206 255
174 206 255
173 206 255
173 206 255
173 206 255
173 206 255
173 206 255
173 206 255
173 206 255
173 206 255
173 206 255
173 206 255
173 206 255
173 206 255
112 134 168
81 98 124
81 98 123
85 101 126
79 96 121
83 100 125
82 99 123
86 102 126
82 99 125
81 98 123
84 99 123
84 100 125
79 95 119
82 98 122
83 99 123
83 100 126
78 95 120
81 97 123
80 96 120
83 100 124
80 97 123
82 99 123
82 98 122
78 94 118
82 97 121
80 96 120
81 97 121
84 99 122
81 97 122
84 100 123
81 97 122
81 98 124
83 99 123
82 98 122
83 100 124
82 98 121
80 96 120
82 98 122
81 98 122
82 97 120
81 97 121
81 98 122
81 97 122
80 96 120
82 98 122
81 96 120
81 97 122
79 95 119
79 95 119
81 97 121
81 98 123
81 97 122
78 95 119
81 98 124
80 97 121
79 95 119
80 96 120
84 100 123
81 98 123
82 98 122
83 99 122
83 99 122
78 95 119
84 101 126
80 97 122
80 96 120
81 97 121
82 99 123
80 96 119
82 99 124
81 97 122
82 98 124
81 97 121
82 98 122
81 97 120
78 95 120
81 97 122
81 98 124
83 99 123
82 99 123
81 98 122
83 100 125
82 97 121
81 97 121
84 100 122
84 101 125
80 96 120
84 100 124
79 96 120
80 97 123
82 98 123
82 99 125
86 101 124
82 98 122
81 97 121
78 95 120
82 99 126
82 100 127
82 99 124
80 98 125
80 98 124
84 100 125
79 97 123
83 99 122
81 99 126
99 120 151
173 206 255
173 206 255
173 206 255
173 206 255
173 206 255
173 206 255
173 206 255
173 206 255
173 206 255
173 206 255
173 206 255
174 206 255
174 206 255
174 206 255
174 206 255
174 206 255
174 206 255
174 207 255
174 207 255
174 207 255
174 207 255
174 207 255
174 207 255
174 207 255
174 207 255
174 207 255
174 207 255
175 207 255
175 207 255
175 207 255
175 207 255
175 207 255
175 207 255
175 207 255
175 207 255
175 207 255
175 207 255
175 207 255
175 207 255
175 207 255
175 207 255
175 207 255
176 208 255
176 208 255
176 208 255
176 208 255
176 208 255
176 208 255
176 208 255
176 208 255
176 208 255
176 208 255
176 208 255
176 208 255
176 208 255
176 208 255
176 208 255
177 208 255
177 208 255
177 208 255
177 208 255
177 208 255
177 208 255
177 208 255
177 208 255
177 208 255
177 208 255
177 208 255
177 209 255
177 209 255
177 209 255
177 209 255
177 209 255
177 209 255
178 209 255
178 209 255
178 209 255
178 209 255
178 209 255
178 209 255
178 209 255
178 209 255
178 209 255
178 209 255
178 209 255
178 209 255
178 209 255
178 209 255
178 209 255
178 209 255
178 209 255
179 209 255
179 209 255
179 209 255
179 209 255
179 209 255
179 209 255
179 209 255
179 210 255
179 210 255
179 210 255
179 210 255
179 210 255
179 210 255
179 210 255
179 210 255
179 210 255
179 210 255
179 210 255
179 210 255
179 210 255
180 210 255
180 210 255
180 210 255
180 210 255
180 210 255
180 210 255
180 210 255
180 210 255
180 210 255
180 210 255
180 210 255
180 210 255
180 210 255
180 210 255
180 210 255
180 210 255
180 210 255
180 210 255
180 210 255
180 210 255
180 210 255
180 210 255
181 211 255
181 211 255
181 211 255
181 211 255
181 211 255
181 211 255
181 211 255
181 211 255
181 211 255
181 211 255
181 211 255
181 211 255
181 211 255
181 211 255
181 211 255
181 211 255
181 211 255
181 211 255
181 211 255
181 211 255
181 211 255
181 211 255
181 211 255
181 211 255
181 211 255
181 211 255
181 211 255
181 211 255
181 211 255
181 211 255
181 211 255
181 211 255
181 211 255
181 211 255
180 210 255
180 210 255
180 210 255
180 210 255
180 210 255
180 210 255
180 210 255
180 210 255
180 210 255
180 210 255
180 210 255
180 210 255
180 210 255
180 210 255
180 210 255
180 210 255
180 210 255
180 210 255
180 210 255
180 210 255
180 210 255
180 210 255
179 210 255
179 210 255
179 210 255
179 210 255
179 210 255
179 210 255
179 210 255
179 210 255
179 210 255
179 210 255
179 210 255
179 210 255
179 210 255
179 209 255
179 209 255
179 209 255
179 209 255
179 209 255
179 209 255
178 209 255
178 209 255
178 209 255
178 209 255
178 209 255
178 209 255
178 209 255
178 209 255
178 209 255
178 209 255
178 209 255
178 209 255
178 209 255
178 209 255
178 209 255
178 209 255
178 209 255
178 209 255
177 209 255
177 209 255
177 209 255
177 209 255
177 209 255
177 209 255
177 208 255
177 208 255
177 208 255
177 208 255
177 208 255
177 208 255
177 208 255
177 208 255
177 208 255
177 208 255
177 208 255
176 208 255
176 208 255
176 208 255
176 208 255
176 208 255
176 208 255
176 208 255
176 208 255
176 208 255
176 208 255
176 208 255
176 208 255
176 208 255
176 208 255
176 208 255
175 207 255
175 207 255
175 207 255
175 207 255
175 207 255
175 207 255
175 207 255
175 207 255
175 207 255
175 207 255
175 207 255
175 207 255
175 207 255
175 207 255
175 207 255
175 207 255
174 207 255
174 207 255
174 207 255
174 207 255
174 207 255
174 207 255
174 207 255
174 207 255
174 207 255
174 207 255
174 206 255
174 206 255
174 206 255
174 206 255
174 206 255
174 206 255
173 206 255
173 206 255
173 206 255
147 176 218
79 96 122
81 98 123
82 99 124
82 99 123
80 97 123
82 99 125
81 98 123
80 97 123
81 98 122
82 99 124
80 97 122
82 98 123
86 102 126
83 100 126
82 99 124
82 98 122
79 95 120
78 94 118
79 95 119
79 96 120
82 99 124
83 99 124
83 99 124
83 99 123
83 99 124
82 98 123
80 96 121
81 98 123
80 96 121
83 99 123
80 96 121
82 98 121
81 97 122
81 98 124
80 97 122
80 96 120
85 101 126
83 99 124
84 100 124
82 98 122
83 99 123
81 97 121
80 96 120
82 98 122
80 96 119
84 100 124
82 99 123
78 94 119
82 98 122
82 98 123
80 96 120
81 96 119
83 99 122
79 96 122
82 98 122
83 99 124
81 97 122
79 95 120
83 99 123
81 97 122
81 97 121
79 96 121
80 96 120
79 96 120
83 99 123
80 97 122
78 95 120
78 94 118
82 99 124
77 94 120
81 97 120
81 97 122
83 99 123
82 99 125
78 95 120
82 97 121
81 98 123
84 100 124
76 94 120
81 98 124
82 98 123
83 99 124
81 98 123
82 98 123
81 98 123
81 97 121
81 97 122
80 97 122
77 94 119
83 100 125
81 98 123
82 97 120
83 98 122
80 96 120
80 97 122
80 96 122
79 95 119
81 98 124
79 96 120
80 97 122
80 97 124
85 101 126
79 96 121
78 95 122
84 100 124
81 98 124
142 169 210
173 206 255
173 206 255
173 206 255
173 206 255
174 206 255
174 206 255
174 206 255
174 206 255
174 206 255
174 207 255
174 207 255
174 207 255
174 207 255
174 207 255
174 207 255
174 207 255
174 207 255
174 207 255
174 207 255
174 207 255
175 207 255
175 207 255
175 207 255
175 207 255
175 207 255
175 207 255
175 207 255
175 207 255
175 207 255
175 207 255
175 207 255
175 207 255
175 207 255
175 207 255
175 207 255
176 208 255
176 208 255
176 208 255
176 208 255
176 208 255
176 208 255
176 208 255
176 208 255
176 208 255
176 208 255
176 208 255
176 208 255
176 208 255
176 208 255
176 208 255
176 208 255
177 208 255
177 208 255
177 208 255
177 208 255
177 208 255
177 208 255
177 208 255
177 208 255
177 208 255
177 208 255
177 209 255
177 209 255
177 209 255
177 209 255
177 209 255
177 209 255
178 209 255
178 209 255
178 209 255
178 209 255
178 209 255
178 209 255
178 209 255
178 209 255
178 209 255
178 209 255
178 209 255
178 209 255
178 209 255
178 209 255
178 209 255
178 209 255
178 209 255
179 209 255
179 209 255
179 209 255
179 209 255
179 209 255
179 209 255
179 209 255
179 210 255
179 210 255
179 210 255
179 210 255
179 210 255
179 210 255
179 210 255
179 210 255
179 210 255
179 210 255
179 210 255
179 210 255
179 210 255
180 210 255
180 210 255
180 210 255
180 210 255
180 210 255
180 210 255
180 210 255
180 210 255
180 210 255
180 210 255
180 210 255
180 210 255
180 210 255
180 210 255
180 210 255
180 210 255
180 210 255
180 210 255
180 210 255
180 210 255
180 210 255
180 210 255
181 211 255
181 211 255
181 211 255
181 211 255
181 211 255
181 211 255
181 211 255
181 211 255
181 211 255
181 211 255
181 211 255
181 211 255
181 211 255
181 211 255
181 211 255
181 211 255
181 211 255
181 211 255
181 211 255
181 211 255
182 211 255
182 211 255
181 211 255
181 211 255
181 211 255
181 211 255
181 211 255
181 211 255
181 211 255
181 211 255
181 211 255
181 211 255
181 211 255
181 211 255
181 211 255
181 211 255
181 211 255
181 211 255
181 211 255
181 211 255
181 211 255
181 211 255
181 211 255
181 211 255
181 211 255
181 211 255
181 211 255
180 210 255
180 210 255
180 210 255
180 210 255
180 210 255
180 210 255
180 210 255
180 210 255
180 210 255
180 210 255
180 210 255
180 210 255
180 210 255
180 210 255
180 210 255
180 210 255
180 210 255
180 210 255
180 210 255
180 210 255
180 210 255
180 210 255
179 210 255
179 210 255
179 210 255
179 210 255
179 210 255
179 210 255
179 210 255
179 210 255
179 210 255
179 210 255
179 210 255
179 210 255
179 210 255
179 209 255
179 209 255
179 209 255
179 209 255
179 209 255
179 209 255
178 209 255
178 209 255
178 209 255
178 209 255
178 209 255
178 209 255
178 209 255
178 209 255
178 209 255
178 209 255
178 209 255
178 209 255
178 209 255
178 209 255
178 209 255
178 209 255
178 209 255
178 209 255
177 209 255
177 209 255
177 209 255
177 209 255
177 209 255
177 208 255
177 208 255
177 208 255
177 208 255
177 208 255
177 208 255
177 208 255
177 208 255
177 208 255
177 208 255
177 208 255
176 208 255
176 208 255
176 208 255
176 208 255
176 208 255
176 208 255
176 208 255
176 208 255
176 208 255
176 208 255
176 208 255
176 208 255
176 208 255
176 208 255
176 208 255
176 208 255
175 207 255
175 207 255
175 207 255
175 207 255
175 207 255
175 207 255
175 207 255
175 207 255
175 207 255
175 207 255
175 207 255
175 207 255
175 207 255
175 207 255
175 207 255
175 207 255
174 207 255
174 207 255
174 207 255
174 207 255
174 207 255
174 207 255
174 207 255
174 207 255
174 207 255
174 207 255
174 207 255
161 191 237
81 99 126
83 99 124
81 98 123
78 95 121
84 101 126
82 99 125
79 95 119
81 98 123
82 98 122
80 96 119
78 95 120
84 100 123
83 99 124
83 98 121
82 98 124
81 97 122
81 99 124
78 95 120
78 95 119
84 100 123
82 98 123
75 92 117
81 97 121
82 99 123
81 98 123
80 96 121
81 98 122
79 96 120
78 95 120
84 100 124
81 96 119
81 96 119
76 93 118
79 95 120
81 98 123
79 96 120
80 96 120
80 97 122
81 97 122
83 99 123
83 99 122
80 96 120
81 98 122
82 99 124
82 99 124
81 97 121
82 98 122
80 96 120
81 97 121
78 94 120
79 95 119
82 97 120
80 96 120
78 94 118
80 95 118
80 96 121
79 96 122
80 97 122
83 99 122
78 95 121
81 97 121
79 95 119
82 98 122
81 96 120
78 94 119
79 96 121
78 94 119
81 98 124
82 98 123
83 99 124
80 96 120
78 93 117
76 93 117
82 99 124
81 98 124
79 96 121
85 101 125
82 99 124
82 99 124
83 99 124
81 98 124
81 97 122
82 99 124
77 94 119
75 92 118
78 94 118
80 96 120
82 98 123
81 98 124
82 98 122
80 96 121
80 96 120
79 96 121
79 95 119
82 97 121
80 97 122
85 101 125
80 96 121
79 95 120
84 100 126
83 100 125
80 97 123
84 99 123
83 99 124
81 98 122
80 97 124
80 97 124
86 103 129
166 197 244
174 207 255
174 207 255
174 207 255
174 207 255
174 207 255
174 207 255
174 207 255
174 207 255
174 207 255
174 207 255
174 207 255
175 207 255
175 207 255
175 207 255
175 207 255
175 207 255
175 207 255
175 207 255
175 207 255
175 207 255
175 207 255
175 207 255
175 207 255
175 207 255
175 207 255
175 207 255
175 207 255
176 208 255
176 208 255
176 208 255
176 208 255
176 208 255
176 208 255
176 208 255
176 208 255
176 208 255
176 208 255
176 208 255
176 208 255
176 208 255
176 208 255
176 208 255
176 208 255
177 208 255
177 208 255
177 208 255
177 208 255
177 208 255
177 208 255
177 208 255
177 208 255
177 208 255
177 208 255
177 208 255
177 209 255
177 209 255
177 209 255
177 209 255
177 209 255
177 209 255
178 209 255
178 209 255
178 209 255
178 209 255
178 209 255
178 209 255
178 209 255
178 209 255
178 209 255
178 209 255
178 209 255
178 209 255
178 209 255
178 209 255
178 209 255
178 209 255
178 209 255
179 209 255
179 209 255
179 209 255
179 209 255
179 209 255
179 209 255
179 210 255
179 210 255
179 210 255
179 210 255
179 210 255
179 210 255
179 210 255
179 210 255
179 210 255
179 210 255
179 210 255
179 210 255
179 210 255
179 210 255
180 210 255
180 210 255
180 210 255
180 210 255
180 210 255
180 210 255
180 210 255
180 210 255
180 210 255
180 210 255
180 210 255
180 210 255
180 210 255
180 210 255
180 210 255
180 210 255
180 210 255
180 210 255
180 210 255
180 210 255
180 210 255
181 211 255
181 211 255
181 211 255
181 211 255
181 211 255
181 211 255
181 211 255
181 211 255
181 211 255
181 211 255
181 211 255
181 211 255
181 211 255
181 211 255
181 211 255
181 211 255
181 211 255
181 211 255
181 211 255
181 211 255
181 211 255
181 211 255
181 211 255
181 211 255
181 211 255
182 211 255
182 211 255
182 211 255
182 211 255
182 211 255
182 211 255
182 211 255
182 211 255
182 211 255
182 211 255
182 211 255
182 211 255
181 211 255
181 211 255
181 211 255
181 211 255
181 211 255
181 211 255
181 211 255
181 211 255
181 211 255
181 211 255
181 211 255
181 211 255
181 211 255
181 211 255
181 211 255
181 211 255
181 211 255
181 211 255
181 211 255
181 211 255
181 211 255
181 211 255
181 211 255
181 211 255
180 210 255
180 210 255
180 210 255
180 210 255
180 210 255
180 210 255
180 210 255
180 210 255
180 210 255
180 210 255
180 210 255
180 210 255
180 210 255
180 210 255
180 210 255
180 210 255
180 210 255
180 210 255
180 210 255
180 210 255
180 210 255
179 210 255
179 210 255
179 210 255
179 210 255
179 210 255
179 210 255
179 210 255
179 210 255
179 210 255
179 210 255
179 210 255
179 210 255
179 210 255
179 209 255
179 209 255
179 209 255
179 209 255
179 209 255
179 209 255
179 209 255
178 209 255
178 209 255
178 209 255
178 209 255
178 209 255
178 209 255
178 209 255
178 209 255
178 209 255
178 209 255
178 209 255
178 209 255
178 209 255
178 209 255
178 209 255
178 209 255
178 209 255
177 209 255
177 209 255
177 209 255
177 209 255
177 209 255
177 209 255
177 208 255
177 208 255
177 208 255
177 208 255
177 208 255
177 208 255
177 208 255
177 208 255
177 208 255
177 208 255
176 208 255
176 208 255
176 208 255
176 208 255
176 208 255
176 208 255
176 208 255
176 208 255
176 208 255
176 208 255
176 208 255
176 208 255
176 208 255
176 208 255
176 208 255
176 208 255
175 207 255
175 207 255
175 207 255
175 207 255
175 207 255
175 207 255
175 207 255
175 207 255
175 207 255
175 207 255
175 207 255
175 207 255
175 207 255
175 207 255
175 207 255
175 207 255
175 207 255
174 207 255
174 207 255
174 207 255
174 207 255
103 123 154
83 99 124
83 99 124
82 98 121
80 97 122
79 96 120
86 102 126
82 99 124
81 97 122
82 99 124
80 96 120
81 98 123
79 95 120
80 96 121
83 99 124
80 96 120
83 98 121
75 92 117
81 98 122
82 99 124
80 97 122
80 96 120
79 95 119
79 95 119
79 96 121
81 97 121
80 96 119
79 95 120
83 99 123
83 98 122
79 96 121
82 98 123
81 98 123
81 98 123
78 94 119
79 96 120
80 97 121
83 99 124
79 94 117
82 98 122
81 97 121
81 98 124
82 99 123
82 99 123
81 98 122
81 98 124
82 98 122
80 96 121
79 94 117
81 98 122
80 96 120
81 98 122
80 96 121
81 97 122
82 98 123
80 96 121
84 99 122
81 97 121
82 98 121
81 97 121
83 99 122
77 94 118
81 97 121
80 96 119
79 96 121
81 97 120
79 95 119
81 97 122
78 96 122
80 97 122
82 98 122
80 97 121
79 95 120
80 96 120
83 99 122
81 97 122
78 95 119
80 97 122
82 98 123
81 97 120
84 99 122
85 100 123
80 95 119
79 95 119
77 93 118
81 96 120
81 97 122
81 98 122
81 99 124
80 97 123
77 94 118
80 97 122
83 99 123
78 93 117
80 96 120
80 95 119
77 93 119
84 100 124
82 98 122
81 97 122
77 94 119
81 97 122
81 97 122
82 99 125
81 97 123
83 100 124
82 99 124
84 101 126
83 100 126
108 128 159
174 206 254
174 207 255
174 207 255
174 207 255
175 207 255
175 207 255
175 207 255
175 207 255
175 207 255
175 207 255
175 207 255
175 207 255
175 207 255
175 207 255
175 207 255
175 207 255
175 207 255
175 207 255
175 207 255
175 207 255
175 207 255
176 208 255
176 208 255
176 208 255
176 208 255
176 208 255
176 208 255
176 208 255
176 208 255
176 208 255
176 208 255
176 208 255
176 208 255
176 208 255
176 208 255
176 208 255
176 208 255
177 208 255
177 208 255
177 208 255
177 208 255
177 208 255
177 208 255
177 208 255
177 208 255
177 208 255
177 208 255
177 208 255
177 209 255
177 209 255
177 209 255
177 209 255
177 209 255
178 209 255
178 209 255
178 209 255
178 209 255
178 209 255
178 209 255
178 209 255
178 209 255
178 209 255
178 209 255
178 209 255
178 209 255
178 209 255
178 209 255
178 209 255
178 209 255
178 209 255
178 209 255
179 209 255
179 209 255
179 209 255
179 209 255
179 209 255
179 209 255
179 210 255
179 210 255
179 210 255
179 210 255
179 210 255
179 210 255
179 210 255
179 210 255
179 210 255
179 210 255
179 210 255
179 210 255
179 210 255
180 210 255
180 210 255
180 210 255
180 210 255
180 210 255
180 210 255
180 210 255
180 210 255
180 210 255
180 210 255
180 210 255
180 210 255
180 210 255
180 210 255
180 210 255
180 210 255
180 210 255
180 210 255
180 210 255
180 210 255
180 210 255
181 211 255
181 211 255
181 211 255
181 211 255
181 211 255
181 211 255
181 211 255
181 211 255
181 211 255
181 211 255
181 211 255
181 211 255
181 211 255
181 211 255
181 211 255
181 211 255
181 211 255
181 211 255
181 211 255
181 211 255
181 211 255
181 211 255
181 211 255
181 211 255
181 211 255
182 211 255
182 211 255
182 211 255
182 211 255
182 211 255
182 211 255
182 211 255
182 211 255
182 211 255
182 211 255
182 211 255
182 211 255
182 211 255
182 211 255
182 211 255
182 211 255
182 211 255
182 211 255
182 211 255
182 211 255
182 211 255
182 211 255
182 211 255
182 211 255
182 211 255
182 211 255
181 211 255
181 211 255
181 211 255
181 211 255
181 211 255
181 211 255
181 211 255
181 211 255
181 211 255
181 211 255
181 211 255
181 211 255
181 211 255
181 211 255
181 211 255
181 211 255
181 211 255
181 211 255
181 211 255
181 211 255
181 211 255
181 211 255
181 211 255
181 211 255
180 210 255
180 210 255
180 210 255
180 210 255
180 210 255
180 210 255
180 210 255
180 210 255
180 210 255
180 210 255
180 210 255
180 210 255
180 210 255
180 210 255
180 210 255
180 210 255
180 210 255
180 210 255
180 210 255
180 210 255
180 210 255
179 210 255
179 210 255
179 210 255
179 210 255
179 210 255
179 210 255
179 210 255
179 210 255
179 210 255
179 210 255
179 210 255
179 210 255
179 209 255
179 209 255
179 209 255
179 209 255
179 209 255
179 209 255
179 209 255
178 209 255
178 209 255
178 209 255
178 209 255
178 209 255
178 209 255
178 209 255
178 209 255
178 209 255
178 209 255
178 209 255
178 209 255
178 209 255
178 209 255
178 209 255
178 209 255
178 209 255
177 209 255
177 209 255
177 209 255
177 209 255
177 209 255
177 209 255
177 208 255
177 208 255
177 208 255
177 208 255
177 208 255
177 208 255
177 208 255
177 208 255
177 208 255
177 208 255
177 208 255
176 208 255
176 208 255
176 208 255
176 208 255
176 208 255
176 208 255
176 208 255
176 208 255
176 208 255
176 208 255
176 208 255
176 208 255
176 208 255
176 208 255
176 208 255
176 208 255
176 208 255
175 207 255
175 207 255
175 207 255
175 207 255
175 207 255
175 207 255
175 207 255
175 207 255
175 207 255
175 207 255
175 207 255
175 207 255
142 169 210
79 96 121
79 96 121
84 100 124
82 98 123
81 97 121
83 98 122
81 97 121
80 97 122
81 97 121
80 97 121
82 97 120
82 99 124
79 95 120
81 98 123
84 99 121
81 96 120
80 96 120
83 99 122
77 94 118
82 98 123
78 94 119
78 95 119
79 95 119
80 97 123
79 96 121
84 101 125
80 96 119
82 99 124
78 94 118
78 94 119
78 94 119
78 95 120
80 96 120
79 95 119
77 94 119
82 97 120
80 97 122
79 95 119
82 99 123
81 97 122
77 92 115
81 98 124
78 94 118
80 96 119
80 95 118
83 98 120
79 95 119
81 96 120
80 98 125
84 100 124
81 96 120
79 95 119
80 95 119
83 99 122
83 99 123
79 95 120
82 97 120
79 95 119
79 96 121
81 97 122
80 97 122
82 98 122
81 96 120
79 95 120
84 100 124
83 99 124
81 97 120
79 96 121
82 97 120
84 100 124
79 95 119
80 96 121
81 97 121
83 99 125
80 96 119
78 94 119
79 97 122
80 96 121
82 98 122
78 94 119
84 99 123
77 93 118
83 99 123
84 100 124
80 96 120
80 96 119
81 98 122
79 95 120
80 97 121
83 99 124
82 98 122
79 95 120
80 96 120
80 98 124
82 99 124
79 95 120
80 95 119
84 100 125
81 97 122
81 98 124
80 97 122
81 97 122
81 97 122
82 97 120
82 98 122
82 99 125
80 96 119
81 97 122
80 97 122
82 99 124
152 180 223
175 207 255
175 207 255
175 207 255
175 207 255
175 207 255
175 207 255
175 207 255
175 207 255
175 207 255
175 207 255
175 207 255
175 207 255
175 207 255
176 208 255
176 208 255
176 208 255
176 208 255
176 208 255
176 208 255
176 208 255
176 208 255
176 208 255
176 208 255
176 208 255
176 208 255
176 208 255
176 208 255
176 208 255
176 208 255
177 208 255
177 208 255
177 208 255
177 208 255
177 208 255
177 208 255
177 208 255
177 208 255
177 208 255
177 208 255
177 208 255
177 209 255
177 209 255
177 209 255
177 209 255
177 209 255
177 209 255
178 209 255
178 209 255
178 209 255
178 209 255
178 209 255
178 209 255
178 209 255
178 209 255
178 209 255
178 209 255
178 209 255
178 209 255
178 209 255
178 209 255
178 209 255
178 209 255
178 209 255
179 209 255
179 209 255
179 209 255
179 209 255
179 209 255
179 209 255
179 210 255
179 210 255
179 210 255
179 210 255
179 210 255
179 210 255
179 210 255
179 210 255
179 210 255
179 210 255
179 210 255
179 210 255
179 210 255
180 210 255
180 210 255
180 210 255
180 210 255
180 210 255
180 210 255
180 210 255
180 210 255
180 210 255
180 210 255
180 210 255
180 210 255
180 210 255
180 210 255
180 210 255
180 210 255
180 210 255
180 210 255
180 210 255
180 210 255
180 210 255
181 211 255
181 211 255
181 211 255
181 211 255
181 211 255
181 211 255
181 211 255
181 211 255
181 211 255
181 211 255
181 211 255
181 211 255
181 211 255
181 211 255
181 211 255
181 211 255
181 211 255
181 211 255
181 211 255
181 211 255
181 211 255
181 211 255
181 211 255
181 211 255
182 211 255
182 211 255
182 211 255
182 211 255
182 211 255
182 211 255
182 211 255
182 211 255
182 211 255
182 211 255
182 211 255
182 211 255
182 211 255
182 211 255
182 211 255
182 211 255
182 211 255
182 212 255
182 212 255
182 212 255
182 212 255
182 212 255
182 212 255
182 212 255
182 211 255
182 211 255
182 211 255
182 211 255
182 211 255
182 211 255
182 211 255
182 211 255
182 211 255
182 211 255
182 211 255
182 211 255
182 211 255
182 211 255
182 211 255
182 211 255
182 211 255
181 211 255
181 211 255
181 211 255
181 211 255
181 211 255
181 211 255
181 211 255
181 211 255
181 211 255
181 211 255
181 211 255
181 211 255
181 211 255
181 211 255
181 211 255
181 211 255
181 211 255
181 211 255
181 211 255
181 211 255
181 211 255
181 211 255
181 211 255
181 211 255
180 210 255
180 210 255
180 210 255
180 210 255
180 210 255
180 210 255
180 210 255
180 210 255
180 210 255
180 210 255
180 210 255
180 210 255
180 210 255
180 210 255
180 210 255
180 210 255
180 210 255
180 210 255
180 210 255
180 210 255
180 210 255
179 210 255
179 210 255
179 210 255
179 210 255
179 210 255
179 210 255
179 210 255
179 210 255
179 210 255
179 210 255
179 210 255
179 210 255
179 209 255
179 209 255
179 209 255
179 209 255
179 209 255
179 209 255
179 209 255
178 209 255
178 209 255
178 209 255
178 209 255
178 209 255
178 209 255
178 209 255
178 209 255
178 209 255
178 209 255
178 209 255
178 209 255
178 209 255
178 209 255
178 209 255
178 209 255
178 209 255
177 209 255
177 209 255
177 209 255
177 209 255
177 209 255
177 209 255
177 208 255
177 208 255
177 208 255
177 208 255
177 208 255
177 208 255
177 208 255
177 208 255
177 208 255
177 208 255
177 208 255
176 208 255
176 208 255
176 208 255
176 208 255
176 208 255
176 208 255
176 208 255
176 208 255
176 208 255
176 208 255
176 208 255
176 208 255
176 208 255
176 208 255
176 208 255
176 208 255
176 208 255
175 207 255
175 207 255
175 207 255
175 207 255
170 201 248
93 112 142
82 99 123
80 96 122
81 98 124
82 99 123
78 94 119
83 98 121
82 98 122
82 98 122
80 96 120
78 95 120
79 95 119
81 98 123
82 98 122
77 94 119
81 97 122
81 97 120
81 97 121
83 98 121
85 101 125
79 96 121
81 98 123
83 99 123
76 92 116
77 94 119
79 97 122
77 93 116
79 95 118
81 97 120
82 97 120
83 99 122
80 95 118
79 96 120
80 96 120
81 97 121
79 95 120
81 98 122
77 93 117
82 98 122
82 98 121
81 97 122
79 95 119
80 96 120
77 94 120
81 97 122
78 94 118
80 96 120
79 95 120
80 96 120
79 95 118
81 96 120
77 94 118
85 101 125
79 94 118
78 95 121
78 95 120
80 97 122
80 95 118
82 98 122
78 95 120
83 99 123
80 97 123
83 98 122
80 95 117
77 94 120
82 98 122
87 102 124
81 97 122
80 96 121
80 96 120
82 98 123
82 98 122
82 98 123
80 97 122
84 99 122
80 95 119
83 100 124
81 96 120
84 99 121
84 99 121
83 97 119
79 95 120
79 95 119
81 96 119
82 98 121
81 97 122
76 92 117
82 98 122
82 98 123
83 99 124
82 98 122
80 96 121
82 99 124
79 95 120
81 97 120
80 95 119
80 96 121
79 95 119
79 95 119
78 95 119
82 99 124
81 98 122
79 95 121
81 97 122
81 98 124
80 96 120
81 98 124
80 97 122
80 97 122
81 98 124
83 99 124
90 109 138
172 204 251
175 207 255
175 207 255
175 207 255
176 208 255
176 208 255
176 208 255
176 208 255
176 208 255
176 208 255
176 208 255
176 208 255
176 208 255
176 208 255
176 208 255
176 208 255
176 208 255
176 208 255
176 208 255
176 208 255
176 208 255
176 208 255
177 208 255
177 208 255
177 208 255
177 208 255
177 208 255
177 208 255
177 208 255
177 208 255
177 208 255
177 208 255
177 208 255
177 209 255
177 209 255
177 209 255
177 209 255
177 209 255
177 209 255
178 209 255
178 209 255
178 209 255
178 209 255
178 209 255
178 209 255
178 209 255
178 209 255
178 209 255
178 209 255
178 209 255
178 209 255
178 209 255
178 209 255
178 209 255
178 209 255
178 209 255
178 209 255
179 209 255
179 209 255
179 209 255
179 209 255
179 209 255
179 209 255
179 210 255
179 210 255
179 210 255
179 210 255
179 210 255
179 210 255
179 210 255
179 210 255
179 210 255
179 210 255
179 210 255
179 210 255
180 210 255
180 210 255
180 210 255
180 210 255
180 210 255
180 210 255
180 210 255
180 210 255
180 210 255
180 210 255
180 210 255
180 210 255
180 210 255
180 210 255
180 210 255
180 210 255
180 210 255
180 210 255
180 210 255
180 210 255
180 210 255
181 211 255
181 211 255
181 211 255
181 211 255
181 211 255
181 211 255
181 211 255
181 211 255
181 211 255
181 211 255
181 211 255
181 211 255
181 211 255
181 211 255
181 211 255
181 211 255
181 211 255
181 211 255
181 211 255
181 211 255
181 211 255
181 211 255
181 211 255
181 211 255
182 211 255
182 211 255
182 211 255
182 211 255
182 211 255
182 211 255
182 211 255
182 211 255
182 211 255
182 211 255
182 211 255
182 211 255
182 211 255
182 211 255
182 211 255
182 211 255
182 211 255
182 211 255
182 212 255
182 212 255
182 212 255
182 212 255
182 212 255
182 212 255
183 212 255
183 212 255
183 212 255
183 212 255
183 212 255
182 212 255
182 212 255
182 212 255
182 212 255
182 212 255
182 212 255
182 212 255
182 212 255
182 212 255
182 212 255
182 211 255
182 211 255
182 211 255
182 211 255
182 211 255
182 211 255
182 211 255
182 211 255
182 211 255
182 211 255
182 211 255
182 211 255
182 211 255
182 211 255
182 211 255
182 211 255
182 211 255
181 211 255
181 211 255
181 211 255
181 211 255
181 211 255
181 211 255
181 211 255
181 211 255
181 211 255
181 211 255
181 211 255
181 211 255
181 211 255
181 211 255
181 211 255
181 211 255
181 211 255
181 211 255
181 211 255
181 211 255
181 211 255
181 211 255
181 211 255
180 210 255
180 210 255
180 210 255
180 210 255
180 210 255
180 210 255
180 210 255
180 210 255
180 210 255
180 210 255
180 210 255
180 210 255
180 210 255
180 210 255
180 210 255
180 210 255
180 210 255
180 210 255
180 210 255
180 210 255
180 210 255
179 210 255
179 210 255
179 210 255
179 210 255
179 210 255
179 210 255
179 210 255
179 210 255
179 210 255
179 210 255
179 210 255
179 210 255
179 210 255
179 209 255
179 209 255
179 209 255
179 209 255
179 209 255
178 209 255
178 209 255
178 209 255
178 209 255
178 209 255
178 209 255
178 209 255
178 209 255
178 209 255
178 209 255
178 209 255
178 209 255
178 209 255
178 209 255
178 209 255
178 209 255
178 209 255
178 209 255
177 209 255
177 209 255
177 209 255
177 209 255
177 209 255
177 209 255
177 208 255
177 208 255
177 208 255
177 208 255
177 208 255
177 208 255
177 208 255
177 208 255
177 208 255
177 208 255
177 208 255
176 208 255
176 208 255
176 208 255
176 208 255
176 208 255
176 208 255
176 208 255
176 208 255
176 208 255
176 208 255
176 208 255
176 208 255
176 208 255
176 208 255
121 144 179
82 99 124
84 100 124
81 98 122
83 98 121
81 97 122
81 96 119
78 95 121
82 98 122
81 97 120
82 99 123
83 98 121
81 98 122
76 92 115
79 95 119
78 94 117
80 96 120
80 97 122
80 96 122
79 96 121
82 98 122
83 99 122
78 94 118
79 95 120
79 96 121
82 98 123
84 100 124
83 98 122
80 95 119
81 97 122
81 98 123
81 97 120
79 95 119
83 99 124
80 96 120
80 95 119
78 94 119
82 98 122
82 98 122
78 94 119
78 95 120
79 94 117
78 94 118
82 97 120
80 96 120
78 94 119
83 98 120
78 94 118
77 93 117
77 94 119
78 93 117
77 93 117
83 99 123
82 97 120
81 97 122
84 100 124
81 97 122
82 98 122
83 99 122
81 97 121
78 94 119
84 100 124
79 95 118
79 95 119
80 95 118
79 95 119
82 98 121
79 94 118
81 96 120
79 95 119
79 95 119
78 95 119
77 92 115
80 96 120
81 97 120
78 95 120
80 96 119
76 92 116
80 96 121
83 99 122
83 99 122
78 95 120
78 94 119
82 98 121
77 94 118
79 95 118
79 95 119
82 97 121
82 97 121
80 97 122
83 99 123
80 96 120
80 95 119
83 98 122
79 95 119
81 97 121
79 95 118
82 98 121
79 96 121
81 98 124
80 96 120
80 96 120
80 96 120
80 96 120
85 100 123
80 97 121
84 100 125
82 98 124
82 98 123
80 97 122
82 99 123
80 96 121
80 97 122
127 150 186
176 208 255
176 208 255
176 208 255
176 208 255
176 208 255
176 208 255
176 208 255
176 208 255
176 208 255
176 208 255
176 208 255
176 208 255
176 208 255
177 208 255
177 208 255
177 208 255
177 208 255
177 208 255
177 208 255
177 208 255
177 208 255
177 208 255
177 208 255
177 208 255
177 208 255
177 209 255
177 209 255
177 209 255
177 209 255
177 209 255
177 209 255
178 209 255
178 209 255
178 209 255
178 209 255
178 209 255
178 209 255
178 209 255
178 209 255
178 209 255
178 209 255
178 209 255
178 209 255
178 209 255
178 209 255
178 209 255
178 209 255
178 209 255
179 209 255
179 209 255
179 209 255
179 209 255
179 209 255
179 209 255
179 209 255
179 210 255
179 210 255
179 210 255
179 210 255
179 210 255
179 210 255
179 210 255
179 210 255
179 210 255
179 210 255
179 210 255
179 210 255
180 210 255
180 210 255
180 210 255
180 210 255
180 210 255
180 210 255
180 210 255
180 210 255
180 210 255
180 210 255
180 210 255
180 210 255
180 210 255
180 210 255
180 210 255
180 210 255
180 210 255
180 210 255
180 210 255
180 210 255
180 210 255
181 211 255
181 211 255
181 211 255
181 211 255
181 211 255
181 211 255
181 211 255
181 211 255
181 211 255
181 211 255
181 211 255
181 211 255
181 211 255
181 211 255
181 211 255
181 211 255
181 211 255
181 211 255
181 211 255
181 211 255
181 211 255
181 211 255
181 211 255
182 211 255
182 211 255
182 211 255
182 211 255
182 211 255
182 211 255
182 211 255
182 211 255
182 211 255
182 211 255
182 211 255
182 211 255
182 211 255
182 211 255
182 211 255
182 211 255
182 211 255
182 211 255
182 212 255
182 212 255
182 212 255
182 212 255
182 212 255
182 212 255
182 212 255
182 212 255
182 212 255
183 212 255
183 212 255
183 212 255
183 212 255
183 212 255
183 212 255
183 212 255
183 212 255
183 212 255
183 212 255
183 212 255
183 212 255
183 212 255
183 212 255
183 212 255
183 212 255
183 212 255
183 212 255
182 212 255
182 212 255
182 212 255
182 212 255
182 212 255
182 212 255
182 212 255
182 212 255
182 212 255
182 212 255
182 211 255
182 211 255
182 211 255
182 211 255
182 211 255
182 211 255
182 211 255
182 211 255
182 211 255
182 211 255
182 211 255
182 211 255
182 211 255
182 211 255
182 211 255
182 211 255
182 211 255
181 211 255
181 211 255
181 211 255
181 211 255
181 211 255
181 211 255
181 211 255
181 211 255
181 211 255
181 211 255
181 211 255
181 211 255
181 211 255
181 211 255
181 211 255
181 211 255
181 211 255
181 211 255
181 211 255
181 211 255
181 211 255
181 211 255
180 210 255
180 210 255
180 210 255
180 210 255
180 210 255
180 210 255
180 210 255
180 210 255
180 210 255
180 210 255
180 210 255
180 210 255
180 210 255
180 210 255
180 210 255
180 210 255
180 210 255
180 210 255
180 210 255
180 210 255
180 210 255
179 210 255
179 210 255
179 210 255
179 210 255
179 210 255
179 210 255
179 210 255
179 210 255
179 210 255
179 210 255
179 210 255
179 210 255
179 209 255
179 209 255
179 209 255
179 209 255
179 209 255
179 209 255
179 209 255
178 209 255
178 209 255
178 209 255
178 209 255
178 209 255
178 209 255
178 209 255
178 209 255
178 209 255
178 209 255
178 209 255
178 209 255
178 209 255
178 209 255
178 209 255
178 209 255
178 209 255
178 209 255
177 209 255
177 209 255
177 209 255
177 209 255
177 209 255
177 209 255
177 208 255
177 208 255
177 208 255
177 208 255
177 208 255
177 208 255
177 208 255
177 208 255
177 208 255
177 208 255
177 208 255
177 208 255
176 208 255
176 208 255
176 208 255
176 208 255
161 190 234
83 101 127
81 96 119
79 97 122
81 97 120
81 98 123
80 97 122
78 94 119
80 96 120
81 96 119
83 100 124
79 96 122
83 99 123
81 96 119
81 97 120
82 98 121
80 96 121
81 97 121
79 96 121
79 96 120
79 96 121
80 97 121
79 94 118
79 96 120
81 97 121
81 97 121
82 98 122
76 92 117
81 96 120
79 95 119
82 98 122
80 96 119
78 94 119
75 92 117
82 96 119
80 96 121
80 97 122
75 91 115
80 97 122
83 99 122
81 97 121
79 96 120
78 95 120
79 96 121
81 97 121
81 96 119
80 96 120
77 93 119
80 96 120
79 95 119
77 93 117
80 95 118
83 98 120
81 97 122
81 96 119
81 97 122
79 95 119
78 94 120
80 96 119
76 91 113
77 93 118
78 94 118
82 97 121
77 92 115
80 96 120
82 98 122
78 94 119
82 97 121
79 94 118
78 93 115
81 96 119
81 97 121
78 94 119
79 95 118
79 95 120
78 93 117
79 94 118
85 100 122
78 95 120
79 96 121
78 95 119
81 97 120
80 97 122
81 97 121
79 95 121
79 94 117
79 95 119
81 96 119
79 94 118
81 98 122
78 94 119
78 94 117
81 96 119
80 96 121
80 96 120
79 96 120
81 97 121
79 94 116
77 92 114
75 92 117
80 96 120
78 94 120
79 95 118
80 97 121
82 98 120
81 97 122
82 98 122
82 98 122
79 95 119
81 97 122
76 92 116
82 98 122
81 97 122
83 99 124
82 100 126
171 202 248
176 208 255
176 208 255
176 208 255
176 208 255
177 208 255
177 208 255
177 208 255
177 208 255
177 208 255
177 208 255
177 208 255
177 208 255
177 208 255
177 208 255
177 208 255
177 208 255
177 209 255
177 209 255
177 209 255
177 209 255
177 209 255
177 209 255
178 209 255
178 209 255
178 209 255
178 209 255
178 209 255
178 209 255
178 209 255
178 209 255
178 209 255
178 209 255
178 209 255
178 209 255
178 209 255
178 209 255
178 209 255
178 209 255
178 209 255
178 209 255
178 209 255
179 209 255
179 209 255
179 209 255
179 209 255
179 209 255
179 209 255
179 210 255
179 210 255
179 210 255
179 210 255
179 210 255
179 210 255
179 210 255
179 210 255
179 210 255
179 210 255
179 210 255
179 210 255
180 210 255
180 210 255
180 210 255
180 210 255
180 210 255
180 210 255
180 210 255
180 210 255
180 210 255
180 210 255
180 210 255
180 210 255
180 210 255
180 210 255
180 210 255
180 210 255
180 210 255
180 210 255
180 210 255
180 210 255
181 211 255
181 211 255
181 211 255
181 211 255
181 211 255
181 211 255
181 211 255
181 211 255
181 211 255
181 211 255
181 211 255
181 211 255
181 211 255
181 211 255
181 211 255
181 211 255
181 211 255
181 211 255
181 211 255
181 211 255
181 211 255
181 211 255
181 211 255
182 211 255
182 211 255
182 211 255
182 211 255
182 211 255
182 211 255
182 211 255
182 211 255
182 211 255
182 211 255
182 211 255
182 211 255
182 211 255
182 211 255
182 211 255
182 211 255
182 211 255
182 211 255
182 212 255
182 212 255
182 212 255
182 212 255
182 212 255
182 212 255
182 212 255
182 212 255
182 212 255
183 212 255
183 212 255
183 212 255
183 212 255
183 212 255
183 212 255
183 212 255
183 212 255
183 212 255
183 212 255
183 212 255
183 212 255
183 212 255
183 212 255
183 212 255
183 212 255
183 212 255
183 212 255
183 212 255
183 212 255
183 212 255
183 212 255
183 212 255
183 212 255
183 212 255
183 212 255
183 212 255
183 212 255
183 212 255
183 212 255
183 212 255
183 212 255
183 212 255
183 212 255
182 212 255
182 212 255
182 212 255
182 212 255
182 212 255
182 212 255
182 212 255
182 212 255
182 212 255
182 212 255
182 211 255
182 211 255
182 211 255
182 211 255
182 211 255
182 211 255
182 211 255
182 211 255
182 211 255
182 211 255
182 211 255
182 211 255
182 211 255
182 211 255
182 211 255
182 211 255
181 211 255
181 211 255
181 211 255
181 211 255
181 211 255
181 211 255
181 211 255
181 211 255
181 211 255
181 211 255
181 211 255
181 211 255
181 211 255
181 211 255
181 211 255
181 211 255
181 211 255
181 211 255
181 211 255
181 211 255
181 211 255
181 211 255
181 211 255
180 210 255
180 210 255
180 210 255
180 210 255
180 210 255
180 210 255
180 210 255
180 210 255
180 210 255
180 210 255
180 210 255
180 210 255
180 210 255
180 210 255
180 210 255
180 210 255
180 210 255
180 210 255
180 210 255
180 210 255
179 210 255
179 210 255
179 210 255
179 210 255
179 210 255
179 210 255
179 210 255
179 210 255
179 210 255
179 210 255
179 210 255
179 210 255
179 210 255
179 209 255
179 209 255
179 209 255
179 209 255
179 209 255
179 209 255
178 209 255
178 209 255
178 209 255
178 209 255
178 209 255
178 209 255
178 209 255
178 209 255
178 209 255
178 209 255
178 209 255
178 209 255
178 209 255
178 209 255
178 209 255
178 209 255
178 209 255
178 209 255
177 209 255
177 209 255
177 209 255
177 209 255
177 209 255
177 209 255
177 209 255
177 208 255
177 208 255
177 208 255
177 208 255
177 208 255
177 208 255
177 208 255
177 208 255
130 153 188
79 96 121
80 96 120
83 99 123
76 92 117
79 96 121
79 96 122
79 94 118
82 98 121
81 97 120
82 99 123
79 97 122
80 95 118
79 96 122
78 94 119
78 94 119
81 98 122
81 97 121
85 101 124
80 96 120
81 97 121
83 98 120
77 93 116
77 93 117
83 99 123
79 96 121
81 97 122
81 96 119
80 95 118
79 95 118
81 98 123
77 94 118
83 99 124
81 96 120
79 95 120
80 96 120
81 97 121
80 96 120
78 94 119
78 94 118
79 96 120
80 96 119
80 96 121
78 93 116
76 92 115
81 97 120
78 95 119
81 97 121
80 95 119
84 99 122
81 97 120
82 97 120
82 98 122
82 98 121
80 95 118
81 96 119
81 97 121
79 95 118
78 94 118
82 97 121
79 94 116
80 95 117
77 93 116
80 95 118
82 98 122
82 98 121
81 97 121
79 94 117
81 97 121
78 95 119
80 96 120
76 92 115
82 98 121
79 94 118
81 96 118
83 98 121
81 98 123
80 96 119
79 95 118
79 96 121
77 93 117
79 95 119
78 93 115
79 94 117
80 96 119
75 92 116
83 99 123
76 93 118
81 97 120
80 96 120
81 97 121
81 96 119
84 100 122
82 98 122
79 94 118
83 98 121
81 96 120
79 95 119
79 94 118
79 95 120
82 97 120
76 93 117
81 97 120
87 102 124
83 99 124
75 92 118
84 99 122
80 96 120
82 99 124
83 98 121
80 96 120
82 99 124
80 96 120
80 97 122
79 96 120
117 139 172
177 208 255
177 208 255
177 208 255
177 208 255
177 208 255
177 208 255
177 208 255
177 208 255
177 209 255
177 209 255
177 209 255
177 209 255
177 209 255
177 209 255
178 209 255
178 209 255
178 209 255
178 209 255
178 209 255
178 209 255
178 209 255
178 209 255
178 209 255
178 209 255
178 209 255
178 209 255
178 209 255
178 209 255
178 209 255
178 209 255
178 209 255
178 209 255
178 209 255
179 209 255
179 209 255
179 209 255
179 209 255
179 209 255
179 209 255
179 210 255
179 210 255
179 210 255
179 210 255
179 210 255
179 210 255
179 210 255
179 210 255
179 210 255
179 210 255
179 210 255
179 210 255
179 210 255
180 210 255
180 210 255
180 210 255
180 210 255
180 210 255
180 210 255
180 210 255
180 210 255
180 210 255
180 210 255
180 210 255
180 210 255
180 210 255
180 210 255
180 210 255
180 210 255
180 210 255
180 210 255
180 210 255
180 210 255
181 211 255
181 211 255
181 211 255
181 211 255
181 211 255
181 211 255
181 211 255
181 211 255
181 211 255
181 211 255
181 211 255
181 211 255
181 211 255
181 211 255
181 211 255
181 211 255
181 211 255
181 211 255
181 211 255
181 211 255
181 211 255
181 211 255
181 211 255
182 211 255
182 211 255
182 211 255
182 211 255
182 211 255
182 211 255
182 211 255
182 211 255
182 211 255
182 211 255
182 211 255
182 211 255
182 211 255
182 211 255
182 211 255
182 211 255
182 211 255
182 212 255
182 212 255
182 212 255
182 212 255
182 212 255
182 212 255
182 212 255
182 212 255
182 212 255
183 212 255
183 212 255
183 212 255
183 212 255
183 212 255
183 212 255
183 212 255
183 212 255
183 212 255
183 212 255
183 212 255
183 212 255
183 212 255
183 212 255
183 212 255
183 212 255
183 212 255
183 212 255
183 212 255
183 212 255
183 212 255
183 212 255
183 212 255
183 212 255
183 212 255
183 212 255
183 212 255
183 212 255
183 212 255
183 212 255
183 212 255
183 212 255
183 212 255
183 212 255
183 212 255
183 212 255
183 212 255
183 212 255
183 212 255
183 212 255
183 212 255
183 212 255
183 212 255
183 212 255
183 212 255
183 212 255
183 212 255
183 212 255
183 212 255
183 212 255
183 212 255
182 212 255
182 212 255
182 212 255
182 212 255
182 212 255
182 212 255
182 212 255
182 212 255
182 211 255
182 211 255
182 211 255
182 211 255
182 211 255
182 211 255
182 211 255
182 211 255
182 211 255
182 211 255
182 211 255
182 211 255
182 211 255
182 211 255
182 211 255
182 211 255
182 211 255
182 211 255
181 211 255
181 211 255
181 211 255
181 211 255
181 211 255
181 211 255
181 211 255
181 211 255
181 211 255
181 211 255
181 211 255
181 211 255
181 211 255
181 211 255
181 211 255
181 211 255
181 211 255
181 211 255
181 211 255
181 211 255
181 211 255
181 211 255
180 210 255
180 210 255
180 210 255
180 210 255
180 210 255
180 210 255
180 210 255
180 210 255
180 210 255
180 210 255
180 210 255
180 210 255
180 210 255
180 210 255
180 210 255
180 210 255
180 210 255
180 210 255
180 210 255
180 210 255
179 210 255
179 210 255
179 210 255
179 210 255
179 210 255
179 210 255
179 210 255
179 210 255
179 210 255
179 210 255
179 210 255
179 210 255
179 210 255
179 209 255
179 209 255
179 209 255
179 209 255
179 209 255
179 209 255
178 209 255
178 209 255
178 209 255
178 209 255
178 209 255
178 209 255
178 209 255
178 209 255
178 209 255
178 209 255
178 209 255
178 209 255
178 209 255
178 209 255
178 209 255
178 209 255
178 209 255
178 209 255
178 209 255
177 209 255
177 209 255
177 209 255
177 209 255
177 209 255
164 193 236
82 99 125
81 98 123
83 99 123
82 97 121
78 93 117
82 98 120
78 94 118
82 97 120
78 94 118
79 95 120
77 93 117
80 96 119
81 97 121
78 94 118
81 96 120
76 92 114
81 97 120
80 96 119
81 97 121
79 94 117
79 96 120
79 95 119
83 99 123
79 96 121
79 95 119
81 96 118
79 95 119
83 98 122
80 96 120
81 97 122
79 95 119
79 96 120
80 96 120
80 96 120
79 95 119
80 96 119
80 96 119
78 94 118
77 94 119
74 89 112
80 95 118
79 95 118
80 96 120
81 97 121
79 95 118
79 95 118
81 96 118
81 96 119
77 94 120
79 94 117
83 99 122
79 96 120
83 99 123
78 94 117
80 96 120
80 96 119
75 91 113
81 97 120
81 97 120
80 95 118
76 91 115
80 96 120
77 93 117
82 98 122
80 96 119
78 93 116
76 93 118
83 98 121
78 94 119
81 96 119
78 94 118
78 94 119
80 96 120
78 93 117
81 97 120
80 94 116
79 96 120
81 97 120
85 100 124
84 100 124
79 94 118
81 96 119
75 92 117
77 93 116
85 100 123
81 97 121
78 93 116
79 94 117
81 97 121
79 96 121
80 96 120
79 95 119
81 97 121
81 96 119
77 93 117
80 95 118
82 97 120
79 96 120
81 96 120
79 95 118
78 94 118
80 96 119
78 95 120
80 95 118
84 99 122
81 97 122
79 93 115
78 95 120
81 97 122
81 97 121
77 93 117
81 96 120
83 100 125
82 98 121
80 97 123
82 98 123
167 197 242
177 209 255
177 209 255
177 209 255
177 209 255
177 209 255
178 209 255
178 209 255
178 209 255
178 209 255
178 209 255
178 209 255
178 209 255
178 209 255
178 209 255
178 209 255
178 209 255
178 209 255
178 209 255
178 209 255
178 209 255
178 209 255
178 209 255
178 209 255
178 209 255
179 209 255
179 209 255
179 209 255
179 209 255
179 209 255
179 209 255
179 210 255
179 210 255
179 210 255
179 210 255
179 210 255
179 210 255
179 210 255
179 210 255
179 210 255
179 210 255
179 210 255
179 210 255
179 210 255
180 210 255
180 210 255
180 210 255
180 210 255
180 210 255
180 210 255
180 210 255
180 210 255
180 210 255
180 210 255
180 210 255
180 210 255
180 210 255
180 210 255
180 210 255
180 210 255
180 210 255
180 210 255
180 210 255
180 210 255
180 210 255
181 211 255
181 211 255
181 211 255
181 211 255
181 211 255
181 211 255
181 211 255
181 211 255
181 211 255
181 211 255
181 211 255
181 211 255
181 211 255
181 211 255
181 211 255
181 211 255
181 211 255
181 211 255
181 211 255
181 211 255
181 211 255
181 211 255
182 211 255
182 211 255
182 211 255
182 211 255
182 211 255
182 211 255
182 211 255
182 211 255
182 211 255
182 211 255
182 211 255
182 211 255
182 211 255
182 211 255
182 211 255
182 211 255
182 211 255
182 212 255
182 212 255
182 212 255
182 212 255
182 212 255
182 212 255
182 212 255
182 212 255
182 212 255
183 212 255
183 212 255
183 212 255
183 212 255
183 212 255
183 212 255
183 212 255
183 212 255
183 212 255
183 212 255
183 212 255
183 212 255
183 212 255
183 212 255
183 212 255
183 212 255
183 212 255
183 212 255
183 212 255
183 212 255
183 212 255
183 212 255
183 212 255
183 212 255
183 212 255
183 212 255
183 212 255
183 212 255
183 212 255
184 212 255
184 212 255
184 212 255
184 212 255
184 212 255
184 212 255
184 212 255
184 212 255
184 212 255
183 212 255
183 212 255
183 212 255
183 212 255
183 212 255
183 212 255
183 212 255
183 212 255
183 212 255
183 212 255
183 212 255
183 212 255
183 212 255
183 212 255
183 212 255
183 212 255
183 212 255
183 212 255
183 212 255
183 212 255
183 212 255
183 212 255
183 212 255
183 212 255
183 212 255
183 212 255
183 212 255
183 212 255
183 212 255
182 212 255
182 212 255
182 212 255
182 212 255
182 212 255
182 212 255
182 212 255
182 212 255
182 212 255
182 211 255
182 211 255
182 211 255
182 211 255
182 211 255
182 211 255
182 211 255
182 211 255
182 211 255
182 211 255
182 211 255
182 211 255
182 211 255
182 211 255
182 211 255
182 211 255
181 211 255
181 211 255
181 211 255
181 211 255
181 211 255
181 211 255
181 211 255
181 211 255
181 211 255
181 211 255
181 211 255
181 211 255
181 211 255
181 211 255
181 211 255
181 211 255
181 211 255
181 211 255
181 211 255
181 211 255
181 211 255
181 211 255
181 211 255
180 210 255
180 210 255
180 210 255
180 210 255
180 210 255
180 210 255
180 210 255
180 210 255
180 210 255
180 210 255
180 210 255
180 210 255
180 210 255
180 210 255
180 210 255
180 210 255
180 210 255
180 210 255
180 210 255
180 210 255
179 210 255
179 210 255
179 210 255
179 210 255
179 210 255
179 210 255
179 210 255
179 210 255
179 210 255
179 210 255
179 210 255
179 210 255
179 210 255
179 209 255
179 209 255
179 209 255
179 209 255
179 209 255
179 209 255
179 209 255
178 209 255
178 209 255
178 209 255
178 209 255
178 209 255
178 209 255
178 209 255
178 209 255
178 209 255
178 209 255
178 209 255
178 209 255
178 209 255
178 209 255
178 209 255
113 135 168
77 94 119
82 98 123
83 99 122
78 94 119
82 98 124
78 95 119
78 95 119
83 99 123
85 100 122
79 95 119
79 96 121
80 96 121
80 96 120
80 96 119
76 93 119
80 95 119
80 96 120
78 94 118
79 95 120
80 96 120
79 95 120
82 98 122
82 99 123
80 96 119
78 93 116
81 96 119
78 93 116
81 96 120
79 95 119
77 93 116
81 97 121
80 95 119
80 96 119
78 94 118
78 94 119
77 93 118
81 96 118
81 97 121
76 92 116
79 94 116
77 93 117
77 92 114
83 99 123
78 93 116
76 91 114
81 97 120
80 95 118
78 95 120
76 91 113
75 91 116
80 96 120
81 96 119
77 93 117
77 93 117
77 92 115
82 98 122
80 95 119
80 96 120
79 96 121
77 93 118
79 94 118
80 95 119
78 95 120
77 93 118
82 97 120
79 95 119
81 96 119
81 97 120
80 95 118
78 93 116
77 93 116
79 95 120
76 93 117
81 97 122
77 91 114
79 95 118
79 95 119
84 99 123
78 94 118
78 94 118
78 94 118
82 97 120
78 94 118
78 93 117
80 97 121
81 96 119
80 96 120
79 95 120
82 98 120
79 95 120
82 97 119
80 96 120
80 96 120
83 99 122
81 97 120
81 96 119
79 95 120
77 93 117
78 94 118
76 92 117
77 93 116
81 98 123
83 99 122
80 96 120
81 97 123
79 95 119
80 97 121
80 95 117
80 96 120
79 96 120
78 95 120
81 97 120
81 97 122
82 98 121
78 95 120
78 94 118
119 141 174
178 209 255
178 209 255
178 209 255
178 209 255
178 209 255
178 209 255
178 209 255
178 209 255
178 209 255
178 209 255
178 209 255
178 209 255
178 209 255
178 209 255
178 209 255
178 209 255
179 209 255
179 209 255
179 209 255
179 209 255
179 209 255
179 209 255
179 210 255
179 210 255
179 210 255
179 210 255
179 210 255
179 210 255
179 210 255
179 210 255
179 210 255
179 210 255
179 210 255
179 210 255
179 210 255
180 210 255
180 210 255
180 210 255
180 210 255
180 210 255
180 210 255
180 210 255
180 210 255
180 210 255
180 210 255
180 210 255
180 210 255
180 210 255
180 210 255
180 210 255
180 210 255
180 210 255
180 210 255
180 210 255
180 210 255
181 211 255
181 211 255
181 211 255
181 211 255
181 211 255
181 211 255
181 211 255
181 211 255
181 211 255
181 211 255
181 211 255
181 211 255
181 211 255
181 211 255
181 211 255
181 211 255
181 211 255
181 211 255
181 211 255
181 211 255
181 211 255
181 211 255
181 211 255
182 211 255
182 211 255
182 211 255
182 211 255
182 211 255
182 211 255
182 211 255
182 211 255
182 211 255
182 211 255
182 211 255
182 211 255
182 211 255
182 211 255
182 211 255
182 211 255
182 212 255
182 212 255
182 212 255
182 212 255
182 212 255
182 212 255
182 212 255
182 212 255
182 212 255
183 212 255
183 212 255
183 212 255
183 212 255
183 212 255
183 212 255
183 212 255
183 212 255
183 212 255
183 212 255
183 212 255
183 212 255
183 212 255
183 212 255
183 212 255
183 212 255
183 212 255
183 212 255
183 212 255
183 212 255
183 212 255
183 212 255
183 212 255
183 212 255
183 212 255
183 212 255
183 212 255
183 212 255
183 212 255
184 212 255
184 212 255
184 212 255
184 212 255
184 212 255
184 212 255
184 212 255
184 212 255
184 212 255
184 213 255
184 213 255
184 213 255
184 213 255
184 213 255
184 213 255
184 213 255
184 212 255
184 212 255
184 212 255
184 212 255
184 212 255
184 212 255
184 212 255
184 212 255
184 212 255
184 212 255
184 212 255
183 212 255
183 212 255
183 212 255
183 212 255
183 212 255
183 212 255
183 212 255
183 212 255
183 212 255
183 212 255
183 212 255
183 212 255
183 212 255
183 212 255
183 212 255
183 212 255
183 212 255
183 212 255
183 212 255
183 212 255
183 212 255
183 212 255
183 212 255
183 212 255
183 212 255
183 212 255
183 212 255
183 212 255
183 212 255
182 212 255
182 212 255
182 212 255
182 212 255
182 212 255
182 212 255
182 212 255
182 212 255
182 211 255
182 211 255
182 211 255
182 211 255
182 211 255
182 211 255
182 211 255
182 211 255
182 211 255
182 211 255
182 211 255
182 211 255
182 211 255
182 211 255
182 211 255
182 211 255
182 211 255
181 211 255
181 211 255
181 211 255
181 211 255
181 211 255
181 211 255
181 211 255
181 211 255
181 211 255
181 211 255
181 211 255
181 211 255
181 211 255
181 211 255
181 211 255
181 211 255
181 211 255
181 211 255
181 211 255
181 211 255
181 211 255
181 211 255
180 210 255
180 210 255
180 210 255
180 210 255
180 210 255
180 210 255
180 210 255
180 210 255
180 210 255
180 210 255
180 210 255
180 210 255
180 210 255
180 210 255
180 210 255
180 210 255
180 210 255
180 210 255
180 210 255
180 210 255
179 210 255
179 210 255
179 210 255
179 210 255
179 210 255
179 210 255
179 210 255
179 210 255
179 210 255
179 210 255
179 210 255
179 210 255
179 210 255
179 210 255
179 209 255
179 209 255
179 209 255
179 209 255
179 209 255
179 209 255
178 209 255
178 209 255
178 209 255
178 209 255
178 209 255
178 209 255
170 200 245
84 100 125
81 97 120
82 98 121
78 95 120
78 94 118
81 96 120
78 95 119
82 97 119
81 97 121
80 96 120
80 96 120
75 91 115
81 97 121
82 97 118
79 95 120
79 95 119
79 94 117
80 97 123
82 97 120
79 95 118
79 96 120
82 98 122
78 93 117
77 92 116
80 96 120
80 96 120
82 97 120
77 93 116
76 93 118
82 98 121
81 97 120
82 98 121
80 95 118
77 92 115
76 92 117
74 90 115
81 97 120
81 96 119
83 98 120
80 96 120
78 93 116
82 98 121
79 95 118
75 91 113
80 95 119
81 97 121
77 93 116
80 96 120
77 92 115
77 92 115
77 93 118
80 95 118
79 94 118
76 92 116
78 93 115
79 95 119
79 94 118
75 90 113
77 92 114
77 93 118
78 93 117
77 93 117
78 93 115
81 96 119
81 95 118
80 96 119
80 97 122
82 97 120
81 98 123
78 93 114
81 96 120
76 92 116
75 91 114
82 96 117
76 91 114
77 92 116
80 96 121
83 98 121
81 96 119
84 99 122
80 96 119
81 96 120
80 95 119
72 89 113
74 88 109
79 95 118
76 91 113
80 96 120
76 92 115
81 97 120
80 95 118
81 96 118
81 96 119
76 92 117
77 92 116
80 95 118
77 92 115
79 95 120
79 95 119
80 95 119
77 93 116
79 95 119
80 96 119
81 97 120
83 99 122
81 96 119
83 98 120
77 93 118
79 94 117
80 96 120
82 96 118
78 94 119
82 97 120
83 99 123
79 95 120
81 97 120
78 94 120
82 98 122
170 200 245
178 209 255
178 209 255
178 209 255
178 209 255
178 209 255
178 209 255
179 209 255
179 209 255
179 209 255
179 209 255
179 209 255
179 209 255
179 210 255
179 210 255
179 210 255
179 210 255
179 210 255
179 210 255
179 210 255
179 210 255
179 210 255
179 210 255
179 210 255
179 210 255
179 210 255
180 210 255
180 210 255
180 210 255
180 210 255
180 210 255
180 210 255
180 210 255
180 210 255
180 210 255
180 210 255
180 210 255
180 210 255
180 210 255
180 210 255
180 210 255
180 210 255
180 210 255
180 210 255
180 210 255
180 210 255
180 210 255
180 210 255
181 211 255
181 211 255
181 211 255
181 211 255
181 211 255
181 211 255
181 211 255
181 211 255
181 211 255
181 211 255
181 211 255
181 211 255
181 211 255
181 211 255
181 211 255
181 211 255
181 211 255
181 211 255
181 211 255
181 211 255
181 211 255
182 211 255
182 211 255
182 211 255
182 211 255
182 211 255
182 211 255
182 211 255
182 211 255
182 211 255
182 211 255
182 211 255
182 211 255
182 211 255
182 211 255
182 211 255
182 211 255
182 211 255
182 212 255
182 212 255
182 212 255
182 212 255
182 212 255
182 212 255
182 212 255
182 212 255
183 212 255
183 212 255
183 212 255
183 212 255
183 212 255
183 212 255
183 212 255
183 212 255
183 212 255
183 212 255
183 212 255
183 212 255
183 212 255
183 212 255
183 212 255
183 212 255
183 212 255
183 212 255
183 212 255
183 212 255
183 212 255
183 212 255
183 212 255
183 212 255
183 212 255
183 212 255
183 212 255
183 212 255
183 212 255
184 212 255
184 212 255
184 212 255
184 212 255
184 212 255
184 212 255
184 212 255
184 212 255
184 212 255
184 212 255
184 212 255
184 212 255
184 213 255
184 213 255
184 213 255
184 213 255
184 213 255
184 213 255
184 213 255
184 213 255
184 213 255
184 213 255
184 213 255
184 213 255
184 213 255
184 213 255
184 213 255
184 213 255
184 213 255
184 213 255
184 213 255
184 213 255
184 213 255
184 213 255
184 213 255
184 212 255
184 212 255
184 212 255
184 212 255
184 212 255
184 212 255
184 212 255
184 212 255
184 212 255
184 212 255
183 212 255
183 212 255
183 212 255
183 212 255
183 212 255
183 212 255
183 212 255
183 212 255
183 212 255
183 212 255
183 212 255
183 212 255
183 212 255
183 212 255
183 212 255
183 212 255
183 212 255
183 212 255
183 212 255
183 212 255
183 212 255
183 212 255
183 212 255
183 212 255
183 212 255
183 212 255
183 212 255
183 212 255
183 212 255
182 212 255
182 212 255
182 212 255
182 212 255
182 212 255
182 212 255
182 212 255
182 212 255
182 211 255
182 211 255
182 211 255
182 211 255
182 211 255
182 211 255
182 211 255
182 211 255
182 211 255
182 211 255
182 211 255
182 211 255
182 211 255
182 211 255
182 211 255
182 211 255
181 211 255
181 211 255
181 211 255
181 211 255
181 211 255
181 211 255
181 211 255
181 211 255
181 211 255
181 211 255
181 211 255
181 211 255
181 211 255
181 211 255
181 211 255
181 211 255
181 211 255
181 211 255
181 211 255
181 211 255
181 211 255
181 211 255
181 211 255
180 210 255
180 210 255
180 210 255
180 210 255
180 210 255
180 210 255
180 210 255
180 210 255
180 210 255
180 210 255
180 210 255
180 210 255
180 210 255
180 210 255
180 210 255
180 210 255
180 210 255
180 210 255
180 210 255
180 210 255
179 210 255
179 210 255
179 210 255
179 210 255
179 210 255
179 210 255
179 210 255
179 210 255
179 210 255
179 210 255
179 210 255
179 210 255
179 210 255
179 210 255
179 209 255
179 209 255
179 209 255
125 148 183
83 99 123
79 96 120
79 95 119
82 98 123
75 92 116
82 98 122
80 96 120
77 93 117
81 97 122
79 94 118
77 94 119
81 97 121
82 99 124
79 95 119
77 92 114
82 97 120
79 94 116
78 94 118
80 96 120
79 96 120
80 96 119
83 99 124
84 99 122
81 97 120
78 93 116
76 93 118
81 96 118
80 96 120
80 96 120
78 93 116
83 98 120
78 94 117
76 92 116
79 95 119
81 96 119
77 93 116
81 97 120
74 90 114
76 92 116
76 92 115
77 93 117
80 95 117
81 96 118
79 94 117
77 93 117
80 96 120
76 91 114
76 92 116
79 95 119
80 96 120
82 99 123
76 92 116
78 93 115
80 97 121
75 90 114
80 96 120
77 93 117
79 94 117
78 94 117
79 95 119
80 95 117
83 99 122
79 95 118
81 96 120
81 97 120
77 92 114
75 89 111
83 100 125
79 94 118
77 93 116
79 95 118
78 94 119
82 98 122
76 91 114
78 94 117
82 98 121
78 93 117
81 97 121
79 94 118
76 92 116
77 93 117
80 96 119
79 94 117
76 91 113
76 91 114
79 95 118
80 96 121
80 97 122
77 93 116
78 93 117
81 96 118
77 92 116
75 92 117
82 98 122
75 92 116
76 93 118
80 97 122
83 100 124
80 96 119
77 93 117
80 96 120
79 94 118
79 95 119
78 94 119
78 94 117
78 94 117
77 92 115
81 96 119
77 93 118
79 95 119
80 97 121
81 97 120
81 97 120
81 97 120
77 93 116
78 94 119
79 96 120
83 98 121
128 152 187
179 209 255
179 209 255
179 209 255
179 210 255
179 210 255
179 210 255
179 210 255
179 210 255
179 210 255
179 210 255
179 210 255
179 210 255
179 210 255
179 210 255
179 210 255
179 210 255
180 210 255
180 210 255
180 210 255
180 210 255
180 210 255
180 210 255
180 210 255
180 210 255
180 210 255
180 210 255
180 210 255
180 210 255
180 210 255
180 210 255
180 210 255
180 210 255
180 210 255
180 210 255
180 210 255
180 210 255
180 210 255
180 210 255
181 211 255
181 211 255
181 211 255
181 211 255
181 211 255
181 211 255
181 211 255
181 211 255
181 211 255
181 211 255
181 211 255
181 211 255
181 211 255
181 211 255
181 211 255
181 211 255
181 211 255
181 211 255
181 211 255
181 211 255
181 211 255
181 211 255
182 211 255
182 211 255
182 211 255
182 211 255
182 211 255
182 211 255
182 211 255
182 211 255
182 211 255
182 211 255
182 211 255
182 211 255
182 211 255
182 211 255
182 211 255
182 211 255
182 212 255
182 212 255
182 212 255
182 212 255
182 212 255
182 212 255
182 212 255
182 212 255
183 212 255
183 212 255
183 212 255
183 212 255
183 212 255
183 212 255
183 212 255
183 212 255
183 212 255
183 212 255
183 212 255
183 212 255
183 212 255
183 212 255
183 212 255
183 212 255
183 212 255
183 212 255
183 212 255
183 212 255
183 212 255
183 212 255
183 212 255
183 212 255
183 212 255
183 212 255
183 212 255
183 212 255
183 212 255
184 212 255
184 212 255
184 212 255
184 212 255
184 212 255
184 212 255
184 212 255
184 212 255
184 212 255
184 212 255
184 212 255
184 213 255
184 213 255
184 213 255
184 213 255
184 213 255
184 213 255
184 213 255
184 213 255
184 213 255
184 213 255
184 213 255
184 213 255
184 213 255
184 213 255
184 213 255
184 213 255
185 213 255
185 213 255
185 213 255
184 213 255
184 213 255
184 213 255
184 213 255
184 213 255
184 213 255
184 213 255
184 213 255
184 213 255
184 213 255
184 213 255
184 213 255
184 213 255
184 213 255
184 213 255
184 213 255
184 213 255
184 213 255
184 213 255
184 213 255
184 213 255
184 213 255
184 213 255
184 212 255
184 212 255
184 212 255
184 212 255
184 212 255
184 212 255
184 212 255
184 212 255
184 212 255
184 212 255
183 212 255
183 212 255
183 212 255
183 212 255
183 212 255
183 212 255
183 212 255
183 212 255
183 212 255
183 212 255
183 212 255
183 212 255
183 212 255
183 212 255
183 212 255
183 212 255
183 212 255
183 212 255
183 212 255
183 212 255
183 212 255
183 212 255
183 212 255
183 212 255
183 212 255
183 212 255
183 212 255
183 212 255
182 212 255
182 212 255
182 212 255
182 212 255
182 212 255
182 212 255
182 212 255
182 212 255
182 212 255
182 211 255
182 211 255
182 211 255
182 211 255
182 211 255
182 211 255
182 211 255
182 211 255
182 211 255
182 211 255
182 211 255
182 211 255
182 211 255
182 211 255
182 211 255
182 211 255
181 211 255
181 211 255
181 211 255
181 211 255
181 211 255
181 211 255
181 211 255
181 211 255
181 211 255
181 211 255
181 211 255
181 211 255
181 211 255
181 211 255
181 211 255
181 211 255
181 211 255
181 211 255
181 211 255
181 211 255
181 211 255
181 211 255
180 210 255
180 210 255
180 210 255
180 210 255
180 210 255
180 210 255
180 210 255
180 210 255
180 210 255
180 210 255
180 210 255
180 210 255
180 210 255
180 210 255
180 210 255
180 210 255
180 210 255
180 210 255
180 210 255
180 210 255
180 210 255
180 210 255
179 210 255
179 210 255
179 210 255
179 210 255
179 210 255
179 210 255
176 206 251
89 106 133
79 96 120
80 96 119
78 94 117
78 94 119
79 96 121
80 97 122
80 96 120
83 98 122
81 98 122
80 95 119
76 92 117
82 97 120
80 95 119
85 100 123
81 96 119
78 93 116
80 96 119
80 95 117
80 95 118
78 94 119
79 96 120
77 92 115
78 94 118
76 91 115
82 97 120
78 94 118
78 94 118
77 92 115
78 94 117
77 93 116
80 95 118
77 93 117
78 94 118
77 93 116
75 91 116
79 94 117
75 91 115
79 94 118
82 97 120
77 92 115
80 96 120
80 96 120
75 90 113
80 96 120
77 92 115
77 92 116
78 95 119
75 91 116
77 92 115
78 92 113
75 91 115
73 88 111
73 89 112
77 92 116
75 91 113
80 95 118
81 96 119
80 95 118
81 96 120
79 94 117
82 98 122
75 91 115
79 95 119
80 97 121
81 97 120
80 95 119
81 97 120
79 95 119
80 95 117
75 91 114
79 94 118
77 93 117
76 92 115
79 94 117
80 96 120
78 94 118
76 90 111
79 95 120
75 91 114
79 95 119
80 96 119
80 95 117
75 92 116
75 90 113
78 93 114
80 96 120
78 93 115
80 95 119
77 93 117
79 95 118
79 94 117
78 94 117
82 98 122
81 96 119
76 92 115
75 90 112
79 94 116
75 92 117
82 97 121
84 98 120
77 94 119
77 93 116
79 94 117
79 96 120
78 94 117
81 96 119
80 96 120
80 95 119
83 98 121
86 101 124
80 97 122
80 96 119
82 99 123
80 96 120
81 97 120
79 95 119
81 97 120
81 98 122
88 105 130
178 209 254
179 210 255
179 210 255
179 210 255
179 210 255
179 210 255
179 210 255
180 210 255
180 210 255
180 210 255
180 210 255
180 210 255
180 210 255
180 210 255
180 210 255
180 210 255
180 210 255
180 210 255
180 210 255
180 210 255
180 210 255
180 210 255
180 210 255
180 210 255
180 210 255
180 210 255
180 210 255
180 210 255
180 210 255
181 211 255
181 211 255
181 211 255
181 211 255
181 211 255
181 211 255
181 211 255
181 211 255
181 211 255
181 211 255
181 211 255
181 211 255
181 211 255
181 211 255
181 211 255
181 211 255
181 211 255
181 211 255
181 211 255
181 211 255
181 211 255
181 211 255
182 211 255
182 211 255
182 211 255
182 211 255
182 211 255
182 211 255
182 211 255
182 211 255
182 211 255
182 211 255
182 211 255
182 211 255
182 211 255
182 211 255
182 211 255
182 211 255
182 212 255
182 212 255
182 212 255
182 212 255
182 212 255
182 212 255
182 212 255
182 212 255
182 212 255
183 212 255
183 212 255
183 212 255
183 212 255
183 212 255
183 212 255
183 212 255
183 212 255
183 212 255
183 212 255
183 212 255
183 212 255
183 212 255
183 212 255
183 212 255
183 212 255
183 212 255
183 212 255
183 212 255
183 212 255
183 212 255
183 212 255
183 212 255
183 212 255
183 212 255
183 212 255
183 212 255
184 212 255
184 212 255
184 212 255
184 212 255
184 212 255
184 212 255
184 212 255
184 212 255
184 212 255
184 212 255
184 212 255
184 213 255
184 213 255
184 213 255
184 213 255
184 213 255
184 213 255
184 213 255
184 213 255
184 213 255
184 213 255
184 213 255
184 213 255
184 213 255
184 213 255
184 213 255
184 213 255
184 213 255
184 213 255
184 213 255
184 213 255
184 213 255
184 213 255
184 213 255
185 213 255
185 213 255
185 213 255
185 213 255
185 213 255
185 213 255
185 213 255
185 213 255
185 213 255
185 213 255
185 213 255
185 213 255
185 213 255
185 213 255
185 213 255
185 213 255
184 213 255
184 213 255
184 213 255
184 213 255
184 213 255
184 213 255
184 213 255
184 213 255
184 213 255
184 213 255
184 213 255
184 213 255
184 213 255
184 213 255
184 213 255
184 213 255
184 213 255
184 213 255
184 213 255
184 213 255
184 213 255
184 213 255
184 213 255
184 212 255
184 212 255
184 212 255
184 212 255
184 212 255
184 212 255
184 212 255
184 212 255
184 212 255
184 212 255
183 212 255
183 212 255
183 212 255
183 212 255
183 212 255
183 212 255
183 212 255
183 212 255
183 212 255
183 212 255
183 212 255
183 212 255
183 212 255
183 212 255
183 212 255
183 212 255
183 212 255
183 212 255
183 212 255
183 212 255
183 212 255
183 212 255
183 212 255
183 212 255
183 212 255
183 212 255
183 212 255
183 212 255
182 212 255
182 212 255
182 212 255
182 212 255
182 212 255
182 212 255
182 212 255
182 212 255
182 212 255
182 211 255
182 211 255
182 211 255
182 211 255
182 211 255
182 211 255
182 211 255
182 211 255
182 211 255
182 211 255
182 211 255
182 211 255
182 211 255
182 211 255
182 211 255
181 211 255
181 211 255
181 211 255
181 211 255
181 211 255
181 211 255
181 211 255
181 211 255
181 211 255
181 211 255
181 211 255
181 211 255
181 211 255
181 211 255
181 211 255
181 211 255
181 211 255
181 211 255
181 211 255
181 211 255
181 211 255
181 211 255
181 211 255
180 210 255
180 210 255
180 210 255
180 210 255
180 210 255
180 210 255
180 210 255
180 210 255
180 210 255
180 210 255
180 210 255
180 210 255
180 210 255
180 210 255
180 210 255
180 210 255
180 210 255
180 210 255
138 162 199
82 98 122
83 98 122
80 96 120
81 96 119
81 96 120
80 95 118
79 94 117
81 96 119
83 98 121
85 100 123
77 92 115
77 93 116
79 95 119
73 89 113
79 95 118
79 95 120
80 96 120
77 94 119
81 97 120
82 97 120
80 95 118
77 92 115
77 92 114
77 93 117
79 94 117
76 92 114
77 93 118
79 95 119
75 90 113
79 93 115
78 94 119
83 98 121
78 92 113
78 93 116
80 95 118
77 93 117
79 93 115
77 93 118
80 95 119
74 89 111
77 93 117
79 95 119
77 93 118
80 95 117
79 94 118
79 94 117
81 97 121
82 97 119
77 92 115
79 95 119
78 95 119
81 97 120
77 92 115
82 97 120
79 94 116
82 98 123
75 91 116
77 92 116
79 95 119
77 93 117
79 94 118
78 94 118
79 94 117
78 93 116
82 98 120
80 96 120
78 93 115
76 91 113
82 98 121
79 96 121
82 97 119
77 92 114
81 97 120
77 92 114
76 92 116
79 96 121
79 94 116
85 100 122
79 94 118
81 96 120
73 89 114
78 95 120
81 97 121
80 95 118
81 97 121
78 93 115
82 98 122
78 93 116
75 90 113
80 95 118
79 94 117
78 92 114
79 94 117
79 94 117
80 96 119
79 95 118
72 88 112
78 93 116
82 97 119
80 95 119
79 95 119
75 90 113
82 98 121
77 93 116
77 94 120
81 97 120
79 94 117
78 94 117
82 97 119
80 95 118
78 95 120
82 98 121
82 97 119
79 95 119
78 95 119
80 96 121
78 94 119
81 97 121
76 92 117
84 100 122
141 166 203
180 210 255
180 210 255
180 210 255
180 210 255
180 210 255
180 210 255
180 210 255
180 210 255
180 210 255
180 210 255
180 210 255
180 210 255
180 210 255
180 210 255
180 210 255
180 210 255
180 210 255
180 210 255
181 211 255
181 211 255
181 211 255
181 211 255
181 211 255
181 211 255
181 211 255
181 211 255
181 211 255
181 211 255
181 211 255
181 211 255
181 211 255
181 211 255
181 211 255
181 211 255
181 211 255
181 211 255
181 211 255
181 211 255
181 211 255
181 211 255
181 211 255
182 211 255
182 211 255
182 211 255
182 211 255
182 211 255
182 211 255
182 211 255
182 211 255
182 211 255
182 211 255
182 211 255
182 211 255
182 211 255
182 211 255
182 211 255
182 211 255
182 212 255
182 212 255
182 212 255
182 212 255
182 212 255
182 212 255
182 212 255
182 212 255
183 212 255
183 212 255
183 212 255
183 212 255
183 212 255
183 212 255
183 212 255
183 212 255
183 212 255
183 212 255
183 212 255
183 212 255
183 212 255
183 212 255
183 212 255
183 212 255
183 212 255
183 212 255
183 212 255
183 212 255
183 212 255
183 212 255
183 212 255
183 212 255
183 212 255
183 212 255
183 212 255
183 212 255
184 212 255
184 212 255
184 212 255
184 212 255
184 212 255
184 212 255
184 212 255
184 212 255
184 212 255
184 212 255
184 213 255
184 213 255
184 213 255
184 213 255
184 213 255
184 213 255
184 213 255
184 213 255
184 213 255
184 213 255
184 213 255
184 213 255
184 213 255
184 213 255
184 213 255
184 213 255
184 213 255
184 213 255
184 213 255
184 213 255
184 213 255
184 213 255
184 213 255
185 213 255
185 213 255
185 213 255
185 213 255
185 213 255
185 213 255
185 213 255
185 213 255
185 213 255
185 213 255
185 213 255
185 213 255
185 213 255
185 213 255
185 213 255
185 213 255
185 213 255
185 213 255
185 213 255
185 213 255
185 213 255
185 213 255
185 213 255
185 213 255
185 213 255
185 213 255
185 213 255
185 213 255
185 213 255
185 213 255
185 213 255
185 213 255
185 213 255
185 213 255
185 213 255
185 213 255
185 213 255
184 213 255
184 213 255
184 213 255
184 213 255
184 213 255
184 213 255
184 213 255
184 213 255
184 213 255
184 213 255
184 213 255
184 213 255
184 213 255
184 213 255
184 213 255
184 213 255
184 213 255
184 213 255
184 213 255
184 213 255
184 213 255
184 213 255
184 212 255
184 212 255
184 212 255
184 212 255
184 212 255
184 212 255
184 212 255
184 212 255
184 212 255
184 212 255
183 212 255
183 212 255
183 212 255
183 212 255
183 212 255
183 212 255
183 212 255
183 212 255
183 212 255
183 212 255
183 212 255
183 212 255
183 212 255
183 212 255
183 212 255
183 212 255
183 212 255
183 212 255
183 212 255
183 212 255
183 212 255
183 212 255
183 212 255
183 212 255
183 212 255
183 212 255
183 212 255
182 212 255
182 212 255
182 212 255
182 212 255
182 212 255
182 212 255
182 212 255
182 212 255
182 211 255
182 211 255
182 211 255
182 211 255
182 211 255
182 211 255
182 211 255
182 211 255
182 211 255
182 211 255
182 211 255
182 211 255
182 211 255
182 211 255
182 211 255
182 211 255
182 211 255
181 211 255
181 211 255
181 211 255
181 211 255
181 211 255
181 211 255
181 211 255
181 211 255
181 211 255
181 211 255
181 211 255
181 211 255
181 211 255
181 211 255
181 211 255
181 211 255
181 211 255
181 211 255
181 211 255
181 211 255
181 211 255
181 211 255
181 211 255
180 210 255
180 210 255
180 210 255
180 210 255
180 210 255
180 210 255
180 210 255
180 210 255
114 134 163
79 95 119
77 93 117
78 94 119
78 94 119
79 95 118
79 95 118
78 94 117
81 97 121
83 97 119
79 93 114
78 94 119
78 94 118
80 96 120
80 96 121
80 96 120
75 91 114
78 93 116
78 94 119
79 94 117
79 94 118
78 94 117
79 93 115
78 93 116
77 93 116
75 90 114
76 91 115
75 90 114
76 92 116
77 94 119
75 91 115
81 97 119
78 94 118
76 92 115
78 93 116
80 95 117
80 95 117
81 96 120
79 95 118
77 93 116
77 93 117
82 97 120
79 96 120
78 92 115
79 94 116
78 94 118
79 95 118
79 95 119
80 95 117
73 88 111
78 94 118
78 93 117
78 92 114
81 97 121
81 96 119
73 89 112
78 93 115
80 96 120
78 93 116
82 97 120
78 93 115
77 92 115
78 94 117
76 91 115
79 95 119
78 92 114
76 90 112
77 94 119
75 90 112
75 91 114
78 94 118
77 93 117
77 93 118
77 91 113
76 92 116
75 92 116
77 92 116
78 93 116
76 92 115
73 89 112
79 93 115
78 94 119
82 98 121
76 91 114
82 97 119
79 94 116
78 94 117
77 92 114
76 92 116
82 97 119
76 90 112
79 94 117
81 98 123
75 91 115
79 95 118
80 96 120
77 93 118
77 93 117
78 93 116
79 94 117
80 96 120
83 98 120
79 95 119
77 93 116
79 95 119
77 93 115
79 95 120
77 92 115
76 91 114
81 96 119
83 99 123
79 95 119
78 93 117
78 95 120
78 93 117
81 97 122
75 89 111
79 95 119
80 96 119
81 97 120
79 96 121
112 133 163
180 210 255
180 210 255
180 210 255
180 210 255
180 210 255
180 210 255
180 210 255
180 210 255
181 211 255
181 211 255
181 211 255
181 211 255
181 211 255
181 211 255
181 211 255
181 211 255
181 211 255
181 211 255
181 211 255
181 211 255
181 211 255
181 211 255
181 211 255
181 211 255
181 211 255
181 211 255
181 211 255
181 211 255
181 211 255
181 211 255
181 211 255
181 211 255
182 211 255
182 211 255
182 211 255
182 211 255
182 211 255
182 211 255
182 211 255
182 211 255
182 211 255
182 211 255
182 211 255
182 211 255
182 211 255
182 211 255
182 211 255
182 212 255
182 212 255
182 212 255
182 212 255
182 212 255
182 212 255
182 212 255
182 212 255
183 212 255
183 212 255
183 212 255
183 212 255
183 212 255
183 212 255
183 212 255
183 212 255
183 212 255
183 212 255
183 212 255
183 212 255
183 212 255
183 212 255
183 212 255
183 212 255
183 212 255
183 212 255
183 212 255
183 212 255
183 212 255
183 212 255
183 212 255
183 212 255
183 212 255
183 212 255
183 212 255
183 212 255
184 212 255
184 212 255
184 212 255
184 212 255
184 212 255
184 212 255
184 212 255
184 212 255
184 212 255
184 212 255
184 213 255
184 213 255
184 213 255
184 213 255
184 213 255
184 213 255
184 213 255
184 213 255
184 213 255
184 213 255
184 213 255
184 213 255
184 213 255
184 213 255
184 213 255
184 213 255
184 213 255
184 213 255
184 213 255
184 213 255
184 213 255
184 213 255
185 213 255
185 213 255
185 213 255
185 213 255
185 213 255
185 213 255
185 213 255
185 213 255
185 213 255
185 213 255
185 213 255
185 213 255
185 213 255
185 213 255
185 213 255
185 213 255
185 213 255
185 213 255
185 213 255
185 213 255
185 213 255
185 213 255
185 213 255
185 213 255
185 213 255
185 213 255
185 213 255
185 213 255
185 213 255
185 213 255
185 213 255
185 213 255
185 213 255
185 213 255
185 213 255
185 213 255
185 213 255
185 213 255
185 213 255
185 213 255
185 213 255
185 213 255
185 213 255
185 213 255
185 213 255
185 213 255
185 213 255
185 213 255
185 213 255
185 213 255
185 213 255
185 213 255
185 213 255
185 213 255
185 213 255
185 213 255
185 213 255
185 213 255
185 213 255
184 213 255
184 213 255
184 213 255
184 213 255
184 213 255
184 213 255
184 213 255
184 213 255
184 213 255
184 213 255
184 213 255
184 213 255
184 213 255
184 213 255
184 213 255
184 213 255
184 213 255
184 213 255
184 213 255
184 213 255
184 213 255
184 212 255
184 212 255
184 212 255
184 212 255
184 212 255
184 212 255
184 212 255
184 212 255
184 212 255
184 212 255
184 212 255
183 212 255
183 212 255
183 212 255
183 212 255
183 212 255
183 212 255
183 212 255
183 212 255
183 212 255
183 212 255
183 212 255
183 212 255
183 212 255
183 212 255
183 212 255
183 212 255
183 212 255
183 212 255
183 212 255
183 212 255
183 212 255
183 212 255
183 212 255
183 212 255
183 212 255
183 212 255
183 212 255
182 212 255
182 212 255
182 212 255
182 212 255
182 212 255
182 212 255
182 212 255
182 212 255
182 211 255
182 211 255
182 211 255
182 211 255
182 211 255
182 211 255
182 211 255
182 211 255
182 211 255
182 211 255
182 211 255
182 211 255
182 211 255
182 211 255
182 211 255
182 211 255
181 211 255
181 211 255
181 211 255
181 211 255
181 211 255
181 211 255
181 211 255
181 211 255
181 211 255
181 211 255
181 211 255
181 211 255
181 211 255
181 211 255
181 211 255
181 211 255
181 211 255
181 211 255
181 211 255
181 211 255
164 191 233
80 96 120
83 98 122
80 96 120
78 94 118
81 96 119
79 96 121
81 97 122
80 95 117
77 92 115
83 99 122
80 95 119
79 94 117
78 93 115
77 92 116
79 94 118
79 94 117
74 90 114
79 95 119
79 95 118
79 95 118
80 95 118
80 96 119
80 96 120
80 95 117
78 93 116
78 94 117
78 93 116
75 91 115
82 97 121
76 92 116
77 92 115
76 91 114
82 97 120
73 89 112
76 91 114
80 95 116
81 96 118
77 93 116
75 90 112
78 94 118
81 95 115
75 91 114
79 94 118
78 93 115
79 94 116
73 88 111
76 91 113
79 94 117
81 96 119
77 92 115
80 95 117
74 89 112
77 92 115
80 95 118
79 95 118
79 95 119
74 89 112
72 88 112
78 93 115
77 93 116
76 92 115
77 92 116
83 98 121
78 94 118
74 89 112
81 96 119
76 92 115
74 90 114
79 95 119
75 91 114
78 93 116
80 95 119
80 95 117
75 90 113
79 94 118
75 91 114
81 97 121
78 93 116
77 93 115
78 95 119
79 94 116
72 88 111
79 95 119
76 91 115
80 94 116
75 90 113
78 94 118
82 98 122
73 88 110
78 92 113
78 93 116
80 95 117
75 90 113
80 96 120
82 97 120
79 95 118
78 94 118
80 95 118
79 95 119
77 93 116
79 95 119
77 93 116
78 93 115
77 93 118
80 95 117
77 92 116
80 95 118
82 97 120
75 90 113
78 94 118
76 91 114
81 95 117
75 91 115
83 98 120
80 96 120
78 94 117
77 92 114
81 96 120
83 100 125
80 95 118
81 96 119
81 96 119
171 199 242
181 211 255
181 211 255
181 211 255
181 211 255
181 211 255
181 211 255
181 211 255
181 211 255
181 211 255
181 211 255
181 211 255
181 211 255
181 211 255
181 211 255
181 211 255
181 211 255
181 211 255
181 211 255
181 211 255
181 211 255
182 211 255
182 211 255
182 211 255
182 211 255
182 211 255
182 211 255
182 211 255
182 211 255
182 211 255
182 211 255
182 211 255
182 211 255
182 211 255
182 211 255
182 211 255
182 211 255
182 212 255
182 212 255
182 212 255
182 212 255
182 212 255
182 212 255
182 212 255
182 212 255
182 212 255
183 212 255
183 212 255
183 212 255
183 212 255
183 212 255
183 212 255
183 212 255
183 212 255
183 212 255
183 212 255
183 212 255
183 212 255
183 212 255
183 212 255
183 212 255
183 212 255
183 212 255
183 212 255
183 212 255
183 212 255
183 212 255
183 212 255
183 212 255
183 212 255
183 212 255
183 212 255
183 212 255
184 212 255
184 212 255
184 212 255
184 212 255
184 212 255
184 212 255
184 212 255
184 212 255
184 212 255
184 212 255
184 213 255
184 213 255
184 213 255
184 213 255
184 213 255
184 213 255
184 213 255
184 213 255
184 213 255
184 213 255
184 213 255
184 213 255
184 213 255
184 213 255
184 213 255
184 213 255
184 213 255
184 213 255
184 213 255
184 213 255
184 213 255
185 213 255
185 213 255
185 213 255
185 213 255
185 213 255
185 213 255
185 213 255
185 213 255
185 213 255
185 213 255
185 213 255
185 213 255
185 213 255
185 213 255
185 213 255
185 213 255
185 213 255
185 213 255
185 213 255
185 213 255
185 213 255
185 213 255
185 213 255
185 213 255
185 213 255
185 213 255
185 213 255
185 213 255
185 213 255
185 213 255
185 213 255
185 213 255
185 213 255
185 213 255
185 213 255
186 214 255
186 214 255
186 214 255
186 214 255
186 214 255
186 214 255
186 214 255
185 213 255
185 213 255
185 213 255
185 213 255
185 213 255
185 213 255
185 213 255
185 213 255
185 213 255
185 213 255
185 213 255
185 213 255
185 213 255
185 213 255
185 213 255
185 213 255
185 213 255
185 213 255
185 213 255
185 213 255
185 213 255
185 213 255
185 213 255
185 213 255
185 213 255
185 213 255
185 213 255
185 213 255
185 213 255
185 213 255
185 213 255
185 213 255
185 213 255
185 213 255
185 213 255
185 213 255
185 213 255
185 213 255
185 213 255
184 213 255
184 213 255
184 213 255
184 213 255
184 213 255
184 213 255
184 213 255
184 213 255
184 213 255
184 213 255
184 213 255
184 213 255
184 213 255
184 213 255
184 213 255
184 213 255
184 213 255
184 213 255
184 213 255
184 213 255
184 213 255
184 212 255
184 212 255
184 212 255
184 212 255
184 212 255
184 212 255
184 212 255
184 212 255
184 212 255
184 212 255
183 212 255
183 212 255
183 212 255
183 212 255
183 212 255
183 212 255
183 212 255
183 212 255
183 212 255
183 212 255
183 212 255
183 212 255
183 212 255
183 212 255
183 212 255
183 212 255
183 212 255
183 212 255
183 212 255
183 212 255
183 212 255
183 212 255
183 212 255
183 212 255
183 212 255
183 212 255
183 212 255
182 212 255
182 212 255
182 212 255
182 212 255
182 212 255
182 212 255
182 212 255
182 212 255
182 211 255
182 211 255
182 211 255
182 211 255
182 211 255
182 211 255
182 211 255
182 211 255
182 211 255
182 211 255
182 211 255
182 211 255
182 211 255
182 211 255
182 211 255
182 211 255
182 211 255
181 211 255
181 211 255
181 211 255
181 211 255
181 211 255
181 211 255
181 211 255
181 211 255
181 211 255
123 145 179
80 96 119
82 98 122
79 95 119
78 94 118
79 96 120
79 94 117
79 94 118
78 92 114
79 95 119
79 95 119
81 97 120
76 93 117
84 98 121
77 92 115
78 94 117
76 91 114
74 90 114
74 89 112
77 92 116
82 97 120
81 96 119
78 93 117
78 93 117
82 97 121
74 89 113
79 95 119
79 94 117
75 91 114
78 94 118
77 93 118
77 93 116
75 91 117
78 92 114
78 93 117
79 95 119
73 89 113
78 92 115
77 93 117
76 91 114
77 92 115
77 92 115
73 87 109
76 92 116
80 96 119
78 94 117
73 88 111
81 96 119
76 90 111
78 93 117
78 93 116
80 96 119
76 91 114
79 95 118
80 96 122
77 92 114
78 93 115
77 92 115
80 95 118
76 90 113
78 93 116
78 93 116
79 94 118
77 92 115
74 89 111
77 93 116
79 95 119
79 94 116
77 91 113
74 89 112
82 98 122
76 92 115
74 89 111
79 95 118
76 93 117
78 93 115
80 96 119
75 91 114
80 95 117
80 95 118
78 94 117
80 95 118
79 94 117
75 90 113
75 90 112
79 95 119
74 89 113
79 94 116
78 92 114
79 93 115
78 93 115
73 88 111
77 93 116
75 90 113
78 93 115
80 95 118
80 95 118
77 92 115
77 92 116
77 92 116
81 97 121
78 93 115
78 94 119
79 95 118
81 96 119
78 93 117
77 92 115
79 94 118
78 94 117
77 92 115
80 96 119
80 94 117
81 96 119
77 92 114
78 93 116
81 96 119
80 95 116
75 91 116
83 98 120
76 92 116
78 93 116
80 96 119
78 93 115
136 158 193
181 211 255
181 211 255
181 211 255
181 211 255
181 211 255
181 211 255
181 211 255
181 211 255
181 211 255
182 211 255
182 211 255
182 211 255
182 211 255
182 211 255
182 211 255
182 211 255
182 211 255
182 211 255
182 211 255
182 211 255
182 211 255
182 211 255
182 211 255
182 211 255
182 211 255
182 211 255
182 212 255
182 212 255
182 212 255
182 212 255
182 212 255
182 212 255
182 212 255
182 212 255
183 212 255
183 212 255
183 212 255
183 212 255
183 212 255
183 212 255
183 212 255
183 212 255
183 212 255
183 212 255
183 212 255
183 212 255
183 212 255
183 212 255
183 212 255
183 212 255
183 212 255
183 212 255
183 212 255
183 212 255
183 212 255
183 212 255
183 212 255
183 212 255
183 212 255
183 212 255
183 212 255
183 212 255
184 212 255
184 212 255
184 212 255
184 212 255
184 212 255
184 212 255
184 212 255
184 212 255
184 212 255
184 213 255
184 213 255
184 213 255
184 213 255
184 213 255
184 213 255
184 213 255
184 213 255
184 213 255
184 213 255
184 213 255
184 213 255
184 213 255
184 213 255
184 213 255
184 213 255
184 213 255
184 213 255
184 213 255
184 213 255
184 213 255
185 213 255
185 213 255
185 213 255
185 213 255
185 213 255
185 213 255
185 213 255
185 213 255
185 213 255
185 213 255
185 213 255
185 213 255
185 213 255
185 213 255
185 213 255
185 213 255
185 213 255
185 213 255
185 213 255
185 213 255
185 213 255
185 213 255
185 213 255
185 213 255
185 213 255
185 213 255
185 213 255
185 213 255
185 213 255
185 213 255
185 213 255
185 213 255
185 213 255
185 213 255
185 213 255
185 213 255
185 213 255
185 213 255
185 213 255
186 214 255
186 214 255
186 214 255
186 214 255
186 214 255
186 214 255
186 214 255
186 214 255
186 214 255
186 214 255
186 214 255
186 214 255
186 214 255
186 214 255
186 214 255
186 214 255
186 214 255
186 214 255
186 214 255
186 214 255
186 214 255
186 214 255
186 214 255
186 214 255
186 214 255
186 214 255
186 214 255
185 213 255
185 213 255
185 213 255
185 213 255
185 213 255
185 213 255
185 213 255
185 213 255
185 213 255
185 213 255
185 213 255
185 213 255
185 213 255
185 213 255
185 213 255
185 213 255
185 213 255
185 213 255
185 213 255
185 213 255
185 213 255
185 213 255
185 213 255
185 213 255
185 213 255
185 213 255
185 213 255
185 213 255
185 213 255
185 213 255
185 213 255
185 213 255
185 213 255
185 213 255
185 213 255
185 213 255
185 213 255
184 213 255
184 213 255
184 213 255
184 213 255
184 213 255
184 213 255
184 213 255
184 213 255
184 213 255
184 213 255
184 213 255
184 213 255
184 213 255
184 213 255
184 213 255
184 213 255
184 213 255
184 213 255
184 213 255
184 213 255
184 213 255
184 213 255
184 212 255
184 212 255
184 212 255
184 212 255
184 212 255
184 212 255
184 212 255
184 212 255
184 212 255
183 212 255
183 212 255
183 212 255
183 212 255
183 212 255
183 212 255
183 212 255
183 212 255
183 212 255
183 212 255
183 212 255
183 212 255
183 212 255
183 212 255
183 212 255
183 212 255
183 212 255
183 212 255
183 212 255
183 212 255
183 212 255
183 212 255
183 212 255
183 212 255
183 212 255
183 212 255
183 212 255
183 212 255
182 212 255
182 212 255
182 212 255
182 212 255
182 212 255
182 212 255
182 212 255
182 212 255
182 211 255
182 211 255
182 211 255
182 211 255
182 211 255
182 211 255
182 211 255
182 211 255
182 211 255
182 211 255
182 211 255
182 211 255
182 211 255
182 211 255
95 114 141
79 96 121
78 93 116
74 89 112
77 93 117
81 96 119
79 95 119
80 97 121
75 91 114
79 95 118
77 93 116
75 92 116
80 94 115
77 93 117
81 96 119
77 91 113
78 94 118
79 94 117
73 89 112
79 93 115
79 95 118
75 90 114
78 94 117
76 92 116
82 98 122
79 95 118
83 98 120
75 90 112
76 91 113
79 94 116
77 92 115
74 88 110
74 89 112
78 92 115
80 96 119
78 94 117
73 89 112
79 94 117
76 92 115
79 95 120
79 94 116
74 90 114
77 93 116
81 97 120
76 91 114
77 92 114
79 94 117
79 93 115
76 92 115
78 93 116
79 94 117
80 95 119
79 94 116
82 98 121
78 94 118
77 92 116
76 91 113
74 90 114
75 91 115
79 94 117
77 91 112
75 90 113
78 94 118
79 95 119
80 94 116
80 95 118
74 89 111
77 93 116
77 92 115
76 91 115
76 91 114
78 94 117
77 93 118
76 91 113
77 94 119
81 97 120
80 95 117
73 89 112
76 91 113
80 95 119
79 94 117
76 91 114
76 91 113
74 90 112
79 94 117
82 95 116
80 96 120
82 97 119
79 95 119
81 96 120
86 101 122
76 91 113
81 96 118
80 94 116
78 93 116
81 96 119
79 94 117
73 89 113
78 93 117
78 94 117
78 93 116
77 93 117
77 92 115
80 96 119
79 93 115
77 93 117
75 90 113
77 92 115
78 93 116
79 95 119
79 94 118
76 93 117
77 92 115
74 90 112
76 91 113
77 92 114
77 92 114
78 94 118
76 91 115
77 93 116
79 96 120
78 94 117
76 91 114
107 127 157
182 211 255
182 211 255
182 211 255
182 211 255
182 211 255
182 211 255
182 211 255
182 211 255
182 211 255
182 211 255
182 211 255
182 211 255
182 211 255
182 211 255
182 212 255
182 212 255
182 212 255
182 212 255
182 212 255
182 212 255
182 212 255
182 212 255
182 212 255
183 212 255
183 212 255
183 212 255
183 212 255
183 212 255
183 212 255
183 212 255
183 212 255
183 212 255
183 212 255
183 212 255
183 212 255
183 212 255
183 212 255
183 212 255
183 212 255
183 212 255
183 212 255
183 212 255
183 212 255
183 212 255
183 212 255
183 212 255
183 212 255
183 212 255
183 212 255
183 212 255
184 212 255
184 212 255
184 212 255
184 212 255
184 212 255
184 212 255
184 212 255
184 212 255
184 212 255
184 212 255
184 213 255
184 213 255
184 213 255
184 213 255
184 213 255
184 213 255
184 213 255
184 213 255
184 213 255
184 213 255
184 213 255
184 213 255
184 213 255
184 213 255
184 213 255
184 213 255
184 213 255
184 213 255
184 213 255
184 213 255
184 213 255
185 213 255
185 213 255
185 213 255
185 213 255
185 213 255
185 213 255
185 213 255
185 213 255
185 213 255
185 213 255
185 213 255
185 213 255
185 213 255
185 213 255
185 213 255
185 213 255
185 213 255
185 213 255
185 213 255
185 213 255
185 213 255
185 213 255
185 213 255
185 213 255
185 213 255
185 213 255
185 213 255
185 213 255
185 213 255
185 213 255
185 213 255
185 213 255
185 213 255
185 213 255
185 213 255
185 213 255
185 213 255
186 214 255
186 214 255
186 214 255
186 214 255
186 214 255
186 214 255
186 214 255
186 214 255
186 214 255
186 214 255
186 214 255
186 214 255
186 214 255
186 214 255
186 214 255
186 214 255
186 214 255
186 214 255
186 214 255
186 214 255
186 214 255
186 214 255
186 214 255
186 214 255
186 214 255
186 214 255
186 214 255
186 214 255
186 214 255
186 214 255
186 214 255
186 214 255
186 214 255
186 214 255
186 214 255
186 214 255
186 214 255
186 214 255
186 214 255
186 214 255
186 214 255
186 214 255
186 214 255
186 214 255
186 214 255
186 214 255
186 214 255
186 214 255
186 214 255
186 214 255
186 214 255
186 214 255
186 214 255
185 213 255
185 213 255
185 213 255
185 213 255
185 213 255
185 213 255
185 213 255
185 213 255
185 213 255
185 213 255
185 213 255
185 213 255
185 213 255
185 213 255
185 213 255
185 213 255
185 213 255
185 213 255
185 213 255
185 213 255
185 213 255
185 213 255
185 213 255
185 213 255
185 213 255
185 213 255
185 213 255
185 213 255
185 213 255
185 213 255
185 213 255
185 213 255
185 213 255
185 213 255
185 213 255
185 213 255
184 213 255
184 213 255
184 213 255
184 213 255
184 213 255
184 213 255
184 213 255
184 213 255
184 213 255
184 213 255
184 213 255
184 213 255
184 213 255
184 213 255
184 213 255
184 213 255
184 213 255
184 213 255
184 213 255
184 213 255
184 213 255
184 212 255
184 212 255
184 212 255
184 212 255
184 212 255
184 212 255
184 212 255
184 212 255
184 212 255
184 212 255
183 212 255
183 212 255
183 212 255
183 212 255
183 212 255
183 212 255
183 212 255
183 212 255
183 212 255
183 212 255
183 212 255
183 212 255
183 212 255
183 212 255
183 212 255
183 212 255
183 212 255
183 212 255
183 212 255
183 212 255
183 212 255
183 212 255
183 212 255
183 212 255
183 212 255
183 212 255
183 212 255
183 212 255
182 212 255
182 212 255
182 212 255
182 212 255
182 212 255
182 212 255
182 212 255
182 212 255
182 212 255
173 201 243
81 98 122
75 91 116
81 97 122
79 95 119
83 98 120
78 93 116
80 94 116
79 95 119
77 93 118
78 94 119
80 96 120
77 93 116
82 97 120
78 93 116
81 96 119
75 90 112
81 96 119
77 93 116
75 91 115
75 91 114
77 92 116
80 95 119
76 91 115
78 93 115
79 94 117
75 91 114
79 94 117
76 92 116
78 92 115
75 90 113
77 93 116
78 94 118
73 88 110
79 94 118
81 95 117
76 92 115
75 90 112
79 94 118
74 89 111
80 95 117
80 95 118
71 86 107
78 93 115
76 92 115
82 98 123
81 95 116
77 92 113
75 90 112
79 95 119
76 92 116
74 89 111
74 89 113
80 94 116
75 90 113
76 91 114
77 92 116
76 91 115
76 92 116
79 95 118
76 92 115
77 92 116
78 94 117
76 92 116
78 94 118
79 95 118
75 91 114
75 90 114
76 92 115
77 92 114
82 97 119
72 85 106
77 92 113
75 90 112
80 95 117
80 94 116
82 97 120
77 91 114
75 90 112
79 94 117
74 89 111
77 92 114
68 84 108
79 94 118
80 96 119
78 93 115
73 89 113
77 92 114
78 93 117
78 93 116
79 94 116
77 92 114
76 91 115
82 97 119
80 95 117
79 94 116
79 93 115
76 92 116
78 94 118
78 94 116
82 97 119
76 92 115
75 91 114
77 93 117
77 92 115
76 91 114
75 91 115
76 91 114
76 91 114
80 96 120
78 93 117
80 97 122
78 94 117
77 93 117
74 88 109
78 94 117
78 93 116
76 91 113
80 96 120
76 92 116
78 94 117
79 95 119
76 92 117
82 97 120
82 97 120
172 200 242
182 212 255
182 212 255
182 212 255
182 212 255
182 212 255
182 212 255
182 212 255
182 212 255
182 212 255
183 212 255
183 212 255
183 212 255
183 212 255
183 212 255
183 212 255
183 212 255
183 212 255
183 212 255
183 212 255
183 212 255
183 212 255
183 212 255
183 212 255
183 212 255
183 212 255
183 212 255
183 212 255
183 212 255
183 212 255
183 212 255
183 212 255
183 212 255
183 212 255
183 212 255
183 212 255
183 212 255
183 212 255
183 212 255
184 212 255
184 212 255
184 212 255
184 212 255
184 212 255
184 212 255
184 212 255
184 212 255
184 212 255
184 213 255
184 213 255
184 213 255
184 213 255
184 213 255
184 213 255
184 213 255
184 213 255
184 213 255
184 213 255
184 213 255
184 213 255
184 213 255
184 213 255
184 213 255
184 213 255
184 213 255
184 213 255
184 213 255
184 213 255
184 213 255
185 213 255
185 213 255
185 213 255
185 213 255
185 213 255
185 213 255
185 213 255
185 213 255
185 213 255
185 213 255
185 213 255
185 213 255
185 213 255
185 213 255
185 213 255
185 213 255
185 213 255
185 213 255
185 213 255
185 213 255
185 213 255
185 213 255
185 213 255
185 213 255
185 213 255
185 213 255
185 213 255
185 213 255
185 213 255
185 213 255
185 213 255
185 213 255
185 213 255
185 213 255
185 213 255
185 213 255
186 214 255
186 214 255
186 214 255
186 214 255
186 214 255
186 214 255
186 214 255
186 214 255
186 214 255
186 214 255
186 214 255
186 214 255
186 214 255
186 214 255
186 214 255
186 214 255
186 214 255
186 214 255
186 214 255
186 214 255
186 214 255
186 214 255
186 214 255
186 214 255
186 214 255
186 214 255
186 214 255
186 214 255
186 214 255
186 214 255
186 214 255
186 214 255
186 214 255
186 214 255
186 214 255
186 214 255
186 214 255
186 214 255
186 214 255
186 214 255
186 214 255
186 214 255
186 214 255
186 214 255
186 214 255
186 214 255
186 214 255
186 214 255
186 214 255
186 214 255
186 214 255
186 214 255
186 214 255
186 214 255
186 214 255
186 214 255
186 214 255
186 214 255
186 214 255
186 214 255
186 214 255
186 214 255
186 214 255
186 214 255
186 214 255
186 214 255
186 214 255
186 214 255
186 214 255
186 214 255
186 214 255
186 214 255
186 214 255
186 214 255
186 214 255
186 214 255
186 214 255
186 214 255
186 214 255
185 213 255
185 213 255
185 213 255
185 213 255
185 213 255
185 213 255
185 213 255
185 213 255
185 213 255
185 213 255
185 213 255
185 213 255
185 213 255
185 213 255
185 213 255
185 213 255
185 213 255
185 213 255
185 213 255
185 213 255
185 213 255
185 213 255
185 213 255
185 213 255
185 213 255
185 213 255
185 213 255
185 213 255
185 213 255
185 213 255
185 213 255
185 213 255
185 213 255
185 213 255
185 213 255
184 213 255
184 213 255
184 213 255
184 213 255
184 213 255
184 213 255
184 213 255
184 213 255
184 213 255
184 213 255
184 213 255
184 213 255
184 213 255
184 213 255
184 213 255
184 213 255
184 213 255
184 213 255
184 213 255
184 213 255
184 213 255
184 212 255
184 212 255
184 212 255
184 212 255
184 212 255
184 212 255
184 212 255
184 212 255
184 212 255
184 212 255
183 212 255
183 212 255
183 212 255
183 212 255
183 212 255
183 212 255
183 212 255
183 212 255
183 212 255
183 212 255
183 212 255
183 212 255
183 212 255
183 212 255
183 212 255
183 212 255
183 212 255
183 212 255
183 212 255
183 212 255
183 212 255
183 212 255
183 212 255
183 212 255
183 212 255
141 164 199
80 95 118
82 97 120
75 91 115
78 94 117
76 92 115
76 91 114
78 93 116
77 93 117
76 90 112
78 94 117
85 100 122
78 93 116
78 94 118
78 93 115
76 91 113
81 96 119
80 96 120
77 93 116
75 90 113
78 92 114
71 86 109
77 92 115
79 94 116
78 93 117
77 93 116
75 90 113
72 87 110
77 94 119
75 91 116
79 94 117
72 87 111
77 92 114
72 87 111
83 98 121
77 93 116
79 94 117
76 92 116
74 90 113
73 88 110
78 93 117
78 93 115
77 92 115
78 93 117
76 90 112
78 93 117
76 91 112
76 90 112
77 91 112
77 92 115
76 91 114
79 95 118
76 91 114
78 93 115
77 93 116
78 93 116
75 90 112
80 96 120
76 91 114
73 89 114
81 96 120
77 92 115
80 94 115
75 89 110
76 92 115
79 95 117
75 90 112
79 94 117
76 92 117
76 91 114
77 92 115
77 92 114
77 93 117
75 89 112
78 92 114
78 94 117
78 93 115
76 91 115
77 92 114
72 87 109
77 92 114
74 89 112
80 95 117
76 91 115
80 94 117
83 99 122
77 93 118
76 91 114
78 94 117
75 90 112
76 91 113
73 88 111
77 92 114
74 90 112
76 91 114
75 89 111
77 93 116
75 91 114
77 93 116
79 94 116
78 94 117
76 91 114
81 97 120
75 91 114
75 89 112
76 92 115
79 95 118
76 92 115
79 95 118
74 89 112
78 93 116
76 92 116
80 96 120
76 91 115
81 96 118
79 95 119
78 94 118
79 94 117
78 94 117
81 97 120
78 94 119
74 88 111
80 97 122
75 90 112
79 92 113
145 170 207
183 212 255
183 212 255
183 212 255
183 212 255
183 212 255
183 212 255
183 212 255
183 212 255
183 212 255
183 212 255
183 212 255
183 212 255
183 212 255
183 212 255
183 212 255
183 212 255
183 212 255
183 212 255
183 212 255
183 212 255
183 212 255
183 212 255
183 212 255
183 212 255
183 212 255
184 212 255
184 212 255
184 212 255
184 212 255
184 212 255
184 212 255
184 212 255
184 212 255
184 212 255
184 212 255
184 213 255
184 213 255
184 213 255
184 213 255
184 213 255
184 213 255
184 213 255
184 213 255
184 213 255
184 213 255
184 213 255
184 213 255
184 213 255
184 213 255
184 213 255
184 213 255
184 213 255
184 213 255
184 213 255
184 213 255
184 213 255
185 213 255
185 213 255
185 213 255
185 213 255
185 213 255
185 213 255
185 213 255
185 213 255
185 213 255
185 213 255
185 213 255
185 213 255
185 213 255
185 213 255
185 213 255
185 213 255
185 213 255
185 213 255
185 213 255
185 213 255
185 213 255
185 213 255
185 213 255
185 213 255
185 213 255
185 213 255
185 213 255
185 213 255
185 213 255
185 213 255
185 213 255
185 213 255
185 213 255
185 213 255
185 213 255
186 214 255
186 214 255
186 214 255
186 214 255
186 214 255
186 214 255
186 214 255
186 214 255
186 214 255
186 214 255
186 214 255
186 214 255
186 214 255
186 214 255
186 214 255
186 214 255
186 214 255
186 214 255
186 214 255
186 214 255
186 214 255
186 214 255
186 214 255
186 214 255
186 214 255
186 214 255
186 214 255
186 214 255
186 214 255
186 214 255
186 214 255
186 214 255
186 214 255
186 214 255
186 214 255
186 214 255
186 214 255
186 214 255
186 214 255
186 214 255
186 214 255
186 214 255
186 214 255
186 214 255
186 214 255
186 214 255
187 214 255
187 214 255
187 214 255
187 214 255
187 214 255
187 214 255
187 214 255
187 214 255
187 214 255
187 214 255
187 214 255
187 214 255
187 214 255
187 214 255
186 214 255
186 214 255
186 214 255
186 214 255
186 214 255
186 214 255
186 214 255
186 214 255
186 214 255
186 214 255
186 214 255
186 214 255
186 214 255
186 214 255
186 214 255
186 214 255
186 214 255
186 214 255
186 214 255
186 214 255
186 214 255
186 214 255
186 214 255
186 214 255
186 214 255
186 214 255
186 214 255
186 214 255
186 214 255
186 214 255
186 214 255
186 214 255
186 214 255
186 214 255
186 214 255
186 214 255
186 214 255
186 214 255
186 214 255
186 214 255
186 214 255
186 214 255
186 214 255
186 214 255
185 213 255
185 213 255
185 213 255
185 213 255
185 213 255
185 213 255
185 213 255
185 213 255
185 213 255
185 213 255
185 213 255
185 213 255
185 213 255
185 213 255
185 213 255
185 213 255
185 213 255
185 213 255
185 213 255
185 213 255
185 213 255
185 213 255
185 213 255
185 213 255
185 213 255
185 213 255
185 213 255
185 213 255
185 213 255
185 213 255
185 213 255
185 213 255
185 213 255
185 213 255
185 213 255
185 213 255
184 213 255
184 213 255
184 213 255
184 213 255
184 213 255
184 213 255
184 213 255
184 213 255
184 213 255
184 213 255
184 213 255
184 213 255
184 213 255
184 213 255
184 213 255
184 213 255
184 213 255
184 213 255
184 213 255
184 213 255
184 213 255
184 213 255
184 212 255
184 212 255
184 212 255
184 212 255
184 212 255
184 212 255
184 212 255
184 212 255
184 212 255
184 212 255
183 212 255
183 212 255
183 212 255
183 212 255
183 212 255
183 212 255
183 212 255
183 212 255
183 212 255
183 212 255
183 212 255
108 127 157
76 91 113
77 93 117
79 94 117
76 91 113
78 93 116
76 92 116
80 96 120
79 95 118
80 95 117
77 92 114
78 93 117
73 88 111
79 94 116
77 93 115
77 91 113
79 93 115
79 93 116
77 91 113
78 93 115
76 92 115
75 90 113
76 92 114
76 92 114
74 89 111
77 92 115
76 90 112
76 91 113
75 90 112
76 93 117
75 91 114
78 94 118
79 94 117
81 96 117
74 89 111
81 95 116
77 92 114
77 93 116
79 94 117
77 92 114
75 89 111
78 93 115
74 89 111
76 91 112
76 90 112
81 96 119
79 94 117
79 94 117
74 91 115
78 94 117
74 88 109
74 90 112
75 90 114
77 92 114
76 91 113
77 93 116
74 90 113
79 95 118
73 88 110
75 91 114
75 91 114
74 90 113
78 94 118
79 94 117
77 92 115
81 95 118
75 91 114
76 91 114
80 94 116
77 92 115
76 92 115
80 96 119
78 92 114
77 92 115
77 93 117
73 88 110
77 92 113
80 95 117
75 90 113
76 91 115
75 90 112
79 95 119
81 96 120
77 92 116
75 91 114
77 92 115
74 88 110
75 89 112
75 91 115
77 91 114
78 94 117
76 91 113
76 92 115
76 91 113
80 94 115
80 96 118
74 89 110
79 95 118
75 91 115
81 95 116
81 96 118
77 92 115
75 90 112
73 86 107
79 93 114
75 90 112
74 89 111
74 89 113
75 90 114
79 93 114
77 92 114
75 90 113
77 92 116
77 92 116
77 93 116
78 94 118
77 92 116
77 92 115
77 93 117
76 92 116
79 94 115
76 91 112
79 94 117
76 92 115
76 91 113
112 132 162
183 212 255
183 212 255
183 212 255
183 212 255
183 212 255
183 212 255
183 212 255
183 212 255
183 212 255
183 212 255
183 212 255
184 212 255
184 212 255
184 212 255
184 212 255
184 212 255
184 212 255
184 212 255
184 212 255
184 212 255
184 212 255
184 213 255
184 213 255
184 213 255
184 213 255
184 213 255
184 213 255
184 213 255
184 213 255
184 213 255
184 213 255
184 213 255
184 213 255
184 213 255
184 213 255
184 213 255
184 213 255
184 213 255
184 213 255
184 213 255
184 213 255
184 213 255
185 213 255
185 213 255
185 213 255
185 213 255
185 213 255
185 213 255
185 213 255
185 213 255
185 213 255
185 213 255
185 213 255
185 213 255
185 213 255
185 213 255
185 213 255
185 213 255
185 213 255
185 213 255
185 213 255
185 213 255
185 213 255
185 213 255
185 213 255
185 213 255
185 213 255
185 213 255
185 213 255
185 213 255
185 213 255
185 213 255
185 213 255
185 213 255
185 213 255
185 213 255
185 213 255
185 213 255
186 214 255
186 214 255
186 214 255
186 214 255
186 214 255
186 214 255
186 214 255
186 214 255
186 214 255
186 214 255
186 214 255
186 214 255
186 214 255
186 214 255
186 214 255
186 214 255
186 214 255
186 214 255
186 214 255
186 214 255
186 214 255
186 214 255
186 214 255
186 214 255
186 214 255
186 214 255
186 214 255
186 214 255
186 214 255
186 214 255
186 214 255
186 214 255
186 214 255
186 214 255
186 214 255
186 214 255
186 214 255
186 214 255
186 214 255
186 214 255
186 214 255
186 214 255
186 214 255
186 214 255
187 214 255
187 214 255
187 214 255
187 214 255
187 214 255
187 214 255
187 214 255
187 214 255
187 214 255
187 214 255
187 214 255
187 214 255
187 214 255
187 214 255
187 214 255
187 214 255
187 214 255
187 214 255
187 214 255
187 214 255
187 214 255
187 214 255
187 214 255
187 214 255
187 214 255
187 214 255
187 214 255
187 214 255
187 214 255
187 214 255
187 214 255
187 214 255
187 214 255
187 214 255
187 214 255
187 214 255
187 214 255
187 214 255
187 214 255
187 214 255
187 214 255
187 214 255
187 214 255
187 214 255
187 214 255
186 214 255
186 214 255
186 214 255
186 214 255
186 214 255
186 214 255
186 214 255
186 214 255
186 214 255
186 214 255
186 214 255
186 214 255
186 214 255
186 214 255
186 214 255
186 214 255
186 214 255
186 214 255
186 214 255
186 214 255
186 214 255
186 214 255
186 214 255
186 214 255
186 214 255
186 214 255
186 214 255
186 214 255
186 214 255
186 214 255
186 214 255
186 214 255
186 214 255
186 214 255
186 214 255
186 214 255
186 214 255
186 214 255
186 214 255
186 214 255
186 214 255
186 214 255
186 214 255
185 213 255
185 213 255
185 213 255
185 213 255
185 213 255
185 213 255
185 213 255
185 213 255
185 213 255
185 213 255
185 213 255
185 213 255
185 213 255
185 213 255
185 213 255
185 213 255
185 213 255
185 213 255
185 213 255
185 213 255
185 213 255
185 213 255
185 213 255
185 213 255
185 213 255
185 213 255
185 213 255
185 213 255
185 213 255
185 213 255
185 213 255
185 213 255
185 213 255
185 213 255
185 213 255
184 213 255
184 213 255
184 213 255
184 213 255
184 213 255
184 213 255
184 213 255
184 213 255
184 213 255
184 213 255
184 213 255
184 213 255
184 213 255
184 213 255
184 213 255
184 213 255
184 213 255
184 213 255
184 213 255
184 213 255
184 213 255
184 212 255
184 212 255
184 212 255
184 212 255
184 212 255
184 212 255
184 212 255
180 209 252
83 98 121
76 91 113
74 89 112
80 95 118
77 94 118
76 91 115
83 98 120
77 92 115
77 93 117
77 92 115
74 89 110
76 90 112
79 95 120
75 90 113
77 92 114
74 88 110
72 87 109
79 94 117
76 92 116
77 93 116
73 88 110
75 90 112
77 92 114
76 91 113
76 91 114
76 91 113
72 88 111
79 95 119
74 89 111
76 91 112
75 89 111
79 94 117
73 89 112
80 95 118
77 92 115
76 91 113
76 92 116
77 92 115
77 93 116
78 94 118
76 91 115
78 94 117
73 89 114
78 94 119
73 88 109
73 87 110
77 92 115
74 88 110
75 91 114
79 95 118
76 90 112
75 89 112
79 94 116
79 94 117
76 92 117
75 90 113
75 89 110
72 87 109
72 87 109
75 90 113
74 89 110
73 89 112
77 92 115
75 91 114
76 91 113
75 90 113
78 93 115
77 91 113
77 92 114
78 94 118
69 84 105
72 87 109
73 87 109
79 94 117
78 93 115
76 91 114
79 95 118
75 90 112
75 89 111
79 94 116
76 90 111
78 93 117
75 90 112
78 93 116
80 95 119
76 90 111
74 89 112
81 96 120
74 88 109
79 94 117
79 94 117
76 91 113
75 90 112
81 96 119
79 95 119
77 92 114
74 89 112
78 94 116
75 90 114
78 93 114
75 90 112
76 90 113
76 91 113
78 93 116
80 95 118
79 94 116
77 91 113
77 93 117
76 92 115
74 89 112
78 93 116
77 93 117
74 89 112
73 89 112
77 93 117
76 91 112
78 93 115
80 94 116
76 92 115
80 95 118
79 95 119
74 89 111
75 90 113
81 96 120
78 94 118
83 99 123
181 210 252
184 212 255
184 212 255
184 212 255
184 212 255
184 212 255
184 212 255
184 213 255
184 213 255
184 213 255
184 213 255
184 213 255
184 213 255
184 213 255
184 213 255
184 213 255
184 213 255
184 213 255
184 213 255
184 213 255
184 213 255
184 213 255
184 213 255
184 213 255
184 213 255
184 213 255
184 213 255
184 213 255
184 213 255
185 213 255
185 213 255
185 213 255
185 213 255
185 213 255
185 213 255
185 213 255
185 213 255
185 213 255
185 213 255
185 213 255
185 213 255
185 213 255
185 213 255
185 213 255
185 213 255
185 213 255
185 213 255
185 213 255
185 213 255
185 213 255
185 213 255
185 213 255
185 213 255
185 213 255
185 213 255
185 213 255
185 213 255
185 213 255
185 213 255
185 213 255
185 213 255
185 213 255
185 213 255
185 213 255
186 214 255
186 214 255
186 214 255
186 214 255
186 214 255
186 214 255
186 214 255
186 214 255
186 214 255
186 214 255
186 214 255
186 214 255
186 214 255
186 214 255
186 214 255
186 214 255
186 214 255
186 214 255
186 214 255
186 214 255
186 214 255
186 214 255
186 214 255
186 214 255
186 214 255
186 214 255
186 214 255
186 214 255
186 214 255
186 214 255
186 214 255
186 214 255
186 214 255
186 214 255
186 214 255
186 214 255
186 214 255
186 214 255
186 214 255
186 214 255
186 214 255
186 214 255
186 214 255
186 214 255
187 214 255
187 214 255
187 214 255
187 214 255
187 214 255
187 214 255
187 214 255
187 214 255
187 214 255
187 214 255
187 214 255
187 214 255
187 214 255
187 214 255
187 214 255
187 214 255
187 214 255
187 214 255
187 214 255
187 214 255
187 214 255
187 214 255
187 214 255
187 214 255
187 214 255
187 214 255
187 214 255
187 214 255
187 214 255
187 215 255
187 215 255
187 215 255
187 215 255
187 215 255
187 215 255
187 215 255
187 215 255
187 215 255
187 215 255
187 214 255
187 214 255
187 214 255
187 214 255
187 214 255
187 214 255
187 214 255
187 214 255
187 214 255
187 214 255
187 214 255
187 214 255
187 214 255
187 214 255
187 214 255
187 214 255
187 214 255
187 214 255
187 214 255
187 214 255
187 214 255
187 214 255
187 214 255
187 214 255
187 214 255
187 214 255
187 214 255
187 214 255
187 214 255
187 214 255
187 214 255
187 214 255
187 214 255
187 214 255
187 214 255
187 214 255
186 214 255
186 214 255
186 214 255
186 214 255
186 214 255
186 214 255
186 214 255
186 214 255
186 214 255
186 214 255
186 214 255
186 214 255
186 214 255
186 214 255
186 214 255
186 214 255
186 214 255
186 214 255
186 214 255
186 214 255
186 214 255
186 214 255
186 214 255
186 214 255
186 214 255
186 214 255
186 214 255
186 214 255
186 214 255
186 214 255
186 214 255
186 214 255
186 214 255
186 214 255
186 214 255
186 214 255
186 214 255
186 214 255
186 214 255
186 214 255
186 214 255
185 213 255
185 213 255
185 213 255
185 213 255
185 213 255
185 213 255
185 213 255
185 213 255
185 213 255
185 213 255
185 213 255
185 213 255
185 213 255
185 213 255
185 213 255
185 213 255
185 213 255
185 213 255
185 213 255
185 213 255
185 213 255
185 213 255
185 213 255
185 213 255
185 213 255
185 213 255
185 213 255
185 213 255
185 213 255
185 213 255
185 213 255
185 213 255
185 213 255
185 213 255
185 213 255
185 213 255
185 213 255
184 213 255
184 213 255
184 213 255
184 213 255
184 213 255
184 213 255
184 213 255
184 213 255
184 213 255
184 213 255
184 213 255
184 213 255
162 187 226
81 96 118
81 97 119
73 88 110
82 97 119
77 93 116
76 91 112
75 90 113
75 91 114
74 90 113
80 95 118
77 92 116
79 94 118
76 92 115
77 91 113
78 92 115
74 90 113
76 91 113
76 91 114
77 92 113
77 92 114
75 90 113
75 91 113
78 93 116
74 89 111
80 96 118
75 90 113
76 92 115
79 94 116
77 92 113
75 90 112
78 93 117
76 90 111
75 90 112
75 90 112
80 95 118
74 89 112
79 94 116
79 93 115
71 87 110
80 94 116
79 94 116
70 86 109
74 89 110
75 90 112
77 92 115
79 94 116
72 87 109
77 92 114
74 89 110
77 92 115
75 90 111
74 89 111
76 91 113
74 89 111
73 87 109
76 91 114
75 90 113
76 92 115
75 90 113
74 90 114
79 94 116
77 91 113
76 92 115
77 92 114
78 94 117
77 92 114
69 85 108
79 93 114
74 90 113
78 93 114
75 91 114
76 92 114
70 85 107
77 91 113
79 93 115
78 92 115
76 90 112
74 88 110
72 86 107
77 92 116
76 91 114
74 89 111
75 91 114
74 89 112
78 94 117
74 90 113
78 93 116
76 91 115
77 93 116
77 93 115
78 93 116
72 87 109
79 94 117
74 89 112
78 93 116
78 92 114
73 88 111
78 93 116
77 91 113
73 87 109
73 88 111
76 92 116
74 89 112
76 91 115
76 92 116
76 91 114
74 90 113
79 95 117
76 92 116
78 92 113
79 96 120
75 90 113
77 92 115
77 91 112
76 91 113
73 86 107
78 94 116
77 92 115
72 87 110
78 93 117
74 90 113
81 95 118
75 91 114
79 95 119
80 95 119
79 94 117
170 197 237
184 213 255
184 213 255
184 213 255
184 213 255
184 213 255
184 213 255
184 213 255
184 213 255
184 213 255
184 213 255
184 213 255
184 213 255
184 213 255
184 213 255
185 213 255
185 213 255
185 213 255
185 213 255
185 213 255
185 213 255
185 213 255
185 213 255
185 213 255
185 213 255
185 213 255
185 213 255
185 213 255
185 213 255
185 213 255
185 213 255
185 213 255
185 213 255
185 213 255
185 213 255
185 213 255
185 213 255
185 213 255
185 213 255
185 213 255
185 213 255
185 213 255
185 213 255
185 213 255
185 213 255
185 213 255
185 213 255
185 213 255
185 213 255
185 213 255
186 214 255
186 214 255
186 214 255
186 214 255
186 214 255
186 214 255
186 214 255
186 214 255
186 214 255
186 214 255
186 214 255
186 214 255
186 214 255
186 214 255
186 214 255
186 214 255
186 214 255
186 214 255
186 214 255
186 214 255
186 214 255
186 214 255
186 214 255
186 214 255
186 214 255
186 214 255
186 214 255
186 214 255
186 214 255
186 214 255
186 214 255
186 214 255
186 214 255
186 214 255
186 214 255
186 214 255
186 214 255
186 214 255
186 214 255
186 214 255
186 214 255
186 214 255
187 214 255
187 214 255
187 214 255
187 214 255
187 214 255
187 214 255
187 214 255
187 214 255
187 214 255
187 214 255
187 214 255
187 214 255
187 214 255
187 214 255
187 214 255
187 214 255
187 214 255
187 214 255
187 214 255
187 214 255
187 214 255
187 214 255
187 214 255
187 214 255
187 214 255
187 214 255
187 214 255
187 214 255
187 214 255
187 214 255
187 214 255
187 214 255
187 214 255
187 214 255
187 214 255
187 214 255
187 215 255
187 215 255
187 215 255
187 215 255
187 215 255
187 215 255
187 215 255
187 215 255
187 215 255
188 215 255
188 215 255
188 215 255
188 215 255
188 215 255
188 215 255
188 215 255
187 215 255
187 215 255
187 215 255
187 215 255
187 215 255
187 215 255
187 215 255
187 215 255
187 215 255
187 215 255
187 215 255
187 215 255
187 215 255
187 215 255
187 215 255
187 215 255
187 215 255
187 215 255
187 215 255
187 215 255
187 214 255
187 214 255
187 214 255
187 214 255
187 214 255
187 214 255
187 214 255
187 214 255
187 214 255
187 214 255
187 214 255
187 214 255
187 214 255
187 214 255
187 214 255
187 214 255
187 214 255
187 214 255
187 214 255
187 214 255
187 214 255
187 214 255
187 214 255
187 214 255
187 214 255
187 214 255
187 214 255
187 214 255
187 214 255
187 214 255
187 214 255
187 214 255
187 214 255
187 214 255
186 214 255
186 214 255
186 214 255
186 214 255
186 214 255
186 214 255
186 214 255
186 214 255
186 214 255
186 214 255
186 214 255
186 214 255
186 214 255
186 214 255
186 214 255
186 214 255
186 214 255
186 214 255
186 214 255
186 214 255
186 214 255
186 214 255
186 214 255
186 214 255
186 214 255
186 214 255
186 214 255
186 214 255
186 214 255
186 214 255
186 214 255
186 214 255
186 214 255
186 214 255
186 214 255
186 214 255
186 214 255
186 214 255
186 214 255
186 214 255
186 214 255
185 213 255
185 213 255
185 213 255
185 213 255
185 213 255
185 213 255
185 213 255
185 213 255
185 213 255
185 213 255
185 213 255
185 213 255
185 213 255
185 213 255
185 213 255
185 213 255
185 213 255
185 213 255
185 213 255
185 213 255
185 213 255
185 213 255
185 213 255
185 213 255
185 213 255
185 213 255
185 213 255
185 213 255
185 213 255
185 213 255
185 213 255
185 213 255
185 213 255
185 213 255
134 156 188
76 90 112
76 91 114
73 88 111
75 90 114
76 91 114
78 93 117
77 92 115
74 90 112
74 89 111
77 92 116
80 96 118
78 92 114
75 90 112
73 89 113
81 97 120
73 89 113
79 95 118
80 94 115
80 95 118
80 95 119
79 93 115
75 91 114
79 94 116
78 93 115
70 84 106
78 93 115
78 93 115
77 92 115
73 88 111
77 92 114
76 91 114
78 93 115
73 89 112
77 93 117
76 91 112
76 91 114
75 89 111
74 88 109
78 94 116
76 92 116
77 92 115
77 91 112
73 88 110
79 94 116
76 92 114
78 94 117
76 92 115
73 88 109
73 87 108
71 86 108
74 89 112
77 92 114
73 88 111
77 91 113
76 90 111
77 92 115
78 94 117
75 90 112
81 96 119
74 89 112
72 88 110
76 92 115
74 89 112
75 90 113
75 90 113
78 93 116
75 88 109
71 87 110
73 88 111
76 91 114
69 84 107
73 88 111
75 89 111
75 90 113
76 91 115
79 93 115
77 92 115
79 94 117
77 91 112
76 92 115
76 90 113
78 92 114
75 91 115
80 95 119
77 91 114
80 95 117
77 91 114
78 93 115
71 87 112
76 91 113
79 94 117
76 90 112
74 89 112
75 90 112
80 95 118
75 89 111
74 88 110
77 93 116
76 92 116
75 90 113
80 94 116
74 88 110
76 90 111
76 90 112
77 91 113
79 95 119
80 94 116
75 90 113
77 91 112
78 93 114
77 93 116
73 88 111
75 90 112
75 90 112
77 91 113
77 93 116
82 98 121
74 89 111
71 86 108
73 88 112
80 94 117
78 92 114
73 88 111
74 88 110
81 96 119
76 91 114
143 167 202
185 213 255
185 213 255
185 213 255
185 213 255
185 213 255
185 213 255
185 213 255
185 213 255
185 213 255
185 213 255
185 213 255
185 213 255
185 213 255
185 213 255
185 213 255
185 213 255
185 213 255
185 213 255
185 213 255
185 213 255
185 213 255
185 213 255
185 213 255
185 213 255
185 213 255
185 213 255
185 213 255
185 213 255
185 213 255
185 213 255
185 213 255
185 213 255
185 213 255
186 214 255
186 214 255
186 214 255
186 214 255
186 214 255
186 214 255
186 214 255
186 214 255
186 214 255
186 214 255
186 214 255
186 214 255
186 214 255
186 214 255
186 214 255
186 214 255
186 214 255
186 214 255
186 214 255
186 214 255
186 214 255
186 214 255
186 214 255
186 214 255
186 214 255
186 214 255
186 214 255
186 214 255
186 214 255
186 214 255
186 214 255
186 214 255
186 214 255
186 214 255
186 214 255
186 214 255
186 214 255
186 214 255
186 214 255
186 214 255
186 214 255
186 214 255
187 214 255
187 214 255
187 214 255
187 214 255
187 214 255
187 214 255
187 214 255
187 214 255
187 214 255
187 214 255
187 214 255
187 214 255
187 214 255
187 214 255
187 214 255
187 214 255
187 214 255
187 214 255
187 214 255
187 214 255
187 214 255
187 214 255
187 214 255
187 214 255
187 214 255
187 214 255
187 214 255
187 214 255
187 214 255
187 214 255
187 214 255
187 214 255
187 214 255
187 214 255
187 215 255
187 215 255
187 215 255
187 215 255
187 215 255
187 215 255
187 215 255
187 215 255
187 215 255
187 215 255
187 215 255
187 215 255
187 215 255
187 215 255
187 215 255
187 215 255
187 215 255
187 215 255
187 215 255
187 215 255
187 215 255
188 215 255
188 215 255
188 215 255
188 215 255
188 215 255
188 215 255
188 215 255
188 215 255
188 215 255
188 215 255
188 215 255
188 215 255
188 215 255
188 215 255
188 215 255
188 215 255
188 215 255
188 215 255
188 215 255
188 215 255
188 215 255
188 215 255
188 215 255
188 215 255
188 215 255
188 215 255
188 215 255
188 215 255
188 215 255
188 215 255
188 215 255
188 215 255
187 215 255
187 215 255
187 215 255
187 215 255
187 215 255
187 215 255
187 215 255
187 215 255
187 215 255
187 215 255
187 215 255
187 215 255
187 215 255
187 215 255
187 215 255
187 215 255
187 215 255
187 215 255
187 215 255
187 214 255
187 214 255
187 214 255
187 214 255
187 214 255
187 214 255
187 214 255
187 214 255
187 214 255
187 214 255
187 214 255
187 214 255
187 214 255
187 214 255
187 214 255
187 214 255
187 214 255
187 214 255
187 214 255
187 214 255
187 214 255
187 214 255
187 214 255
187 214 255
187 214 255
187 214 255
187 214 255
187 214 255
187 214 255
187 214 255
187 214 255
187 214 255
187 214 255
186 214 255
186 214 255
186 214 255
186 214 255
186 214 255
186 214 255
186 214 255
186 214 255
186 214 255
186 214 255
186 214 255
186 214 255
186 214 255
186 214 255
186 214 255
186 214 255
186 214 255
186 214 255
186 214 255
186 214 255
186 214 255
186 214 255
186 214 255
186 214 255
186 214 255
186 214 255
186 214 255
186 214 255
186 214 255
186 214 255
186 214 255
186 214 255
186 214 255
186 214 255
186 214 255
186 214 255
186 214 255
186 214 255
186 214 255
186 214 255
186 214 255
186 214 255
185 213 255
185 213 255
185 213 255
185 213 255
185 213 255
185 213 255
185 213 255
185 213 255
185 213 255
185 213 255
185 213 255
185 213 255
185 213 255
185 213 255
185 213 255
185 213 255
118 138 169
70 85 108
74 90 114
79 94 117
75 90 112
77 92 116
75 90 111
73 88 112
72 88 111
77 92 115
78 93 115
75 90 113
76 91 114
78 93 116
74 89 111
72 87 109
77 92 114
77 92 115
76 91 113
76 91 114
72 88 111
77 93 116
76 90 112
81 96 119
75 90 112
70 85 107
81 96 119
77 92 114
76 90 112
77 92 115
78 93 116
76 91 114
77 91 113
75 89 112
79 94 118
79 93 115
76 91 113
83 98 121
78 93 115
73 88 111
73 88 110
77 92 114
78 93 114
76 91 113
78 93 115
72 87 109
75 90 112
75 89 111
73 87 108
76 92 115
72 86 106
78 94 119
75 90 113
80 95 118
73 88 109
76 92 116
72 87 108
77 91 112
74 89 112
74 90 113
72 86 109
73 89 113
76 90 112
75 89 111
76 90 112
74 90 114
79 93 114
77 92 114
76 90 111
77 91 112
77 91 114
74 89 112
77 92 114
72 87 110
73 88 112
74 88 109
77 92 115
78 93 114
74 89 112
75 90 112
76 92 115
74 89 112
72 87 109
75 89 110
74 88 109
76 91 114
73 88 111
79 93 115
74 88 111
78 92 114
69 83 104
75 89 111
76 90 110
71 86 108
77 92 113
72 86 108
75 89 110
76 91 113
78 93 115
75 90 111
75 89 110
76 91 114
74 88 110
80 95 117
77 92 114
77 93 117
75 90 113
78 92 112
76 91 114
76 90 112
77 91 112
77 92 115
78 93 115
74 89 112
77 92 115
79 94 117
77 92 114
78 93 114
75 89 110
80 95 118
78 94 117
77 93 116
78 94 118
75 89 111
80 95 117
75 91 114
75 90 112
115 135 166
185 213 255
185 213 255
185 213 255
185 213 255
185 213 255
185 213 255
185 213 255
185 213 255
185 213 255
185 213 255
185 213 255
185 213 255
185 213 255
185 213 255
185 213 255
185 213 255
186 214 255
186 214 255
186 214 255
186 214 255
186 214 255
186 214 255
186 214 255
186 214 255
186 214 255
186 214 255
186 214 255
186 214 255
186 214 255
186 214 255
186 214 255
186 214 255
186 214 255
186 214 255
186 214 255
186 214 255
186 214 255
186 214 255
186 214 255
186 214 255
186 214 255
186 214 255
186 214 255
186 214 255
186 214 255
186 214 255
186 214 255
186 214 255
186 214 255
186 214 255
186 214 255
186 214 255
186 214 255
186 214 255
186 214 255
186 214 255
186 214 255
186 214 255
187 214 255
187 214 255
187 214 255
187 214 255
187 214 255
187 214 255
187 214 255
187 214 255
187 214 255
187 214 255
187 214 255
187 214 255
187 214 255
187 214 255
187 214 255
187 214 255
187 214 255
187 214 255
187 214 255
187 214 255
187 214 255
187 214 255
187 214 255
187 214 255
187 214 255
187 214 255
187 214 255
187 214 255
187 214 255
187 214 255
187 214 255
187 214 255
187 214 255
187 215 255
187 215 255
187 215 255
187 215 255
187 215 255
187 215 255
187 215 255
187 215 255
187 215 255
187 215 255
187 215 255
187 215 255
187 215 255
187 215 255
187 215 255
187 215 255
187 215 255
187 215 255
187 215 255
187 215 255
188 215 255
188 215 255
188 215 255
188 215 255
188 215 255
188 215 255
188 215 255
188 215 255
188 215 255
188 215 255
188 215 255
188 215 255
188 215 255
188 215 255
188 215 255
188 215 255
188 215 255
188 215 255
188 215 255
188 215 255
188 215 255
188 215 255
188 215 255
188 215 255
188 215 255
188 215 255
188 215 255
188 215 255
188 215 255
188 215 255
188 215 255
188 215 255
188 215 255
188 215 255
188 215 255
188 215 255
188 215 255
188 215 255
188 215 255
188 215 255
188 215 255
188 215 255
188 215 255
188 215 255
188 215 255
188 215 255
188 215 255
188 215 255
188 215 255
188 215 255
188 215 255
188 215 255
188 215 255
188 215 255
188 215 255
188 215 255
188 215 255
188 215 255
188 215 255
188 215 255
188 215 255
188 215 255
188 215 255
188 215 255
188 215 255
188 215 255
188 215 255
188 215 255
188 215 255
188 215 255
187 215 255
187 215 255
187 215 255
187 215 255
187 215 255
187 215 255
187 215 255
187 215 255
187 215 255
187 215 255
187 215 255
187 215 255
187 215 255
187 215 255
187 215 255
187 215 255
187 215 255
187 215 255
187 215 255
187 214 255
187 214 255
187 214 255
187 214 255
187 214 255
187 214 255
187 214 255
187 214 255
187 214 255
187 214 255
187 214 255
187 214 255
187 214 255
187 214 255
187 214 255
187 214 255
187 214 255
187 214 255
187 214 255
187 214 255
187 214 255
187 214 255
187 214 255
187 214 255
187 214 255
187 214 255
187 214 255
187 214 255
187 214 255
187 214 255
187 214 255
187 214 255
186 214 255
186 214 255
186 214 255
186 214 255
186 214 255
186 214 255
186 214 255
186 214 255
186 214 255
186 214 255
186 214 255
186 214 255
186 214 255
186 214 255
186 214 255
186 214 255
186 214 255
186 214 255
186 214 255
186 214 255
186 214 255
186 214 255
186 214 255
186 214 255
186 214 255
186 214 255
186 214 255
186 214 255
186 214 255
186 214 255
186 214 255
186 214 255
186 214 255
186 214 255
186 214 255
186 214 255
186 214 255
186 214 255
186 214 255
186 214 255
99 117 144
75 91 114
79 94 117
76 91 112
69 85 108
77 91 113
74 90 114
74 89 110
76 91 113
79 92 113
74 88 110
76 91 113
75 90 113
78 93 116
79 93 115
78 93 117
72 86 108
78 94 117
76 90 112
76 91 114
76 91 113
76 92 116
77 92 115
73 88 109
77 92 114
76 90 112
79 94 118
79 94 117
74 90 112
77 91 113
75 90 111
78 94 118
73 88 111
78 94 117
72 87 109
76 91 114
77 92 115
78 92 114
78 92 115
76 90 112
77 92 114
72 87 109
76 91 113
73 88 111
74 88 109
75 90 112
78 93 116
74 88 109
73 87 108
76 91 114
75 90 114
76 92 115
72 86 107
77 92 113
75 89 112
80 95 117
79 93 116
75 90 112
77 92 113
74 89 111
76 91 112
74 88 110
75 90 112
77 91 113
74 89 110
74 88 110
77 92 114
74 89 112
74 89 111
74 90 113
73 88 110
73 87 109
78 92 114
71 86 108
73 88 111
72 86 109
77 92 114
72 88 110
78 92 114
74 90 113
72 86 108
72 88 110
76 90 111
75 90 112
78 93 116
80 95 118
79 94 116
77 92 116
71 86 107
77 92 113
74 89 111
73 87 108
76 92 115
71 86 107
74 88 110
76 91 112
75 89 112
78 93 115
77 92 115
76 91 114
77 92 115
78 93 116
75 90 112
74 88 109
77 91 113
76 90 111
74 89 111
75 90 112
74 87 108
77 91 112
76 90 112
76 92 115
69 84 107
75 90 113
73 89 111
78 93 116
72 88 111
77 92 116
72 87 110
74 88 109
78 93 116
77 92 113
74 89 112
76 91 112
75 89 111
76 91 113
76 91 113
94 109 132
186 214 255
186 214 255
186 214 255
186 214 255
186 214 255
186 214 255
186 214 255
186 214 255
186 214 255
186 214 255
186 214 255
186 214 255
186 214 255
186 214 255
186 214 255
186 214 255
186 214 255
186 214 255
186 214 255
186 214 255
186 214 255
186 214 255
186 214 255
186 214 255
186 214 255
186 214 255
186 214 255
186 214 255
186 214 255
186 214 255
186 214 255
186 214 255
186 214 255
186 214 255
186 214 255
186 214 255
186 214 255
186 214 255
186 214 255
186 214 255
186 214 255
187 214 255
187 214 255
187 214 255
187 214 255
187 214 255
187 214 255
187 214 255
187 214 255
187 214 255
187 214 255
187 214 255
187 214 255
187 214 255
187 214 255
187 214 255
187 214 255
187 214 255
187 214 255
187 214 255
187 214 255
187 214 255
187 214 255
187 214 255
187 214 255
187 214 255
187 214 255
187 214 255
187 214 255
187 214 255
187 214 255
187 214 255
187 215 255
187 215 255
187 215 255
187 215 255
187 215 255
187 215 255
187 215 255
187 215 255
187 215 255
187 215 255
187 215 255
187 215 255
187 215 255
187 215 255
187 215 255
187 215 255
187 215 255
187 215 255
187 215 255
187 215 255
188 215 255
188 215 255
188 215 255
188 215 255
188 215 255
188 215 255
188 215 255
188 215 255
188 215 255
188 215 255
188 215 255
188 215 255
188 215 255
188 215 255
188 215 255
188 215 255
188 215 255
188 215 255
188 215 255
188 215 255
188 215 255
188 215 255
188 215 255
188 215 255
188 215 255
188 215 255
188 215 255
188 215 255
188 215 255
188 215 255
188 215 255
188 215 255
188 215 255
188 215 255
188 215 255
188 215 255
188 215 255
188 215 255
188 215 255
188 215 255
188 215 255
188 215 255
188 215 255
188 215 255
188 215 255
188 215 255
188 215 255
188 215 255
188 215 255
188 215 255
188 215 255
188 215 255
188 215 255
188 215 255
188 215 255
188 215 255
188 215 255
188 215 255
188 215 255
188 215 255
188 215 255
188 215 255
188 215 255
188 215 255
188 215 255
188 215 255
188 215 255
188 215 255
188 215 255
188 215 255
188 215 255
188 215 255
188 215 255
188 215 255
188 215 255
188 215 255
188 215 255
188 215 255
188 215 255
188 215 255
188 215 255
188 215 255
188 215 255
188 215 255
188 215 255
188 215 255
188 215 255
188 215 255
188 215 255
188 215 255
188 215 255
188 215 255
188 215 255
188 215 255
188 215 255
188 215 255
188 215 255
188 215 255
188 215 255
188 215 255
188 215 255
188 215 255
188 215 255
188 215 255
188 215 255
188 215 255
188 215 255
188 215 255
188 215 255
187 215 255
187 215 255
187 215 255
187 215 255
187 215 255
187 215 255
187 215 255
187 215 255
187 215 255
187 215 255
187 215 255
187 215 255
187 215 255
187 215 255
187 215 255
187 215 255
187 215 255
187 215 255
187 215 255
187 214 255
187 214 255
187 214 255
187 214 255
187 214 255
187 214 255
187 214 255
187 214 255
187 214 255
187 214 255
187 214 255
187 214 255
187 214 255
187 214 255
187 214 255
187 214 255
187 214 255
187 214 255
187 214 255
187 214 255
187 214 255
187 214 255
187 214 255
187 214 255
187 214 255
187 214 255
187 214 255
187 214 255
187 214 255
187 214 255
187 214 255
187 214 255
186 214 255
186 214 255
186 214 255
186 214 255
186 214 255
186 214 255
186 214 255
186 214 255
186 214 255
186 214 255
186 214 255
186 214 255
186 214 255
186 214 255
186 214 255
186 214 255
186 214 255
186 214 255
186 214 255
182 209 250
77 92 115
75 90 112
79 93 116
74 89 111
79 94 116
75 90 112
73 88 110
76 91 114
71 86 108
76 90 113
72 87 109
82 97 119
76 92 117
74 89 112
79 94 116
77 92 114
74 89 112
72 87 110
74 89 113
79 93 115
75 90 111
76 90 111
68 83 105
75 89 111
79 94 117
79 93 114
76 91 114
73 88 110
79 93 116
73 88 110
78 93 117
78 92 113
72 87 110
78 93 116
78 92 113
75 90 112
77 92 114
70 84 106
78 93 115
73 87 109
74 89 111
73 88 111
71 86 108
74 90 113
75 89 110
75 90 113
71 85 106
77 92 115
76 91 112
79 94 116
77 92 114
78 94 117
76 90 111
73 88 109
75 90 113
79 94 115
77 92 114
78 93 115
70 85 107
75 90 111
79 93 115
75 90 112
75 89 111
73 88 111
74 88 109
76 91 113
79 94 116
74 90 112
72 86 108
74 88 109
76 92 115
74 89 110
75 89 111
77 92 114
76 91 112
78 93 115
76 91 113
79 93 115
76 92 115
75 89 111
74 89 111
74 89 111
71 86 108
76 91 114
71 86 110
74 87 108
71 85 108
76 91 113
75 91 113
78 94 117
76 90 111
71 86 108
73 87 110
76 91 112
74 89 110
76 91 113
75 90 112
74 89 112
74 89 110
78 93 115
78 92 114
76 90 112
78 93 115
71 85 106
68 83 104
78 92 113
75 89 109
74 89 112
72 87 109
75 90 114
71 85 106
75 90 112
74 89 112
75 90 112
78 93 115
78 93 116
74 88 110
74 88 110
75 89 111
76 91 113
75 90 112
80 95 116
75 89 110
76 91 114
75 90 112
76 90 112
75 90 113
80 96 120
182 210 251
186 214 255
186 214 255
186 214 255
186 214 255
186 214 255
186 214 255
186 214 255
186 214 255
186 214 255
186 214 255
186 214 255
186 214 255
186 214 255
186 214 255
186 214 255
186 214 255
186 214 255
186 214 255
187 214 255
187 214 255
187 214 255
187 214 255
187 214 255
187 214 255
187 214 255
187 214 255
187 214 255
187 214 255
187 214 255
187 214 255
187 214 255
187 214 255
187 214 255
187 214 255
187 214 255
187 214 255
187 214 255
187 214 255
187 214 255
187 214 255
187 214 255
187 214 255
187 214 255
187 214 255
187 214 255
187 214 255
187 214 255
187 214 255
187 214 255
187 214 255
187 214 255
187 215 255
187 214 255
187 215 255
187 215 255
187 215 255
187 215 255
187 215 255
187 215 255
187 215 255
187 215 255
187 215 255
187 215 255
187 215 255
187 215 255
187 215 255
187 215 255
187 215 255
187 215 255
187 215 255
187 215 255
188 215 255
188 215 255
188 215 255
188 215 255
188 215 255
188 215 255
188 215 255
188 215 255
188 215 255
188 215 255
188 215 255
188 215 255
188 215 255
188 215 255
188 215 255
188 215 255
188 215 255
188 215 255
188 215 255
188 215 255
188 215 255
188 215 255
188 215 255
188 215 255
188 215 255
188 215 255
188 215 255
188 215 255
188 215 255
188 215 255
188 215 255
188 215 255
188 215 255
188 215 255
188 215 255
188 215 255
188 215 255
188 215 255
188 215 255
188 215 255
188 215 255
188 215 255
188 215 255
188 215 255
188 215 255
188 215 255
188 215 255
188 215 255
188 215 255
188 215 255
188 215 255
188 215 255
188 215 255
188 215 255
188 215 255
188 215 255
188 215 255
188 215 255
188 215 255
188 215 255
188 215 255
188 215 255
188 215 255
188 215 255
189 215 255
189 215 255
189 215 255
189 215 255
189 215 255
189 215 255
189 215 255
189 215 255
189 215 255
189 215 255
189 215 255
189 215 255
189 215 255
189 215 255
189 215 255
189 215 255
189 215 255
189 215 255
189 215 255
188 215 255
188 215 255
188 215 255
188 215 255
188 215 255
188 215 255
188 215 255
188 215 255
188 215 255
188 215 255
188 215 255
188 215 255
188 215 255
188 215 255
188 215 255
188 215 255
188 215 255
188 215 255
188 215 255
188 215 255
188 215 255
188 215 255
188 215 255
188 215 255
188 215 255
188 215 255
188 215 255
188 215 255
188 215 255
188 215 255
188 215 255
188 215 255
188 215 255
188 215 255
188 215 255
188 215 255
188 215 255
188 215 255
188 215 255
188 215 255
188 215 255
188 215 255
188 215 255
188 215 255
188 215 255
188 215 255
188 215 255
188 215 255
188 215 255
188 215 255
188 215 255
188 215 255
188 215 255
188 215 255
188 215 255
188 215 255
188 215 255
188 215 255
188 215 255
188 215 255
188 215 255
188 215 255
188 215 255
188 215 255
188 215 255
188 215 255
188 215 255
188 215 255
187 215 255
187 215 255
187 215 255
187 215 255
187 215 255
187 215 255
187 215 255
187 215 255
187 215 255
187 215 255
187 215 255
187 215 255
187 215 255
187 215 255
187 215 255
187 215 255
187 215 255
187 215 255
187 214 255
187 214 255
187 214 255
187 214 255
187 214 255
187 214 255
187 214 255
187 214 255
187 214 255
187 214 255
187 214 255
187 214 255
187 214 255
187 214 255
187 214 255
187 214 255
187 214 255
187 214 255
187 214 255
187 214 255
187 214 255
187 214 255
187 214 255
187 214 255
187 214 255
187 214 255
187 214 255
187 214 255
187 214 255
187 214 255
161 186 224
74 89 112
73 88 112
77 92 114
74 90 114
76 90 112
75 90 113
73 88 110
78 93 116
74 89 113
73 87 108
74 89 113
76 90 112
76 90 112
75 91 114
74 89 112
72 87 109
77 92 115
70 85 107
74 89 112
72 87 109
73 87 107
72 87 110
76 90 111
81 96 118
72 85 106
74 90 114
67 81 103
76 91 114
75 90 112
74 88 110
69 84 105
73 88 110
73 88 111
77 92 114
75 90 113
72 86 108
73 89 112
79 94 117
75 90 113
76 90 111
75 90 111
73 86 107
70 85 107
75 90 113
74 89 111
77 93 116
71 86 107
80 94 116
71 85 105
76 90 112
71 86 109
77 91 112
72 86 108
71 85 106
71 86 108
78 93 115
70 85 107
71 86 108
77 91 114
74 89 111
72 87 110
75 88 108
76 90 111
78 93 116
74 89 111
78 92 114
75 89 111
78 92 115
72 87 108
75 91 114
74 88 108
76 91 112
77 93 116
71 85 106
75 90 113
72 88 110
74 89 112
73 88 109
74 90 113
69 83 105
71 86 109
72 86 107
79 94 116
72 87 110
70 85 107
74 89 111
80 95 117
75 90 113
76 91 114
73 88 110
78 92 113
75 91 114
73 88 109
76 91 114
70 85 107
74 89 111
75 90 112
74 88 110
76 91 114
81 95 117
75 90 113
72 87 110
72 87 110
76 91 113
75 90 112
77 91 113
75 90 112
68 82 104
78 93 116
74 88 110
73 88 111
71 86 108
81 96 118
76 90 111
73 87 110
69 83 105
77 92 113
77 92 115
78 93 115
77 92 114
76 92 115
78 93 116
75 91 114
80 94 116
70 84 107
77 91 112
75 90 112
79 94 116
171 196 234
187 214 255
187 214 255
187 214 255
187 214 255
187 214 255
187 214 255
187 214 255
187 214 255
187 214 255
187 214 255
187 214 255
187 214 255
187 214 255
187 214 255
187 214 255
187 214 255
187 214 255
187 214 255
187 214 255
187 214 255
187 214 255
187 214 255
187 214 255
187 214 255
187 214 255
187 214 255
187 214 255
187 214 255
187 214 255
187 214 255
187 215 255
187 215 255
187 215 255
187 215 255
187 215 255
187 215 255
187 215 255
187 215 255
187 215 255
187 215 255
187 215 255
187 215 255
187 215 255
187 215 255
187 215 255
187 215 255
187 215 255
187 215 255
187 215 255
187 215 255
188 215 255
188 215 255
188 215 255
188 215 255
188 215 255
188 215 255
188 215 255
188 215 255
188 215 255
188 215 255
188 215 255
188 215 255
188 215 255
188 215 255
188 215 255
188 215 255
188 215 255
188 215 255
188 215 255
188 215 255
188 215 255
188 215 255
188 215 255
188 215 255
188 215 255
188 215 255
188 215 255
188 215 255
188 215 255
188 215 255
188 215 255
188 215 255
188 215 255
188 215 255
188 215 255
188 215 255
188 215 255
188 215 255
188 215 255
188 215 255
188 215 255
188 215 255
188 215 255
188 215 255
188 215 255
188 215 255
188 215 255
188 215 255
188 215 255
188 215 255
188 215 255
188 215 255
188 215 255
188 215 255
188 215 255
188 215 255
188 215 255
188 215 255
188 215 255
188 215 255
188 215 255
188 215 255
188 215 255
188 215 255
188 215 255
189 215 255
189 215 255
189 215 255
189 215 255
189 215 255
189 215 255
189 215 255
189 215 255
189 215 255
189 215 255
189 215 255
189 215 255
189 215 255
189 215 255
189 215 255
189 215 255
189 215 255
189 215 255
189 215 255
189 215 255
189 216 255
189 216 255
189 216 255
189 216 255
189 216 255
189 216 255
189 216 255
189 216 255
189 216 255
189 216 255
189 216 255
189 216 255
189 216 255
189 216 255
189 216 255
189 216 255
189 215 255
189 215 255
189 215 255
189 215 255
189 215 255
189 215 255
189 215 255
189 215 255
189 215 255
189 215 255
189 215 255
189 215 255
189 215 255
189 215 255
189 215 255
189 215 255
189 215 255
189 215 255
189 215 255
189 215 255
189 215 255
189 215 255
189 215 255
189 215 255
189 215 255
189 215 255
189 215 255
189 215 255
188 215 255
188 215 255
188 215 255
188 215 255
188 215 255
188 215 255
188 215 255
188 215 255
188 215 255
188 215 255
188 215 255
188 215 255
188 215 255
188 215 255
188 215 255
188 215 255
188 215 255
188 215 255
188 215 255
188 215 255
188 215 255
188 215 255
188 215 255
188 215 255
188 215 255
188 215 255
188 215 255
188 215 255
188 215 255
188 215 255
188 215 255
188 215 255
188 215 255
188 215 255
188 215 255
188 215 255
188 215 255
188 215 255
188 215 255
188 215 255
188 215 255
188 215 255
188 215 255
188 215 255
188 215 255
188 215 255
188 215 255
188 215 255
188 215 255
188 215 255
188 215 255
188 215 255
188 215 255
188 215 255
188 215 255
188 215 255
188 215 255
188 215 255
188 215 255
188 215 255
188 215 255
188 215 255
188 215 255
188 215 255
188 215 255
188 215 255
188 215 255
187 215 255
187 215 255
187 215 255
187 215 255
187 215 255
187 215 255
187 215 255
187 215 255
187 215 255
187 215 255
187 215 255
187 215 255
187 215 255
187 215 255
187 215 255
187 215 255
187 215 255
187 215 255
187 215 255
187 214 255
187 214 255
187 214 255
187 214 255
187 214 255
148 171 206
74 89 110
74 88 110
74 89 112
77 91 112
74 88 110
72 87 108
74 88 109
74 90 113
76 91 113
71 86 108
77 91 112
72 87 109
76 91 114
76 91 113
75 91 113
74 89 112
73 88 111
81 95 116
79 95 118
72 86 108
75 90 112
73 88 111
74 89 111
72 86 107
78 92 114
72 87 109
73 87 107
77 92 116
75 91 115
72 86 106
69 85 108
76 90 112
71 86 108
76 91 114
69 83 105
74 89 110
75 90 114
74 88 108
77 92 113
75 89 110
71 86 107
74 88 109
76 90 112
74 90 114
73 87 107
78 93 115
75 90 112
75 90 112
79 94 116
71 85 107
72 86 108
74 89 110
77 91 112
70 84 106
76 91 114
76 91 113
76 90 113
72 86 108
72 87 109
72 87 109
73 88 110
75 91 114
75 90 113
74 89 111
75 89 110
76 91 114
74 89 112
71 86 108
72 87 110
74 89 111
70 85 108
72 86 108
71 86 109
73 88 110
76 90 112
75 89 110
77 92 115
76 89 109
74 89 112
78 93 116
74 88 111
73 87 108
72 86 109
70 84 106
71 85 106
78 92 114
78 94 117
77 92 113
73 87 109
73 87 107
71 85 106
71 85 106
71 86 109
74 88 109
74 90 113
74 89 112
73 87 109
74 90 113
74 89 111
74 88 109
75 88 109
74 88 110
75 89 111
76 91 114
78 92 114
72 87 109
69 83 104
77 92 114
72 88 112
78 93 115
77 92 115
74 89 112
71 86 108
77 92 114
71 86 108
75 89 112
71 86 108
73 88 111
76 91 113
74 88 110
75 90 113
76 89 110
74 90 114
78 93 117
76 90 112
76 91 114
77 92 115
77 92 114
150 173 207
187 214 255
187 214 255
187 214 255
187 214 255
187 214 255
187 215 255
187 215 255
187 215 255
187 215 255
187 215 255
187 215 255
187 215 255
187 215 255
187 215 255
187 215 255
187 215 255
187 215 255
187 215 255
187 215 255
187 215 255
187 215 255
187 215 255
187 215 255
187 215 255
187 215 255
188 215 255
188 215 255
188 215 255
188 215 255
188 215 255
188 215 255
188 215 255
188 215 255
188 215 255
188 215 255
188 215 255
188 215 255
188 215 255
188 215 255
188 215 255
188 215 255
188 215 255
188 215 255
188 215 255
188 215 255
188 215 255
188 215 255
188 215 255
188 215 255
188 215 255
188 215 255
188 215 255
188 215 255
188 215 255
188 215 255
188 215 255
188 215 255
188 215 255
188 215 255
188 215 255
188 215 255
188 215 255
188 215 255
188 215 255
188 215 255
188 215 255
188 215 255
188 215 255
188 215 255
188 215 255
188 215 255
188 215 255
188 215 255
188 215 255
188 215 255
188 215 255
188 215 255
188 215 255
188 215 255
188 215 255
188 215 255
188 215 255
188 215 255
188 215 255
188 215 255
188 215 255
188 215 255
188 215 255
188 215 255
189 215 255
189 215 255
189 215 255
189 215 255
189 215 255
189 215 255
189 215 255
189 215 255
189 215 255
189 215 255
189 215 255
189 215 255
189 215 255
189 215 255
189 215 255
189 215 255
189 215 255
189 215 255
189 215 255
189 215 255
189 215 255
189 215 255
189 215 255
189 215 255
189 215 255
189 215 255
189 215 255
189 215 255
189 215 255
189 215 255
189 215 255
189 216 255
189 216 255
189 216 255
189 216 255
189 216 255
189 216 255
189 216 255
189 216 255
189 216 255
189 216 255
189 216 255
189 216 255
189 216 255
189 216 255
189 216 255
189 216 255
189 216 255
189 216 255
189 216 255
189 216 255
189 216 255
189 216 255
189 216 255
189 216 255
189 216 255
189 216 255
189 216 255
189 216 255
189 216 255
189 216 255
189 216 255
189 216 255
189 216 255
189 216 255
189 216 255
189 216 255
189 216 255
189 216 255
189 216 255
189 216 255
189 216 255
189 216 255
189 216 255
189 216 255
189 216 255
189 216 255
189 216 255
189 216 255
189 216 255
189 216 255
189 216 255
189 216 255
189 216 255
189 216 255
189 216 255
189 216 255
189 216 255
189 216 255
189 215 255
189 216 255
189 216 255
189 215 255
189 215 255
189 215 255
189 215 255
189 215 255
189 215 255
189 215 255
189 215 255
189 215 255
189 215 255
189 215 255
189 215 255
189 215 255
189 215 255
189 215 255
189 215 255
189 215 255
189 215 255
189 215 255
189 215 255
189 215 255
189 215 255
189 215 255
189 215 255
189 215 255
188 215 255
188 215 255
188 215 255
188 215 255
188 215 255
188 215 255
188 215 255
188 215 255
188 215 255
188 215 255
188 215 255
188 215 255
188 215 255
188 215 255
188 215 255
188 215 255
188 215 255
188 215 255
188 215 255
188 215 255
188 215 255
188 215 255
188 215 255
188 215 255
188 215 255
188 215 255
188 215 255
188 215 255
188 215 255
188 215 255
188 215 255
188 215 255
188 215 255
188 215 255
188 215 255
188 215 255
188 215 255
188 215 255
188 215 255
188 215 255
188 215 255
188 215 255
188 215 255
188 215 255
188 215 255
188 215 255
188 215 255
188 215 255
188 215 255
188 215 255
188 215 255
188 215 255
188 215 255
188 215 255
188 215 255
188 215 255
188 215 255
188 215 255
188 215 255
188 215 255
188 215 255
188 215 255
188 215 255
188 215 255
136 158 191
73 87 108
73 87 109
73 87 109
73 88 110
76 91 113
76 91 112
72 87 108
73 88 111
74 88 110
75 90 113
72 87 110
75 89 111
73 87 108
71 85 106
76 91 114
72 87 108
72 86 107
70 85 108
73 87 108
79 94 116
72 86 108
74 89 110
72 86 108
69 83 104
71 85 107
74 88 109
75 90 113
76 90 112
74 89 112
76 90 112
73 87 109
73 87 109
74 89 112
70 85 107
77 92 116
80 94 116
73 88 110
66 80 102
73 87 110
79 93 116
70 84 104
81 96 119
75 90 113
74 89 112
75 89 111
75 90 113
71 85 107
76 90 112
74 88 109
77 92 115
76 92 115
77 91 113
74 88 110
69 83 104
75 90 113
72 86 108
74 88 109
69 84 106
74 88 110
78 92 114
73 88 110
71 85 106
74 89 112
72 88 111
74 87 108
71 85 106
75 90 112
70 85 107
77 92 114
72 86 108
72 88 110
75 90 113
75 90 112
74 89 112
70 85 107
75 90 112
76 90 112
72 86 106
74 89 110
72 87 108
75 90 111
73 87 108
73 88 111
77 92 114
72 87 109
70 84 106
75 89 109
72 87 109
76 91 113
71 85 106
73 87 108
70 84 105
77 93 116
70 84 104
74 89 111
72 86 107
76 91 113
75 89 110
76 91 113
78 94 118
78 93 116
74 88 110
74 88 110
76 91 114
74 88 109
78 94 118
74 89 112
75 90 112
79 94 117
74 88 108
73 87 109
72 87 109
70 85 107
74 88 109
76 91 113
75 89 112
77 93 115
75 90 111
74 89 111
72 86 108
76 91 113
79 94 116
72 87 109
74 88 108
73 88 110
76 92 116
78 93 116
79 94 117
134 156 189
188 215 255
188 215 255
188 215 255
188 215 255
188 215 255
188 215 255
188 215 255
188 215 255
188 215 255
188 215 255
188 215 255
188 215 255
188 215 255
188 215 255
188 215 255
188 215 255
188 215 255
188 215 255
188 215 255
188 215 255
188 215 255
188 215 255
188 215 255
188 215 255
188 215 255
188 215 255
188 215 255
188 215 255
188 215 255
188 215 255
188 215 255
188 215 255
188 215 255
188 215 255
188 215 255
188 215 255
188 215 255
188 215 255
188 215 255
188 215 255
188 215 255
188 215 255
188 215 255
188 215 255
188 215 255
188 215 255
188 215 255
188 215 255
188 215 255
188 215 255
188 215 255
188 215 255
188 215 255
188 215 255
188 215 255
188 215 255
188 215 255
188 215 255
188 215 255
188 215 255
188 215 255
188 215 255
189 215 255
189 215 255
189 215 255
189 215 255
189 215 255
189 215 255
189 215 255
189 215 255
189 215 255
189 215 255
189 215 255
189 215 255
189 215 255
189 215 255
189 215 255
189 215 255
189 215 255
189 215 255
189 215 255
189 215 255
189 215 255
189 215 255
189 215 255
189 215 255
189 215 255
189 215 255
189 215 255
189 215 255
189 215 255
189 216 255
189 216 255
189 216 255
189 216 255
189 216 255
189 216 255
189 216 255
189 216 255
189 216 255
189 216 255
189 216 255
189 216 255
189 216 255
189 216 255
189 216 255
189 216 255
189 216 255
189 216 255
189 216 255
189 216 255
189 216 255
189 216 255
189 216 255
189 216 255
189 216 255
189 216 255
189 216 255
189 216 255
189 216 255
189 216 255
189 216 255
189 216 255
189 216 255
189 216 255
189 216 255
189 216 255
189 216 255
189 216 255
189 216 255
189 216 255
189 216 255
189 216 255
189 216 255
189 216 255
190 216 255
190 216 255
190 216 255
190 216 255
190 216 255
189 216 255
190 216 255
189 216 255
189 216 255
189 216 255
189 216 255
189 216 255
189 216 255
189 216 255
189 216 255
189 216 255
189 216 255
189 216 255
189 216 255
189 216 255
189 216 255
189 216 255
189 216 255
189 216 255
189 216 255
189 216 255
189 216 255
189 216 255
189 216 255
189 216 255
189 216 255
189 216 255
189 216 255
189 216 255
189 216 255
189 216 255
189 216 255
189 216 255
189 216 255
189 216 255
189 216 255
189 216 255
189 216 255
189 216 255
189 216 255
189 216 255
189 216 255
189 216 255
189 216 255
189 216 255
189 216 255
189 216 255
189 216 255
189 216 255
189 216 255
189 216 255
189 216 255
189 216 255
189 216 255
189 216 255
189 216 255
189 216 255
189 216 255
189 216 255
189 216 255
189 216 255
189 216 255
189 216 255
189 216 255
189 216 255
189 216 255
189 216 255
189 216 255
189 216 255
189 216 255
189 215 255
189 215 255
189 215 255
189 215 255
189 215 255
189 215 255
189 215 255
189 215 255
189 215 255
189 215 255
189 215 255
189 215 255
189 215 255
189 215 255
189 215 255
189 215 255
189 215 255
189 215 255
189 215 255
189 215 255
189 215 255
189 215 255
189 215 255
189 215 255
189 215 255
189 215 255
189 215 255
189 215 255
188 215 255
188 215 255
188 215 255
188 215 255
188 215 255
188 215 255
188 215 255
188 215 255
188 215 255
188 215 255
188 215 255
188 215 255
188 215 255
188 215 255
188 215 255
188 215 255
188 215 255
188 215 255
188 215 255
188 215 255
188 215 255
188 215 255
188 215 255
188 215 255
188 215 255
188 215 255
188 215 255
188 215 255
188 215 255
188 215 255
188 215 255
188 215 255
121 141 171
75 90 112
75 90 112
75 89 111
70 83 104
73 88 110
73 87 108
69 83 105
73 88 110
74 89 111
73 88 109
78 93 116
76 90 112
75 89 111
76 91 114
77 92 114
68 82 103
73 88 112
72 86 107
72 87 109
70 84 106
72 87 110
70 84 106
77 91 113
72 87 108
74 89 110
73 87 108
72 86 108
75 90 111
74 89 111
74 88 110
73 87 109
72 86 108
77 92 115
70 84 107
70 83 104
72 86 108
71 86 108
72 87 111
71 85 108
71 86 108
74 89 110
74 89 112
75 89 110
77 93 116
76 91 114
71 85 106
77 92 115
78 93 116
77 92 114
73 87 109
75 89 110
76 91 112
74 89 111
71 86 108
72 87 109
73 88 110
75 90 113
70 84 106
72 87 109
75 90 111
77 91 113
75 89 111
74 89 111
73 88 109
78 92 113
75 88 109
71 86 108
75 90 112
74 89 110
74 89 111
69 84 106
73 87 109
70 84 105
77 92 113
75 89 110
75 89 111
74 88 110
70 84 106
75 89 111
76 90 112
66 81 103
72 87 108
75 89 111
69 83 104
71 86 108
76 91 113
77 91 113
74 87 108
75 89 111
73 87 108
74 89 110
76 90 111
72 87 109
75 89 112
74 89 110
74 89 112
78 93 117
72 86 108
75 89 111
74 89 111
71 86 109
69 84 107
76 91 113
74 89 110
75 89 109
72 87 109
67 81 102
68 82 103
69 83 104
75 90 114
77 91 113
75 90 113
74 90 112
74 89 111
79 94 117
74 88 109
79 94 116
75 90 113
72 86 108
77 92 113
74 89 111
74 89 112
75 90 112
76 90 113
73 87 108
76 91 114
78 93 114
78 93 115
126 147 178
188 215 255
188 215 255
188 215 255
188 215 255
188 215 255
188 215 255
188 215 255
188 215 255
188 215 255
188 215 255
188 215 255
188 215 255
188 215 255
188 215 255
188 215 255
188 215 255
188 215 255
188 215 255
188 215 255
188 215 255
188 215 255
188 215 255
188 215 255
188 215 255
188 215 255
188 215 255
188 215 255
188 215 255
188 215 255
188 215 255
188 215 255
188 215 255
189 215 255
189 215 255
189 215 255
189 215 255
189 215 255
189 215 255
189 215 255
189 215 255
189 215 255
189 215 255
189 215 255
189 215 255
189 215 255
189 215 255
189 215 255
189 215 255
189 215 255
189 215 255
189 215 255
189 215 255
189 215 255
189 215 255
189 215 255
189 215 255
189 215 255
189 215 255
189 215 255
189 216 255
189 216 255
189 216 255
189 216 255
189 216 255
189 216 255
189 216 255
189 216 255
189 216 255
189 216 255
189 216 255
189 216 255
189 216 255
189 216 255
189 216 255
189 216 255
189 216 255
189 216 255
189 216 255
189 216 255
189 216 255
189 216 255
189 216 255
189 216 255
189 216 255
189 216 255
189 216 255
189 216 255
189 216 255
189 216 255
189 216 255
189 216 255
189 216 255
189 216 255
189 216 255
189 216 255
189 216 255
189 216 255
189 216 255
189 216 255
189 216 255
189 216 255
189 216 255
189 216 255
189 216 255
189 216 255
189 216 255
189 216 255
189 216 255
189 216 255
189 216 255
189 216 255
189 216 255
189 216 255
189 216 255
189 216 255
189 216 255
189 216 255
189 216 255
189 216 255
189 216 255
189 216 255
189 216 255
189 216 255
189 216 255
189 216 255
189 216 255
189 216 255
189 216 255
190 216 255
190 216 255
190 216 255
190 216 255
190 216 255
190 216 255
190 216 255
190 216 255
190 216 255
190 216 255
190 216 255
190 216 255
190 216 255
190 216 255
190 216 255
190 216 255
190 216 255
190 216 255
190 216 255
190 216 255
190 216 255
190 216 255
190 216 255
190 216 255
190 216 255
190 216 255
190 216 255
190 216 255
190 216 255
190 216 255
190 216 255
190 216 255
190 216 255
190 216 255
190 216 255
190 216 255
190 216 255
190 216 255
190 216 255
190 216 255
190 216 255
190 216 255
190 216 255
190 216 255
190 216 255
190 216 255
190 216 255
190 216 255
190 216 255
190 216 255
190 216 255
189 216 255
190 216 255
189 216 255
189 216 255
189 216 255
189 216 255
189 216 255
189 216 255
189 216 255
189 216 255
189 216 255
189 216 255
189 216 255
189 216 255
189 216 255
189 216 255
189 216 255
189 216 255
189 216 255
189 216 255
189 216 255
189 216 255
189 216 255
189 216 255
189 216 255
189 216 255
189 216 255
189 216 255
189 216 255
189 216 255
189 216 255
189 216 255
189 216 255
189 216 255
189 216 255
189 216 255
189 216 255
189 216 255
189 216 255
189 216 255
189 216 255
189 216 255
189 216 255
189 216 255
189 216 255
189 216 255
189 216 255
189 216 255
189 216 255
189 216 255
189 216 255
189 216 255
189 216 255
189 216 255
189 216 255
189 216 255
189 216 255
189 216 255
189 216 255
189 216 255
189 216 255
189 216 255
189 216 255
189 216 255
189 216 255
189 215 255
189 216 255
189 215 255
189 215 255
189 215 255
189 215 255
189 215 255
189 215 255
189 215 255
189 215 255
189 215 255
189 215 255
189 215 255
189 215 255
189 215 255
189 215 255
189 215 255
189 215 255
189 215 255
189 215 255
189 215 255
189 215 255
189 215 255
189 215 255
189 215 255
189 215 255
119 139 168
71 85 106
77 91 112
73 88 111
72 87 110
74 88 111
71 85 105
72 86 108
74 89 112
73 87 108
71 86 108
72 87 110
73 88 109
73 88 111
75 90 112
78 95 119
72 87 109
70 85 107
73 87 109
74 89 112
74 89 111
72 87 108
73 87 108
70 84 106
68 83 105
72 86 106
74 89 111
76 90 112
70 85 108
70 85 106
74 89 111
71 84 105
71 85 107
78 93 115
76 91 114
73 88 109
71 85 106
73 86 106
73 88 110
73 88 110
78 93 114
74 89 110
76 91 115
73 88 110
70 84 106
76 91 113
72 87 109
73 88 110
77 92 115
74 89 112
70 84 104
70 84 106
78 92 114
70 84 107
73 88 111
74 87 108
71 85 108
75 91 115
72 86 108
73 87 109
72 86 107
73 88 110
73 86 107
74 89 112
75 89 111
72 87 108
75 90 112
74 88 108
72 87 108
73 88 110
74 88 109
75 89 111
76 91 112
68 82 103
71 85 106
72 86 106
66 80 101
69 83 104
73 88 111
65 79 100
70 84 106
72 87 109
71 85 107
78 92 114
75 89 111
66 80 101
71 85 107
72 86 108
73 87 109
73 88 110
76 90 112
74 88 110
72 86 108
73 89 112
72 86 107
73 88 112
72 87 110
74 89 111
72 86 106
69 84 106
73 87 108
74 89 111
72 86 108
72 86 107
72 86 108
78 93 114
73 88 110
72 88 111
74 88 110
73 89 112
73 87 108
72 87 109
75 89 110
69 83 104
71 84 105
76 91 113
75 89 110
71 84 102
73 88 110
80 94 116
77 91 114
74 88 110
73 88 109
71 85 106
77 91 111
71 85 107
73 87 109
77 91 112
75 89 111
104 121 147
189 215 255
189 215 255
189 215 255
189 215 255
189 215 255
189 215 255
189 215 255
189 215 255
189 215 255
189 215 255
189 215 255
189 215 255
189 215 255
189 215 255
189 215 255
189 215 255
189 215 255
189 215 255
189 215 255
189 215 255
189 215 255
189 215 255
189 215 255
189 215 255
189 216 255
189 216 255
189 216 255
189 216 255
189 216 255
189 216 255
189 216 255
189 216 255
189 216 255
189 216 255
189 216 255
189 216 255
189 216 255
189 216 255
189 216 255
189 216 255
189 216 255
189 216 255
189 216 255
189 216 255
189 216 255
189 216 255
189 216 255
189 216 255
189 216 255
189 216 255
189 216 255
189 216 255
189 216 255
189 216 255
189 216 255
189 216 255
189 216 255
189 216 255
189 216 255
189 216 255
189 216 255
189 216 255
189 216 255
189 216 255
189 216 255
189 216 255
189 216 255
189 216 255
189 216 255
189 216 255
189 216 255
189 216 255
189 216 255
189 216 255
189 216 255
189 216 255
189 216 255
189 216 255
189 216 255
189 216 255
189 216 255
189 216 255
189 216 255
189 216 255
189 216 255
189 216 255
189 216 255
189 216 255
189 216 255
189 216 255
189 216 255
190 216 255
190 216 255
190 216 255
190 216 255
190 216 255
190 216 255
190 216 255
190 216 255
190 216 255
190 216 255
190 216 255
190 216 255
190 216 255
190 216 255
190 216 255
190 216 255
190 216 255
190 216 255
190 216 255
190 216 255
190 216 255
190 216 255
190 216 255
190 216 255
190 216 255
190 216 255
190 216 255
190 216 255
190 216 255
190 216 255
190 216 255
190 216 255
190 216 255
190 216 255
190 216 255
190 216 255
190 216 255
190 216 255
190 216 255
190 216 255
190 216 255
190 216 255
190 216 255
190 216 255
190 216 255
190 216 255
190 216 255
190 216 255
190 216 255
190 216 255
190 216 255
190 216 255
190 216 255
190 216 255
190 216 255
190 216 255
190 216 255
190 216 255
190 216 255
190 216 255
190 216 255
190 216 255
190 216 255
190 216 255
190 216 255
190 216 255
190 216 255
190 216 255
190 216 255
190 216 255
190 216 255
190 216 255
190 216 255
190 216 255
190 216 255
190 216 255
190 216 255
190 216 255
190 216 255
190 216 255
190 216 255
190 216 255
190 216 255
190 216 255
190 216 255
190 216 255
190 216 255
190 216 255
190 216 255
190 216 255
190 216 255
190 216 255
190 216 255
190 216 255
190 216 255
190 216 255
190 216 255
190 216 255
190 216 255
190 216 255
190 216 255
190 216 255
190 216 255
190 216 255
190 216 255
190 216 255
190 216 255
190 216 255
190 216 255
190 216 255
190 216 255
190 216 255
190 216 255
190 216 255
190 216 255
190 216 255
190 216 255
190 216 255
190 216 255
190 216 255
190 216 255
190 216 255
190 216 255
190 216 255
190 216 255
190 216 255
190 216 255
190 216 255
190 216 255
190 216 255
189 216 255
190 216 255
189 216 255
189 216 255
189 216 255
189 216 255
189 216 255
189 216 255
189 216 255
189 216 255
189 216 255
189 216 255
189 216 255
189 216 255
189 216 255
189 216 255
189 216 255
189 216 255
189 216 255
189 216 255
189 216 255
189 216 255
189 216 255
189 216 255
189 216 255
189 216 255
189 216 255
189 216 255
189 216 255
189 216 255
189 216 255
189 216 255
189 216 255
189 216 255
189 216 255
189 216 255
189 216 255
189 216 255
189 216 255
189 216 255
189 216 255
189 216 255
189 216 255
189 216 255
189 216 255
189 216 255
189 216 255
189 216 255
189 216 255
106 124 152
72 88 112
69 84 105
73 88 110
73 88 111
70 85 106
72 87 109
75 89 110
76 90 111
73 87 108
77 92 114
71 84 104
70 85 107
74 88 110
74 88 108
71 85 106
67 82 103
71 86 109
71 86 109
70 84 106
71 85 107
76 91 113
71 86 108
71 86 108
68 82 103
71 86 108
71 86 108
69 83 104
70 84 104
71 86 108
73 87 108
72 85 105
75 89 111
71 86 108
77 91 114
78 93 116
67 81 101
73 88 110
72 86 108
66 80 101
78 91 112
74 89 111
74 88 111
77 92 114
77 91 113
68 82 103
76 89 109
71 86 109
70 84 104
73 87 108
77 92 115
71 85 106
75 89 111
73 88 110
73 87 108
74 89 111
71 85 107
70 84 106
72 86 108
75 89 111
75 90 112
73 88 109
73 87 108
74 88 111
79 94 116
70 84 105
72 86 108
76 91 112
75 88 108
70 84 106
74 89 111
65 80 102
69 84 106
69 84 106
69 83 106
77 92 114
76 91 113
70 85 106
68 82 103
76 90 112
78 93 115
75 89 111
74 88 109
69 83 105
73 87 109
75 89 112
73 88 110
74 89 112
71 86 107
75 89 111
70 85 108
74 89 112
71 85 105
73 87 108
75 89 110
72 87 108
68 82 104
73 87 108
75 89 111
72 86 108
76 91 113
73 87 109
71 85 106
71 85 106
75 89 111
73 89 112
71 86 107
67 81 103
72 87 109
72 86 108
75 89 111
71 86 108
70 84 104
75 90 113
72 85 106
71 85 107
74 89 110
68 82 103
73 88 110
75 89 110
72 87 108
76 90 111
76 91 112
66 81 103
74 88 110
74 88 109
70 85 107
67 82 103
75 89 112
102 120 147
189 216 255
189 216 255
189 216 255
189 216 255
189 216 255
189 216 255
189 216 255
189 216 255
189 216 255
189 216 255
189 216 255
189 216 255
189 216 255
189 216 255
189 216 255
189 216 255
189 216 255
189 216 255
189 216 255
189 216 255
189 216 255
189 216 255
189 216 255
189 216 255
189 216 255
189 216 255
189 216 255
189 216 255
189 216 255
189 216 255
189 216 255
189 216 255
189 216 255
189 216 255
189 216 255
189 216 255
189 216 255
189 216 255
189 216 255
189 216 255
189 216 255
189 216 255
189 216 255
189 216 255
189 216 255
189 216 255
189 216 255
189 216 255
190 216 255
190 216 255
190 216 255
190 216 255
190 216 255
190 216 255
190 216 255
190 216 255
190 216 255
190 216 255
190 216 255
190 216 255
190 216 255
190 216 255
190 216 255
190 216 255
190 216 255
190 216 255
190 216 255
190 216 255
190 216 255
190 216 255
190 216 255
190 216 255
190 216 255
190 216 255
190 216 255
190 216 255
190 216 255
190 216 255
190 216 255
190 216 255
190 216 255
190 216 255
190 216 255
190 216 255
190 216 255
190 216 255
190 216 255
190 216 255
190 216 255
190 216 255
190 216 255
190 216 255
190 216 255
190 216 255
190 216 255
190 216 255
190 216 255
190 216 255
190 216 255
190 216 255
190 216 255
190 216 255
190 216 255
190 216 255
190 216 255
190 216 255
190 216 255
190 216 255
190 216 255
190 216 255
190 216 255
190 216 255
190 216 255
190 216 255
190 216 255
190 216 255
190 216 255
190 216 255
190 216 255
190 216 255
190 216 255
190 216 255
190 216 255
190 216 255
190 216 255
190 216 255
190 216 255
190 216 255
190 216 255
190 216 255
190 216 255
190 216 255
190 216 255
190 216 255
190 216 255
190 216 255
190 216 255
190 216 255
190 216 255
190 216 255
190 216 255
190 216 255
190 216 255
190 216 255
190 216 255
190 216 255
190 216 255
190 216 255
190 216 255
190 216 255
190 216 255
190 216 255
190 216 255
190 216 255
190 216 255
190 216 255
190 216 255
190 216 255
190 216 255
190 216 255
190 216 255
190 216 255
190 216 255
190 216 255
190 216 255
190 216 255
190 216 255
190 216 255
190 216 255
190 216 255
190 216 255
190 216 255
190 216 255
190 216 255
190 216 255
190 216 255
190 216 255
190 216 255
190 216 255
190 216 255
190 216 255
190 216 255
190 216 255
190 216 255
190 216 255
190 216 255
190 216 255
190 216 255
190 216 255
190 216 255
190 216 255
190 216 255
190 216 255
190 216 255
190 216 255
190 216 255
190 216 255
190 216 255
190 216 255
190 216 255
190 216 255
190 216 255
190 216 255
190 216 255
190 216 255
190 216 255
190 216 255
190 216 255
190 216 255
190 216 255
190 216 255
190 216 255
190 216 255
190 216 255
190 216 255
190 216 255
190 216 255
190 216 255
190 216 255
190 216 255
190 216 255
190 216 255
190 216 255
190 216 255
190 216 255
190 216 255
190 216 255
190 216 255
190 216 255
190 216 255
190 216 255
190 216 255
190 216 255
190 216 255
190 216 255
190 216 255
190 216 255
190 216 255
190 216 255
190 216 255
190 216 255
190 216 255
190 216 255
190 216 255
190 216 255
190 216 255
190 216 255
190 216 255
190 216 255
190 216 255
190 216 255
190 216 255
190 216 255
190 216 255
190 216 255
190 216 255
190 216 255
190 216 255
190 216 255
190 216 255
190 216 255
190 216 255
190 216 255
190 216 255
190 216 255
190 216 255
190 216 255
190 216 255
190 216 255
190 216 255
90 106 130
73 87 109
70 84 105
69 84 106
76 90 111
74 88 109
74 89 112
75 89 110
71 85 107
74 89 111
75 89 109
73 87 108
71 86 108
71 86 107
70 84 106
72 87 110
72 87 110
75 90 112
74 89 111
76 91 113
74 89 112
74 87 108
77 91 113
72 87 108
72 86 108
74 88 110
70 85 108
67 80 100
72 86 108
74 87 108
73 88 110
71 84 105
73 87 109
71 85 106
74 89 110
75 89 111
72 85 106
72 86 107
71 85 106
70 84 106
69 84 106
69 84 105
76 90 112
72 86 108
69 83 105
75 90 113
71 84 105
71 85 107
66 81 102
69 84 106
69 83 104
75 90 112
77 92 113
66 81 102
70 84 105
73 87 109
72 87 108
72 86 107
66 80 101
66 79 99
73 88 109
72 86 107
71 85 107
73 87 108
74 90 112
74 88 110
76 91 112
70 84 105
72 87 110
68 83 105
71 86 108
69 83 103
76 90 111
72 87 108
73 86 107
71 86 108
73 87 109
70 83 104
69 85 107
72 85 106
72 86 106
74 88 109
73 88 110
76 91 113
72 87 109
76 90 113
70 84 105
71 85 106
67 81 101
70 84 105
72 87 109
73 87 108
73 87 109
75 90 113
72 86 107
74 89 112
76 91 114
76 90 112
70 84 104
73 87 109
72 85 106
66 80 99
77 92 113
73 87 109
70 83 102
68 83 105
68 82 103
73 88 110
72 87 109
74 88 108
74 88 111
72 86 108
69 83 104
73 87 108
76 91 113
71 86 107
68 82 104
69 83 105
67 80 100
73 87 108
72 86 107
73 87 108
71 85 106
75 89 111
74 89 111
72 86 108
73 87 110
76 90 111
73 87 108
95 111 136
190 216 255
190 216 255
190 216 255
190 216 255
190 216 255
190 216 255
190 216 255
190 216 255
190 216 255
190 216 255
190 216 255
190 216 255
190 216 255
190 216 255
190 216 255
190 216 255
190 216 255
190 216 255
190 216 255
190 216 255
190 216 255
190 216 255
190 216 255
190 216 255
190 216 255
190 216 255
190 216 255
190 216 255
190 216 255
190 216 255
190 216 255
190 216 255
190 216 255
190 216 255
190 216 255
190 216 255
190 216 255
190 216 255
190 216 255
190 216 255
190 216 255
190 216 255
190 216 255
190 216 255
190 216 255
190 216 255
190 216 255
190 216 255
190 216 255
190 216 255
190 216 255
190 216 255
190 216 255
190 216 255
190 216 255
190 216 255
190 216 255
190 216 255
190 216 255
190 216 255
190 216 255
190 216 255
190 216 255
190 216 255
190 216 255
190 216 255
190 216 255
190 216 255
190 216 255
190 216 255
190 216 255
190 216 255
190 216 255
190 216 255
190 216 255
190 216 255
190 216 255
190 216 255
190 216 255
190 216 255
190 216 255
190 216 255
190 216 255
190 216 255
190 216 255
190 216 255
190 216 255
190 216 255
190 216 255
190 216 255
190 216 255
190 216 255
190 216 255
190 216 255
190 216 255
190 216 255
190 216 255
190 216 255
190 216 255
190 216 255
190 216 255
190 216 255
190 216 255
190 216 255
190 216 255
190 216 255
190 216 255
190 216 255
190 216 255
190 216 255
190 216 255
190 216 255
190 216 255
190 216 255
190 216 255
190 216 255
190 216 255
190 216 255
190 216 255
190 216 255
190 216 255
190 216 255
190 216 255
190 216 255
190 216 255
190 216 255
190 216 255
190 216 255
190 216 255
190 216 255
190 216 255
190 216 255
190 216 255
190 216 255
190 216 255
191 217 255
191 217 255
191 217 255
191 217 255
191 217 255
191 217 255
191 217 255
191 217 255
191 217 255
191 217 255
191 217 255
191 217 255
191 217 255
191 217 255
191 217 255
191 217 255
191 217 255
191 217 255
191 217 255
191 217 255
191 217 255
191 217 255
191 217 255
191 217 255
191 217 255
191 217 255
191 217 255
191 217 255
191 217 255
191 217 255
191 217 255
191 217 255
191 217 255
191 217 255
191 217 255
191 217 255
191 217 255
191 217 255
191 217 255
191 217 255
191 217 255
191 217 255
191 217 255
191 217 255
190 216 255
190 216 255
190 216 255
190 216 255
190 216 255
190 216 255
190 216 255
190 216 255
190 216 255
190 216 255
190 216 255
190 216 255
190 216 255
190 216 255
190 216 255
190 216 255
190 216 255
190 216 255
190 216 255
190 216 255
190 216 255
190 216 255
190 216 255
190 216 255
190 216 255
190 216 255
190 216 255
190 216 255
190 216 255
190 216 255
190 216 255
190 216 255
190 216 255
190 216 255
190 216 255
190 216 255
190 216 255
190 216 255
190 216 255
190 216 255
190 216 255
190 216 255
190 216 255
190 216 255
190 216 255
190 216 255
190 216 255
190 216 255
190 216 255
190 216 255
190 216 255
190 216 255
190 216 255
190 216 255
190 216 255
190 216 255
190 216 255
190 216 255
190 216 255
190 216 255
190 216 255
190 216 255
190 216 255
190 216 255
190 216 255
190 216 255
190 216 255
190 216 255
190 216 255
190 216 255
190 216 255
190 216 255
190 216 255
190 216 255
190 216 255
190 216 255
190 216 255
190 216 255
190 216 255
190 216 255
190 216 255
190 216 255
190 216 255
190 216 255
190 216 255
190 216 255
190 216 255
190 216 255
190 216 255
190 216 255
190 216 255
90 106 130
75 89 109
74 89 111
68 82 102
69 84 105
71 85 107
67 80 100
75 89 109
74 88 110
71 85 106
70 84 104
73 88 110
73 88 110
71 85 106
70 84 105
67 81 103
73 88 110
73 87 108
71 86 107
74 88 110
72 86 107
71 85 107
74 89 111
70 84 106
69 84 105
73 87 107
74 87 108
71 84 105
71 85 107
75 89 110
74 88 109
76 89 110
67 80 101
77 92 115
73 87 108
72 87 109
67 81 102
78 92 114
72 86 107
71 84 104
73 88 110
71 86 108
70 84 106
73 88 109
71 85 107
66 79 98
71 85 106
70 84 106
69 83 105
70 84 105
67 81 102
76 90 112
76 90 111
73 87 109
73 88 109
74 88 109
70 84 104
71 86 108
68 82 102
74 88 109
75 89 111
74 89 110
71 86 107
68 82 104
73 87 109
71 85 107
68 82 103
71 85 107
72 86 107
71 85 106
70 85 107
72 86 106
70 84 106
73 87 109
70 84 106
70 84 105
71 86 108
70 85 107
72 87 109
73 87 109
71 85 106
72 86 107
71 85 106
74 89 111
71 85 105
69 84 106
71 86 108
73 87 109
77 92 116
72 85 104
68 81 101
77 91 112
73 88 109
69 83 105
69 84 105
68 82 103
69 83 103
69 83 104
76 91 112
71 86 107
71 85 106
75 90 111
72 86 107
72 87 109
69 82 103
70 85 108
74 89 111
74 88 111
73 87 109
70 84 107
69 84 105
75 90 112
75 90 111
74 88 109
73 87 108
70 84 105
69 83 104
72 86 108
71 85 105
71 85 106
74 89 111
70 84 105
70 84 105
75 89 111
72 86 107
72 87 110
74 88 110
76 90 111
69 84 105
81 96 120
190 216 255
190 216 255
190 216 255
190 216 255
190 216 255
190 216 255
190 216 255
190 216 255
190 216 255
190 216 255
190 216 255
190 216 255
190 216 255
190 216 255
190 216 255
190 216 255
190 216 255
190 216 255
190 216 255
190 216 255
190 216 255
190 216 255
190 216 255
190 216 255
190 216 255
190 216 255
190 216 255
190 216 255
190 216 255
190 216 255
190 216 255
190 216 255
190 216 255
190 216 255
190 216 255
190 216 255
190 216 255
190 216 255
190 216 255
190 216 255
190 216 255
190 216 255
190 216 255
190 216 255
190 216 255
190 216 255
190 216 255
190 216 255
190 216 255
190 216 255
190 216 255
190 216 255
190 216 255
190 216 255
190 216 255
190 216 255
190 216 255
190 216 255
190 216 255
190 216 255
190 216 255
190 216 255
190 216 255
190 216 255
190 216 255
190 216 255
190 216 255
190 216 255
190 216 255
190 216 255
190 216 255
190 216 255
190 216 255
190 216 255
190 216 255
190 216 255
190 216 255
190 216 255
190 216 255
190 216 255
190 216 255
190 216 255
190 216 255
190 216 255
190 216 255
190 216 255
190 216 255
190 216 255
190 216 255
191 217 255
190 216 255
190 216 255
191 217 255
190 216 255
191 217 255
191 217 255
191 217 255
191 217 255
191 217 255
191 217 255
191 217 255
191 217 255
191 217 255
191 217 255
191 217 255
191 217 255
191 217 255
191 217 255
191 217 255
191 217 255
191 217 255
191 217 255
191 217 255
191 217 255
191 217 255
191 217 255
191 217 255
191 217 255
191 217 255
191 217 255
191 217 255
191 217 255
191 217 255
191 217 255
191 217 255
191 217 255
191 217 255
191 217 255
191 217 255
191 217 255
191 217 255
191 217 255
191 217 255
191 217 255
191 217 255
191 217 255
191 217 255
191 217 255
191 217 255
191 217 255
191 217 255
191 217 255
191 217 255
191 217 255
191 217 255
191 217 255
191 217 255
191 217 255
191 217 255
191 217 255
191 217 255
191 217 255
191 217 255
191 217 255
191 217 255
191 217 255
191 217 255
191 217 255
191 217 255
191 217 255
191 217 255
191 217 255
191 217 255
191 217 255
191 217 255
191 217 255
191 217 255
191 217 255
191 217 255
191 217 255
191 217 255
191 217 255
191 217 255
191 217 255
191 217 255
191 217 255
191 217 255
191 217 255
191 217 255
191 217 255
191 217 255
191 217 255
191 217 255
191 217 255
191 217 255
191 217 255
191 217 255
191 217 255
191 217 255
191 217 255
191 217 255
191 217 255
191 217 255
191 217 255
191 217 255
191 217 255
191 217 255
191 217 255
191 217 255
191 217 255
191 217 255
191 217 255
191 217 255
191 217 255
191 217 255
191 217 255
191 217 255
191 217 255
191 217 255
191 217 255
191 217 255
191 217 255
191 217 255
191 217 255
191 217 255
191 217 255
191 217 255
191 217 255
191 217 255
191 217 255
191 217 255
191 217 255
191 217 255
191 217 255
191 217 255
191 217 255
191 217 255
191 217 255
191 217 255
191 217 255
191 217 255
191 217 255
191 217 255
191 217 255
191 217 255
191 217 255
191 217 255
191 217 255
191 217 255
191 217 255
191 217 255
191 217 255
191 217 255
191 217 255
191 217 255
191 217 255
191 217 255
191 217 255
191 217 255
191 217 255
191 217 255
191 217 255
191 217 255
191 217 255
191 217 255
191 217 255
191 217 255
191 217 255
191 217 255
191 217 255
191 217 255
191 217 255
191 217 255
191 217 255
191 217 255
191 217 255
191 217 255
191 217 255
191 217 255
191 217 255
84 100 123
71 85 106
73 87 109
72 87 109
71 85 105
73 88 111
73 87 109
64 77 96
73 87 108
69 82 103
72 87 110
74 89 111
73 87 109
71 85 106
75 91 114
70 84 106
76 90 112
68 82 104
71 85 107
74 89 112
72 86 108
73 87 109
71 85 107
67 81 104
70 84 105
68 82 102
70 83 103
75 90 112
66 80 101
70 84 104
77 91 113
72 86 108
72 86 107
72 86 108
66 79 100
72 86 108
72 86 106
75 89 110
70 85 106
72 87 109
69 84 105
71 84 104
72 87 108
71 86 108
68 83 104
73 87 108
71 85 107
74 89 111
75 90 112
77 90 111
67 81 102
70 83 104
71 85 106
68 82 103
69 82 103
73 87 108
75 89 111
71 85 106
68 82 102
69 83 104
73 87 109
73 88 110
69 83 103
69 82 102
68 82 102
73 87 108
70 84 106
68 82 104
71 85 106
71 86 108
71 85 106
74 88 111
70 84 106
67 81 103
72 86 108
71 86 107
71 86 108
70 84 104
66 80 100
72 87 109
69 84 106
71 85 107
74 88 110
74 89 110
71 84 104
73 87 107
75 90 111
69 83 105
74 88 108
73 87 108
68 83 105
64 77 97
71 85 106
70 84 104
74 88 108
74 89 112
68 82 103
68 82 103
70 84 105
70 83 104
67 81 102
70 84 105
67 80 101
74 87 108
69 83 103
73 87 108
67 81 102
73 87 107
75 90 111
69 84 105
76 90 112
70 84 106
68 82 105
67 81 102
69 83 103
73 88 111
70 84 105
64 79 101
75 90 111
70 83 103
76 90 111
72 86 108
70 85 107
74 88 109
70 84 104
72 86 108
72 86 107
70 83 104
73 87 108
82 98 121
191 217 255
191 217 255
191 217 255
191 217 255
191 217 255
191 217 255
191 217 255
191 217 255
191 217 255
191 217 255
191 217 255
191 217 255
191 217 255
191 217 255
191 217 255
191 217 255
191 217 255
191 217 255
191 217 255
191 217 255
191 217 255
191 217 255
191 217 255
191 217 255
191 217 255
191 217 255
191 217 255
191 217 255
191 217 255
191 217 255
191 217 255
191 217 255
191 217 255
191 217 255
191 217 255
191 217 255
191 217 255
191 217 255
191 217 255
191 217 255
191 217 255
191 217 255
191 217 255
191 217 255
191 217 255
191 217 255
191 217 255
191 217 255
191 217 255
191 217 255
191 217 255
191 217 255
191 217 255
191 217 255
191 217 255
191 217 255
191 217 255
191 217 255
191 217 255
191 217 255
191 217 255
191 217 255
191 217 255
191 217 255
191 217 255
191 217 255
191 217 255
191 217 255
191 217 255
191 217 255
191 217 255
191 217 255
191 217 255
191 217 255
191 217 255
191 217 255
191 217 255
191 217 255
191 217 255
191 217 255
191 217 255
191 217 255
191 217 255
191 217 255
191 217 255
191 217 255
191 217 255
191 217 255
191 217 255
191 217 255
191 217 255
191 217 255
191 217 255
191 217 255
191 217 255
191 217 255
191 217 255
191 217 255
191 217 255
191 217 255
191 217 255
191 217 255
191 217 255
191 217 255
191 217 255
191 217 255
191 217 255
191 217 255
191 217 255
191 217 255
191 217 255
191 217 255
191 217 255
191 217 255
191 217 255
191 217 255
191 217 255
191 217 255
191 217 255
191 217 255
191 217 255
191 217 255
191 217 255
191 217 255
191 217 255
191 217 255
191 217 255
191 217 255
191 217 255
191 217 255
191 217 255
191 217 255
191 217 255
191 217 255
191 217 255
191 217 255
191 217 255
191 217 255
191 217 255
191 217 255
191 217 255
191 217 255
191 217 255
191 217 255
191 217 255
191 217 255
191 217 255
191 217 255
191 217 255
191 217 255
191 217 255
191 217 255
191 217 255
191 217 255
191 217 255
191 217 255
191 217 255
191 217 255
191 217 255
191 217 255
191 217 255
191 217 255
191 217 255
191 217 255
191 217 255
191 217 255
191 217 255
191 217 255
191 217 255
191 217 255
191 217 255
191 217 255
191 217 255
191 217 255
191 217 255
191 217 255
191 217 255
191 217 255
191 217 255
191 217 255
191 217 255
191 217 255
191 217 255
191 217 255
191 217 255
191 217 255
191 217 255
191 217 255
191 217 255
191 217 255
191 217 255
191 217 255
191 217 255
191 217 255
191 217 255
191 217 255
191 217 255
191 217 255
191 217 255
191 217 255
191 217 255
191 217 255
191 217 255
191 217 255
191 217 255
191 217 255
191 217 255
191 217 255
191 217 255
191 217 255
191 217 255
191 217 255
191 217 255
191 217 255
191 217 255
191 217 255
191 217 255
191 217 255
191 217 255
191 217 255
191 217 255
191 217 255
191 217 255
191 217 255
191 217 255
191 217 255
191 217 255
191 217 255
191 217 255
191 217 255
191 217 255
191 217 255
191 217 255
191 217 255
191 217 255
191 217 255
191 217 255
191 217 255
191 217 255
191 217 255
191 217 255
191 217 255
191 217 255
191 217 255
191 217 255
191 217 255
191 217 255
191 217 255
191 217 255
191 217 255
191 217 255
191 217 255
191 217 255
191 217 255
191 217 255
191 217 255
191 217 255
191 217 255
191 217 255
191 217 255
191 217 255
191 217 255
191 217 255
191 217 255
191 217 255
191 217 255
191 217 255
191 217 255
191 217 255
191 217 255
78 93 115
70 84 104
68 83 104
65 78 97
72 86 107
71 86 107
68 82 102
70 85 108
73 87 109
71 85 105
71 85 107
70 85 107
67 81 102
70 84 105
70 84 106
73 86 107
69 83 104
72 87 108
69 82 103
67 81 101
71 85 105
73 88 109
70 84 105
71 85 105
75 90 113
71 85 106
70 85 107
71 85 105
72 86 106
76 90 111
71 85 107
69 85 108
72 86 107
67 81 101
69 82 103
71 85 107
71 84 104
74 89 112
71 86 108
72 85 106
72 86 106
70 84 104
73 88 110
73 88 110
64 77 97
63 77 97
71 86 108
70 85 107
76 90 112
68 82 103
72 87 109
72 86 108
67 81 102
67 80 100
70 83 104
73 88 109
68 82 103
68 82 103
67 81 102
70 85 107
69 84 105
75 90 111
69 82 102
68 82 102
64 78 98
71 86 107
71 86 108
78 92 113
71 85 106
73 87 109
71 86 108
65 78 98
67 81 102
71 85 106
67 82 103
74 88 111
75 88 108
73 87 109
70 83 104
67 80 100
66 80 100
69 83 103
71 86 109
72 87 108
68 83 106
69 83 104
68 82 104
69 84 105
71 84 104
70 84 106
66 80 101
69 84 106
71 85 106
68 83 105
67 81 101
64 78 100
75 89 109
72 86 107
75 89 110
70 84 104
72 86 108
69 83 104
72 86 108
71 85 105
71 85 106
65 78 98
73 88 110
72 87 108
74 89 112
71 86 108
68 82 102
66 79 98
65 79 100
71 84 104
65 80 101
66 80 100
71 85 106
68 82 103
68 81 101
70 84 105
67 81 102
71 85 107
68 82 103
69 83 104
69 84 106
76 90 111
70 84 106
74 88 109
67 82 103
76 90 112
191 217 255
191 217 255
191 217 255
191 217 255
191 217 255
191 217 255
191 217 255
191 217 255
191 217 255
191 217 255
191 217 255
191 217 255
191 217 255
191 217 255
191 217 255
191 217 255
191 217 255
191 217 255
191 217 255
191 217 255
191 217 255
191 217 255
191 217 255
191 217 255
191 217 255
191 217 255
191 217 255
191 217 255
191 217 255
191 217 255
191 217 255
191 217 255
191 217 255
191 217 255
191 217 255
191 217 255
191 217 255
191 217 255
191 217 255
191 217 255
191 217 255
191 217 255
191 217 255
191 217 255
191 217 255
191 217 255
191 217 255
191 217 255
191 217 255
191 217 255
191 217 255
191 217 255
191 217 255
191 217 255
191 217 255
191 217 255
191 217 255
191 217 255
191 217 255
191 217 255
191 217 255
191 217 255
191 217 255
191 217 255
191 217 255
191 217 255
191 217 255
191 217 255
191 217 255
191 217 255
191 217 255
191 217 255
191 217 255
191 217 255
191 217 255
191 217 255
191 217 255
191 217 255
191 217 255
191 217 255
191 217 255
191 217 255
191 217 255
191 217 255
191 217 255
191 217 255
191 217 255
191 217 255
191 217 255
191 217 255
191 217 255
191 217 255
191 217 255
191 217 255
191 217 255
191 217 255
191 217 255
191 217 255
191 217 255
191 217 255
191 217 255
191 217 255
191 217 255
191 217 255
191 217 255
191 217 255
191 217 255
191 217 255
191 217 255
191 217 255
191 217 255
191 217 255
191 217 255
191 217 255
191 217 255
191 217 255
191 217 255
191 217 255
191 217 255
191 217 255
191 217 255
191 217 255
191 217 255
191 217 255
191 217 255
191 217 255
191 217 255
191 217 255
191 217 255
191 217 255
191 217 255
191 217 255
191 217 255
191 217 255
191 217 255
192 217 255
192 217 255
191 217 255
191 217 255
191 217 255
192 217 255
192 217 255
192 217 255
191 217 255
192 217 255
192 217 255
192 217 255
192 217 255
192 217 255
191 217 255
192 217 255
192 217 255
192 217 255
191 217 255
191 217 255
191 217 255
192 217 255
191 217 255
192 217 255
191 217 255
192 217 255
191 217 255
192 217 255
191 217 255
191 217 255
191 217 255
191 217 255
191 217 255
191 217 255
191 217 255
191 217 255
192 217 255
192 217 255
192 217 255
192 217 255
192 217 255
192 217 255
192 217 255
191 217 255
192 217 255
192 217 255
192 217 255
191 217 255
191 217 255
192 217 255
192 217 255
191 217 255
192 217 255
191 217 255
192 217 255
192 217 255
192 217 255
191 217 255
192 217 255
191 217 255
191 217 255
191 217 255
191 217 255
192 217 255
192 217 255
192 217 255
191 217 255
192 217 255
191 217 255
191 217 255
191 217 255
192 217 255
191 217 255
192 217 255
191 217 255
191 217 255
191 217 255
192 217 255
191 217 255
192 217 255
191 217 255
192 217 255
192 217 255
192 217 255
192 217 255
192 217 255
191 217 255
192 217 255
191 217 255
191 217 255
192 217 255
192 217 255
192 217 255
192 217 255
192 217 255
191 217 255
192 217 255
191 217 255
192 217 255
192 217 255
191 217 255
192 217 255
192 217 255
192 217 255
191 217 255
191 217 255
192 217 255
192 217 255
191 217 255
192 217 255
191 217 255
191 217 255
192 217 255
192 217 255
192 217 255
191 217 255
191 217 255
191 217 255
192 217 255
192 217 255
192 217 255
191 217 255
192 217 255
191 217 255
191 217 255
191 217 255
192 217 255
191 217 255
191 217 255
192 217 255
191 217 255
192 217 255
191 217 255
191 217 255
192 217 255
73 88 110
67 81 102
67 81 101
74 88 109
72 86 108
71 85 105
75 90 112
69 83 104
71 85 107
75 89 110
72 86 107
66 79 100
72 86 107
70 84 104
73 87 107
68 82 103
73 88 110
66 80 100
70 84 104
71 85 107
70 83 104
69 82 103
72 87 110
72 87 108
70 84 106
71 85 107
70 85 107
74 89 111
71 86 107
69 83 103
69 83 103
72 86 107
67 81 102
75 89 110
76 92 116
70 84 105
74 89 110
69 84 105
72 86 108
69 82 103
73 88 110
69 83 104
70 84 105
73 87 109
69 84 105
74 89 112
72 86 107
68 83 104
71 86 109
75 89 111
69 83 104
69 84 106
72 86 107
66 80 100
68 82 104
71 85 106
73 88 109
68 82 102
67 80 101
68 81 102
71 85 107
67 81 102
70 84 106
70 85 108
69 82 102
72 86 107
68 83 104
74 89 111
72 87 110
71 85 106
71 86 108
69 83 104
67 82 104
71 85 106
74 89 111
68 81 101
70 84 106
71 86 109
73 87 108
69 82 102
73 87 107
69 83 105
66 80 101
66 79 99
72 86 106
70 84 105
67 81 102
67 81 102
69 83 104
69 83 104
67 80 101
68 82 101
70 84 106
69 81 101
66 80 101
71 86 107
74 89 111
70 84 104
68 83 105
71 85 107
70 84 105
72 85 106
74 88 110
75 89 111
69 83 104
66 80 100
71 85 106
69 84 105
70 83 104
71 85 107
70 84 107
71 85 107
67 82 104
72 86 108
69 84 105
72 87 109
72 86 108
71 85 107
73 88 110
68 83 104
72 87 108
73 87 108
70 84 105
70 84 106
69 83 104
67 81 101
71 85 105
72 86 109
71 85 106
76 92 116
192 217 255
192 217 255
191 217 255
192 217 255
192 217 255
191 217 255
192 217 255
192 217 255
191 217 255
191 217 255
191 217 255
192 217 255
192 217 255
192 217 255
192 217 255
191 217 255
192 217 255
191 217 255
191 217 255
192 217 255
191 217 255
191 217 255
191 217 255
192 217 255
191 217 255
191 217 255
192 217 255
191 217 255
191 217 255
191 217 255
191 217 255
191 217 255
192 217 255
192 217 255
191 217 255
192 217 255
192 217 255
192 217 255
191 217 255
191 217 255
192 217 255
191 217 255
192 217 255
191 217 255
192 217 255
192 217 255
192 217 255
191 217 255
191 217 255
192 217 255
192 217 255
191 217 255
192 217 255
191 217 255
191 217 255
192 217 255
191 217 255
191 217 255
192 217 255
192 217 255
191 217 255
192 217 255
191 217 255
192 217 255
191 217 255
191 217 255
191 217 255
192 217 255
191 217 255
192 217 255
191 217 255
191 217 255
191 217 255
191 217 255
191 217 255
191 217 255
191 217 255
192 217 255
191 217 255
192 217 255
191 217 255
192 217 255
192 217 255
192 217 255
192 217 255
191 217 255
191 217 255
192 217 255
191 217 255
191 217 255
192 217 255
191 217 255
191 217 255
191 217 255
192 217 255
192 217 255
191 217 255
191 217 255
192 217 255
191 217 255
192 217 255
191 217 255
192 217 255
191 217 255
191 217 255
191 217 255
192 217 255
191 217 255
192 217 255
192 217 255
192 217 255
191 217 255
192 217 255
192 217 255
191 217 255
191 217 255
192 217 255
192 217 255
191 217 255
192 217 255
191 217 255
191 217 255
191 217 255
192 217 255
191 217 255
192 217 255
191 217 255
192 217 255
191 217 255
191 217 255
191 217 255
192 217 255
192 217 255
192 217 255
191 217 255
192 217 255
192 217 255
192 217 255
192 217 255
192 217 255
192 217 255
192 217 255
192 217 255
192 217 255
192 217 255
192 217 255
192 217 255
192 217 255
192 217 255
192 217 255
192 217 255
192 217 255
192 217 255
192 217 255
192 217 255
192 217 255
192 217 255
192 217 255
192 217 255
192 217 255
192 217 255
192 217 255
192 217 255
192 217 255
192 217 255
192 217 255
192 217 255
192 217 255
192 217 255
192 217 255
192 217 255
192 217 255
192 217 255
192 217 255
192 217 255
192 217 255
192 217 255
192 217 255
192 217 255
192 217 255
192 217 255
192 217 255
192 217 255
192 217 255
192 217 255
192 217 255
192 217 255
192 217 255
192 217 255
192 217 255
192 217 255
192 217 255
192 217 255
192 217 255
192 217 255
192 217 255
192 217 255
192 217 255
192 217 255
192 217 255
192 217 255
192 217 255
192 217 255
192 217 255
192 217 255
192 217 255
192 217 255
192 217 255
192 217 255
192 217 255
192 217 255
192 217 255
192 217 255
192 217 255
192 217 255
192 217 255
192 217 255
192 217 255
192 217 255
192 217 255
192 217 255
192 217 255
192 217 255
192 217 255
192 217 255
192 217 255
192 217 255
192 217 255
192 217 255
192 217 255
192 217 255
192 217 255
192 217 255
192 217 255
192 217 255
192 217 255
192 217 255
192 217 255
192 217 255
192 217 255
192 217 255
192 217 255
192 217 255
192 217 255
192 217 255
192 217 255
192 217 255
192 217 255
192 217 255
192 217 255
192 217 255
192 217 255
192 217 255
192 217 255
192 217 255
192 217 255
192 217 255
192 217 255
192 217 255
192 217 255
192 217 255
192 217 255
192 217 255
192 217 255
192 217 255
192 217 255
192 217 255
192 217 255
192 217 255
192 217 255
72 85 105
67 80 100
60 73 92
65 78 96
68 81 101
71 85 105
74 88 110
65 79 100
69 83 105
66 79 100
70 85 107
74 89 113
68 81 101
69 83 104
71 85 106
67 81 102
70 84 105
73 86 106
68 81 101
69 83 104
74 87 108
70 84 107
69 83 105
69 83 102
74 87 107
69 82 102
72 86 108
70 85 107
66 80 100
72 87 109
71 84 105
69 82 102
71 85 106
71 85 107
68 81 102
68 82 104
63 77 98
70 84 104
64 77 97
71 86 108
71 85 107
71 84 104
69 82 102
69 83 104
72 86 108
70 83 103
73 87 108
66 79 100
71 85 106
69 83 104
73 87 109
63 78 100
66 79 99
67 80 100
68 82 102
68 82 102
68 82 103
68 82 104
70 84 105
72 85 105
71 86 108
70 84 106
72 87 108
73 87 108
70 84 106
64 79 101
70 84 104
65 78 99
68 83 105
74 88 110
68 82 103
69 82 102
71 84 105
66 81 103
70 83 104
72 86 107
70 85 107
67 81 103
70 84 105
68 82 103
66 79 99
70 83 103
70 84 105
72 86 107
70 84 105
68 81 101
71 85 106
67 81 102
71 85 106
69 83 104
73 87 107
72 86 108
69 82 102
74 88 110
62 75 95
70 85 106
72 87 109
70 84 106
72 87 110
64 77 97
67 81 102
68 81 102
69 83 104
72 86 107
68 81 101
68 82 103
74 88 110
68 83 105
73 87 107
71 86 107
70 84 106
68 82 103
67 81 102
68 82 104
67 81 102
65 79 99
72 86 109
62 75 94
65 79 100
69 84 107
71 85 106
69 83 104
71 85 106
68 82 102
69 83 105
69 83 105
65 80 101
69 83 105
65 79 100
76 91 114
192 217 255
192 217 255
192 217 255
192 217 255
192 217 255
192 217 255
192 217 255
192 217 255
192 217 255
192 217 255
192 217 255
192 217 255
192 217 255
192 217 255
192 217 255
192 217 255
192 217 255
192 217 255
192 217 255
192 217 255
192 217 255
192 217 255
192 217 255
192 217 255
192 217 255
192 217 255
192 217 255
192 217 255
192 217 255
192 217 255
192 217 255
192 217 255
192 217 255
192 217 255
192 217 255
192 217 255
192 217 255
192 217 255
192 217 255
192 217 255
192 217 255
192 217 255
192 217 255
192 217 255
192 217 255
192 217 255
192 217 255
192 217 255
192 217 255
192 217 255
192 217 255
192 217 255
192 217 255
192 217 255
192 217 255
192 217 255
192 217 255
192 217 255
192 217 255
192 217 255
192 217 255
192 217 255
192 217 255
192 217 255
192 217 255
192 217 255
192 217 255
192 217 255
192 217 255
192 217 255
192 217 255
192 217 255
192 217 255
192 217 255
192 217 255
192 217 255
192 217 255
192 217 255
192 217 255
192 217 255
192 217 255
192 217 255
192 217 255
192 217 255
192 217 255
192 217 255
192 217 255
192 217 255
192 217 255
192 217 255
192 217 255
192 217 255
192 217 255
192 217 255
192 217 255
192 217 255
192 217 255
192 217 255
192 217 255
192 217 255
192 217 255
192 217 255
192 217 255
192 217 255
192 217 255
192 217 255
192 217 255
192 217 255
192 217 255
192 217 255
192 217 255
192 217 255
192 217 255
192 217 255
192 217 255
192 217 255
192 217 255
192 217 255
192 217 255
192 217 255
192 217 255
192 217 255
192 217 255
192 217 255
192 217 255
192 217 255
192 217 255
192 217 255
192 217 255
192 217 255
192 217 255
192 217 255
192 217 255
192 217 255
192 217 255
192 217 255
192 217 255
192 217 255
192 217 255
192 217 255
192 217 255
192 217 255
192 217 255
192 217 255
192 217 255
192 217 255
192 217 255
192 217 255
192 217 255
192 217 255
192 217 255
192 217 255
192 217 255
192 217 255
192 217 255
192 217 255
192 217 255
192 217 255
192 217 255
192 217 255
192 217 255
192 217 255
192 217 255
192 217 255
192 217 255
192 217 255
192 217 255
192 217 255
192 217 255
192 217 255
192 217 255
192 217 255
192 217 255
192 217 255
192 217 255
192 217 255
192 217 255
192 217 255
192 217 255
192 218 255
192 217 255
192 218 255
192 218 255
192 218 255
192 218 255
192 218 255
192 218 255
192 218 255
192 218 255
192 218 255
192 218 255
192 218 255
192 218 255
192 218 255
192 218 255
192 218 255
192 218 255
192 218 255
192 218 255
192 218 255
192 218 255
192 218 255
192 218 255
192 218 255
192 218 255
192 218 255
192 218 255
192 218 255
192 218 255
192 218 255
192 218 255
192 218 255
192 218 255
192 218 255
192 218 255
192 218 255
192 218 255
192 218 255
192 218 255
192 218 255
192 218 255
192 218 255
192 218 255
192 218 255
192 218 255
192 218 255
192 218 255
192 218 255
192 218 255
192 218 255
192 218 255
192 218 255
192 218 255
192 218 255
192 218 255
192 218 255
192 218 255
192 218 255
192 218 255
192 218 255
192 218 255
192 218 255
192 218 255
192 218 255
192 218 255
192 218 255
192 218 255
192 218 255
192 218 255
192 218 255
192 218 255
192 218 255
192 218 255
192 218 255
192 218 255
192 218 255
192 218 255
192 218 255
192 218 255
192 218 255
192 218 255
192 218 255
192 218 255
192 218 255
192 218 255
192 218 255
192 218 255
192 218 255
192 218 255
192 218 255
80 95 116
72 87 109
67 81 102
71 86 108
65 78 99
63 77 97
69 83 104
71 86 108
70 84 105
65 78 98
70 85 107
70 84 106
68 82 103
68 82 103
70 84 105
70 84 105
72 86 106
69 83 104
67 81 103
71 85 107
70 84 105
70 83 104
65 78 97
65 79 99
69 82 103
69 82 103
69 83 104
71 85 105
70 83 104
67 80 100
68 82 103
73 87 109
66 80 101
67 80 100
72 86 107
69 83 104
66 80 102
68 82 102
64 77 98
68 81 101
70 83 104
64 77 96
68 82 103
69 83 105
70 84 105
69 82 103
70 85 106
67 80 101
65 78 99
63 76 95
70 84 106
67 80 100
67 80 99
70 84 105
63 76 96
67 81 101
74 88 109
70 85 106
65 79 100
65 78 98
72 85 106
69 82 103
73 87 108
66 80 101
63 76 96
71 86 108
68 82 104
66 79 99
74 89 111
69 84 105
70 84 106
72 86 107
65 79 100
71 86 107
72 86 106
68 82 103
70 84 106
69 83 104
71 84 104
71 86 107
72 87 110
71 86 108
74 87 108
69 82 102
67 81 101
69 83 103
67 81 102
71 86 108
73 87 108
74 88 109
63 76 96
71 85 106
64 77 98
70 83 102
68 82 103
65 79 99
69 82 102
69 83 104
66 80 100
69 83 104
70 84 104
72 85 106
70 85 108
66 80 99
70 84 105
67 81 103
72 87 108
68 81 100
69 83 105
72 86 108
69 83 104
70 84 105
75 89 109
71 86 107
65 79 99
66 80 101
68 82 102
72 85 106
67 81 102
65 78 99
62 75 96
71 85 106
71 85 106
68 82 105
67 80 99
68 82 103
69 83 103
64 76 95
68 81 100
76 91 113
193 218 255
192 218 255
192 218 255
192 218 255
192 218 255
192 218 255
192 218 255
192 218 255
192 218 255
192 218 255
192 218 255
192 218 255
192 218 255
192 218 255
192 218 255
192 218 255
192 218 255
192 218 255
192 218 255
192 218 255
192 218 255
192 218 255
192 218 255
192 218 255
192 218 255
192 218 255
192 218 255
192 218 255
192 218 255
192 218 255
192 218 255
192 218 255
192 218 255
192 218 255
192 218 255
192 218 255
192 218 255
192 218 255
192 218 255
192 218 255
192 218 255
192 218 255
192 218 255
192 218 255
192 218 255
192 218 255
192 218 255
192 218 255
192 218 255
192 218 255
192 218 255
192 218 255
192 218 255
192 218 255
192 218 255
192 218 255
192 218 255
192 218 255
192 218 255
192 218 255
192 218 255
192 218 255
192 218 255
192 218 255
192 218 255
192 218 255
192 218 255
192 218 255
192 218 255
192 218 255
192 218 255
192 218 255
192 218 255
192 218 255
192 218 255
192 218 255
192 218 255
192 218 255
192 218 255
192 218 255
192 218 255
192 218 255
192 218 255
192 218 255
192 218 255
192 218 255
192 218 255
192 218 255
192 218 255
192 218 255
192 218 255
192 217 255
192 218 255
192 217 255
192 217 255
192 217 255
192 217 255
192 217 255
192 217 255
192 217 255
192 217 255
192 217 255
192 217 255
192 217 255
192 217 255
192 217 255
192 217 255
192 217 255
192 217 255
192 217 255
192 217 255
192 217 255
192 217 255
192 217 255
192 217 255
192 217 255
192 217 255
192 217 255
192 217 255
192 217 255
192 217 255
192 217 255
192 217 255
192 217 255
192 217 255
192 217 255
192 217 255
192 217 255
192 217 255
192 217 255
192 217 255
192 217 255
192 217 255
192 217 255
192 217 255
192 218 255
192 218 255
192 218 255
192 218 255
192 218 255
192 218 255
192 218 255
192 218 255
192 218 255
192 218 255
192 218 255
192 218 255
192 218 255
192 218 255
192 218 255
192 218 255
192 218 255
192 218 255
192 218 255
192 218 255
192 218 255
192 218 255
192 218 255
192 218 255
192 218 255
192 218 255
192 218 255
192 218 255
192 218 255
192 218 255
192 218 255
192 218 255
192 218 255
192 218 255
192 218 255
192 218 255
192 218 255
192 218 255
192 218 255
192 218 255
192 218 255
192 218 255
193 218 255
193 218 255
192 218 255
193 218 255
193 218 255
193 218 255
193 218 255
193 218 255
193 218 255
193 218 255
193 218 255
193 218 255
193 218 255
193 218 255
193 218 255
193 218 255
193 218 255
193 218 255
193 218 255
193 218 255
193 218 255
193 218 255
193 218 255
193 218 255
193 218 255
193 218 255
193 218 255
193 218 255
193 218 255
193 218 255
193 218 255
193 218 255
193 218 255
193 218 255
193 218 255
193 218 255
193 218 255
193 218 255
193 218 255
193 218 255
193 218 255
193 218 255
193 218 255
193 218 255
193 218 255
193 218 255
193 218 255
193 218 255
193 218 255
193 218 255
193 218 255
193 218 255
193 218 255
193 218 255
193 218 255
193 218 255
193 218 255
193 218 255
193 218 255
193 218 255
193 218 255
193 218 255
193 218 255
193 218 255
193 218 255
193 218 255
193 218 255
193 218 255
193 218 255
193 218 255
193 218 255
193 218 255
193 218 255
193 218 255
193 218 255
193 218 255
193 218 255
193 218 255
193 218 255
193 218 255
193 218 255
193 218 255
193 218 255
193 218 255
193 218 255
193 218 255
193 218 255
193 218 255
193 218 255
193 218 255
193 218 255
193 218 255
193 218 255
83 98 121
68 83 105
69 83 105
68 82 103
67 81 102
68 81 101
69 84 105
72 86 107
74 87 108
66 81 103
68 82 102
66 79 99
68 82 102
72 86 107
73 87 108
71 85 106
69 82 102
69 82 102
68 80 99
66 79 100
69 82 102
67 81 102
67 80 101
69 83 103
61 75 96
68 82 102
67 80 101
66 80 101
66 80 100
69 82 103
68 82 102
64 78 98
64 78 98
69 83 104
72 86 107
65 78 99
71 84 104
61 74 94
69 83 104
67 81 103
68 82 102
69 82 101
69 84 105
62 75 94
71 85 107
67 80 99
68 82 104
70 85 106
68 82 102
65 78 98
68 82 102
65 79 99
65 79 100
66 79 99
70 84 106
71 86 108
74 88 110
71 85 107
66 79 98
66 79 99
73 86 106
70 85 107
68 82 102
67 82 104
69 83 105
70 83 103
64 77 97
70 84 106
71 84 105
65 78 98
71 85 105
67 81 103
69 84 106
71 86 107
72 86 107
70 85 108
70 84 104
69 83 103
70 83 104
67 81 103
69 83 105
69 83 104
65 79 99
66 79 99
67 81 102
68 81 101
70 84 104
67 81 102
67 80 101
72 86 106
66 80 100
63 76 96
70 84 105
72 86 106
69 84 105
66 80 101
64 78 98
71 86 107
66 80 101
66 79 99
64 78 98
66 79 99
68 82 103
64 77 97
69 83 104
72 86 107
63 77 97
74 88 109
69 83 104
74 88 110
67 80 100
68 82 103
69 84 105
70 84 104
67 80 100
69 83 104
67 80 100
67 82 103
69 83 104
68 82 102
66 79 99
68 82 102
70 83 103
70 83 104
67 81 102
69 82 101
71 85 107
63 76 96
65 79 100
82 98 122
193 218 255
193 218 255
193 218 255
193 218 255
193 218 255
193 218 255
193 218 255
193 218 255
193 218 255
193 218 255
193 218 255
193 218 255
193 218 255
193 218 255
193 218 255
193 218 255
193 218 255
193 218 255
193 218 255
193 218 255
193 218 255
193 218 255
193 218 255
193 218 255
193 218 255
193 218 255
193 218 255
193 218 255
193 218 255
193 218 255
193 218 255
193 218 255
193 218 255
193 218 255
193 218 255
193 218 255
193 218 255
193 218 255
193 218 255
193 218 255
193 218 255
193 218 255
193 218 255
193 218 255
193 218 255
193 218 255
193 218 255
193 218 255
193 218 255
193 218 255
193 218 255
193 218 255
193 218 255
193 218 255
193 218 255
193 218 255
193 218 255
193 218 255
193 218 255
193 218 255
193 218 255
193 218 255
193 218 255
193 218 255
193 218 255
193 218 255
193 218 255
193 218 255
193 218 255
193 218 255
193 218 255
193 218 255
193 218 255
193 218 255
193 218 255
193 218 255
193 218 255
193 218 255
193 218 255
193 218 255
193 218 255
193 218 255
193 218 255
193 218 255
193 218 255
193 218 255
193 218 255
193 218 255
193 218 255
192 218 255
193 218 255
193 218 255
192 218 255
192 218 255
192 218 255
192 218 255
192 218 255
192 218 255
192 218 255
192 218 255
192 218 255
192 218 255
192 218 255
192 218 255
192 218 255
192 218 255
192 218 255
192 218 255
192 218 255
192 218 255
192 218 255
192 218 255
192 218 255
192 218 255
192 218 255
192 218 255
192 218 255
192 218 255
192 218 255
192 218 255
192 218 255
192 218 255
192 218 255
192 218 255
192 218 255
192 218 255
192 218 255
192 218 255
192 218 255
192 218 255
192 218 255
192 218 255
192 218 255
192 218 255
192 218 255
193 218 255
193 218 255
193 218 255
193 218 255
193 218 255
193 218 255
193 218 255
193 218 255
193 218 255
193 218 255
193 218 255
193 218 255
193 218 255
193 218 255
193 218 255
193 218 255
193 218 255
193 218 255
193 218 255
193 218 255
193 218 255
193 218 255
193 218 255
193 218 255
193 218 255
193 218 255
193 218 255
193 218 255
193 218 255
193 218 255
193 218 255
193 218 255
193 218 255
193 218 255
193 218 255
193 218 255
193 218 255
193 218 255
193 218 255
193 218 255
193 218 255
193 218 255
193 218 255
193 218 255
193 218 255
193 218 255
193 218 255
193 218 255
193 218 255
193 218 255
193 218 255
193 218 255
193 218 255
193 218 255
193 218 255
193 218 255
193 218 255
193 218 255
193 218 255
193 218 255
193 218 255
193 218 255
193 218 255
193 218 255
193 218 255
193 218 255
193 218 255
193 218 255
193 218 255
193 218 255
193 218 255
193 218 255
193 218 255
193 218 255
193 218 255
193 218 255
193 218 255
193 218 255
193 218 255
193 218 255
193 218 255
193 218 255
193 218 255
193 218 255
193 218 255
193 218 255
193 218 255
193 218 255
193 218 255
193 218 255
193 218 255
193 218 255
193 218 255
193 218 255
193 218 255
193 218 255
193 218 255
193 218 255
193 218 255
193 218 255
193 218 255
193 218 255
193 218 255
193 218 255
193 218 255
193 218 255
193 218 255
193 218 255
193 218 255
193 218 255
193 218 255
193 218 255
193 218 255
193 218 255
193 218 255
193 218 255
193 218 255
193 218 255
193 218 255
193 218 255
193 218 255
193 218 255
193 218 255
193 218 255
193 218 255
193 218 255
193 218 255
193 218 255
193 218 255
193 218 255
193 218 255
193 218 255
193 218 255
193 218 255
193 218 255
98 113 136
59 71 91
66 80 100
63 77 96
71 84 105
60 73 94
71 85 105
68 83 104
73 87 108
67 81 101
64 78 98
63 76 95
64 77 96
68 83 105
64 77 97
65 79 100
74 88 109
63 77 98
69 83 103
69 83 104
66 80 102
65 79 100
67 81 102
65 79 100
70 84 105
69 84 106
68 81 102
68 82 103
67 80 101
71 84 104
70 83 103
69 83 103
67 81 101
66 79 99
67 81 103
66 79 100
65 79 99
68 82 103
71 86 108
66 80 100
65 78 97
66 80 100
71 85 105
68 82 103
65 78 98
64 77 96
67 81 101
67 80 101
65 78 97
69 83 103
69 83 103
69 82 103
69 84 105
66 79 98
68 82 102
66 80 101
72 85 106
69 83 104
65 79 99
68 82 103
63 76 96
68 82 104
62 76 97
70 84 104
66 80 101
62 75 95
70 84 105
60 73 93
65 79 99
67 82 104
65 79 99
66 80 100
64 78 99
68 83 105
67 81 101
70 84 106
67 81 101
69 83 105
68 82 102
60 73 93
63 76 95
69 83 103
64 77 97
70 85 108
62 75 94
62 75 94
68 81 101
62 75 95
68 82 102
68 82 103
71 85 107
71 84 103
74 88 109
63 76 96
62 75 95
58 71 91
68 81 101
70 83 104
70 83 104
65 78 98
67 81 102
66 80 101
65 78 98
66 79 100
69 83 104
67 81 101
69 83 104
67 81 102
66 78 97
63 77 97
65 80 101
68 82 103
66 79 99
68 82 102
69 84 105
70 83 104
67 81 102
65 79 99
68 82 102
69 84 106
68 81 102
66 80 101
66 80 101
68 82 101
71 85 106
63 76 95
66 79 98
66 79 100
64 77 97
92 108 131
193 218 255
193 218 255
193 218 255
193 218 255
193 218 255
193 218 255
193 218 255
193 218 255
193 218 255
193 218 255
193 218 255
193 218 255
193 218 255
193 218 255
193 218 255
193 218 255
193 218 255
193 218 255
193 218 255
193 218 255
193 218 255
193 218 255
193 218 255
193 218 255
193 218 255
193 218 255
193 218 255
193 218 255
193 218 255
193 218 255
193 218 255
193 218 255
193 218 255
193 218 255
193 218 255
193 218 255
193 218 255
193 218 255
193 218 255
193 218 255
193 218 255
193 218 255
193 218 255
193 218 255
193 218 255
193 218 255
193 218 255
193 218 255
193 218 255
193 218 255
193 218 255
193 218 255
193 218 255
193 218 255
193 218 255
193 218 255
193 218 255
193 218 255
193 218 255
193 218 255
193 218 255
193 218 255
193 218 255
193 218 255
193 218 255
193 218 255
193 218 255
193 218 255
193 218 255
193 218 255
193 218 255
193 218 255
193 218 255
193 218 255
193 218 255
193 218 255
193 218 255
193 218 255
193 218 255
193 218 255
193 218 255
193 218 255
193 218 255
193 218 255
193 218 255
193 218 255
193 218 255
193 218 255
193 218 255
193 218 255
193 218 255
193 218 255
193 218 255
193 218 255
193 218 255
193 218 255
193 218 255
193 218 255
193 218 255
193 218 255
193 218 255
193 218 255
193 218 255
193 218 255
193 218 255
193 218 255
193 218 255
193 218 255
193 218 255
193 218 255
193 218 255
193 218 255
193 218 255
193 218 255
193 218 255
193 218 255
193 218 255
193 218 255
193 218 255
193 218 255
193 218 255
193 218 255
193 218 255
193 218 255
193 218 255
193 218 255
193 218 255
193 218 255
193 218 255
193 218 255
193 218 255
193 218 255
193 218 255
193 218 255
193 218 255
193 218 255
193 218 255
193 218 255
193 218 255
193 218 255
193 218 255
193 218 255
193 218 255
193 218 255
193 218 255
193 218 255
193 218 255
193 218 255
193 218 255
193 218 255
193 218 255
193 218 255
193 218 255
193 218 255
193 218 255
193 218 255
193 218 255
193 218 255
193 218 255
193 218 255
193 218 255
193 218 255
193 218 255
193 218 255
193 218 255
193 218 255
193 218 255
193 218 255
193 218 255
193 218 255
193 218 255
193 218 255
193 218 255
193 218 255
193 218 255
193 218 255
193 218 255
193 218 255
193 218 255
193 218 255
193 218 255
193 218 255
193 218 255
193 218 255
193 218 255
193 218 255
193 218 255
193 218 255
193 218 255
193 218 255
193 218 255
193 218 255
193 218 255
193 218 255
193 218 255
193 218 255
193 218 255
193 218 255
193 218 255
193 218 255
193 218 255
193 218 255
193 218 255
193 218 255
193 218 255
193 218 255
193 218 255
193 218 255
193 218 255
193 218 255
193 218 255
193 218 255
193 218 255
193 218 255
193 218 255
193 218 255
193 218 255
193 218 255
193 218 255
193 218 255
193 218 255
194 218 255
193 218 255
194 218 255
194 218 255
194 218 255
194 218 255
194 218 255
194 218 255
194 218 255
194 218 255
194 218 255
194 218 255
194 218 255
194 218 255
194 218 255
194 218 255
194 218 255
194 218 255
194 218 255
194 218 255
194 218 255
194 218 255
194 218 255
194 218 255
194 218 255
194 218 255
194 218 255
194 218 255
194 218 255
194 218 255
194 218 255
194 218 255
194 218 255
194 218 255
194 218 255
194 219 255
194 219 255
194 219 255
194 219 255
194 219 255
194 219 255
194 219 255
194 219 255
194 219 255
194 219 255
194 219 255
194 219 255
194 219 255
194 219 255
94 110 133
66 79 99
68 82 101
72 85 105
63 75 94
69 82 101
69 82 103
65 78 99
63 75 94
67 82 104
67 81 102
71 85 106
67 81 102
65 79 100
65 78 97
70 84 105
68 82 103
65 78 98
67 81 102
62 76 97
66 79 99
61 74 95
70 84 105
62 75 96
63 77 98
64 77 96
61 75 95
71 85 106
65 78 98
72 86 107
69 83 105
69 83 104
70 83 104
69 82 102
69 82 102
67 81 102
64 77 98
66 80 100
70 84 106
64 78 98
64 77 97
66 80 100
65 79 100
67 81 101
68 81 102
67 81 102
69 82 103
66 80 101
61 74 93
66 80 102
70 84 104
67 81 102
64 78 98
63 77 98
64 78 99
63 77 98
65 79 99
68 81 101
65 78 98
60 73 92
67 80 99
64 77 97
67 80 100
64 77 97
59 71 90
64 77 97
70 84 104
67 80 99
69 83 105
70 84 105
62 75 95
69 83 104
64 77 96
69 83 104
63 76 96
69 83 103
69 83 104
63 76 95
67 81 103
70 84 105
67 81 101
70 84 106
67 79 98
66 79 100
61 74 95
66 80 100
70 84 104
60 73 92
65 79 99
70 83 102
64 77 97
59 72 91
64 78 99
72 86 107
69 82 102
65 78 98
68 82 103
75 90 112
70 83 103
63 77 98
68 82 103
69 83 104
62 75 94
65 80 102
66 80 101
68 83 105
58 71 89
68 82 104
67 80 100
69 83 104
66 80 102
69 83 103
67 80 100
66 79 100
67 80 100
62 76 95
69 84 105
61 75 95
64 78 99
62 75 95
70 84 106
62 75 95
63 75 93
66 79 99
67 81 101
66 79 100
62 76 96
64 77 96
68 83 104
103 120 145
194 219 255
194 219 255
194 219 255
194 219 255
194 219 255
194 219 255
194 219 255
194 219 255
194 219 255
194 219 255
194 219 255
194 219 255
194 219 255
194 218 255
194 218 255
194 218 255
194 218 255
194 218 255
194 218 255
194 218 255
194 218 255
194 218 255
194 218 255
194 218 255
194 218 255
194 218 255
194 218 255
194 218 255
194 218 255
194 218 255
194 218 255
194 218 255
194 218 255
194 218 255
194 218 255
194 218 255
194 218 255
194 218 255
194 218 255
194 218 255
194 218 255
194 218 255
194 218 255
194 218 255
194 218 255
194 218 255
194 218 255
194 218 255
194 218 255
193 218 255
193 218 255
193 218 255
193 218 255
193 218 255
193 218 255
193 218 255
193 218 255
193 218 255
193 218 255
193 218 255
193 218 255
193 218 255
193 218 255
193 218 255
193 218 255
193 218 255
193 218 255
193 218 255
193 218 255
193 218 255
193 218 255
193 218 255
193 218 255
193 218 255
193 218 255
193 218 255
193 218 255
193 218 255
193 218 255
193 218 255
193 218 255
193 218 255
193 218 255
193 218 255
193 218 255
193 218 255
193 218 255
193 218 255
193 218 255
193 218 255
193 218 255
193 218 255
193 218 255
193 218 255
193 218 255
193 218 255
193 218 255
193 218 255
193 218 255
193 218 255
193 218 255
193 218 255
193 218 255
193 218 255
193 218 255
193 218 255
193 218 255
193 218 255
193 218 255
193 218 255
193 218 255
193 218 255
193 218 255
193 218 255
193 218 255
193 218 255
193 218 255
193 218 255
193 218 255
193 218 255
193 218 255
193 218 255
193 218 255
193 218 255
193 218 255
193 218 255
193 218 255
193 218 255
193 218 255
193 218 255
193 218 255
193 218 255
193 218 255
193 218 255
193 218 255
193 218 255
193 218 255
193 218 255
193 218 255
193 218 255
193 218 255
193 218 255
193 218 255
193 218 255
193 218 255
193 218 255
193 218 255
193 218 255
193 218 255
193 218 255
193 218 255
193 218 255
193 218 255
193 218 255
193 218 255
193 218 255
193 218 255
193 218 255
193 218 255
193 218 255
193 218 255
193 218 255
193 218 255
193 218 255
193 218 255
193 218 255
193 218 255
193 218 255
193 218 255
193 218 255
193 218 255
193 218 255
193 218 255
193 218 255
193 218 255
193 218 255
193 218 255
193 218 255
193 218 255
194 218 255
194 218 255
194 218 255
194 218 255
194 218 255
194 218 255
194 218 255
194 218 255
194 218 255
194 218 255
194 218 255
194 218 255
194 218 255
194 218 255
194 218 255
194 218 255
194 218 255
194 218 255
194 218 255
194 218 255
194 218 255
194 218 255
194 218 255
194 218 255
194 218 255
194 218 255
194 218 255
194 218 255
194 218 255
194 218 255
194 218 255
194 218 255
194 218 255
194 218 255
194 218 255
194 218 255
194 219 255
194 219 255
194 219 255
194 219 255
194 219 255
194 219 255
194 219 255
194 219 255
194 219 255
194 219 255
194 219 255
194 219 255
194 219 255
194 219 255
194 219 255
194 219 255
194 219 255
194 219 255
194 219 255
194 219 255
194 219 255
194 219 255
194 219 255
194 219 255
194 219 255
194 219 255
194 219 255
194 219 255
194 219 255
194 219 255
194 219 255
194 219 255
194 219 255
194 219 255
194 219 255
194 219 255
194 219 255
194 219 255
194 219 255
194 219 255
194 219 255
194 219 255
194 219 255
194 219 255
194 219 255
194 219 255
194 219 255
194 219 255
194 219 255
194 219 255
194 219 255
192 216 253
161 183 217
142 164 197
127 148 179
65 79 101
61 75 94
64 77 97
62 75 94
65 79 99
64 78 98
64 77 97
65 78 98
63 77 97
65 78 99
70 84 106
66 81 102
61 74 95
66 79 100
69 82 103
66 80 102
64 78 98
63 76 95
63 76 95
62 75 95
67 81 102
72 86 107
62 75 94
66 79 99
69 84 106
63 76 96
70 84 104
64 78 98
63 76 95
64 78 98
64 78 97
64 78 98
59 71 90
63 77 97
62 76 96
65 79 100
68 82 103
67 81 102
60 73 93
70 84 106
67 81 101
67 81 102
64 77 95
61 74 93
60 73 93
72 85 106
68 82 102
64 77 97
61 74 94
63 77 98
64 77 96
64 78 100
63 76 95
68 82 103
69 84 106
65 77 96
63 77 96
68 82 102
68 82 101
67 80 100
67 81 103
66 80 101
68 83 104
62 76 95
61 73 92
63 76 96
65 79 100
66 79 99
65 78 98
64 78 98
69 82 102
64 77 98
64 77 98
66 79 98
69 82 102
67 80 100
69 82 103
65 79 99
64 77 97
63 77 97
69 83 105
61 74 94
66 79 99
65 79 100
63 77 98
68 82 103
64 77 98
66 79 98
65 77 96
62 75 94
69 82 102
65 79 100
57 70 88
66 79 100
67 82 104
65 79 100
69 83 105
64 78 98
67 79 98
63 77 98
70 84 106
67 79 99
64 77 97
65 78 98
66 79 99
63 75 94
63 75 94
66 80 101
65 78 98
61 74 94
63 77 98
67 81 101
62 76 96
66 80 100
68 82 104
65 78 99
61 74 93
61 75 95
62 75 95
65 79 100
65 79 99
65 79 100
60 73 91
65 78 98
69 83 104
67 80 100
62 75 94
63 76 95
60 72 92
72 86 108
122 143 174
141 162 195
167 190 224
185 210 246
194 219 255
194 219 255
194 219 255
194 219 255
194 219 255
194 219 255
194 219 255
194 219 255
194 219 255
194 219 255
194 219 255
194 219 255
194 219 255
194 219 255
194 219 255
194 219 255
194 219 255
194 219 255
194 219 255
194 219 255
194 219 255
194 219 255
194 219 255
194 219 255
194 219 255
194 219 255
194 219 255
194 219 255
194 219 255
194 219 255
194 219 255
194 219 255
194 219 255
194 219 255
194 219 255
194 219 255
194 219 255
194 219 255
194 219 255
194 219 255
194 219 255
194 219 255
194 219 255
194 219 255
194 219 255
194 219 255
194 219 255
194 219 255
194 219 255
194 219 255
194 219 255
194 218 255
194 218 255
194 218 255
194 218 255
194 218 255
194 218 255
194 218 255
194 218 255
194 218 255
194 218 255
194 218 255
194 218 255
194 218 255
194 218 255
194 218 255
194 218 255
194 218 255
194 218 255
194 218 255
194 218 255
194 218 255
194 218 255
194 218 255
194 218 255
194 218 255
194 218 255
194 218 255
194 218 255
194 218 255
194 218 255
194 218 255
194 218 255
194 218 255
194 218 255
194 218 255
194 218 255
193 218 255
193 218 255
193 218 255
193 218 255
193 218 255
193 218 255
193 218 255
193 218 255
193 218 255
193 218 255
193 218 255
193 218 255
193 218 255
193 218 255
193 218 255
193 218 255
193 218 255
193 218 255
193 218 255
193 218 255
193 218 255
193 218 255
193 218 255
193 218 255
193 218 255
193 218 255
193 218 255
193 218 255
193 218 255
193 218 255
193 218 255
193 218 255
193 218 255
193 218 255
193 218 255
193 218 255
193 218 255
193 218 255
193 218 255
193 218 255
193 218 255
193 218 255
193 218 255
193 218 255
193 218 255
193 218 255
193 218 255
193 218 255
193 218 255
194 218 255
193 218 255
194 218 255
194 218 255
194 218 255
194 218 255
194 218 255
194 218 255
194 218 255
194 218 255
194 218 255
194 218 255
194 218 255
194 218 255
194 218 255
194 218 255
194 218 255
194 218 255
194 218 255
194 218 255
194 218 255
194 218 255
194 218 255
194 218 255
194 218 255
194 218 255
194 218 255
194 218 255
194 218 255
194 218 255
194 218 255
194 218 255
194 218 255
194 218 255
194 218 255
194 218 255
194 218 255
194 218 255
194 218 255
194 218 255
194 219 255
194 219 255
194 219 255
194 219 255
194 219 255
194 219 255
194 219 255
194 219 255
194 219 255
194 219 255
194 219 255
194 219 255
194 219 255
194 219 255
194 219 255
194 219 255
194 219 255
194 219 255
194 219 255
194 219 255
194 219 255
194 219 255
194 219 255
194 219 255
194 219 255
194 219 255
194 219 255
194 219 255
194 219 255
194 219 255
194 219 255
194 219 255
194 219 255
194 219 255
194 219 255
194 219 255
194 219 255
194 219 255
194 219 255
194 219 255
194 219 255
194 219 255
194 219 255
194 219 255
194 219 255
194 219 255
194 219 255
194 219 255
194 219 255
194 219 255
194 219 255
194 219 255
194 219 255
194 219 255
194 219 255
194 219 255
194 219 255
195 219 255
195 219 255
195 219 255
195 219 255
195 219 255
195 219 255
195 219 255
195 219 255
195 219 255
195 219 255
195 219 255
195 219 255
195 219 255
195 219 255
195 219 255
195 219 255
195 219 255
195 219 255
195 219 255
195 219 255
195 219 255
195 219 255
195 219 255
193 217 254
176 200 235
161 183 218
139 160 191
102 121 150
83 102 131
60 75 98
64 82 109
59 74 96
59 75 99
59 74 97
56 70 91
63 78 99
60 74 94
56 68 86
61 75 95
62 76 96
59 71 90
57 71 91
63 76 95
66 80 100
64 77 96
63 77 97
62 75 94
63 76 96
70 84 105
63 77 98
66 78 98
64 77 97
61 75 94
61 74 93
61 74 93
64 77 97
61 75 95
63 76 97
67 80 100
67 81 102
63 76 96
63 76 95
57 68 86
61 73 92
65 78 98
61 74 93
64 77 96
66 79 99
68 82 103
63 77 98
67 82 103
66 80 100
65 79 100
62 75 95
63 77 98
69 84 107
68 82 104
64 78 98
63 76 96
64 77 96
69 84 105
67 80 99
63 77 98
65 79 99
63 77 96
63 75 94
64 77 98
65 79 100
68 81 102
57 68 86
61 74 94
67 80 99
67 81 102
66 80 101
62 75 93
69 83 103
61 74 93
66 79 98
66 79 100
69 83 103
69 83 104
66 79 99
67 80 99
65 79 100
66 79 99
62 75 95
62 75 93
60 73 92
63 76 97
66 80 101
67 81 102
65 78 98
66 80 100
65 78 97
64 76 96
64 77 97
62 76 96
63 77 97
64 76 95
70 84 105
59 72 91
64 76 94
69 83 103
62 75 94
62 75 96
64 77 98
65 78 99
60 72 90
66 79 99
63 76 95
62 75 95
57 69 87
63 76 96
66 80 101
66 79 99
61 74 93
64 78 99
70 83 104
64 78 98
62 75 96
63 77 97
64 78 98
64 78 98
59 72 91
65 79 100
63 76 97
63 76 97
61 74 93
62 74 92
66 79 99
67 80 101
57 69 86
66 79 99
65 78 97
67 80 100
59 71 89
65 78 98
56 68 85
59 72 91
57 69 88
63 77 99
57 70 90
56 71 92
61 77 100
64 81 106
61 77 102
62 79 104
83 101 128
106 125 154
132 152 183
155 177 210
180 203 238
195 219 255
195 219 255
195 219 255
195 219 255
195 219 255
195 219 255
195 219 255
195 219 255
195 219 255
195 219 255
195 219 255
195 219 255
195 219 255
195 219 255
195 219 255
195 219 255
195 219 255
195 219 255
195 219 255
195 219 255
195 219 255
195 219 255
195 219 255
195 219 255
194 219 255
195 219 255
194 219 255
194 219 255
194 219 255
194 219 255
194 219 255
194 219 255
194 219 255
194 219 255
194 219 255
194 219 255
194 219 255
194 219 255
194 219 255
194 219 255
194 219 255
194 219 255
194 219 255
194 219 255
194 219 255
194 219 255
194 219 255
194 219 255
194 219 255
194 219 255
194 219 255
194 219 255
194 219 255
194 219 255
194 219 255
194 219 255
194 219 255
194 219 255
194 219 255
194 219 255
194 219 255
194 219 255
194 219 255
194 219 255
194 219 255
194 219 255
194 219 255
194 219 255
194 219 255
194 219 255
194 219 255
194 219 255
194 219 255
194 219 255
194 219 255
194 219 255
194 219 255
194 219 255
194 219 255
194 219 255
194 218 255
194 219 255
194 218 255
194 218 255
194 218 255
194 218 255
194 218 255
194 218 255
194 218 255
194 218 255
194 218 255
194 218 255
194 218 255
194 218 255
194 218 255
194 218 255
194 218 255
194 218 255
194 218 255
194 218 255
194 218 255
194 218 255
194 218 255
194 218 255
194 218 255
194 218 255
194 218 255
194 218 255
194 218 255
194 218 255
194 218 255
194 218 255
194 218 255
194 218 255
194 218 255
194 218 255
194 218 255
194 218 255
194 218 255
193 218 255
193 218 255
193 218 255
193 218 255
193 218 255
193 218 255
193 218 255
194 218 255
194 218 255
194 218 255
194 218 255
194 218 255
194 218 255
194 218 255
194 218 255
194 218 255
194 218 255
194 219 255
194 218 255
194 219 255
194 219 255
194 219 255
194 219 255
194 219 255
194 219 255
194 219 255
194 219 255
194 219 255
194 219 255
194 219 255
194 219 255
194 219 255
194 219 255
194 219 255
194 219 255
194 219 255
194 219 255
194 219 255
194 219 255
194 219 255
194 219 255
194 219 255
194 219 255
194 219 255
194 219 255
194 219 255
194 219 255
194 219 255
194 219 255
194 219 255
194 219 255
194 219 255
194 219 255
194 219 255
194 219 255
194 219 255
194 219 255
194 219 255
194 219 255
194 219 255
194 219 255
194 219 255
194 219 255
194 219 255
194 219 255
194 219 255
194 219 255
194 219 255
194 219 255
194 219 255
194 219 255
194 219 255
194 219 255
194 219 255
194 219 255
194 219 255
194 219 255
194 219 255
194 219 255
194 219 255
195 219 255
195 219 255
195 219 255
195 219 255
195 219 255
195 219 255
195 219 255
195 219 255
195 219 255
195 219 255
195 219 255
195 219 255
195 219 255
195 219 255
195 219 255
195 219 255
195 219 255
195 219 255
195 219 255
195 219 255
195 219 255
195 219 255
195 219 255
195 219 255
195 219 255
195 219 255
195 219 255
195 219 255
195 219 255
195 219 255
195 219 255
195 219 255
195 219 255
195 219 255
195 219 255
195 219 255
195 219 255
195 219 255
195 219 255
195 219 255
195 219 255
195 219 255
195 219 255
195 219 255
195 219 255
195 219 255
195 219 255
194 218 254
163 185 219
155 178 213
127 148 180
100 120 151
69 86 112
63 81 108
69 89 118
68 87 115
65 83 110
69 86 113
64 80 105
62 78 103
68 86 112
64 81 107
59 75 100
64 81 107
62 79 104
59 75 98
60 76 99
61 77 101
54 68 90
59 74 97
61 76 99
53 67 87
58 72 94
58 72 92
51 64 82
59 72 93
59 73 94
59 72 93
61 74 93
61 73 92
63 76 97
56 69 87
53 65 83
59 72 92
65 77 97
61 74 93
59 72 91
63 77 98
60 73 93
62 75 95
60 74 94
62 75 95
63 76 95
62 74 92
61 74 94
62 74 92
65 80 101
69 82 102
64 78 98
63 76 95
60 74 94
62 74 93
64 77 98
61 74 94
68 82 103
57 70 88
60 73 92
61 74 94
61 74 94
64 77 98
68 81 102
63 76 95
55 68 88
57 69 87
62 76 97
58 70 88
62 74 93
66 80 100
67 80 100
55 67 86
64 77 97
57 70 88
65 78 98
62 75 95
62 76 96
63 76 97
58 71 91
66 79 99
59 72 90
56 69 87
62 74 93
65 79 99
66 80 100
65 79 98
59 72 90
65 78 98
59 72 92
58 70 88
66 79 98
62 74 92
63 76 95
64 78 99
62 76 96
61 73 92
61 73 92
64 76 94
61 73 93
64 77 97
60 72 91
61 74 93
65 78 98
62 76 96
57 68 85
63 76 96
69 82 102
64 77 98
65 79 99
66 81 102
65 78 98
62 75 95
57 70 89
66 80 101
62 75 95
61 74 92
56 68 86
63 76 96
56 68 85
64 77 98
58 70 89
58 71 89
62 75 94
66 80 100
59 71 90
65 79 100
58 71 89
55 67 86
58 70 89
57 71 92
58 71 91
60 74 95
62 77 98
56 70 90
55 68 88
57 72 94
57 72 93
58 72 93
58 74 97
67 85 112
58 73 97
56 71 93
61 77 102
63 81 107
63 80 105
62 79 104
64 82 108
67 85 112
62 79 104
66 85 112
69 89 119
66 85 113
67 85 112
69 87 115
98 119 151
110 131 162
152 174 208
175 199 234
190 214 250
195 219 255
195 219 255
195 219 255
195 219 255
195 219 255
195 219 255
195 219 255
195 219 255
195 219 255
195 219 255
195 219 255
195 219 255
195 219 255
195 219 255
195 219 255
195 219 255
195 219 255
195 219 255
195 219 255
195 219 255
195 219 255
195 219 255
195 219 255
195 219 255
195 219 255
195 219 255
195 219 255
195 219 255
195 219 255
195 219 255
195 219 255
195 219 255
195 219 255
195 219 255
195 219 255
195 219 255
195 219 255
195 219 255
195 219 255
195 219 255
195 219 255
195 219 255
195 219 255
195 219 255
195 219 255
195 219 255
195 219 255
195 219 255
194 219 255
194 219 255
194 219 255
194 219 255
194 219 255
194 219 255
194 219 255
194 219 255
194 219 255
194 219 255
194 219 255
194 219 255
194 219 255
194 219 255
194 219 255
194 219 255
194 219 255
194 219 255
194 219 255
194 219 255
194 219 255
194 219 255
194 219 255
194 219 255
194 219 255
194 219 255
194 219 255
194 219 255
194 219 255
194 219 255
194 219 255
194 219 255
194 219 255
194 219 255
194 219 255
194 219 255
194 219 255
194 219 255
194 219 255
194 219 255
194 219 255
194 219 255
194 219 255
194 219 255
194 219 255
194 219 255
194 219 255
194 219 255
194 219 255
194 219 255
194 219 255
194 219 255
194 219 255
194 219 255
194 219 255
194 219 255
194 219 255
194 219 255
194 219 255
194 219 255
194 218 255
194 219 255
194 218 255
194 218 255
194 218 255
194 218 255
194 218 255
194 218 255
194 218 255
194 218 255
194 218 255
194 218 255
194 219 255
194 219 255
194 219 255
194 219 255
194 219 255
194 219 255
194 219 255
194 219 255
194 219 255
194 219 255
194 219 255
194 219 255
194 219 255
194 219 255
194 219 255
194 219 255
194 219 255
194 219 255
194 219 255
194 219 255
194 219 255
194 219 255
194 219 255
194 219 255
194 219 255
194 219 255
194 219 255
194 219 255
194 219 255
194 219 255
194 219 255
194 219 255
194 219 255
194 219 255
194 219 255
194 219 255
194 219 255
194 219 255
194 219 255
194 219 255
194 219 255
194 219 255
194 219 255
194 219 255
195 219 255
195 219 255
195 219 255
195 219 255
195 219 255
195 219 255
195 219 255
195 219 255
195 219 255
195 219 255
195 219 255
195 219 255
195 219 255
195 219 255
195 219 255
195 219 255
195 219 255
195 219 255
195 219 255
195 219 255
195 219 255
195 219 255
195 219 255
195 219 255
195 219 255
195 219 255
195 219 255
195 219 255
195 219 255
195 219 255
195 219 255
195 219 255
195 219 255
195 219 255
195 219 255
195 219 255
195 219 255
195 219 255
195 219 255
195 219 255
195 219 255
195 219 255
195 219 255
195 219 255
195 219 255
195 219 255
195 219 255
195 219 255
195 219 255
195 219 255
195 219 255
195 219 255
195 219 255
195 219 255
195 219 255
195 219 255
195 219 255
195 219 255
195 219 255
195 219 255
195 219 255
195 219 255
195 219 255
195 219 255
195 219 255
195 219 255
195 219 255
196 220 255
196 220 255
196 220 255
196 220 255
192 216 252
172 195 230
148 171 205
118 139 170
99 119 150
71 91 122
67 85 113
68 86 115
66 85 113
68 88 118
67 86 113
66 84 111
66 84 112
64 82 108
64 82 108
65 82 107
68 87 115
63 80 105
66 84 111
68 87 115
63 80 105
64 81 107
65 82 108
61 77 102
67 86 115
62 80 106
63 81 107
65 82 108
65 82 109
60 78 103
61 78 102
62 79 104
64 80 105
58 74 98
61 78 103
62 79 104
61 77 102
58 73 96
63 80 106
58 74 98
58 73 96
60 75 97
58 73 95
63 79 104
60 76 100
57 70 90
57 72 95
56 71 92
60 74 96
58 73 96
61 76 98
60 74 96
57 71 91
59 73 94
62 76 97
59 74 96
57 70 90
60 75 97
56 70 90
59 73 94
57 70 90
56 68 87
59 72 91
46 57 73
57 70 90
63 76 95
60 73 92
63 77 98
63 76 97
60 74 94
58 71 90
64 77 97
57 69 88
62 76 95
55 68 87
55 68 86
62 74 93
56 69 88
61 74 94
55 68 86
59 72 91
59 72 91
58 72 92
59 72 91
58 72 91
54 66 84
59 72 92
60 73 93
59 72 91
53 66 85
57 69 87
59 72 92
59 72 93
60 73 92
61 74 94
61 74 93
62 75 95
65 79 100
60 73 91
63 76 96
56 69 89
59 72 91
57 70 90
60 74 94
54 66 85
58 71 92
62 75 94
57 70 90
61 75 96
63 77 97
57 70 90
55 67 85
63 77 99
53 65 84
59 73 95
52 63 81
56 69 89
56 69 89
56 71 92
59 74 96
58 72 93
57 70 89
61 76 100
56 71 94
64 80 105
64 80 106
60 74 96
54 68 90
63 79 104
56 71 93
57 72 93
56 71 94
62 78 103
62 78 103
58 73 97
63 78 102
61 77 102
62 80 106
63 81 107
63 80 105
63 79 103
64 81 107
65 83 110
64 81 107
61 77 101
65 83 111
65 82 108
64 82 109
61 78 103
69 88 117
68 86 113
68 87 115
70 89 117
64 82 110
66 84 111
65 83 109
65 84 113
68 86 113
65 83 111
67 84 111
67 85 112
66 83 110
69 87 115
69 89 117
73 93 122
104 124 155
117 138 168
145 167 200
165 188 222
194 218 254
196 220 255
196 220 255
196 220 255
196 220 255
196 220 255
195 219 255
195 219 255
195 219 255
195 219 255
195 219 255
195 219 255
195 219 255
195 219 255
195 219 255
195 219 255
195 219 255
195 219 255
195 219 255
195 219 255
195 219 255
195 219 255
195 219 255
195 219 255
195 219 255
195 219 255
195 219 255
195 219 255
195 219 255
195 219 255
195 219 255
195 219 255
195 219 255
195 219 255
195 219 255
195 219 255
195 219 255
195 219 255
195 219 255
195 219 255
195 219 255
195 219 255
195 219 255
195 219 255
195 219 255
195 219 255
195 219 255
195 219 255
195 219 255
195 219 255
195 219 255
195 219 255
195 219 255
195 219 255
195 219 255
195 219 255
195 219 255
195 219 255
195 219 255
195 219 255
195 219 255
195 219 255
195 219 255
195 219 255
195 219 255
195 219 255
195 219 255
195 219 255
195 219 255
195 219 255
195 219 255
195 219 255
194 219 255
194 219 255
194 219 255
194 219 255
194 219 255
194 219 255
194 219 255
194 219 255
194 219 255
194 219 255
194 219 255
194 219 255
194 219 255
194 219 255
194 219 255
194 219 255
194 219 255
194 219 255
194 219 255
194 219 255
194 219 255
194 219 255
194 219 255
194 219 255
194 219 255
194 219 255
194 219 255
194 219 255
194 219 255
194 219 255
194 219 255
194 219 255
194 219 255
194 219 255
194 219 255
194 219 255
194 219 255
194 219 255
194 219 255
194 219 255
194 219 255
194 219 255
194 219 255
194 219 255
194 219 255
194 219 255
194 219 255
194 219 255
194 219 255
194 219 255
194 219 255
194 219 255
194 219 255
194 219 255
194 219 255
194 219 255
194 219 255
194 219 255
194 219 255
194 219 255
194 219 255
194 219 255
194 219 255
195 219 255
195 219 255
195 219 255
195 219 255
195 219 255
195 219 255
195 219 255
195 219 255
195 219 255
195 219 255
195 219 255
195 219 255
195 219 255
195 219 255
195 219 255
195 219 255
195 219 255
195 219 255
195 219 255
195 219 255
195 219 255
195 219 255
195 219 255
195 219 255
195 219 255
195 219 255
195 219 255
195 219 255
195 219 255
195 219 255
195 219 255
195 219 255
195 219 255
195 219 255
195 219 255
195 219 255
195 219 255
195 219 255
195 219 255
195 219 255
195 219 255
195 219 255
195 219 255
195 219 255
195 219 255
195 219 255
195 219 255
195 219 255
195 219 255
195 219 255
195 219 255
195 219 255
195 219 255
195 219 255
195 219 255
195 219 255
195 219 255
195 219 255
195 219 255
195 219 255
195 219 255
195 219 255
195 219 255
195 219 255
195 219 255
195 219 255
195 219 255
196 220 255
196 220 255
196 220 255
196 220 255
196 220 255
196 220 255
196 220 255
196 220 255
196 220 255
196 220 255
196 220 255
196 220 255
196 220 255
196 220 255
196 220 255
196 220 255
196 220 255
196 220 255
196 220 255
196 220 255
196 220 255
196 220 255
196 220 255
196 220 255
196 220 255
175 198 232
156 178 212
134 157 190
89 109 138
75 95 126
71 90 119
68 87 116
68 87 117
66 85 113
68 86 114
66 85 113
67 86 115
66 86 115
72 92 123
64 82 108
66 85 114
66 84 112
70 89 118
66 84 112
66 84 111
67 84 110
69 87 114
66 84 112
68 86 113
65 82 109
69 89 118
68 86 114
71 91 120
67 85 112
65 83 109
62 80 105
65 83 111
66 85 113
67 85 113
62 79 104
63 81 107
66 84 111
63 81 107
63 80 107
66 85 112
64 81 106
71 89 117
65 82 109
63 81 108
66 84 110
63 80 106
60 78 103
67 85 113
64 81 107
67 85 111
62 79 105
62 79 104
65 83 110
61 77 102
62 79 104
64 81 108
64 81 107
64 81 107
60 76 101
61 79 105
62 79 104
67 84 110
60 76 99
61 78 103
59 76 101
62 80 106
60 76 100
61 77 101
63 80 106
56 72 95
65 83 110
61 78 103
61 78 104
58 75 100
59 74 97
60 75 99
62 79 106
64 81 106
65 82 107
58 73 96
58 73 96
61 78 102
59 75 99
59 74 97
59 74 97
60 76 100
61 77 101
62 80 105
63 80 106
59 74 98
63 80 105
60 76 99
63 79 104
63 80 105
66 84 111
64 81 107
63 79 104
59 75 98
61 76 100
67 85 111
61 78 104
64 82 107
62 78 102
60 76 100
61 76 99
62 77 100
63 79 104
59 75 99
63 80 105
61 78 103
64 82 108
62 79 104
58 73 95
60 77 101
62 79 104
60 77 102
65 83 109
59 76 100
58 74 98
60 76 99
63 80 106
65 82 107
58 73 97
65 82 107
62 79 104
67 85 111
63 80 106
65 82 108
63 80 107
62 80 107
61 78 104
63 81 107
65 83 109
65 83 109
62 79 103
66 84 111
67 85 113
67 85 112
64 81 108
69 87 115
67 85 113
67 84 111
63 80 105
63 80 105
63 81 106
68 87 116
65 83 111
65 83 108
67 85 112
64 82 109
61 78 104
69 88 118
67 86 114
64 83 110
68 87 116
70 89 117
69 87 113
68 87 116
69 88 116
66 84 110
68 87 114
67 86 114
66 85 112
66 85 113
71 90 120
66 84 111
67 85 113
67 85 114
70 89 119
68 87 115
67 86 114
71 90 118
68 87 116
69 88 118
89 110 141
127 149 181
149 171 205
169 192 227
195 218 254
196 220 255
196 220 255
196 220 255
196 220 255
196 220 255
196 220 255
196 220 255
196 220 255
196 220 255
196 220 255
196 220 255
196 220 255
196 220 255
196 220 255
196 220 255
196 220 255
196 220 255
196 220 255
196 220 255
196 220 255
196 220 255
196 220 255
196 220 255
195 219 255
195 219 255
195 219 255
195 219 255
195 219 255
195 219 255
195 219 255
195 219 255
195 219 255
195 219 255
195 219 255
195 219 255
195 219 255
195 219 255
195 219 255
195 219 255
195 219 255
195 219 255
195 219 255
195 219 255
195 219 255
195 219 255
195 219 255
195 219 255
195 219 255
195 219 255
195 219 255
195 219 255
195 219 255
195 219 255
195 219 255
195 219 255
195 219 255
195 219 255
195 219 255
195 219 255
195 219 255
195 219 255
195 219 255
195 219 255
195 219 255
195 219 255
195 219 255
195 219 255
195 219 255
195 219 255
195 219 255
195 219 255
195 219 255
195 219 255
195 219 255
195 219 255
195 219 255
195 219 255
195 219 255
195 219 255
195 219 255
195 219 255
195 219 255
195 219 255
195 219 255
195 219 255
195 219 255
195 219 255
195 219 255
195 219 255
195 219 255
195 219 255
194 219 255
194 219 255
194 219 255
194 219 255
194 219 255
194 219 255
194 219 255
194 219 255
194 219 255
194 219 255
194 219 255
194 219 255
194 219 255
194 219 255
194 219 255
194 219 255
194 219 255
194 219 255
194 219 255
195 219 255
195 219 255
195 219 255
195 219 255
195 219 255
195 219 255
195 219 255
195 219 255
195 219 255
195 219 255
195 219 255
195 219 255
195 219 255
195 219 255
195 219 255
195 219 255
195 219 255
195 219 255
195 219 255
195 219 255
195 219 255
195 219 255
195 219 255
195 219 255
195 219 255
195 219 255
195 219 255
195 219 255
195 219 255
195 219 255
195 219 255
195 219 255
195 219 255
195 219 255
195 219 255
195 219 255
195 219 255
195 219 255
195 219 255
195 219 255
195 219 255
195 219 255
195 219 255
195 219 255
195 219 255
195 219 255
195 219 255
195 219 255
195 219 255
195 219 255
195 219 255
195 219 255
195 219 255
195 219 255
195 219 255
195 219 255
195 219 255
195 219 255
195 219 255
195 219 255
195 219 255
195 219 255
195 219 255
195 219 255
195 219 255
196 220 255
196 220 255
196 220 255
196 220 255
196 220 255
196 220 255
196 220 255
196 220 255
196 220 255
196 220 255
196 220 255
196 220 255
196 220 255
196 220 255
196 220 255
196 220 255
196 220 255
196 220 255
196 220 255
196 220 255
196 220 255
196 220 255
196 220 255
196 220 255
196 220 255
196 220 255
196 220 255
196 220 255
196 220 255
196 220 255
196 220 255
196 220 255
196 220 255
196 220 255
196 220 255
196 220 255
196 220 255
196 220 255
196 220 255
196 220 255
196 220 255
185 209 244
163 186 219
128 150 182
108 128 159
74 93 122
73 94 126
70 91 123
70 90 118
70 91 123
72 92 122
67 86 115
68 87 116
70 90 120
70 90 120
70 89 119
70 90 120
67 86 114
70 89 117
66 85 114
66 84 112
69 89 119
70 90 119
62 79 104
68 86 114
67 85 112
70 89 119
67 85 112
68 88 116
66 85 113
70 89 117
68 87 116
65 83 109
68 86 114
66 83 109
69 88 117
69 88 116
66 85 112
65 85 113
70 89 118
67 85 113
64 82 109
67 85 112
66 84 111
69 88 116
65 82 108
64 82 109
65 83 111
62 78 103
66 84 110
66 85 113
66 84 111
67 85 113
68 86 114
67 85 111
65 84 112
64 82 109
68 86 112
66 84 112
65 82 108
65 82 108
67 84 110
64 81 107
64 82 108
64 81 108
63 80 107
67 85 111
63 80 106
61 78 104
65 82 109
61 79 106
64 82 108
62 80 107
64 82 110
64 82 110
63 81 108
64 81 108
68 86 114
62 80 105
64 81 106
63 81 107
66 84 112
65 83 110
61 78 103
59 75 99
65 81 106
66 84 112
67 83 108
68 85 112
66 82 107
64 81 105
62 78 104
67 85 113
67 85 112
65 82 107
64 82 109
61 79 104
62 79 104
63 81 108
67 84 109
63 81 108
65 83 110
64 82 108
67 85 112
64 81 107
64 82 108
64 81 106
63 81 108
64 81 106
67 85 111
62 79 105
65 83 111
66 83 109
65 82 109
65 83 111
65 82 107
63 80 105
67 85 113
67 85 112
64 80 105
66 85 113
66 84 111
69 87 113
65 83 110
67 85 113
64 82 109
65 82 108
62 78 101
65 82 107
65 83 110
64 81 106
65 83 111
67 85 112
66 84 112
61 78 103
65 83 111
65 83 110
68 86 114
66 83 109
66 83 109
67 85 112
66 83 108
64 83 110
69 88 116
65 83 111
67 85 113
64 83 110
67 86 115
65 83 111
61 78 104
68 86 115
68 86 113
68 86 114
67 85 113
68 86 113
67 87 115
68 87 115
65 84 111
69 88 117
65 83 111
65 83 110
69 88 117
68 86 114
65 83 110
67 87 117
67 85 112
67 85 113
67 86 114
70 88 117
68 87 115
70 89 119
70 88 116
67 86 115
66 84 112
70 90 120
70 89 118
69 88 115
70 89 117
69 88 116
68 88 118
70 90 120
66 85 113
71 92 122
70 90 120
76 96 126
101 121 151
128 149 181
158 180 214
188 211 247
196 220 255
196 220 255
196 220 255
196 220 255
196 220 255
196 220 255
196 220 255
196 220 255
196 220 255
196 220 255
196 220 255
196 220 255
196 220 255
196 220 255
196 220 255
196 220 255
196 220 255
196 220 255
196 220 255
196 220 255
196 220 255
196 220 255
196 220 255
196 220 255
196 220 255
196 220 255
196 220 255
196 220 255
196 220 255
196 220 255
196 220 255
196 220 255
196 220 255
196 220 255
196 220 255
196 220 255
196 220 255
196 220 255
196 220 255
196 220 255
195 219 255
195 219 255
195 219 255
195 219 255
195 219 255
195 219 255
195 219 255
195 219 255
195 219 255
195 219 255
195 219 255
195 219 255
195 219 255
195 219 255
195 219 255
195 219 255
195 219 255
195 219 255
195 219 255
195 219 255
195 219 255
195 219 255
195 219 255
195 219 255
195 219 255
195 219 255
195 219 255
195 219 255
195 219 255
195 219 255
195 219 255
195 219 255
195 219 255
195 219 255
195 219 255
195 219 255
195 219 255
195 219 255
195 219 255
195 219 255
195 219 255
195 219 255
195 219 255
195 219 255
195 219 255
195 219 255
195 219 255
195 219 255
195 219 255
195 219 255
195 219 255
195 219 255
195 219 255
195 219 255
195 219 255
195 219 255
195 219 255
195 219 255
195 219 255
195 219 255
195 219 255
195 219 255
195 219 255
195 219 255
195 219 255
195 219 255
195 219 255
195 219 255
195 219 255
195 219 255
195 219 255
195 219 255
195 219 255
195 219 255
195 219 255
195 219 255
195 219 255
195 219 255
195 219 255
195 219 255
195 219 255
195 219 255
195 219 255
195 219 255
195 219 255
195 219 255
195 219 255
195 219 255
195 219 255
195 219 255
195 219 255
195 219 255
195 219 255
195 219 255
195 219 255
195 219 255
195 219 255
195 219 255
195 219 255
195 219 255
195 219 255
195 219 255
195 219 255
195 219 255
195 219 255
195 219 255
195 219 255
195 219 255
195 219 255
195 219 255
195 219 255
196 220 255
196 220 255
196 220 255
196 220 255
196 220 255
196 220 255
196 220 255
196 220 255
196 220 255
196 220 255
196 220 255
196 220 255
196 220 255
196 220 255
196 220 255
196 220 255
196 220 255
196 220 255
196 220 255
196 220 255
196 220 255
196 220 255
196 220 255
196 220 255
196 220 255
196 220 255
196 220 255
196 220 255
196 220 255
196 220 255
196 220 255
196 220 255
196 220 255
196 220 255
196 220 255
196 220 255
196 220 255
196 220 255
196 220 255
196 220 255
196 220 255
196 220 255
196 220 255
196 220 255
196 220 255
196 220 255
196 220 255
196 220 255
196 220 255
196 220 255
197 220 255
197 220 255
197 220 255
197 220 255
197 220 255
197 220 255
194 218 253
176 199 233
137 160 193
116 138 170
83 103 134
73 93 124
71 91 122
70 90 120
70 90 120
69 89 119
68 87 116
69 89 118
68 88 117
72 91 120
69 88 117
69 88 117
70 90 119
68 86 114
67 86 114
69 89 119
72 90 118
69 89 119
68 87 115
66 84 112
68 86 114
68 86 114
67 86 115
69 88 116
68 87 116
68 87 116
69 88 117
69 89 118
64 81 108
67 86 114
70 89 119
68 87 114
67 86 115
66 85 114
64 82 110
67 85 113
69 88 116
70 89 118
64 81 107
68 87 116
68 87 116
70 88 114
67 86 114
66 85 114
67 85 113
66 85 114
68 87 115
68 87 115
65 83 110
63 81 108
66 85 113
67 85 113
65 83 112
68 88 118
67 86 114
67 85 113
65 82 108
66 83 110
65 83 110
67 84 110
66 84 111
66 84 110
67 84 110
69 89 118
66 84 111
68 86 113
65 83 112
68 86 113
61 78 104
66 85 113
66 85 112
65 84 112
67 85 114
65 82 109
65 85 114
65 83 110
68 87 116
68 87 116
64 82 109
68 86 113
67 85 111
67 85 113
66 83 110
64 82 109
65 83 111
65 82 108
67 85 112
64 81 107
65 84 112
63 80 105
63 81 110
67 86 114
65 82 108
69 88 118
68 86 113
67 85 113
68 86 114
67 85 111
67 85 114
64 81 108
65 83 110
64 82 108
68 86 113
70 90 119
63 81 108
66 84 111
67 85 112
64 83 110
65 83 110
65 84 111
65 82 108
69 88 116
66 83 110
66 85 114
63 82 111
69 88 117
65 83 110
67 86 113
67 85 111
67 85 113
67 85 113
66 84 111
63 80 106
66 84 110
67 85 111
66 85 113
66 84 111
65 83 110
67 85 113
66 85 112
65 83 110
66 84 110
68 87 116
65 83 109
62 79 105
64 82 109
68 86 114
65 83 110
69 87 115
66 83 110
67 85 114
68 87 115
64 82 109
67 85 113
67 87 115
69 87 115
65 83 112
69 87 115
67 86 114
68 86 114
68 87 114
66 83 109
65 84 112
68 88 117
68 86 113
67 85 113
68 87 115
66 85 113
68 87 116
66 84 111
66 85 112
69 89 118
64 83 111
71 90 119
69 88 116
66 84 111
70 89 118
71 91 120
67 86 114
67 86 116
68 87 115
67 85 113
70 90 120
70 90 119
69 89 119
69 88 117
68 88 117
71 91 120
71 91 120
70 90 119
71 91 120
73 92 122
72 92 121
72 93 123
70 88 116
70 90 120
72 91 120
69 90 121
70 89 118
80 99 128
114 134 165
141 163 196
161 184 217
196 219 254
197 220 255
197 220 255
197 220 255
197 220 255
197 220 255
197 220 255
196 220 255
196 220 255
196 220 255
196 220 255
196 220 255
196 220 255
196 220 255
196 220 255
196 220 255
196 220 255
196 220 255
196 220 255
196 220 255
196 220 255
196 220 255
196 220 255
196 220 255
196 220 255
196 220 255
196 220 255
196 220 255
196 220 255
196 220 255
196 220 255
196 220 255
196 220 255
196 220 255
196 220 255
196 220 255
196 220 255
196 220 255
196 220 255
196 220 255
196 220 255
196 220 255
196 220 255
196 220 255
196 220 255
196 220 255
196 220 255
196 220 255
196 220 255
196 220 255
196 220 255
196 220 255
196 220 255
196 220 255
196 220 255
196 220 255
196 220 255
196 220 255
195 219 255
195 219 255
195 219 255
195 219 255
195 219 255
195 219 255
195 219 255
195 219 255
195 219 255
195 219 255
195 219 255
195 219 255
195 219 255
195 219 255
195 219 255
195 219 255
195 219 255
195 219 255
195 219 255
195 219 255
195 219 255
195 219 255
195 219 255
195 219 255
195 219 255
195 219 255
195 219 255
195 219 255
195 219 255
195 219 255
195 219 255
195 219 255
195 219 255
195 219 255
195 219 255
195 219 255
195 219 255
195 219 255
195 219 255
195 219 255
195 219 255
195 219 255
195 219 255
195 219 255
195 219 255
195 219 255
195 219 255
195 219 255
195 219 255
195 219 255
195 219 255
195 219 255
195 219 255
195 219 255
195 219 255
195 219 255
195 219 255
195 219 255
195 219 255
195 219 255
195 219 255
195 219 255
195 219 255
195 219 255
195 219 255
195 219 255
195 219 255
195 219 255
195 219 255
195 219 255
195 219 255
196 220 255
196 220 255
196 220 255
196 220 255
196 220 255
196 220 255
196 220 255
196 220 255
196 220 255
196 220 255
196 220 255
196 220 255
196 220 255
196 220 255
196 220 255
196 220 255
196 220 255
196 220 255
196 220 255
196 220 255
196 220 255
196 220 255
196 220 255
196 220 255
196 220 255
196 220 255
196 220 255
196 220 255
196 220 255
196 220 255
196 220 255
196 220 255
196 220 255
196 220 255
196 220 255
196 220 255
196 220 255
196 220 255
196 220 255
196 220 255
196 220 255
196 220 255
196 220 255
196 220 255
196 220 255
196 220 255
196 220 255
196 220 255
196 220 255
196 220 255
196 220 255
197 220 255
197 220 255
197 220 255
197 220 255
197 220 255
197 220 255
197 220 255
197 220 255
197 220 255
197 220 255
197 220 255
197 220 255
197 220 255
197 220 255
197 220 255
197 220 255
197 220 255
197 220 255
197 220 255
192 216 250
149 171 205
125 146 178
101 121 152
75 95 124
71 90 120
70 89 117
71 91 121
73 94 126
69 89 120
71 91 122
71 91 120
70 90 120
70 90 120
71 90 120
70 91 122
72 92 122
70 89 118
69 89 119
69 90 120
69 88 117
72 92 121
71 90 120
71 91 121
69 89 120
69 88 116
71 91 121
68 87 116
71 90 119
69 89 119
69 88 118
70 88 115
67 87 117
68 86 113
66 83 110
70 89 117
71 92 122
69 87 114
69 89 119
71 91 120
69 87 115
66 85 114
68 87 114
68 87 115
68 87 115
68 87 115
69 86 113
70 88 116
70 89 119
67 86 114
69 88 118
70 89 119
70 89 118
69 88 117
68 87 115
68 86 114
67 85 113
68 87 115
69 88 116
66 84 112
70 88 116
69 88 116
68 87 115
67 86 114
69 89 118
68 86 113
69 88 117
69 89 118
65 84 113
69 88 116
69 88 117
68 88 117
68 87 114
66 84 111
69 87 115
68 86 114
68 87 117
66 83 110
68 87 116
69 88 116
68 85 112
66 85 114
67 86 114
66 85 112
71 89 116
64 83 110
68 86 113
66 84 112
67 87 116
66 85 114
66 85 115
68 87 115
65 83 109
66 84 110
66 85 113
62 79 106
67 85 113
68 86 114
66 84 111
67 87 116
68 87 115
71 89 117
70 89 117
65 83 109
67 85 112
64 82 109
65 83 109
70 88 117
64 81 108
69 88 116
68 86 114
66 84 112
68 87 116
68 86 114
66 85 113
68 88 118
67 86 113
69 89 117
65 84 111
66 86 116
66 85 113
68 87 116
66 84 112
67 87 116
67 85 113
67 87 116
66 84 112
68 87 115
66 84 112
64 82 109
68 86 114
65 83 111
65 84 112
67 85 113
69 88 117
69 89 120
68 87 115
68 87 116
67 85 112
68 87 117
67 86 114
64 83 112
66 85 112
68 87 115
67 87 116
69 87 116
70 89 118
71 90 120
69 88 118
68 88 116
67 86 114
69 88 117
68 86 113
67 87 116
70 89 117
64 82 109
64 82 108
70 89 119
71 91 122
68 87 116
64 83 110
70 89 116
70 90 120
71 90 119
68 86 114
67 86 113
68 87 117
71 91 121
70 90 119
70 89 118
71 91 121
70 89 117
64 83 112
69 89 120
70 90 119
69 88 117
71 90 118
68 87 115
68 88 118
71 90 120
69 89 118
66 85 112
69 88 118
67 87 116
70 90 119
70 88 115
69 88 117
68 87 116
67 85 113
71 91 122
71 91 121
69 88 118
70 90 120
70 90 120
72 91 120
70 90 121
72 91 121
71 90 119
72 93 124
71 91 122
71 90 120
75 95 124
104 124 155
127 148 181
148 170 204
187 210 245
197 220 255
197 220 255
197 220 255
197 220 255
197 220 255
197 220 255
197 220 255
197 220 255
197 220 255
197 220 255
197 220 255
197 220 255
197 220 255
197 220 255
197 220 255
197 220 255
197 220 255
197 220 255
197 220 255
196 220 255
196 220 255
196 220 255
196 220 255
196 220 255
196 220 255
196 220 255
196 220 255
196 220 255
196 220 255
196 220 255
196 220 255
196 220 255
196 220 255
196 220 255
196 220 255
196 220 255
196 220 255
196 220 255
196 220 255
196 220 255
196 220 255
196 220 255
196 220 255
196 220 255
196 220 255
196 220 255
196 220 255
196 220 255
196 220 255
196 220 255
196 220 255
196 220 255
196 220 255
196 220 255
196 220 255
196 220 255
196 220 255
196 220 255
196 220 255
196 220 255
196 220 255
196 220 255
196 220 255
196 220 255
196 220 255
196 220 255
196 220 255
196 220 255
196 220 255
196 220 255
196 220 255
195 219 255
195 219 255
195 219 255
195 219 255
195 219 255
195 219 255
195 219 255
195 219 255
195 219 255
195 219 255
195 219 255
195 219 255
195 219 255
195 219 255
195 219 255
195 219 255
195 219 255
195 219 255
195 219 255
195 219 255
195 219 255
195 219 255
195 219 255
195 219 255
195 219 255
195 219 255
195 219 255
195 219 255
195 219 255
195 219 255
195 219 255
195 219 255
195 219 255
196 220 255
196 220 255
196 220 255
196 220 255
196 220 255
196 220 255
196 220 255
196 220 255
196 220 255
196 220 255
196 220 255
196 220 255
196 220 255
196 220 255
196 220 255
196 220 255
196 220 255
196 220 255
196 220 255
196 220 255
196 220 255
196 220 255
196 220 255
196 220 255
196 220 255
196 220 255
196 220 255
196 220 255
196 220 255
196 220 255
196 220 255
196 220 255
196 220 255
196 220 255
196 220 255
196 220 255
196 220 255
196 220 255
196 220 255
196 220 255
196 220 255
196 220 255
196 220 255
196 220 255
196 220 255
196 220 255
196 220 255
196 220 255
196 220 255
196 220 255
196 220 255
196 220 255
196 220 255
196 220 255
197 220 255
197 220 255
197 220 255
197 220 255
197 220 255
197 220 255
197 220 255
197 220 255
197 220 255
197 220 255
197 220 255
197 220 255
197 220 255
197 220 255
197 220 255
197 220 255
197 220 255
197 220 255
197 220 255
197 220 255
197 220 255
197 220 255
197 220 255
197 220 255
197 220 255
197 220 255
197 220 255
197 220 255
197 220 255
197 220 255
197 221 255
197 221 255
186 209 244
158 180 214
128 149 181
96 117 148
72 93 124
73 93 125
72 92 123
72 93 123
70 89 117
72 92 122
73 93 124
70 89 119
72 92 121
73 94 124
70 89 117
70 89 118
70 90 120
69 89 120
71 92 122
70 90 119
72 91 119
72 91 121
71 91 121
73 93 123
70 89 117
69 88 117
71 92 122
72 92 123
70 90 120
71 92 122
70 89 119
68 87 115
69 87 115
72 92 122
69 88 116
69 88 116
70 90 120
68 88 116
69 89 118
67 87 115
69 89 118
69 88 118
70 89 117
71 89 116
68 88 117
66 85 112
67 86 115
68 87 115
70 90 120
67 86 116
69 87 115
66 85 112
67 86 114
71 90 119
69 88 117
65 83 110
66 85 112
69 89 119
70 89 119
67 86 113
69 88 116
68 87 116
69 88 116
71 90 119
69 88 116
69 88 116
69 88 116
69 89 118
68 87 116
69 89 118
70 89 117
69 89 119
70 90 119
68 85 112
67 87 116
68 87 116
69 86 113
68 87 116
69 89 120
67 87 116
69 89 119
68 87 115
69 88 117
68 87 114
72 90 119
68 87 114
65 83 110
69 89 120
69 88 116
68 87 115
67 86 114
67 85 114
67 85 113
68 87 115
67 86 115
69 89 118
65 84 112
70 91 121
67 86 114
68 87 115
68 87 116
69 89 118
70 89 118
68 87 116
67 85 112
67 87 116
69 88 117
68 87 115
70 89 118
67 86 114
66 85 114
69 88 117
67 85 112
70 90 120
65 82 109
67 85 113
67 85 113
68 87 115
68 87 116
66 84 112
65 83 110
65 83 110
68 87 116
69 87 115
66 85 113
67 85 112
67 86 116
67 85 113
69 89 119
67 85 112
70 88 116
68 87 117
71 90 118
67 86 114
68 87 116
68 87 116
72 91 121
67 86 115
68 87 114
69 88 117
66 84 110
68 88 117
69 88 117
68 87 115
68 87 116
67 86 114
67 85 113
70 89 118
68 87 115
69 89 119
69 88 117
71 91 120
69 89 118
70 88 116
68 88 117
67 85 113
67 86 114
71 91 121
69 88 116
68 87 115
69 88 116
70 89 117
65 84 112
67 86 115
70 89 118
71 91 120
69 88 117
69 89 119
69 88 117
67 86 115
71 91 120
67 86 115
70 89 118
72 92 122
70 89 117
70 89 117
67 86 115
66 85 113
68 87 115
70 89 117
71 91 120
70 89 118
70 90 119
71 91 120
67 86 115
70 90 121
69 90 120
68 86 114
71 90 118
72 92 121
70 89 119
72 92 122
70 90 119
69 88 117
69 88 116
70 89 118
71 91 121
69 89 118
71 91 122
72 92 123
71 93 125
73 94 125
72 92 121
74 94 125
69 89 118
72 93 124
72 92 122
73 94 125
69 90 120
72 92 122
91 111 142
114 136 168
144 167 200
172 195 229
197 221 255
197 221 255
197 221 255
197 220 255
197 220 255
197 220 255
197 220 255
197 220 255
197 220 255
197 220 255
197 220 255
197 220 255
197 220 255
197 220 255
197 220 255
197 220 255
197 220 255
197 220 255
197 220 255
197 220 255
197 220 255
197 220 255
197 220 255
197 220 255
197 220 255
197 220 255
197 220 255
197 220 255
197 220 255
197 220 255
197 220 255
197 220 255
196 220 255
196 220 255
196 220 255
196 220 255
196 220 255
196 220 255
196 220 255
196 220 255
196 220 255
196 220 255
196 220 255
196 220 255
196 220 255
196 220 255
196 220 255
196 220 255
196 220 255
196 220 255
196 220 255
196 220 255
196 220 255
196 220 255
196 220 255
196 220 255
196 220 255
196 220 255
196 220 255
196 220 255
196 220 255
196 220 255
196 220 255
196 220 255
196 220 255
196 220 255
196 220 255
196 220 255
196 220 255
196 220 255
196 220 255
196 220 255
196 220 255
196 220 255
196 220 255
196 220 255
196 220 255
196 220 255
196 220 255
196 220 255
196 220 255
196 220 255
196 220 255
196 220 255
196 220 255
196 220 255
196 220 255
195 219 255
195 219 255
195 219 255
195 219 255
195 219 255
195 219 255
196 220 255
196 220 255
196 220 255
196 220 255
196 220 255
196 220 255
196 220 255
196 220 255
196 220 255
196 220 255
196 220 255
196 220 255
196 220 255
196 220 255
196 220 255
196 220 255
196 220 255
196 220 255
196 220 255
196 220 255
196 220 255
196 220 255
196 220 255
196 220 255
196 220 255
196 220 255
196 220 255
196 220 255
196 220 255
196 220 255
196 220 255
196 220 255
196 220 255
196 220 255
196 220 255
196 220 255
196 220 255
196 220 255
196 220 255
196 220 255
196 220 255
196 220 255
196 220 255
196 220 255
196 220 255
196 220 255
197 220 255
197 220 255
197 220 255
197 220 255
197 220 255
197 220 255
197 220 255
197 220 255
197 220 255
197 220 255
197 220 255
197 220 255
197 220 255
197 220 255
197 220 255
197 220 255
197 220 255
197 220 255
197 220 255
197 220 255
197 220 255
197 220 255
197 220 255
197 220 255
197 220 255
197 220 255
197 220 255
197 221 255
197 220 255
197 221 255
197 221 255
197 221 255
197 221 255
197 221 255
197 221 255
197 221 255
197 221 255
197 221 255
197 221 255
197 221 255
197 221 255
198 221 255
198 221 255
171 194 228
150 172 206
113 134 165
77 96 126
71 92 124
71 91 122
71 91 122
70 91 122
72 93 124
72 93 124
72 92 121
74 94 123
69 88 117
71 92 122
72 92 124
72 92 122
71 90 118
71 91 122
73 94 125
69 88 117
68 88 118
70 89 119
70 89 119
70 90 120
69 89 118
71 91 120
71 91 120
68 87 116
69 88 117
68 88 117
71 90 120
71 91 121
68 87 114
71 91 121
71 91 120
69 90 121
72 93 124
69 88 117
70 91 122
70 90 120
69 88 116
69 89 120
71 90 119
69 90 120
72 92 122
71 91 120
71 91 122
67 87 116
70 89 119
71 89 118
70 90 120
70 89 117
69 88 118
71 90 120
69 88 117
70 90 120
70 89 118
67 86 114
70 89 119
70 90 120
71 92 122
65 83 111
70 89 117
69 88 117
71 90 119
72 90 119
68 88 117
71 90 118
69 88 117
69 89 117
70 89 118
67 87 116
65 83 111
69 87 114
67 86 113
69 88 117
69 88 116
70 90 120
67 86 115
66 84 111
69 88 117
70 89 118
69 89 119
68 87 115
70 89 118
68 88 116
71 91 120
69 87 114
71 90 120
68 87 116
69 88 116
69 87 114
68 86 114
68 87 115
69 88 116
67 85 113
73 93 123
68 88 118
70 89 118
71 91 121
68 86 115
69 88 118
69 87 115
67 87 116
65 83 110
70 90 119
71 91 120
69 88 117
68 87 116
68 89 120
69 88 118
70 90 120
68 87 116
68 87 115
70 89 117
66 84 111
69 89 119
69 89 118
69 89 119
69 88 118
70 90 120
68 87 116
69 90 120
69 89 119
70 90 120
62 80 106
68 87 115
69 89 120
71 91 121
69 88 116
68 87 115
67 86 114
69 87 115
71 90 118
70 89 118
68 86 115
69 89 118
69 88 117
70 90 119
71 90 120
68 87 116
69 87 115
68 85 112
69 89 118
71 91 121
68 87 115
65 83 111
71 91 120
69 88 116
67 86 114
66 84 112
69 88 118
66 84 111
67 86 113
69 88 116
67 87 116
68 88 119
68 87 115
70 90 120
70 88 117
69 88 116
68 87 115
68 87 115
71 91 121
71 90 118
71 90 120
66 85 113
66 85 112
70 90 120
67 86 114
72 91 121
68 87 116
66 86 115
72 91 120
70 90 119
71 90 119
69 90 120
73 92 121
70 90 120
68 87 115
71 91 121
71 90 119
69 88 117
71 90 119
70 91 123
72 92 123
74 94 124
70 89 117
71 90 119
74 94 124
70 90 120
71 91 120
69 88 118
69 89 120
72 92 123
72 92 122
70 89 117
70 91 123
71 91 122
71 91 122
70 91 121
71 90 120
72 92 122
73 94 125
71 91 122
72 92 123
73 93 124
73 93 124
71 90 118
70 90 120
73 93 124
72 91 120
74 94 125
71 91 121
73 93 122
71 92 123
74 94 124
75 95 125
90 111 142
113 134 167
143 165 198
174 197 232
196 219 254
197 221 255
197 221 255
197 221 255
197 221 255
197 221 255
197 221 255
197 221 255
197 221 255
197 221 255
197 221 255
197 221 255
197 221 255
197 221 255
197 220 255
197 220 255
197 220 255
197 220 255
197 220 255
197 220 255
197 220 255
197 220 255
197 220 255
197 220 255
197 220 255
197 220 255
197 220 255
197 220 255
197 220 255
197 220 255
197 220 255
197 220 255
197 220 255
197 220 255
197 220 255
197 220 255
197 220 255
197 220 255
197 220 255
197 220 255
197 220 255
197 220 255
197 220 255
197 220 255
196 220 255
196 220 255
196 220 255
196 220 255
196 220 255
196 220 255
196 220 255
196 220 255
196 220 255
196 220 255
196 220 255
196 220 255
196 220 255
196 220 255
196 220 255
196 220 255
196 220 255
196 220 255
196 220 255
196 220 255
196 220 255
196 220 255
196 220 255
196 220 255
196 220 255
196 220 255
196 220 255
196 220 255
196 220 255
196 220 255
196 220 255
196 220 255
196 220 255
196 220 255
196 220 255
196 220 255
196 220 255
196 220 255
196 220 255
196 220 255
196 220 255
196 220 255
196 220 255
196 220 255
196 220 255
196 220 255
196 220 255
196 220 255
196 220 255
196 220 255
196 220 255
196 220 255
196 220 255
196 220 255
196 220 255
196 220 255
196 220 255
196 220 255
196 220 255
196 220 255
196 220 255
196 220 255
196 220 255
196 220 255
196 220 255
196 220 255
196 220 255
196 220 255
196 220 255
196 220 255
196 220 255
196 220 255
196 220 255
196 220 255
196 220 255
197 220 255
197 220 255
197 220 255
197 220 255
197 220 255
197 220 255
197 220 255
197 220 255
197 220 255
197 220 255
197 220 255
197 220 255
197 220 255
197 220 255
197 220 255
197 220 255
197 220 255
197 220 255
197 220 255
197 220 255
197 220 255
197 220 255
197 220 255
197 220 255
197 220 255
197 220 255
197 220 255
197 220 255
197 220 255
197 221 255
197 221 255
197 221 255
197 221 255
197 221 255
197 221 255
197 221 255
197 221 255
197 221 255
197 221 255
197 221 255
197 221 255
197 221 255
197 221 255
198 221 255
198 221 255
198 221 255
198 221 255
198 221 255
198 221 255
198 221 255
198 221 255
198 221 255
198 221 255
198 221 255
195 218 253
163 185 218
135 157 190
111 131 161
77 98 129
71 91 120
70 90 120
72 93 124
73 93 124
73 93 123
73 92 122
72 92 122
71 90 119
72 92 123
72 93 125
72 92 122
70 90 121
71 91 121
72 91 121
71 92 123
72 92 122
73 94 125
70 90 120
74 94 124
75 95 125
70 90 119
69 89 119
69 88 117
73 94 126
72 92 122
72 92 121
70 90 120
71 89 117
74 95 126
71 92 122
70 90 120
70 90 119
72 92 122
69 89 119
69 90 121
70 91 123
70 90 120
72 93 123
70 90 119
70 90 120
70 90 120
70 91 121
71 89 118
68 88 117
69 89 119
71 90 118
69 89 119
71 90 119
67 85 112
68 88 118
66 86 115
69 89 118
71 92 122
68 89 119
69 89 120
69 88 117
71 91 122
70 89 117
67 87 117
69 88 117
73 93 122
69 87 116
72 91 120
70 89 118
70 90 120
67 86 114
69 88 117
68 88 117
70 90 120
71 92 122
70 90 120
69 89 117
71 91 121
67 85 113
70 89 119
70 89 119
68 87 115
70 89 117
69 88 117
67 87 117
69 88 117
66 85 112
68 87 115
70 90 120
69 89 118
69 89 120
68 88 116
69 88 116
68 87 114
70 89 118
67 86 115
70 90 119
70 90 120
67 87 117
70 90 120
67 85 112
67 85 113
72 91 120
69 87 114
67 86 113
71 90 119
70 89 119
70 90 120
69 87 115
68 86 114
69 87 115
68 86 114
70 89 119
69 88 117
70 89 118
69 87 115
70 91 121
70 89 118
70 89 119
70 90 119
69 88 116
69 88 117
72 91 119
69 89 118
72 93 123
72 92 123
70 89 118
68 87 115
67 86 114
70 90 120
69 89 118
70 90 119
67 86 115
71 91 122
69 87 115
71 90 118
68 87 116
68 87 115
72 91 121
70 89 117
70 90 120
72 91 120
68 88 118
68 87 116
67 86 113
68 88 117
72 93 124
72 92 122
68 87 116
70 90 121
72 92 123
71 90 120
73 92 121
70 90 120
71 92 123
69 88 117
70 90 119
69 89 120
70 90 120
69 89 117
69 88 118
71 91 120
68 86 113
66 85 113
71 91 120
70 91 123
72 91 120
70 89 118
69 88 117
69 88 116
69 88 118
69 89 118
69 89 118
67 86 114
69 89 119
69 88 117
73 92 121
69 88 116
71 91 122
69 89 118
72 92 122
71 92 122
70 90 119
71 92 122
69 88 117
72 92 121
71 91 121
71 90 120
69 89 120
69 89 117
71 90 120
70 88 115
70 90 120
71 90 119
68 87 115
70 89 118
70 89 118
70 89 118
70 90 120
68 88 118
67 86 116
69 88 118
68 88 118
74 94 123
72 93 124
73 93 122
70 90 121
72 93 123
69 88 117
69 89 119
71 91 122
70 91 121
73 93 124
72 92 122
73 93 124
70 91 122
71 91 122
72 92 123
71 91 121
73 93 123
72 92 121
72 92 122
73 93 124
72 93 123
72 93 124
73 93 123
73 94 125
77 96 126
116 137 168
134 156 188
165 188 222
197 220 254
198 221 255
198 221 255
198 221 255
198 221 255
198 221 255
198 221 255
198 221 255
198 221 255
198 221 255
198 221 255
198 221 255
197 221 255
197 221 255
197 221 255
197 221 255
197 221 255
197 221 255
197 221 255
197 221 255
197 221 255
197 221 255
197 221 255
197 221 255
197 221 255
197 220 255
197 220 255
197 220 255
197 220 255
197 220 255
197 220 255
197 220 255
197 220 255
197 220 255
197 220 255
197 220 255
197 220 255
197 220 255
197 220 255
197 220 255
197 220 255
197 220 255
197 220 255
197 220 255
197 220 255
197 220 255
197 220 255
197 220 255
197 220 255
197 220 255
197 220 255
197 220 255
197 220 255
197 220 255
197 220 255
196 220 255
196 220 255
196 220 255
196 220 255
196 220 255
196 220 255
196 220 255
196 220 255
196 220 255
196 220 255
196 220 255
196 220 255
196 220 255
196 220 255
196 220 255
196 220 255
196 220 255
196 220 255
196 220 255
196 220 255
196 220 255
196 220 255
196 220 255
196 220 255
196 220 255
196 220 255
196 220 255
196 220 255
196 220 255
196 220 255
196 220 255
196 220 255
196 220 255
196 220 255
196 220 255
196 220 255
196 220 255
196 220 255
196 220 255
196 220 255
196 220 255
196 220 255
196 220 255
196 220 255
196 220 255
197 220 255
197 220 255
197 220 255
197 220 255
197 220 255
197 220 255
197 220 255
197 220 255
197 220 255
197 220 255
197 220 255
197 220 255
197 220 255
197 220 255
197 220 255
197 220 255
197 220 255
197 220 255
197 220 255
197 220 255
197 220 255
197 220 255
197 220 255
197 220 255
197 220 255
197 220 255
197 220 255
197 220 255
197 220 255
197 220 255
197 220 255
197 221 255
197 221 255
197 221 255
197 221 255
197 221 255
197 221 255
197 221 255
197 221 255
197 221 255
197 221 255
197 221 255
197 221 255
197 221 255
198 221 255
198 221 255
198 221 255
198 221 255
198 221 255
198 221 255
198 221 255
198 221 255
198 221 255
198 221 255
198 221 255
198 221 255
198 221 255
198 221 255
198 221 255
198 221 255
198 221 255
198 221 255
198 221 255
198 221 255
198 221 255
197 220 254
169 191 225
138 160 192
98 119 150
78 99 129
73 93 124
73 94 125
73 94 126
73 93 124
73 93 125
71 91 122
75 94 123
71 91 121
73 94 125
74 94 125
71 91 122
71 93 126
73 93 124
71 91 121
71 91 122
72 91 120
72 93 123
73 94 125
72 93 125
69 89 119
70 90 121
73 93 122
71 90 119
70 91 121
72 92 120
72 92 122
73 93 123
73 93 123
72 91 120
71 91 121
71 91 120
68 86 114
69 88 117
73 93 124
69 89 118
69 89 120
73 93 124
72 92 122
73 93 123
69 89 119
73 94 124
69 88 117
69 88 116
70 89 119
69 89 119
71 92 122
70 90 120
70 89 117
72 91 120
70 90 119
72 92 122
71 91 120
71 90 119
68 88 116
72 92 121
70 89 119
70 89 118
71 90 119
71 91 120
71 90 120
69 88 117
68 87 115
71 90 119
71 91 121
68 87 116
68 87 116
69 88 117
69 89 119
71 90 119
70 90 119
73 92 122
69 89 119
70 89 118
70 89 119
68 88 116
69 89 119
70 89 118
70 89 119
69 88 117
70 89 119
69 88 117
70 90 119
70 89 119
68 88 118
70 88 116
68 88 116
69 89 118
68 87 115
70 89 118
69 88 115
70 90 121
69 89 119
71 91 120
70 89 118
68 88 117
71 89 118
69 88 117
68 88 117
69 90 121
68 86 114
69 88 117
70 89 117
71 91 120
70 90 119
69 88 117
70 90 120
72 91 120
71 91 122
68 86 114
70 90 120
67 86 114
70 90 120
72 92 121
68 88 117
70 90 119
68 87 116
69 88 118
70 90 119
65 83 110
67 85 113
71 90 120
68 87 116
67 87 117
70 90 120
70 90 120
70 90 119
69 89 118
72 93 124
71 90 120
69 88 117
69 88 118
67 87 118
69 89 119
69 88 117
69 88 117
70 89 118
68 87 116
69 89 119
70 89 118
68 89 119
70 90 120
71 91 122
70 88 115
69 89 120
69 87 115
69 89 118
69 89 119
68 87 117
66 86 115
70 90 119
69 88 116
71 92 122
69 88 117
71 91 122
68 88 117
69 88 118
68 87 117
69 90 120
71 92 123
71 90 118
70 89 117
70 90 121
72 91 120
71 90 120
71 90 118
69 88 117
69 88 117
70 90 120
72 91 120
70 90 119
71 91 120
71 91 121
71 91 121
70 90 120
70 90 120
72 91 121
70 90 119
70 88 117
71 91 121
70 89 117
70 90 119
71 90 119
71 91 122
70 90 120
67 87 115
69 89 118
73 93 122
71 90 120
71 91 120
69 89 120
71 90 120
73 93 123
72 92 122
71 91 122
73 93 123
71 91 120
70 90 120
70 89 119
71 91 122
70 90 120
72 92 123
71 91 120
71 90 119
72 92 122
72 91 121
71 92 122
72 92 123
71 91 119
72 92 122
73 93 123
70 89 118
72 92 121
70 89 118
71 91 121
71 91 121
71 91 121
71 91 120
70 90 120
70 91 123
72 91 120
71 92 123
73 93 125
72 92 123
74 94 124
74 94 124
72 92 122
71 92 122
73 93 125
71 91 122
73 93 122
78 98 128
108 129 160
142 163 196
170 192 225
193 216 250
198 221 255
198 221 255
198 221 255
198 221 255
198 221 255
198 221 255
198 221 255
198 221 255
198 221 255
198 221 255
198 221 255
198 221 255
198 221 255
198 221 255
198 221 255
198 221 255
198 221 255
198 221 255
198 221 255
198 221 255
198 221 255
197 221 255
197 221 255
197 221 255
197 221 255
197 221 255
197 221 255
197 221 255
197 221 255
197 221 255
197 221 255
197 221 255
197 221 255
197 221 255
197 220 255
197 220 255
197 220 255
197 220 255
197 220 255
197 220 255
197 220 255
197 220 255
197 220 255
197 220 255
197 220 255
197 220 255
197 220 255
197 220 255
197 220 255
197 220 255
197 220 255
197 220 255
197 220 255
197 220 255
197 220 255
197 220 255
197 220 255
197 220 255
197 220 255
197 220 255
197 220 255
197 220 255
197 220 255
197 220 255
197 220 255
196 220 255
196 220 255
196 220 255
196 220 255
196 220 255
196 220 255
196 220 255
196 220 255
196 220 255
196 220 255
196 220 255
196 220 255
196 220 255
196 220 255
196 220 255
197 220 255
197 220 255
197 220 255
197 220 255
197 220 255
197 220 255
197 220 255
197 220 255
197 220 255
197 220 255
197 220 255
197 220 255
197 220 255
197 220 255
197 220 255
197 220 255
197 220 255
197 220 255
197 220 255
197 220 255
197 220 255
197 220 255
197 220 255
197 220 255
197 220 255
197 220 255
197 220 255
197 220 255
197 220 255
197 220 255
197 220 255
197 220 255
197 221 255
197 221 255
197 221 255
197 221 255
197 221 255
197 221 255
197 221 255
197 221 255
197 221 255
197 221 255
197 221 255
197 221 255
197 221 255
198 221 255
198 221 255
198 221 255
198 221 255
198 221 255
198 221 255
198 221 255
198 221 255
198 221 255
198 221 255
198 221 255
198 221 255
198 221 255
198 221 255
198 221 255
198 221 255
198 221 255
198 221 255
198 221 255
198 221 255
198 221 255
198 221 255
198 221 255
198 221 255
198 221 255
198 221 255
198 221 255
198 221 255
198 221 255
198 221 255
198 221 255
196 219 253
185 208 241
130 152 184
111 132 164
76 97 129
72 93 125
73 94 124
73 93 124
71 92 124
73 94 125
71 91 122
74 93 123
75 95 126
72 92 123
70 90 120
73 94 125
72 93 124
72 93 123
72 93 124
73 93 123
73 93 122
70 91 122
72 93 124
71 91 122
73 93 124
72 92 122
70 91 122
71 92 122
70 90 121
72 92 123
71 92 123
71 91 120
70 90 118
73 93 123
70 90 119
69 88 118
74 93 123
74 94 125
71 92 123
72 91 120
71 90 120
71 91 121
73 94 124
71 90 119
70 90 121
72 91 120
71 91 121
70 90 120
70 90 121
70 90 120
69 89 120
72 92 122
70 90 121
72 92 122
70 90 119
74 93 122
70 90 119
71 91 120
71 92 123
69 89 119
72 92 122
68 87 117
71 91 121
69 89 118
68 88 117
70 89 117
70 90 120
68 86 114
71 91 121
72 91 120
71 91 120
70 91 121
70 89 117
70 90 120
68 88 117
72 92 122
69 89 119
71 91 121
70 90 119
70 89 117
71 91 121
72 91 120
69 89 118
67 87 116
70 89 119
70 90 120
71 90 120
72 91 120
72 92 121
71 91 120
72 90 119
71 91 121
70 88 116
72 91 120
70 90 119
70 90 121
67 86 115
68 87 116
69 89 118
69 89 118
70 89 118
69 89 120
69 88 118
71 90 119
69 88 116
69 90 120
72 90 118
69 89 118
70 89 118
68 86 114
70 90 119
68 88 117
70 91 122
72 93 124
68 87 116
69 88 116
68 88 117
69 89 117
70 90 120
71 90 120
71 90 120
70 89 117
70 89 118
70 89 119
72 91 120
68 88 117
70 89 118
70 89 118
69 88 116
70 90 119
69 89 118
70 89 117
67 87 116
72 92 121
69 89 119
71 92 124
69 89 117
70 90 120
68 88 118
71 90 120
72 92 120
70 88 116
69 90 120
68 88 117
71 90 120
70 89 117
67 87 116
70 91 121
71 91 121
72 91 121
71 92 123
67 86 115
71 90 119
71 91 122
70 90 120
73 92 121
69 89 120
68 87 115
68 86 113
69 89 119
71 90 119
68 87 116
70 90 120
71 91 121
71 92 123
70 89 119
70 89 118
71 91 121
69 87 114
74 93 122
71 89 117
72 92 122
70 90 120
74 93 123
69 89 119
72 93 123
69 88 118
70 89 118
72 93 124
71 91 121
70 90 119
71 90 119
70 90 120
71 92 122
73 92 120
71 91 121
71 91 121
69 89 120
68 87 116
67 86 114
71 92 123
71 91 122
69 88 117
71 91 120
72 91 121
72 91 121
69 90 121
69 89 118
74 94 124
72 92 121
69 88 117
70 89 117
67 86 115
71 91 121
70 90 121
72 92 121
73 93 124
69 89 118
68 89 120
71 92 123
73 92 120
68 87 115
72 92 121
73 94 124
72 92 122
71 90 119
71 92 123
71 91 120
69 88 117
70 89 119
71 92 122
70 91 122
71 92 124
72 92 121
73 94 125
71 91 121
71 91 121
72 92 122
73 94 124
72 92 123
72 93 125
72 92 122
72 92 121
72 92 122
73 93 122
73 93 123
71 91 121
72 93 123
72 92 123
73 93 124
71 92 125
74 94 125
73 94 124
77 97 128
107 129 161
142 164 197
171 193 227
196 219 253
198 221 255
198 221 255
198 221 255
198 221 255
198 221 255
198 221 255
198 221 255
198 221 255
198 221 255
198 221 255
198 221 255
198 221 255
198 221 255
198 221 255
198 221 255
198 221 255
198 221 255
198 221 255
198 221 255
198 221 255
198 221 255
198 221 255
198 221 255
198 221 255
198 221 255
198 221 255
198 221 255
198 221 255
198 221 255
198 221 255
198 221 255
197 221 255
197 221 255
197 221 255
197 221 255
197 221 255
197 221 255
197 221 255
197 221 255
197 221 255
197 221 255
197 221 255
197 221 255
197 221 255
197 220 255
197 220 255
197 220 255
197 220 255
197 220 255
197 220 255
197 220 255
197 220 255
197 220 255
197 220 255
197 220 255
197 220 255
197 220 255
197 220 255
197 220 255
197 220 255
197 220 255
197 220 255
197 220 255
197 220 255
197 220 255
197 220 255
197 220 255
197 220 255
197 220 255
197 220 255
197 220 255
197 220 255
197 220 255
197 220 255
197 220 255
197 220 255
197 220 255
197 220 255
197 220 255
197 220 255
197 220 255
197 220 255
197 220 255
197 220 255
197 220 255
197 220 255
197 220 255
197 220 255
197 220 255
197 220 255
197 220 255
197 220 255
197 220 255
197 220 255
197 221 255
197 221 255
197 221 255
197 221 255
197 221 255
197 221 255
197 221 255
197 221 255
197 221 255
197 221 255
197 221 255
197 221 255
197 221 255
197 221 255
198 221 255
198 221 255
198 221 255
198 221 255
198 221 255
198 221 255
198 221 255
198 221 255
198 221 255
198 221 255
198 221 255
198 221 255
198 221 255
198 221 255
198 221 255
198 221 255
198 221 255
198 221 255
198 221 255
198 221 255
198 221 255
198 221 255
198 221 255
198 221 255
198 221 255
198 221 255
198 221 255
198 221 255
198 221 255
198 221 255
198 221 255
198 221 255
198 221 255
198 221 255
198 221 255
198 221 255
198 221 255
199 221 255
199 221 255
199 221 255
197 220 254
176 198 231
148 170 203
103 125 157
85 106 137
73 93 123
75 94 124
70 90 120
73 93 123
73 95 127
73 93 124
72 92 123
72 91 121
73 94 126
72 92 122
71 92 123
70 91 122
72 92 122
73 94 125
72 94 126
72 92 122
74 93 123
73 93 123
74 95 125
71 91 121
72 92 122
74 94 124
72 92 123
72 92 121
73 93 123
73 94 125
69 90 120
72 92 122
73 95 126
73 92 122
71 91 121
71 90 120
71 90 120
71 91 121
68 87 116
72 91 120
71 90 120
72 93 124
69 89 119
68 87 114
73 94 125
71 91 121
73 93 122
72 92 122
71 91 122
72 92 122
72 93 123
70 89 119
72 92 121
70 90 120
74 94 125
68 86 114
72 92 122
71 90 120
71 91 121
72 91 120
72 91 121
72 91 121
69 89 118
71 91 121
68 87 116
70 90 120
71 91 120
71 91 122
70 91 122
71 91 121
72 91 120
72 93 123
69 89 118
68 87 116
71 91 121
72 91 120
69 89 118
68 87 114
69 89 119
73 93 123
71 91 121
71 91 120
66 85 114
70 89 118
69 89 120
69 89 118
69 89 119
70 91 121
70 91 121
70 90 120
71 90 120
69 89 120
73 93 122
69 89 118
70 89 119
71 91 121
70 90 120
71 89 117
72 92 121
69 88 116
70 89 118
70 89 118
70 89 118
70 89 119
71 91 121
71 91 121
71 92 122
69 88 118
70 89 119
70 89 119
70 90 121
73 93 124
70 89 117
71 91 121
70 91 121
72 92 122
70 90 119
69 88 117
68 88 118
72 92 121
70 90 120
71 91 121
68 87 116
68 88 117
71 91 121
71 90 119
69 90 120
67 85 113
70 90 119
69 88 118
69 88 116
72 92 122
72 91 120
69 87 115
70 89 119
69 88 117
70 89 119
72 93 124
73 94 126
71 90 118
72 91 120
72 91 121
70 91 121
70 90 120
71 91 121
69 89 119
68 87 116
72 92 121
71 91 121
69 89 119
71 91 122
69 89 118
69 88 117
67 86 115
69 88 117
69 88 117
70 90 120
71 91 120
69 90 120
70 90 120
74 94 124
70 90 120
67 86 114
70 89 118
70 91 122
69 90 120
71 91 120
72 92 121
71 91 121
71 91 121
72 91 120
72 92 123
70 90 120
71 91 121
70 91 122
71 92 122
69 89 118
72 92 122
69 90 120
71 90 119
70 90 120
70 91 121
71 90 120
71 90 119
71 90 120
71 92 123
74 94 124
72 92 121
71 91 121
71 90 119
70 89 118
72 92 124
71 91 121
71 91 120
70 90 120
72 92 120
71 91 120
72 92 121
70 90 119
70 90 120
71 91 122
73 93 122
70 90 121
70 90 120
72 92 123
71 92 123
71 92 122
71 90 119
70 90 119
74 94 124
72 92 123
73 93 125
72 91 121
72 93 124
71 90 119
73 93 124
71 91 120
70 90 119
70 90 119
69 89 118
68 89 120
70 90 119
71 90 120
72 93 126
74 94 125
71 91 121
72 92 122
73 94 125
70 90 120
73 93 123
71 92 122
73 93 123
74 94 124
73 94 126
71 91 121
72 93 125
74 93 122
70 90 120
73 93 124
71 92 124
74 95 126
74 94 126
72 93 124
72 92 123
72 93 124
72 92 122
75 95 125
74 93 122
72 93 124
74 94 125
77 97 128
116 137 168
145 167 200
185 207 241
197 220 254
199 221 255
199 221 255
199 221 255
198 221 255
198 221 255
198 221 255
198 221 255
198 221 255
198 221 255
198 221 255
198 221 255
198 221 255
198 221 255
198 221 255
198 221 255
198 221 255
198 221 255
198 221 255
198 221 255
198 221 255
198 221 255
198 221 255
198 221 255
198 221 255
198 221 255
198 221 255
198 221 255
198 221 255
198 221 255
198 221 255
198 221 255
198 221 255
198 221 255
198 221 255
198 221 255
198 221 255
198 221 255
198 221 255
198 221 255
198 221 255
197 221 255
197 221 255
197 221 255
197 221 255
197 221 255
197 221 255
197 221 255
197 221 255
197 221 255
197 221 255
197 221 255
197 221 255
197 221 255
197 221 255
197 220 255
197 220 255
197 220 255
197 220 255
197 220 255
197 220 255
197 220 255
197 220 255
197 220 255
197 220 255
197 220 255
197 220 255
197 220 255
197 220 255
197 220 255
197 220 255
197 220 255
197 220 255
197 220 255
197 220 255
197 220 255
197 220 255
197 220 255
197 221 255
197 221 255
197 221 255
197 221 255
197 221 255
197 221 255
197 221 255
197 221 255
197 221 255
197 221 255
197 221 255
197 221 255
197 221 255
197 221 255
197 221 255
198 221 255
198 221 255
198 221 255
198 221 255
198 221 255
198 221 255
198 221 255
198 221 255
198 221 255
198 221 255
198 221 255
198 221 255
198 221 255
198 221 255
198 221 255
198 221 255
198 221 255
198 221 255
198 221 255
198 221 255
198 221 255
198 221 255
198 221 255
198 221 255
198 221 255
198 221 255
198 221 255
198 221 255
198 221 255
198 221 255
198 221 255
198 221 255
198 221 255
198 221 255
198 221 255
198 221 255
198 221 255
199 221 255
199 221 255
199 221 255
199 221 255
199 221 255
199 221 255
199 221 255
199 221 255
199 221 255
199 221 255
199 221 255
198 220 254
181 204 238
148 171 204
114 136 168
86 106 137
76 96 126
74 94 124
73 93 123
74 93 123
72 93 124
74 94 125
73 93 124
75 95 125
73 93 124
70 91 123
73 93 122
73 94 125
72 91 120
73 95 126
73 93 124
74 93 123
72 93 124
73 94 126
74 94 125
72 92 121
72 92 123
71 92 123
73 93 123
71 91 122
71 91 121
70 91 121
72 92 122
72 92 121
71 91 121
73 93 123
72 93 124
74 94 125
71 91 122
71 92 122
73 93 124
72 92 122
73 93 123
70 91 121
71 92 123
73 93 122
70 90 120
69 88 117
69 89 119
72 92 123
72 92 122
71 91 122
71 92 123
72 92 123
70 90 121
71 91 120
71 91 121
69 89 119
76 96 126
71 92 123
71 92 123
71 90 119
71 90 119
72 92 122
68 88 117
74 93 123
70 91 123
72 92 123
71 92 123
70 91 122
71 92 122
69 89 119
71 90 120
72 93 125
72 92 122
70 90 120
69 89 119
72 92 124
72 91 120
71 90 118
71 91 120
72 92 122
73 93 123
70 90 120
71 91 121
71 90 119
72 91 119
71 91 122
71 91 121
70 91 123
70 90 120
70 90 119
73 94 125
71 91 120
74 93 123
71 90 119
68 87 116
72 92 122
71 91 122
71 91 122
71 91 121
71 92 122
72 92 122
68 87 117
71 93 125
71 90 119
71 91 122
72 92 121
70 89 119
70 90 120
71 90 120
72 92 122
71 91 121
73 93 124
71 91 119
70 89 118
69 89 119
71 90 120
70 90 120
72 91 121
71 91 120
70 91 122
71 91 120
71 91 120
70 90 120
69 89 119
73 94 124
70 90 119
66 86 115
67 87 116
70 90 120
71 91 121
70 90 121
70 90 121
69 88 118
71 90 120
73 93 123
70 89 117
72 91 121
69 89 120
71 91 121
69 88 117
71 91 121
70 90 120
68 88 118
68 88 117
68 87 115
69 89 119
71 90 118
71 91 121
69 89 120
68 87 115
68 88 118
71 91 121
71 90 120
69 88 117
70 90 119
71 91 120
70 91 121
69 88 116
72 91 120
68 89 119
72 92 122
71 90 118
71 92 122
70 90 120
70 89 117
69 88 117
68 86 114
72 92 121
70 91 122
72 92 122
67 87 116
69 88 117
72 92 121
68 88 118
71 91 120
69 89 120
72 92 123
69 89 119
71 90 118
70 91 121
73 92 122
73 94 124
74 94 123
72 92 121
70 91 122
71 91 121
72 92 123
72 92 122
72 92 122
72 92 121
70 89 119
72 92 122
69 90 120
73 93 122
71 91 122
70 91 121
72 92 123
72 92 124
70 91 122
71 92 122
73 93 124
70 90 121
73 94 124
69 89 119
70 90 120
70 89 118
73 93 123
71 92 123
71 92 123
73 93 124
72 91 121
71 91 121
72 92 123
74 94 124
72 92 123
71 92 123
70 90 121
73 93 123
72 93 124
71 92 123
72 92 122
72 92 122
71 92 122
71 90 120
72 91 119
74 94 123
72 93 123
73 93 123
72 93 124
73 92 122
72 93 124
73 93 123
71 92 124
70 89 117
73 94 126
73 93 122
72 93 123
72 92 124
69 89 119
73 93 124
74 95 125
73 95 127
72 93 124
72 91 120
73 93 123
72 93 124
72 93 124
71 91 121
72 92 123
72 94 126
74 94 124
74 95 125
72 92 123
73 93 124
72 93 125
74 94 125
75 96 127
74 94 124
81 102 134
107 128 159
152 173 206
180 203 236
199 222 255
199 221 255
199 221 255
199 221 255
199 221 255
199 221 255
199 221 255
199 221 255
199 221 255
199 221 255
199 221 255
199 221 255
198 221 255
198 221 255
198 221 255
198 221 255
198 221 255
198 221 255
198 221 255
198 221 255
198 221 255
198 221 255
198 221 255
198 221 255
198 221 255
198 221 255
198 221 255
198 221 255
198 221 255
198 221 255
198 221 255
198 221 255
198 221 255
198 221 255
198 221 255
198 221 255
198 221 255
198 221 255
198 221 255
198 221 255
198 221 255
198 221 255
198 221 255
198 221 255
198 221 255
198 221 255
198 221 255
198 221 255
198 221 255
197 221 255
197 221 255
197 221 255
197 221 255
197 221 255
197 221 255
197 221 255
197 221 255
197 221 255
197 221 255
197 221 255
197 221 255
197 221 255
197 221 255
197 221 255
197 220 255
197 220 255
197 220 255
197 220 255
197 220 255
197 221 255
197 221 255
197 221 255
197 221 255
197 221 255
197 221 255
197 221 255
198 221 255
198 221 255
198 221 255
198 221 255
198 221 255
198 221 255
198 221 255
198 221 255
198 221 255
198 221 255
198 221 255
198 221 255
198 221 255
198 221 255
198 221 255
198 221 255
198 221 255
198 221 255
198 221 255
198 221 255
198 221 255
198 221 255
198 221 255
198 221 255
198 221 255
198 221 255
198 221 255
198 221 255
198 221 255
198 221 255
198 221 255
198 221 255
198 221 255
198 221 255
198 221 255
198 221 255
198 221 255
198 221 255
198 221 255
199 221 255
199 221 255
199 221 255
199 221 255
199 221 255
199 221 255
199 221 255
199 221 255
199 221 255
199 221 255
199 221 255
199 222 255
199 222 255
199 222 255
199 222 255
199 222 255
199 222 255
199 222 255
199 222 255
185 208 241
160 182 215
117 138 170
82 103 134
73 94 124
73 93 122
72 92 124
73 94 125
74 94 126
74 95 125
74 95 126
74 94 124
72 93 123
75 95 125
73 94 124
73 94 125
72 92 122
73 93 124
70 90 119
72 92 123
75 96 126
75 95 126
72 92 122
72 92 123
72 93 124
70 91 122
71 90 120
74 94 124
73 93 123
71 91 122
71 91 121
70 91 122
72 93 124
69 89 119
72 93 123
72 92 122
72 92 123
71 90 120
73 94 125
72 92 122
72 91 121
71 91 121
73 93 124
71 91 121
71 92 122
70 89 118
71 92 124
70 90 120
73 93 124
72 92 122
71 90 119
71 91 122
72 92 122
71 90 118
72 92 122
72 92 122
69 89 118
71 91 121
72 92 122
72 92 122
71 92 123
73 94 125
71 92 124
73 93 123
72 92 123
71 92 122
70 89 118
71 91 122
72 91 120
74 94 124
67 86 115
70 90 120
69 89 118
71 91 120
71 90 119
70 91 122
70 90 120
70 90 120
72 93 123
69 90 120
72 92 122
72 92 123
71 90 120
69 90 120
72 92 121
70 91 121
73 93 124
73 92 122
72 91 120
73 92 121
70 90 120
70 90 119
69 90 121
70 90 120
71 91 120
70 90 120
71 90 119
73 94 124
69 89 119
72 92 123
71 91 120
71 91 121
71 91 122
72 92 121
69 89 118
72 92 123
71 91 120
72 93 124
73 93 123
73 92 122
73 94 126
70 89 119
70 91 121
70 91 121
72 93 123
70 89 119
71 92 122
70 89 119
70 89 118
69 89 118
72 93 124
72 92 123
72 92 122
70 90 122
70 89 118
68 88 120
72 92 121
73 93 124
70 89 118
72 91 120
70 91 121
70 89 118
71 92 122
70 90 120
71 91 121
72 93 124
70 89 118
71 91 120
72 93 124
71 92 122
71 91 121
69 89 120
71 90 120
70 91 122
68 88 118
70 90 119
71 91 121
70 91 122
73 93 124
71 90 119
72 93 123
72 91 119
70 90 120
72 93 124
71 92 123
71 91 121
69 89 119
71 91 120
71 92 122
68 87 115
69 89 118
70 90 119
72 92 123
72 92 122
70 90 121
71 91 120
70 91 121
73 94 125
71 92 123
72 92 122
71 91 121
71 90 119
70 90 119
70 90 120
71 90 120
71 91 120
70 90 120
71 90 119
70 91 122
73 93 122
69 89 118
70 89 119
69 90 120
72 91 120
71 91 122
72 92 122
72 92 122
69 89 118
72 93 123
71 91 120
70 90 120
70 90 119
70 89 119
73 93 124
71 90 120
71 91 122
70 90 120
70 90 120
69 89 119
71 91 121
72 93 123
70 90 120
71 91 122
68 88 119
71 90 120
75 95 126
72 92 123
72 93 123
70 89 118
72 92 122
70 90 119
70 90 120
71 92 123
72 92 121
71 91 121
72 91 121
71 91 121
74 94 124
70 89 119
72 91 121
73 93 124
70 90 120
71 91 120
72 92 120
73 93 124
70 90 120
72 92 121
73 93 124
71 92 123
72 93 124
69 88 118
72 93 123
70 90 120
72 92 123
74 95 127
73 93 123
72 93 124
71 91 121
73 94 125
71 92 123
73 93 123
71 92 123
73 94 125
70 91 121
72 93 123
72 92 122
74 95 125
73 92 122
72 91 121
74 94 125
74 94 123
71 92 123
71 91 122
73 94 125
71 92 122
74 95 126
70 90 120
73 93 124
75 96 127
76 96 126
72 92 123
73 93 123
72 93 124
74 94 125
74 94 126
72 93 124
84 104 134
134 155 186
151 173 206
189 212 245
199 222 255
199 222 255
199 222 255
199 222 255
199 222 255
199 222 255
199 222 255
199 221 255
199 221 255
199 221 255
199 221 255
199 221 255
199 221 255
199 221 255
199 221 255
199 221 255
199 221 255
199 221 255
199 221 255
198 221 255
198 221 255
198 221 255
198 221 255
198 221 255
198 221 255
198 221 255
198 221 255
198 221 255
198 221 255
198 221 255
198 221 255
198 221 255
198 221 255
198 221 255
198 221 255
198 221 255
198 221 255
198 221 255
198 221 255
198 221 255
198 221 255
198 221 255
198 221 255
198 221 255
198 221 255
198 221 255
198 221 255
198 221 255
198 221 255
198 221 255
198 221 255
198 221 255
198 221 255
198 221 255
198 221 255
198 221 255
198 221 255
198 221 255
197 221 255
197 221 255
197 221 255
197 221 255
197 221 255
197 221 255
197 221 255
198 221 255
198 221 255
198 221 255
198 221 255
198 221 255
198 221 255
198 221 255
198 221 255
198 221 255
198 221 255
198 221 255
198 221 255
198 221 255
198 221 255
198 221 255
198 221 255
198 221 255
198 221 255
198 221 255
198 221 255
198 221 255
198 221 255
198 221 255
198 221 255
198 221 255
198 221 255
198 221 255
198 221 255
198 221 255
198 221 255
198 221 255
198 221 255
198 221 255
198 221 255
198 221 255
199 221 255
199 221 255
199 221 255
199 221 255
199 221 255
199 221 255
199 221 255
199 221 255
199 221 255
199 221 255
199 222 255
199 222 255
199 222 255
199 222 255
199 222 255
199 222 255
199 222 255
199 222 255
199 222 255
199 222 255
199 222 255
199 222 255
199 222 255
199 222 255
199 222 255
199 222 255
190 212 245
163 185 218
131 153 186
100 121 152
74 94 125
74 94 125
76 95 125
73 93 124
73 94 125
74 95 126
72 93 125
72 93 123
73 93 123
73 94 124
74 94 124
74 95 126
74 95 127
71 91 120
72 92 123
73 93 124
72 92 121
72 92 122
72 92 122
72 92 123
71 91 121
73 93 124
73 94 125
72 93 124
72 93 124
73 93 123
74 95 126
73 93 124
72 92 122
75 95 126
71 91 121
73 93 123
71 91 121
72 93 123
73 93 123
73 93 125
74 95 126
70 91 121
72 93 124
70 91 123
72 93 124
72 91 120
73 94 126
71 91 120
73 93 122
72 92 123
72 91 120
72 91 120
72 91 120
73 92 122
71 92 122
71 91 122
71 91 121
71 92 124
71 91 121
71 90 119
72 92 121
74 93 123
71 91 121
73 94 125
71 92 122
72 92 123
73 94 125
74 94 122
71 92 123
72 93 123
73 93 124
72 93 125
73 92 122
73 93 123
71 91 120
71 92 123
71 90 120
73 94 125
71 91 120
70 90 119
70 90 120
71 90 120
73 93 124
70 89 117
71 91 121
70 91 122
71 91 121
69 89 118
72 91 121
70 91 121
73 93 124
71 91 120
72 93 124
69 89 119
72 93 125
72 92 123
69 89 120
71 91 121
72 92 121
70 90 120
70 91 122
71 91 121
74 94 123
68 88 119
73 93 122
70 90 120
73 94 125
69 89 120
73 94 124
67 87 118
71 90 120
68 87 116
72 93 123
75 95 125
71 91 121
72 92 121
71 91 122
71 90 119
72 93 123
72 92 122
71 91 122
71 92 123
72 93 123
71 92 123
72 92 121
73 93 123
70 90 120
69 90 122
71 91 121
69 88 117
71 91 120
70 89 118
71 90 119
70 90 119
70 90 120
70 91 121
70 90 120
72 92 121
70 90 120
72 92 121
74 93 122
71 91 120
71 90 119
69 89 118
70 90 120
68 87 116
73 92 121
73 92 122
72 92 121
72 91 120
69 90 122
70 90 121
70 91 121
69 90 121
71 91 121
71 91 120
72 92 123
72 92 124
73 92 122
72 92 123
71 91 121
69 89 120
74 94 125
74 95 125
73 92 122
73 93 124
71 90 120
73 94 125
73 93 123
70 90 120
70 90 120
72 93 124
72 92 123
72 92 122
69 89 118
71 91 121
70 90 120
70 90 121
70 90 119
72 92 122
71 91 121
73 94 125
71 91 120
71 91 121
74 94 124
70 91 121
72 92 122
70 91 121
68 87 116
73 93 124
71 90 120
71 92 122
71 91 120
72 92 124
69 89 119
72 92 122
73 93 124
71 92 122
70 90 120
73 93 123
72 92 123
73 93 123
72 92 121
72 92 122
73 93 124
71 91 121
71 90 118
71 90 120
70 90 121
73 93 124
69 89 118
73 93 123
72 92 121
71 91 121
73 93 123
72 92 122
72 91 121
70 91 122
72 92 122
70 90 120
71 91 120
72 92 122
71 91 120
69 88 116
71 91 122
71 90 118
72 94 126
71 92 122
73 93 124
72 93 124
73 93 123
73 93 123
74 94 124
72 92 123
71 91 120
71 91 123
72 93 123
72 93 125
73 93 123
72 93 124
73 94 124
73 94 124
72 93 124
71 91 121
73 93 124
73 93 122
75 96 127
72 91 121
71 91 121
73 93 124
75 96 126
71 91 122
73 93 122
72 93 123
73 93 123
72 92 121
72 93 124
73 94 125
72 93 123
73 92 121
73 93 124
72 92 123
72 93 124
74 95 126
74 94 124
72 93 124
75 95 125
73 93 123
74 94 126
72 92 123
73 94 125
73 93 124
74 95 125
74 95 126
94 115 147
124 146 178
165 187 220
192 214 248
199 222 255
199 222 255
199 222 255
199 222 255
199 222 255
199 222 255
199 222 255
199 222 255
199 222 255
199 222 255
199 222 255
199 222 255
199 222 255
199 222 255
199 222 255
199 221 255
199 221 255
199 221 255
199 221 255
199 221 255
199 221 255
199 221 255
199 221 255
199 221 255
199 221 255
199 221 255
198 221 255
198 221 255
198 221 255
198 221 255
198 221 255
198 221 255
198 221 255
198 221 255
198 221 255
198 221 255
198 221 255
198 221 255
198 221 255
198 221 255
198 221 255
198 221 255
198 221 255
198 221 255
198 221 255
198 221 255
198 221 255
198 221 255
198 221 255
198 221 255
198 221 255
198 221 255
198 221 255
198 221 255
198 221 255
198 221 255
198 221 255
198 221 255
198 221 255
198 221 255
198 221 255
198 221 255
198 221 255
198 221 255
198 221 255
198 221 255
198 221 255
198 221 255
198 221 255
198 221 255
198 221 255
198 221 255
198 221 255
198 221 255
198 221 255
198 221 255
198 221 255
198 221 255
198 221 255
198 221 255
198 221 255
198 221 255
198 221 255
198 221 255
198 221 255
199 221 255
199 221 255
199 221 255
199 221 255
199 221 255
199 221 255
199 221 255
199 221 255
199 221 255
199 221 255
199 221 255
199 221 255
199 222 255
199 222 255
199 222 255
199 222 255
199 222 255
199 222 255
199 222 255
199 222 255
199 222 255
199 222 255
199 222 255
199 222 255
199 222 255
199 222 255
199 222 255
199 222 255
199 222 255
199 222 255
199 222 255
199 222 255
200 222 255
200 222 255
171 193 226
140 161 193
95 115 146
74 94 126
73 94 126
75 96 127
75 95 126
72 93 124
72 92 123
74 95 125
76 96 126
73 93 124
73 93 124
73 93 124
72 93 124
73 94 125
74 94 126
72 93 124
72 93 124
72 92 123
73 93 124
75 94 124
74 94 126
74 94 126
72 93 123
73 94 125
74 93 123
71 91 122
73 94 125
71 92 124
73 94 125
73 94 126
72 93 125
73 94 125
74 94 125
71 92 122
75 94 123
72 92 122
72 93 124
71 92 123
72 91 120
73 93 123
72 94 126
72 92 123
72 93 124
71 91 121
73 94 124
72 92 121
73 93 123
71 91 121
74 94 124
71 91 122
74 94 124
71 91 121
72 91 121
69 88 117
71 91 120
71 91 122
71 91 120
70 89 118
71 91 121
72 92 121
71 92 123
73 93 122
72 93 124
72 92 124
72 92 122
72 93 123
72 92 121
70 90 121
74 94 124
72 91 121
71 91 121
73 93 124
71 91 121
71 90 119
70 90 119
72 91 121
71 91 121
73 93 122
72 93 124
70 90 120
69 89 117
73 94 125
70 91 121
71 92 122
71 91 122
72 91 120
70 90 119
73 93 123
69 88 117
72 92 121
70 89 118
73 93 123
71 92 123
69 89 118
71 91 121
70 91 123
73 93 124
71 91 121
73 93 124
70 90 120
73 93 122
74 93 122
72 92 122
71 91 121
71 92 122
74 94 125
71 91 121
74 94 126
71 90 119
72 92 121
71 91 120
70 90 120
68 87 116
71 91 122
68 88 118
74 94 125
72 92 121
71 91 120
71 91 121
71 91 121
73 93 122
72 92 122
73 93 123
68 87 115
71 90 119
68 88 116
71 91 120
72 93 124
70 90 120
69 89 119
72 93 125
71 90 120
73 93 123
72 92 122
70 90 121
69 89 118
72 91 121
73 93 125
71 92 124
71 91 121
71 92 124
69 89 120
72 92 123
70 90 119
72 93 123
71 90 120
72 93 124
71 91 121
72 91 121
71 92 122
72 92 124
72 91 121
70 90 121
72 93 123
70 90 121
71 90 120
69 89 118
71 91 120
73 93 122
73 94 125
71 91 120
71 92 123
72 92 122
72 92 123
71 91 121
69 89 119
72 92 123
71 91 121
73 93 124
70 90 120
70 90 121
69 90 120
71 90 120
72 92 123
69 90 120
72 92 122
70 89 117
73 93 121
70 89 118
73 93 123
69 89 119
72 91 119
72 92 122
69 89 118
71 91 121
69 88 117
70 90 119
72 92 123
72 92 123
71 92 124
72 91 119
71 91 121
72 93 123
70 90 120
74 94 123
73 93 123
72 91 120
72 92 122
75 94 124
69 89 120
71 91 120
72 90 119
71 90 118
75 95 125
70 90 120
72 92 122
71 90 119
67 87 116
70 91 122
73 93 124
74 94 124
71 91 120
72 93 123
71 91 121
75 95 124
73 92 121
73 92 121
71 90 119
73 93 124
72 93 123
73 93 123
71 90 120
70 90 120
70 91 122
70 91 123
71 91 120
74 94 123
73 93 123
72 92 122
70 90 119
75 95 126
72 92 123
73 94 125
72 91 121
72 93 123
70 91 122
72 92 122
71 91 121
71 92 123
72 93 123
73 93 123
72 92 122
73 93 124
71 92 124
72 93 124
71 93 125
72 92 123
74 93 123
71 91 121
73 94 125
73 94 124
71 90 119
73 94 125
72 92 123
72 92 123
72 93 124
71 91 122
75 96 126
72 92 122
73 93 124
71 92 123
74 94 125
73 92 122
73 94 125
72 92 122
73 93 124
71 92 124
74 95 127
71 92 124
74 95 126
74 94 124
74 94 124
73 93 123
74 95 126
73 94 126
76 96 126
73 94 125
74 94 123
75 95 125
104 125 157
143 164 195
162 184 217
198 221 254
200 222 255
199 222 255
199 222 255
199 222 255
199 222 255
199 222 255
199 222 255
199 222 255
199 222 255
199 222 255
199 222 255
199 222 255
199 222 255
199 222 255
199 222 255
199 222 255
199 222 255
199 222 255
199 222 255
199 222 255
199 222 255
199 222 255
199 221 255
199 221 255
199 221 255
199 221 255
199 221 255
199 221 255
199 221 255
199 221 255
199 221 255
199 221 255
199 221 255
199 221 255
198 221 255
198 221 255
198 221 255
198 221 255
198 221 255
198 221 255
198 221 255
198 221 255
198 221 255
198 221 255
198 221 255
198 221 255
198 221 255
198 221 255
198 221 255
198 221 255
198 221 255
198 221 255
198 221 255
198 221 255
198 221 255
198 221 255
198 221 255
198 221 255
198 221 255
198 221 255
198 221 255
198 221 255
198 221 255
198 221 255
198 221 255
198 221 255
198 221 255
198 221 255
198 221 255
198 221 255
199 221 255
199 221 255
199 221 255
199 221 255
199 221 255
199 221 255
199 221 255
199 221 255
199 221 255
199 221 255
199 221 255
199 221 255
199 222 255
199 222 255
199 222 255
199 222 255
199 222 255
199 222 255
199 222 255
199 222 255
199 222 255
199 222 255
199 222 255
199 222 255
199 222 255
199 222 255
199 222 255
199 222 255
199 222 255
199 222 255
199 222 255
199 222 255
199 222 255
200 222 255
200 222 255
200 222 255
200 222 255
200 222 255
200 222 255
200 222 255
200 222 255
181 203 236
138 160 193
120 141 174
80 101 132
74 94 124
74 95 127
74 94 125
74 94 124
73 94 125
71 91 122
76 96 128
75 96 127
73 93 124
74 95 126
74 94 126
74 94 126
74 95 127
72 94 125
72 93 125
75 96 127
74 95 126
71 91 123
72 92 122
71 91 120
73 92 120
72 93 124
73 94 126
72 93 124
74 95 126
73 94 125
74 94 125
73 93 123
72 93 124
72 93 124
70 90 120
72 92 122
71 91 122
73 93 122
75 95 126
71 91 121
73 93 122
73 93 124
73 94 125
73 93 122
71 92 124
72 93 124
70 89 119
71 90 119
73 94 124
72 93 124
73 94 124
70 90 122
71 92 124
74 94 124
70 91 122
73 93 123
72 92 122
73 94 126
74 94 125
73 92 121
70 90 119
73 93 123
71 91 120
71 92 122
70 90 120
73 94 124
74 94 124
73 93 124
72 92 121
74 94 125
72 92 122
70 90 120
72 92 123
73 94 124
72 92 122
75 95 126
70 91 121
72 92 120
72 92 123
73 93 124
73 92 122
71 91 122
73 93 123
72 92 123
69 89 120
72 93 123
71 91 121
73 94 125
70 90 120
74 94 125
72 91 121
73 93 123
69 89 119
71 92 122
72 92 123
70 91 123
71 91 121
72 92 122
71 90 120
73 94 125
75 95 125
72 92 122
70 90 120
71 91 121
69 89 118
72 93 123
72 93 125
72 92 122
73 93 122
72 92 121
72 93 124
71 91 120
72 91 121
70 91 121
70 90 121
72 92 122
70 90 120
71 90 120
74 94 124
70 90 120
71 91 121
71 92 122
72 92 122
71 91 122
70 91 121
70 91 122
70 89 117
73 92 121
72 92 123
73 93 124
75 94 123
72 91 121
73 92 121
71 91 121
68 87 115
71 91 121
73 93 122
72 92 123
72 92 122
70 89 118
71 91 122
72 92 122
71 91 122
68 88 118
70 90 119
70 90 120
69 89 118
72 92 122
73 94 124
71 90 120
71 91 121
72 93 124
72 92 122
71 90 120
69 88 118
73 93 124
71 91 121
72 92 123
73 93 123
71 91 121
69 89 120
73 94 125
72 92 122
72 93 124
72 92 122
71 91 121
72 91 121
72 91 121
71 91 121
70 89 119
71 90 119
70 90 120
72 92 123
72 93 124
70 90 120
71 91 121
70 91 122
71 91 121
72 93 123
71 92 122
73 93 125
71 91 121
69 89 119
72 92 121
75 95 124
71 92 122
75 95 126
72 92 122
70 90 120
70 91 123
70 90 119
71 92 124
70 90 120
70 90 119
72 91 119
72 91 120
72 92 121
73 93 124
72 93 124
71 91 122
71 91 122
70 89 118
74 94 124
73 93 123
71 92 123
72 91 120
72 93 123
71 92 124
70 91 121
70 90 121
71 92 122
71 91 122
72 92 122
69 90 121
72 92 122
74 94 124
72 92 123
72 91 121
71 91 121
73 93 124
74 95 125
73 93 124
74 95 125
72 93 124
72 92 123
73 94 126
71 91 121
70 90 120
72 92 123
73 94 124
71 92 122
73 93 123
74 94 123
74 94 123
73 94 125
73 93 123
71 91 121
71 91 122
72 92 122
70 91 121
73 94 125
72 93 124
73 94 126
72 92 122
72 92 123
71 90 120
75 95 126
71 91 121
73 94 124
73 93 124
72 92 122
73 92 122
72 92 122
73 94 124
71 92 122
74 95 125
73 93 124
73 93 124
70 90 121
71 91 122
71 92 122
72 92 122
75 96 126
75 95 126
72 92 122
73 93 124
72 93 125
72 93 124
73 94 125
73 94 125
74 93 123
73 92 122
74 94 125
70 90 120
70 90 121
74 95 126
72 93 125
74 94 125
72 93 123
74 95 126
72 93 125
73 94 125
73 93 123
75 96 127
72 93 125
74 95 126
74 95 126
75 95 126
78 99 131
110 131 163
136 157 189
181 203 236
200 222 255
200 222 255
200 222 255
200 222 255
200 222 255
200 222 255
200 222 255
200 222 255
199 222 255
199 222 255
199 222 255
199 222 255
199 222 255
199 222 255
199 222 255
199 222 255
199 222 255
199 222 255
199 222 255
199 222 255
199 222 255
199 222 255
199 222 255
199 222 255
199 222 255
199 222 255
199 222 255
199 222 255
199 222 255
199 221 255
199 221 255
199 221 255
199 221 255
199 221 255
199 221 255
199 221 255
199 221 255
199 221 255
199 221 255
199 221 255
199 221 255
198 221 255
198 221 255
198 221 255
198 221 255
198 221 255
198 221 255
198 221 255
198 221 255
198 221 255
198 221 255
198 221 255
198 221 255
198 221 255
198 221 255
198 221 255
198 221 255
199 221 255
199 221 255
199 221 255
199 221 255
199 221 255
199 221 255
199 221 255
199 221 255
199 221 255
199 221 255
199 221 255
199 222 255
199 222 255
199 222 255
199 222 255
199 222 255
199 222 255
199 222 255
199 222 255
199 222 255
199 222 255
199 222 255
199 222 255
199 222 255
199 222 255
199 222 255
199 222 255
199 222 255
199 222 255
199 222 255
199 222 255
199 222 255
199 222 255
199 222 255
200 222 255
200 222 255
200 222 255
200 222 255
200 222 255
200 222 255
200 222 255
200 222 255
200 222 255
200 222 255
200 222 255
200 222 255
200 222 255
184 206 239
174 196 229
117 138 170
95 116 147
75 95 124
73 94 126
75 96 126
73 94 125
72 93 123
73 94 126
73 93 124
73 94 125
72 92 122
74 94 124
75 96 127
74 96 128
74 94 125
74 94 125
72 93 124
73 94 125
73 93 124
74 93 123
71 91 120
74 94 124
72 93 124
72 92 122
74 94 124
72 93 124
74 94 125
74 95 126
72 93 124
73 93 124
72 93 124
73 94 124
71 91 120
74 94 125
75 95 126
75 95 126
73 94 124
70 90 121
73 94 124
73 94 125
73 93 123
73 93 124
73 93 123
74 94 124
72 92 121
72 93 126
72 92 122
70 91 122
71 92 122
74 95 126
72 92 123
73 94 125
73 92 122
72 92 122
71 90 119
75 95 125
71 92 123
70 91 122
73 93 123
72 91 121
76 96 125
69 89 118
71 91 122
73 94 125
73 94 125
74 95 126
73 93 123
72 92 122
74 95 126
73 93 124
75 96 126
72 93 123
71 91 121
69 90 122
70 89 118
70 90 120
72 93 124
74 94 123
74 92 120
72 91 121
71 92 122
72 92 122
73 93 124
72 92 123
72 91 121
72 93 125
71 92 123
70 90 120
70 90 120
72 91 121
70 90 120
71 92 124
71 91 121
70 90 121
73 92 122
72 92 123
73 93 124
70 90 119
73 93 124
70 91 122
74 94 125
72 93 124
69 90 121
70 91 121
72 92 123
74 94 125
70 90 120
72 93 123
70 90 120
71 91 121
74 94 124
75 95 126
70 90 121
72 94 125
70 90 119
71 91 121
70 90 120
71 91 121
74 93 122
72 91 121
72 92 122
74 94 125
71 92 123
71 91 121
69 90 120
70 90 122
74 94 124
74 95 125
72 92 122
71 91 121
73 93 124
71 91 120
72 91 120
71 91 121
72 92 121
70 90 120
73 93 124
71 92 123
72 92 122
71 91 121
71 92 122
71 90 119
72 92 122
72 93 124
73 93 124
70 90 120
73 93 124
71 92 122
72 92 124
72 92 121
71 92 123
71 92 123
71 91 120
71 92 123
74 94 124
72 92 122
70 90 120
71 90 119
70 91 123
71 92 123
73 92 121
71 91 121
73 93 122
72 91 120
72 93 123
71 92 123
71 92 124
69 90 121
73 93 124
73 93 124
72 92 121
72 93 124
74 95 126
74 94 123
71 90 119
72 92 123
71 91 121
71 92 124
73 92 121
73 93 123
71 91 121
72 92 123
72 93 125
73 93 123
73 94 124
73 93 124
73 93 124
72 92 123
70 91 121
69 89 119
72 91 121
73 94 125
71 91 121
73 94 125
72 93 124
74 94 123
71 92 122
71 92 123
74 95 125
74 94 123
72 93 124
71 92 123
74 94 124
68 88 119
71 92 123
72 91 120
68 87 117
70 90 120
74 95 126
73 93 123
73 94 124
70 91 122
72 92 121
73 94 124
73 94 126
73 94 126
73 93 122
74 94 125
73 92 122
70 89 117
71 91 121
69 88 117
72 92 122
73 93 123
72 93 124
70 91 123
74 94 124
72 93 124
72 92 123
70 90 119
74 95 126
74 94 123
74 94 124
70 90 121
75 94 124
74 94 124
67 86 114
72 92 122
71 92 122
74 94 125
71 92 123
73 93 123
71 92 122
70 90 120
70 91 121
70 90 121
73 94 124
72 93 124
71 91 120
70 90 120
71 91 121
72 93 123
70 89 117
72 93 124
71 91 122
74 94 123
75 95 126
71 92 122
73 94 125
72 93 124
73 94 126
73 93 124
73 93 124
72 93 124
73 94 124
74 93 123
73 93 124
72 93 124
73 93 125
73 94 125
73 93 123
72 93 123
73 92 122
70 90 121
73 93 124
72 92 124
75 96 128
74 94 124
74 94 124
72 93 123
72 93 124
73 94 125
74 94 125
75 95 125
75 95 124
71 91 121
74 95 126
74 94 125
75 95 126
74 96 128
72 92 123
75 96 127
73 93 123
72 93 124
86 107 140
114 136 167
156 178 210
189 211 244
200 222 255
200 222 255
200 222 255
200 222 255
200 222 255
200 222 255
200 222 255
200 222 255
200 222 255
200 222 255
200 222 255
200 222 255
200 222 255
200 222 255
199 222 255
199 222 255
199 222 255
199 222 255
199 222 255
199 222 255
199 222 255
199 222 255
199 222 255
199 222 255
199 222 255
199 222 255
199 222 255
199 222 255
199 222 255
199 222 255
199 222 255
199 222 255
199 222 255
199 222 255
199 222 255
199 221 255
199 221 255
199 221 255
199 221 255
199 221 255
199 221 255
199 221 255
199 221 255
199 221 255
199 221 255
199 221 255
199 221 255
198 221 255
198 221 255
198 221 255
199 221 255
199 221 255
199 221 255
199 221 255
199 222 255
199 222 255
199 222 255
199 222 255
199 222 255
199 222 255
199 222 255
199 222 255
199 222 255
199 222 255
199 222 255
199 222 255
199 222 255
199 222 255
199 222 255
199 222 255
199 222 255
199 222 255
199 222 255
199 222 255
199 222 255
199 222 255
199 222 255
200 222 255
200 222 255
200 222 255
200 222 255
200 222 255
200 222 255
200 222 255
200 222 255
200 222 255
200 222 255
200 222 255
200 222 255
200 222 255
200 222 255
200 222 255
200 222 255
200 222 255
200 222 255
200 222 255
199 221 254
180 202 235
144 165 198
93 115 147
75 96 127
71 92 123
75 96 127
73 94 125
74 95 127
74 95 126
75 95 125
75 95 127
72 93 125
74 95 126
73 94 126
73 92 122
72 93 124
74 95 126
74 95 126
73 93 124
73 94 125
76 96 126
73 94 126
75 96 126
73 94 126
74 94 125
73 93 123
73 94 126
72 93 125
75 95 126
70 90 121
74 94 124
73 94 124
71 92 124
71 92 123
74 95 126
71 92 123
74 95 125
74 94 125
73 93 124
74 94 125
72 93 124
72 92 121
72 92 121
72 92 123
72 92 123
72 91 120
72 92 122
71 91 121
73 93 124
72 92 123
73 94 125
72 92 123
72 93 124
70 91 123
71 91 121
74 94 125
74 95 126
76 97 127
71 92 124
72 93 126
71 91 121
72 92 122
73 93 123
73 93 123
74 94 124
73 93 124
73 94 126
73 94 125
73 93 122
72 93 124
74 93 123
72 93 125
71 91 121
71 91 121
70 90 121
71 91 122
72 92 122
72 93 124
73 93 123
72 93 125
71 92 122
72 92 122
72 93 123
72 92 122
71 91 122
71 91 122
71 91 120
72 92 121
74 94 124
72 92 123
70 91 121
70 91 121
71 92 122
68 88 117
74 95 126
72 92 122
73 93 122
70 90 119
72 91 121
72 92 121
72 94 126
72 92 122
71 91 122
72 92 122
72 93 125
70 91 121
72 92 123
72 92 122
69 89 120
74 95 126
71 91 122
71 91 121
73 94 126
70 91 121
73 93 124
74 95 126
74 94 124
72 92 121
71 91 120
72 92 123
74 94 124
70 90 120
71 90 120
70 90 120
72 92 122
71 91 121
72 92 122
71 91 121
73 93 124
71 90 120
72 92 122
74 94 124
70 91 122
71 90 119
74 93 123
67 87 117
72 93 123
73 93 123
72 92 123
72 92 123
71 91 122
72 94 126
73 93 124
71 90 119
72 92 123
73 92 122
70 89 117
73 93 123
72 92 122
70 91 121
71 91 120
74 94 124
73 94 126
72 93 125
72 91 121
71 92 124
71 91 121
72 93 125
71 91 123
72 92 122
73 93 124
71 91 122
71 91 122
71 91 122
71 91 123
72 93 123
73 94 125
73 93 124
73 93 124
74 94 124
73 93 125
72 92 122
73 92 122
73 93 122
73 93 124
72 92 122
70 90 120
74 95 125
72 92 122
72 93 123
70 89 118
72 92 121
73 93 123
70 90 119
71 93 125
72 92 123
69 90 122
71 91 121
70 90 120
71 91 121
72 93 123
71 91 122
72 91 121
70 90 120
71 91 120
73 93 123
72 93 123
72 93 125
72 92 122
72 92 122
71 91 121
69 89 119
73 92 121
72 92 121
75 95 124
73 93 123
73 92 122
71 91 120
72 92 122
73 93 122
71 90 120
70 89 118
71 90 120
71 91 121
73 93 123
70 90 121
72 92 123
72 92 122
72 92 122
69 90 120
72 93 124
71 91 121
73 93 124
71 91 121
72 93 123
72 92 123
71 90 119
73 93 122
73 93 123
72 94 126
73 94 125
72 91 120
72 92 122
73 93 123
71 91 121
73 93 124
70 90 120
73 93 124
71 91 121
69 89 120
71 91 120
72 92 121
71 91 122
71 91 121
71 92 123
71 90 119
74 94 125
72 93 124
73 93 122
72 93 124
71 92 122
71 93 124
71 91 121
72 92 121
74 94 125
72 92 124
73 94 125
71 91 121
74 95 126
74 95 125
72 92 121
71 91 122
72 93 124
72 93 124
72 92 122
71 92 123
73 94 125
74 94 124
74 95 126
74 94 126
72 93 124
72 93 125
75 95 125
72 93 125
74 93 123
73 94 125
74 94 123
72 92 124
73 93 122
72 92 123
74 94 124
72 92 122
75 95 125
74 95 126
74 94 124
72 92 122
75 96 126
73 93 123
74 94 125
72 94 126
73 94 125
73 94 126
73 94 124
75 95 126
74 94 126
75 95 126
71 93 124
72 92 123
74 95 126
74 95 127
74 94 124
75 95 125
77 98 130
105 126 157
139 161 193
162 184 217
199 221 254
200 222 255
200 222 255
200 222 255
200 222 255
200 222 255
200 222 255
200 222 255
200 222 255
200 222 255
200 222 255
200 222 255
200 222 255
200 222 255
200 222 255
200 222 255
200 222 255
200 222 255
200 222 255
200 222 255
199 222 255
199 222 255
199 222 255
199 222 255
199 222 255
199 222 255
199 222 255
199 222 255
199 222 255
199 222 255
199 222 255
199 222 255
199 222 255
199 222 255
199 222 255
199 222 255
199 222 255
199 222 255
199 222 255
199 222 255
199 222 255
199 222 255
199 222 255
199 221 255
199 221 255
199 221 255
199 221 255
199 222 255
199 222 255
199 222 255
199 222 255
199 222 255
199 222 255
199 222 255
199 222 255
199 222 255
199 222 255
199 222 255
199 222 255
199 222 255
199 222 255
199 222 255
199 222 255
199 222 255
200 222 255
200 222 255
200 222 255
200 222 255
200 222 255
200 222 255
200 222 255
200 222 255
200 222 255
200 222 255
200 222 255
200 222 255
200 222 255
200 222 255
200 222 255
200 222 255
200 222 255
200 222 255
200 222 255
200 222 255
200 222 255
200 222 255
200 222 255
200 222 255
200 222 255
200 222 255
181 203 235
140 162 194
120 141 173
88 108 138
75 95 126
73 94 124
72 93 125
74 94 124
73 94 126
76 96 128
74 95 127
73 94 126
73 94 125
73 94 125
75 95 126
74 94 124
73 93 124
74 95 126
73 94 124
74 94 125
72 93 125
75 96 127
73 94 126
72 93 125
74 95 126
73 94 125
73 94 125
74 95 127
73 94 125
73 94 125
73 94 125
72 93 123
70 90 120
73 94 124
73 93 123
73 93 124
75 95 126
71 91 122
72 92 123
74 94 124
73 94 125
72 93 124
74 93 123
74 93 123
74 94 125
71 91 122
73 93 123
73 93 123
72 93 124
74 94 124
74 93 123
74 94 123
73 93 123
74 95 125
73 93 124
74 95 126
73 93 123
73 93 122
71 91 122
71 91 122
71 91 121
74 95 126
73 94 124
72 92 122
70 90 120
73 93 124
72 92 123
70 90 120
74 94 124
72 93 124
74 94 125
74 94 123
71 92 124
71 91 120
70 90 120
71 91 120
71 91 120
72 93 124
72 93 124
73 93 123
73 94 125
71 92 123
71 92 123
69 90 121
74 94 125
74 95 127
73 95 128
73 93 124
72 92 122
74 94 125
72 93 123
72 92 122
73 94 125
71 91 121
75 94 124
70 90 119
72 93 124
71 91 122
73 94 125
72 93 124
71 91 121
73 93 123
69 89 118
73 93 123
72 92 122
72 93 124
74 94 124
71 91 121
72 92 122
71 90 119
72 91 120
72 92 122
70 90 121
73 93 122
72 93 125
72 92 121
69 90 120
71 92 123
73 93 124
72 93 125
73 94 126
71 91 122
70 91 122
73 92 122
72 92 122
73 92 122
71 92 122
71 92 123
71 92 122
72 92 123
72 93 124
72 92 122
73 93 122
72 94 126
71 91 122
71 92 124
71 92 123
71 91 122
71 90 119
70 90 121
74 95 125
74 94 124
71 91 120
73 93 124
73 93 123
70 91 122
69 88 117
72 92 121
72 91 121
73 93 124
69 88 117
69 90 121
70 90 121
75 94 124
71 93 125
71 92 123
72 92 121
71 91 121
70 91 122
72 92 121
74 94 125
72 91 120
72 91 121
72 93 124
74 94 124
71 91 120
74 93 123
70 90 121
70 91 121
71 91 122
72 92 122
73 93 123
70 90 119
72 93 124
72 93 124
71 92 122
69 90 120
71 92 122
75 95 125
72 93 124
70 90 120
75 95 124
72 93 124
70 89 119
69 90 120
72 93 123
72 93 123
70 89 118
74 94 123
72 92 123
73 94 124
71 91 122
73 94 124
70 90 121
69 89 119
71 92 123
73 93 124
73 93 123
73 93 124
71 91 120
72 93 124
73 94 125
72 93 124
70 90 121
70 91 122
71 92 123
70 89 119
70 90 120
70 91 122
72 92 122
71 91 121
71 92 122
71 91 121
74 94 124
70 91 122
73 93 123
71 91 120
71 92 122
71 90 119
71 91 120
73 93 124
73 93 123
74 94 124
70 90 121
70 89 119
73 93 122
73 94 125
74 95 125
72 93 123
74 95 125
73 93 123
73 94 125
71 92 123
72 93 124
73 92 122
70 91 122
71 92 123
71 92 123
74 94 125
72 92 122
72 94 125
71 92 123
71 91 122
71 91 121
73 94 125
73 93 124
75 94 123
73 92 122
73 94 125
73 93 123
73 94 126
73 93 123
71 92 124
71 92 123
73 93 123
71 92 123
71 92 123
71 91 121
72 92 123
74 94 125
73 93 122
73 94 125
73 93 123
75 95 125
72 93 123
73 93 122
72 93 124
72 93 125
73 93 123
74 94 124
72 94 126
74 95 126
73 92 121
73 94 125
72 93 124
73 93 124
73 94 125
74 95 126
72 93 124
72 93 124
71 92 122
73 94 125
73 94 124
72 93 123
73 93 124
75 96 126
75 96 127
74 94 125
72 93 124
73 93 123
73 93 124
73 94 124
74 94 126
72 93 125
75 95 125
74 94 124
72 93 124
73 94 125
73 94 126
73 95 127
71 92 124
74 95 126
73 94 125
73 94 125
75 95 125
74 95 127
74 94 124
74 95 126
76 96 127
73 95 127
86 106 137
115 136 168
156 178 211
186 207 240
200 222 255
200 222 255
200 222 255
200 222 255
200 222 255
200 222 255
200 222 255
200 222 255
200 222 255
200 222 255
200 222 255
200 222 255
200 222 255
200 222 255
200 222 255
200 222 255
200 222 255
200 222 255
200 222 255
200 222 255
200 222 255
200 222 255
200 222 255
200 222 255
200 222 255
199 222 255
199 222 255
199 222 255
199 222 255
199 222 255
199 222 255
199 222 255
199 222 255
199 222 255
199 222 255
199 222 255
199 222 255
199 222 255
199 222 255
199 222 255
199 222 255
199 222 255
199 222 255
199 222 255
199 222 255
199 222 255
199 222 255
199 222 255
199 222 255
199 222 255
199 222 255
200 222 255
200 222 255
200 222 255
200 222 255
200 222 255
200 222 255
200 222 255
200 222 255
200 222 255
200 222 255
200 222 255
200 222 255
200 222 255
200 222 255
200 222 255
200 222 255
200 222 255
200 222 255
200 222 255
200 222 255
200 222 255
200 222 255
200 222 255
200 222 255
200 222 255
200 222 255
200 222 255
200 222 255
200 222 255
200 222 255
201 223 255
197 219 252
159 180 213
127 148 181
93 113 144
73 94 125
75 96 126
73 94 126
74 95 126
73 94 125
73 93 124
73 94 126
74 94 125
73 94 125
73 94 124
75 95 125
73 94 124
73 94 126
74 95 126
74 95 126
71 92 124
76 96 127
72 93 125
74 94 124
73 93 125
76 95 125
72 93 124
72 94 125
73 94 126
74 94 125
74 95 126
73 93 124
74 95 125
73 93 123
71 91 121
72 93 125
74 95 126
74 94 126
72 92 122
72 93 123
71 92 124
73 94 126
73 93 123
73 93 123
73 94 124
74 95 126
72 92 122
72 92 123
71 91 122
73 93 124
73 94 126
72 92 123
70 90 121
70 91 123
71 92 125
71 91 121
74 94 124
71 92 123
72 92 122
72 91 121
72 93 125
73 94 126
73 93 123
73 94 124
72 91 121
72 93 124
72 92 123
71 92 123
72 92 122
74 94 125
70 90 119
74 95 126
73 94 124
72 92 123
72 93 124
71 91 120
72 92 122
74 95 126
72 92 122
71 92 123
72 92 123
73 93 124
74 94 123
74 94 124
73 94 125
72 92 123
73 93 123
71 91 121
72 93 123
71 91 122
73 92 122
72 92 123
74 94 125
72 92 122
71 92 122
72 92 122
72 93 123
72 93 124
72 93 125
71 91 120
71 91 121
73 93 123
73 95 128
69 88 118
75 94 122
74 94 125
74 94 124
72 92 123
71 91 121
72 91 120
72 92 122
73 94 125
73 93 124
69 88 118
72 92 123
72 93 124
72 93 124
72 92 122
74 94 124
71 91 122
74 94 124
70 90 119
72 92 121
72 93 124
72 92 123
70 89 118
73 94 124
72 93 124
73 92 121
72 92 123
72 93 123
72 92 122
69 89 119
73 93 122
71 91 121
73 93 123
73 93 122
74 93 123
71 91 121
73 94 125
72 92 121
70 90 120
73 93 122
72 92 124
71 91 121
73 93 123
72 92 121
72 91 121
71 91 122
72 92 122
72 93 124
72 92 121
72 93 123
71 90 120
72 93 123
70 90 121
72 93 124
73 93 123
72 92 122
73 94 124
71 91 121
69 89 119
72 93 124
73 94 125
73 93 122
72 92 123
72 92 122
73 92 122
73 93 124
74 94 124
70 90 119
72 92 123
74 94 125
69 89 120
73 93 124
72 93 124
71 90 120
74 94 124
73 92 121
72 92 122
73 93 123
71 92 123
72 92 121
72 92 121
73 94 125
73 94 124
72 92 123
69 89 120
73 93 123
72 93 124
72 92 122
71 91 121
74 94 125
71 92 123
75 95 125
74 94 124
70 89 119
74 94 125
72 93 124
71 92 122
71 91 122
72 93 124
73 92 121
70 90 120
71 91 122
70 90 121
73 94 124
74 93 123
72 92 123
72 92 123
72 92 121
73 93 124
72 93 124
73 93 123
72 92 124
71 92 123
73 93 123
73 94 126
72 92 123
75 95 126
73 93 124
72 92 123
72 92 123
70 91 121
74 94 124
74 93 123
72 93 124
72 93 124
72 93 124
72 92 121
70 91 121
72 93 123
73 92 122
75 95 125
73 94 125
72 92 123
73 93 122
72 92 121
72 92 122
72 93 125
73 93 125
75 94 124
73 93 124
73 94 124
72 93 124
73 93 124
72 93 123
72 92 122
73 93 124
72 93 124
74 94 125
72 93 124
72 91 121
72 93 125
69 89 118
72 92 122
75 95 126
72 92 122
71 91 122
72 92 123
72 94 125
73 94 124
72 92 122
75 95 126
75 96 127
73 93 123
73 94 126
74 94 125
71 92 122
75 96 127
71 92 124
72 93 124
71 91 121
72 93 125
73 94 125
73 93 125
75 95 126
72 92 122
75 95 125
72 93 123
70 91 123
74 94 125
73 94 125
72 93 124
74 95 126
73 94 125
73 93 124
74 95 125
73 94 124
72 93 123
72 93 124
72 93 123
73 93 123
74 94 123
75 96 127
74 95 125
72 92 122
73 94 125
74 95 126
73 93 124
72 93 125
74 94 125
74 94 125
74 95 126
73 93 124
73 94 125
75 96 128
74 95 127
75 95 125
72 92 122
72 93 124
75 95 125
75 95 125
74 93 123
73 95 127
73 94 125
75 94 124
73 94 124
74 95 127
96 117 149
131 152 183
174 196 229
195 217 250
201 223 255
200 222 255
200 222 255
200 222 255
200 222 255
200 222 255
200 222 255
200 222 255
200 222 255
200 222 255
200 222 255
200 222 255
200 222 255
200 222 255
200 222 255
200 222 255
200 222 255
200 222 255
200 222 255
200 222 255
200 222 255
200 222 255
200 222 255
200 222 255
200 222 255
200 222 255
200 222 255
200 222 255
200 222 255
200 222 255
200 222 255
199 222 255
199 222 255
199 222 255
199 222 255
199 222 255
199 222 255
199 222 255
199 222 255
200 222 255
200 222 255
200 222 255
200 222 255
200 222 255
200 222 255
200 222 255
200 222 255
200 222 255
200 222 255
200 222 255
200 222 255
200 222 255
200 222 255
200 222 255
200 222 255
200 222 255
200 222 255
200 222 255
200 222 255
200 222 255
200 222 255
200 222 255
200 222 255
200 222 255
200 222 255
200 222 255
200 222 255
200 222 255
200 222 255
201 223 255
201 223 255
201 223 255
201 223 255
201 223 255
201 223 255
184 206 238
140 162 194
105 126 158
80 101 132
76 96 126
74 94 126
74 95 126
75 96 127
73 94 124
73 95 126
72 93 125
74 94 123
74 95 127
73 93 124
73 94 126
74 95 125
73 94 125
74 94 125
73 94 124
74 95 127
75 95 125
74 95 126
74 95 127
73 94 125
72 93 125
72 93 124
71 90 120
74 95 127
72 94 126
72 92 123
74 93 122
74 95 126
72 91 121
73 94 125
72 92 122
73 94 125
74 95 126
72 92 123
72 93 124
74 94 125
72 93 124
74 94 125
74 94 124
74 94 124
72 92 123
71 91 122
72 93 123
72 93 123
72 93 124
74 94 125
75 96 128
73 93 123
72 92 122
74 95 127
73 94 125
73 93 123
73 94 125
72 93 123
73 93 124
71 91 122
73 93 124
74 95 126
72 93 123
73 94 125
73 94 125
71 91 121
70 90 120
73 94 125
72 93 124
75 95 124
73 93 124
71 90 119
72 93 125
71 91 121
73 95 126
72 92 123
72 93 126
72 92 123
73 93 124
72 93 123
71 91 120
70 91 121
70 90 120
72 94 126
72 92 122
72 93 123
71 91 121
71 91 121
72 92 121
73 94 125
72 92 121
72 93 125
73 94 125
72 92 122
71 92 123
75 95 124
73 94 124
71 92 123
72 93 124
72 93 125
71 92 123
72 92 121
72 91 121
74 95 126
72 94 126
72 93 124
71 91 120
73 94 126
71 91 122
73 93 124
71 91 121
73 93 124
70 90 119
72 92 123
72 93 123
72 91 120
74 95 126
73 94 125
73 93 123
72 92 122
74 95 125
72 93 124
72 93 123
72 93 125
72 93 125
71 92 123
73 93 123
72 92 123
73 93 123
70 90 121
74 94 125
73 93 124
74 94 124
71 91 121
74 95 126
72 92 123
72 92 122
73 93 123
72 92 122
71 91 120
71 90 119
71 91 121
72 93 124
71 92 123
73 93 123
72 92 122
75 95 125
73 93 123
70 90 120
73 93 123
71 92 122
71 91 120
74 94 125
72 92 124
72 92 123
70 91 122
69 89 119
71 92 123
73 93 123
74 95 125
72 93 125
70 90 121
73 93 124
74 94 124
73 93 124
72 92 122
71 91 121
73 93 123
72 93 124
71 92 123
72 93 124
70 90 121
72 93 124
70 89 119
70 90 120
72 92 122
71 92 122
72 93 124
74 94 124
73 94 125
71 92 123
72 92 122
72 92 122
72 92 123
73 92 121
73 94 125
71 91 122
72 93 124
70 91 122
73 93 123
71 92 124
72 93 125
71 92 123
71 92 122
74 93 123
73 93 123
74 94 125
72 92 121
73 94 124
70 90 120
70 90 119
73 94 125
70 91 122
72 93 125
75 95 126
72 92 123
73 94 126
72 92 122
72 92 123
72 92 123
74 95 125
72 92 122
72 92 123
70 91 121
72 92 122
73 94 125
67 86 114
73 93 123
73 93 124
74 94 124
74 95 126
72 92 122
70 90 121
72 92 123
70 90 120
70 90 120
70 91 122
72 93 125
71 92 122
72 93 123
72 92 122
70 90 120
74 94 123
73 94 125
72 93 125
74 94 126
73 94 124
72 92 123
72 91 120
71 92 123
72 93 124
69 89 120
71 91 120
72 92 122
71 92 122
74 94 124
72 93 123
74 95 126
76 97 128
72 92 122
72 93 124
74 94 125
75 95 126
74 95 126
73 94 124
74 95 126
73 93 123
71 92 122
73 94 125
73 94 124
73 93 123
74 94 125
72 92 122
72 93 126
73 94 125
72 93 124
73 93 123
73 93 124
71 93 124
72 92 122
74 94 124
74 94 124
72 91 121
73 93 125
72 93 124
73 93 124
70 91 122
73 93 123
74 95 126
72 93 125
75 96 127
72 93 124
73 93 123
73 93 124
72 93 124
74 95 127
74 95 125
74 94 125
74 95 127
74 95 126
75 95 125
73 94 126
74 95 127
74 94 125
73 94 125
72 93 124
74 94 124
74 94 125
73 93 124
73 94 126
74 94 125
73 94 125
73 93 124
75 96 127
73 94 125
72 92 123
71 91 122
73 93 123
75 95 126
71 91 123
74 94 126
72 93 123
73 93 125
72 92 123
75 96 126
75 95 126
73 94 124
72 93 125
73 94 126
74 95 126
73 95 126
74 95 126
75 95 125
74 95 126
80 101 132
128 149 181
142 163 194
188 210 243
201 223 255
201 223 255
201 223 255
201 223 255
201 223 255
201 223 255
200 222 255
200 222 255
200 222 255
200 222 255
200 222 255
200 222 255
200 222 255
200 222 255
200 222 255
200 222 255
200 222 255
200 222 255
200 222 255
200 222 255
200 222 255
200 222 255
200 222 255
200 222 255
200 222 255
200 222 255
200 222 255
200 222 255
200 222 255
200 222 255
200 222 255
200 222 255
200 222 255
200 222 255
200 222 255
200 222 255
200 222 255
200 222 255
200 222 255
200 222 255
200 222 255
200 222 255
200 222 255
200 222 255
200 222 255
200 222 255
200 222 255
200 222 255
200 222 255
200 222 255
200 222 255
200 222 255
200 222 255
200 222 255
200 222 255
200 222 255
200 222 255
201 223 255
201 223 255
201 223 255
201 223 255
201 223 255
201 223 255
201 223 255
201 223 255
201 223 255
201 223 255
201 223 255
198 220 253
159 180 212
125 146 177
95 116 148
73 94 126
74 95 126
74 94 126
72 93 124
75 95 126
74 94 126
73 93 124
75 95 125
74 96 128
73 94 124
74 95 126
74 95 126
75 95 125
75 95 126
72 92 122
74 94 124
75 95 126
74 94 126
73 93 124
74 94 124
72 92 123
74 93 123
75 95 126
72 92 122
72 93 123
74 95 126
73 94 124
71 91 122
73 93 122
74 94 125
73 94 126
74 95 126
73 93 124
72 92 124
74 94 124
73 93 123
73 94 125
71 91 121
73 94 126
72 92 123
73 94 125
73 94 125
71 92 122
72 93 124
72 92 123
73 94 124
71 91 120
73 93 124
73 93 124
74 95 126
74 95 126
73 94 125
74 94 125
74 94 123
74 95 126
73 94 125
74 95 126
71 91 121
73 93 124
73 94 126
72 93 124
72 93 123
74 94 124
72 93 123
72 92 122
73 93 123
72 93 123
74 94 125
72 93 124
72 92 124
72 92 123
73 93 124
73 94 125
72 92 123
71 91 121
73 94 124
71 91 121
74 94 125
73 94 126
75 94 124
72 93 124
73 93 123
74 94 125
73 93 124
68 88 119
73 93 122
73 94 124
75 95 126
74 94 124
73 93 123
72 92 123
73 93 124
73 94 125
72 93 124
72 92 123
71 92 123
72 93 125
73 94 125
75 96 126
71 91 121
73 94 125
71 92 123
72 92 123
73 94 125
74 94 124
73 94 125
72 92 123
74 94 125
74 95 125
73 93 124
72 92 121
73 93 123
73 93 124
74 95 126
72 92 122
71 92 124
71 91 122
74 95 126
72 92 122
70 89 118
73 93 124
71 92 122
73 94 125
72 93 123
71 91 122
72 92 121
71 91 121
73 93 124
72 93 123
71 92 124
73 93 123
73 93 124
71 92 123
70 90 120
72 92 123
73 93 122
73 93 125
72 93 124
73 94 125
70 90 120
72 92 122
73 94 125
72 92 122
69 89 118
72 93 125
73 93 124
73 94 126
73 93 124
74 94 124
73 93 122
73 94 124
72 93 125
72 93 124
70 89 118
73 92 122
72 92 123
71 91 121
72 93 123
73 93 123
70 89 118
71 91 121
73 93 124
73 93 124
71 92 122
70 90 120
73 93 124
72 92 123
72 92 120
74 95 126
72 92 122
70 89 119
73 94 125
74 95 127
72 92 123
73 93 123
72 92 121
72 91 121
72 92 123
70 90 121
73 94 125
72 93 125
72 91 121
74 95 126
74 94 123
72 92 123
72 93 123
72 92 122
70 91 121
73 93 124
74 94 123
73 93 124
74 94 123
71 92 122
71 92 124
73 94 125
71 92 122
73 93 122
72 93 124
72 92 123
70 91 123
72 92 123
73 93 123
75 95 126
71 92 123
75 96 126
73 92 122
73 92 122
73 93 124
71 91 120
74 94 126
72 93 124
71 91 121
74 94 124
71 91 122
72 92 121
71 91 121
72 93 124
72 92 123
71 91 122
71 92 122
72 93 124
73 94 124
71 91 120
73 93 123
72 92 122
72 92 122
72 92 123
74 94 124
72 93 125
71 91 122
74 93 123
73 93 123
72 93 123
72 93 124
75 95 125
71 92 124
73 93 124
72 93 123
71 92 124
73 92 121
71 91 122
74 95 126
73 94 125
72 93 125
74 95 127
71 92 123
74 94 125
73 93 123
73 93 123
74 95 126
72 93 124
74 95 126
72 92 122
72 91 120
70 90 120
74 95 125
71 91 122
74 95 126
74 95 125
74 95 125
72 92 122
72 92 123
73 94 125
70 90 121
74 95 126
74 95 126
72 92 122
73 94 124
74 95 125
72 92 123
73 93 123
74 95 125
73 93 123
73 93 125
72 93 123
75 96 127
72 93 123
71 92 122
75 95 126
73 94 126
75 95 125
74 94 124
74 94 124
73 93 124
73 94 125
71 92 124
73 92 122
73 94 125
74 94 126
71 92 123
73 93 124
72 93 123
73 93 123
73 93 125
73 94 124
73 93 124
71 92 122
72 93 123
72 93 125
75 96 127
72 94 126
72 92 123
73 93 123
71 92 122
72 93 125
72 93 124
75 95 127
72 92 124
73 94 126
72 92 123
73 94 126
73 94 125
74 94 125
74 95 126
74 94 126
75 95 126
74 94 124
74 95 126
74 95 126
75 94 124
73 94 126
72 92 123
75 95 126
75 96 127
74 94 124
75 95 124
75 96 128
72 94 126
93 113 144
121 142 173
161 183 216
197 219 252
201 223 255
201 223 255
201 223 255
201 223 255
201 223 255
201 223 255
201 223 255
201 223 255
201 223 255
201 223 255
201 223 255
200 222 255
200 222 255
200 222 255
200 222 255
200 222 255
200 222 255
200 222 255
200 222 255
200 222 255
200 222 255
200 222 255
200 222 255
200 222 255
200 222 255
200 222 255
200 222 255
200 222 255
200 222 255
200 222 255
200 222 255
200 222 255
200 222 255
200 222 255
200 222 255
200 222 255
200 222 255
200 222 255
200 222 255
200 222 255
200 222 255
200 222 255
200 222 255
200 222 255
200 222 255
201 223 255
201 223 255
201 223 255
201 223 255
201 223 255
201 223 255
201 223 255
201 223 255
201 223 255
201 223 255
201 223 255
201 223 255
201 223 255
201 223 255
201 223 255
201 223 255
185 207 239
152 173 204
105 125 157
86 106 137
74 95 126
73 94 126
72 93 125
75 95 126
75 95 125
74 95 126
74 95 126
74 95 127
74 95 126
75 95 126
72 92 122
73 94 126
73 94 126
74 95 126
73 94 125
75 95 125
72 92 122
75 95 125
75 95 127
74 95 126
74 94 124
74 94 124
75 96 128
72 92 123
73 95 127
73 94 126
73 93 123
72 93 123
74 94 125
75 95 126
74 94 125
74 95 125
72 93 125
72 94 125
75 95 126
73 94 127
73 94 125
73 94 125
73 94 126
71 91 121
74 95 126
71 92 124
76 96 127
72 91 121
72 92 122
74 94 125
74 94 125
73 94 126
74 94 125
71 91 122
73 93 124
73 94 124
72 93 123
70 91 122
74 95 126
73 94 125
73 93 123
73 94 125
73 93 124
72 92 123
70 90 120
75 96 127
74 95 126
73 95 126
75 95 126
73 92 122
74 94 124
73 94 126
73 93 124
73 94 124
72 93 124
74 94 124
73 94 125
72 92 122
71 92 124
73 94 126
74 94 125
74 94 124
74 95 126
73 93 124
74 95 126
72 93 125
74 94 124
72 93 123
71 92 123
74 94 125
74 94 126
73 94 124
75 95 126
72 92 122
74 94 124
74 94 125
75 95 125
74 94 124
72 93 124
72 92 123
74 94 125
71 91 122
72 92 123
73 94 126
74 94 124
74 94 126
72 93 124
73 93 123
73 93 124
73 93 123
74 94 125
73 93 123
76 96 126
69 89 119
73 95 126
72 92 123
70 90 120
73 93 124
72 92 123
73 93 124
73 94 125
73 93 124
73 93 123
72 93 124
73 93 124
73 94 125
73 94 124
73 94 125
71 91 120
73 94 125
71 92 122
73 94 124
73 93 123
74 94 124
69 90 121
72 93 125
73 93 122
72 92 123
72 92 123
73 93 124
71 92 123
70 90 120
72 92 122
72 92 123
73 93 123
71 90 120
70 90 119
71 91 120
69 89 118
72 92 123
71 92 122
72 92 122
72 92 122
73 92 122
71 92 122
71 91 122
72 93 123
69 89 119
73 93 124
72 93 124
73 94 124
71 92 122
72 94 126
72 92 121
73 92 122
71 91 122
71 91 121
71 91 120
72 92 121
72 93 124
73 93 124
73 94 125
73 94 126
73 92 121
73 94 125
76 96 126
69 89 119
71 92 122
72 92 121
72 92 123
72 92 121
71 91 121
73 94 126
72 92 122
73 93 123
74 95 126
73 94 126
72 93 125
72 92 122
72 92 122
73 93 124
72 93 124
74 95 125
72 93 123
72 92 122
74 94 124
72 92 123
70 90 121
72 92 123
71 92 122
73 93 124
72 93 124
72 93 123
74 95 126
72 92 123
72 93 124
73 93 124
73 92 122
73 94 125
71 91 120
74 95 127
71 90 120
72 93 124
69 90 122
72 93 124
73 94 125
71 92 122
73 95 127
73 93 123
70 91 121
72 93 124
72 93 123
71 91 120
74 95 126
71 92 122
74 94 125
72 93 125
74 95 125
71 91 121
72 93 123
72 92 121
72 93 124
71 91 121
70 90 120
74 94 123
70 91 122
72 91 121
73 93 125
72 92 122
73 93 124
73 94 125
72 93 124
72 93 124
74 93 123
73 93 124
73 94 124
72 92 122
72 92 121
73 93 123
72 92 122
71 92 123
73 94 125
70 90 120
73 93 124
71 91 122
73 93 124
69 90 120
72 93 124
71 92 124
72 93 124
72 94 125
74 94 125
74 95 126
71 92 124
72 92 122
72 91 121
74 94 125
72 92 122
74 94 124
73 94 125
71 91 120
74 94 123
72 93 124
73 94 125
73 93 123
73 93 124
72 93 124
71 92 122
73 94 125
76 96 126
72 93 125
74 94 123
72 93 124
74 94 126
72 92 123
73 94 126
73 93 123
74 95 125
71 91 122
72 93 123
73 95 127
74 94 125
74 95 126
72 92 122
74 94 125
73 95 126
74 94 123
71 91 122
75 95 126
73 94 124
74 95 126
73 94 125
71 93 124
74 95 126
72 93 123
74 94 124
72 94 126
74 94 126
72 92 123
75 95 127
75 95 126
72 93 125
72 93 125
73 94 126
73 94 126
73 93 124
72 93 123
72 93 125
73 93 123
73 93 124
73 94 126
73 94 125
71 92 123
72 92 123
74 95 127
74 95 126
73 93 124
73 94 125
73 94 125
73 94 126
72 93 125
74 95 127
74 94 125
72 93 124
75 95 127
75 95 126
75 96 128
74 95 126
89 109 140
117 138 170
142 163 195
181 203 235
201 223 255
201 223 255
201 223 255
201 223 255
201 223 255
201 223 255
201 223 255
201 223 255
201 223 255
201 223 255
201 223 255
201 223 255
201 223 255
201 223 255
201 223 255
201 223 255
200 222 255
200 222 255
200 222 255
200 222 255
200 222 255
200 222 255
200 222 255
200 222 255
200 222 255
200 222 255
200 222 255
200 222 255
200 222 255
200 222 255
200 222 255
200 222 255
200 222 255
201 223 255
201 223 255
201 223 255
201 223 255
201 223 255
201 223 255
201 223 255
201 223 255
201 223 255
201 223 255
201 223 255
201 223 255
201 223 255
201 223 255
201 223 255
201 223 255
201 223 255
201 223 255
201 223 255
201 223 255
201 223 255
201 223 255
167 188 221
129 150 183
91 112 144
76 96 126
74 95 126
77 97 126
72 92 123
72 93 124
74 95 125
74 95 127
74 95 127
74 95 126
74 95 126
75 95 126
75 95 125
72 93 125
72 93 126
75 96 127
74 95 125
72 93 124
74 95 126
73 94 124
73 94 126
73 94 125
74 95 126
74 95 127
75 95 125
75 95 126
73 94 124
75 95 126
74 95 125
73 95 127
74 95 126
73 94 126
75 95 126
72 92 122
73 94 124
72 92 123
71 91 121
75 95 126
73 94 125
74 94 126
72 93 123
74 94 124
74 95 126
73 93 124
72 93 124
72 92 123
74 94 124
74 94 124
72 93 125
70 91 122
74 94 125
74 94 125
74 94 124
72 93 125
75 96 127
73 93 124
72 91 121
75 95 126
75 96 127
73 93 123
73 94 125
73 95 127
72 93 124
71 91 122
73 93 125
72 92 121
71 92 122
72 92 123
74 95 126
73 94 125
73 94 126
72 92 122
73 93 124
73 94 124
73 93 124
70 90 121
73 93 122
73 94 125
74 94 126
74 94 124
72 93 123
70 91 122
70 89 117
73 93 124
71 91 121
73 93 124
72 92 123
73 93 124
74 93 122
73 93 123
73 94 124
71 92 123
73 93 124
71 91 122
71 92 124
70 90 120
71 92 122
73 93 122
74 95 127
73 93 123
72 92 123
74 94 125
73 93 125
72 93 124
74 93 123
73 94 125
72 93 124
72 92 123
72 92 122
74 94 125
74 94 125
73 93 121
74 94 125
72 92 121
72 92 122
72 92 122
71 92 123
73 94 124
72 91 120
72 92 122
71 91 122
73 93 123
74 94 125
73 93 124
73 93 125
71 91 121
75 95 125
74 94 124
72 92 123
75 95 125
73 94 126
72 93 123
71 91 120
73 94 125
74 95 126
72 93 124
70 90 120
72 93 124
73 93 123
73 93 123
71 92 122
73 92 122
74 94 124
72 91 121
75 95 126
73 93 124
70 90 119
72 93 125
71 90 120
74 94 125
72 93 124
73 94 125
74 94 125
73 93 123
72 92 123
70 90 120
70 91 122
72 92 122
72 93 124
73 93 124
73 92 122
73 94 126
72 92 123
71 91 122
71 92 123
70 91 122
72 93 125
74 94 124
70 90 120
69 88 118
72 93 124
75 95 125
75 94 123
74 95 125
72 92 122
73 93 124
72 92 123
72 92 124
72 92 122
75 94 124
73 93 123
72 92 122
75 95 125
74 94 124
70 90 121
73 93 122
73 94 124
73 93 123
73 94 126
72 93 124
74 94 124
73 94 124
72 93 123
72 92 124
72 92 123
73 93 124
70 91 122
72 92 123
75 94 124
72 92 122
71 92 122
74 94 124
73 93 123
71 91 121
72 92 122
70 90 120
70 90 121
72 92 122
73 94 126
71 91 121
71 91 120
73 93 123
71 91 121
72 92 122
73 93 124
73 93 123
74 94 123
73 93 124
73 93 123
72 91 121
73 94 124
72 93 125
73 94 125
75 96 126
73 94 126
72 91 120
71 92 123
73 93 122
72 93 124
73 93 123
73 93 123
75 96 127
72 92 122
72 91 120
72 92 122
72 92 122
71 91 121
74 95 127
73 94 125
75 95 124
74 94 124
71 91 121
72 92 121
72 93 124
75 95 125
74 95 126
71 91 122
72 93 124
73 93 123
73 93 123
72 92 122
72 92 123
72 92 122
73 93 123
71 91 121
72 92 123
74 95 126
74 95 126
74 95 126
71 92 123
73 94 125
71 92 122
75 96 127
73 94 124
71 91 121
73 94 125
72 92 123
72 93 124
73 93 124
74 95 126
72 93 124
72 93 124
71 91 121
72 93 123
73 94 125
72 92 121
74 94 125
73 93 124
73 93 124
74 95 126
71 93 125
72 92 123
74 94 125
73 94 125
73 94 126
72 92 124
72 93 123
73 93 124
74 95 126
74 93 123
73 93 124
71 91 121
72 93 123
74 95 126
74 95 127
75 96 128
72 93 124
74 96 128
73 94 126
73 94 125
73 93 124
72 93 125
72 92 123
73 94 125
75 95 126
74 95 126
73 93 124
74 94 124
72 92 123
72 93 123
75 95 126
74 95 126
74 95 126
74 93 123
77 97 128
71 91 121
73 94 126
74 95 126
74 94 125
73 93 123
75 95 126
75 96 127
75 96 127
73 94 125
74 94 126
76 96 126
73 95 127
72 93 124
72 92 123
74 95 126
74 95 126
73 93 124
74 95 126
73 94 126
72 94 126
74 94 125
73 94 126
74 95 126
74 95 127
76 96 126
74 95 126
74 95 126
73 93 125
97 118 149
130 151 183
170 191 224
199 220 253
201 223 255
201 223 255
201 223 255
201 223 255
201 223 255
201 223 255
201 223 255
201 223 255
201 223 255
201 223 255
201 223 255
201 223 255
201 223 255
201 223 255
201 223 255
201 223 255
201 223 255
201 223 255
201 223 255
201 223 255
200 222 255
200 222 255
200 222 255
200 222 255
200 222 255
201 223 255
201 223 255
201 223 255
201 223 255
201 223 255
201 223 255
201 223 255
201 223 255
201 223 255
201 223 255
201 223 255
201 223 255
201 223 255
201 223 255
201 223 255
201 223 255
201 223 255
201 223 255
201 223 255
201 223 255
201 223 255
201 223 255
190 212 244
146 167 199
121 142 174
86 107 138
74 95 126
75 96 127
74 94 125
76 96 128
74 95 127
75 95 126
76 96 127
75 96 126
73 94 126
74 95 126
74 95 126
74 95 126
74 95 126
74 94 125
75 95 126
73 94 126
74 94 125
74 95 126
72 93 124
73 93 123
75 95 127
75 95 126
73 94 126
73 94 125
76 96 127
74 94 126
73 93 124
72 93 124
74 94 125
72 93 124
75 95 126
74 95 127
71 92 122
73 94 125
73 94 125
73 94 125
76 96 127
74 95 126
74 95 127
71 91 121
71 91 121
73 93 122
74 94 126
73 93 125
75 95 125
74 94 123
74 94 125
74 94 125
75 95 126
75 95 126
74 95 126
73 94 124
73 94 126
73 94 125
73 93 123
71 91 121
73 93 124
74 95 127
71 92 124
75 94 124
74 94 125
73 93 123
71 91 121
75 96 126
73 94 125
72 93 123
72 93 125
74 94 125
73 93 123
71 93 125
73 93 123
71 92 123
75 96 128
73 94 126
73 93 123
73 94 124
73 93 123
71 92 124
74 95 127
75 95 126
72 92 123
75 95 125
73 93 124
72 92 124
75 95 125
73 94 126
71 91 121
73 93 123
72 93 123
71 91 120
73 93 123
74 94 124
74 93 123
74 95 126
72 93 123
72 92 121
73 93 124
72 92 123
74 95 126
74 94 125
72 92 122
74 94 125
73 94 124
72 92 123
73 94 125
73 93 123
72 93 123
71 93 124
75 95 126
75 95 126
72 92 122
72 91 121
75 95 127
74 94 125
72 91 121
72 92 123
73 93 124
72 92 123
72 92 121
71 91 122
74 94 126
73 94 125
71 91 121
74 94 124
73 93 124
73 93 123
71 91 121
71 92 122
71 91 121
73 93 124
72 92 122
72 92 123
71 92 122
72 92 123
72 92 121
73 94 126
73 93 124
73 93 124
72 93 123
75 95 125
72 93 124
72 92 121
71 92 123
74 94 124
73 93 124
74 95 126
73 93 123
72 92 122
72 92 122
74 94 124
72 92 123
73 93 123
73 94 125
71 90 120
72 92 122
70 90 120
71 92 123
72 93 125
71 92 123
72 92 121
71 92 122
70 90 120
72 93 124
72 91 120
71 91 122
72 93 123
70 91 121
72 92 121
72 92 123
74 94 124
71 91 120
71 91 122
75 95 125
73 94 125
72 93 123
75 95 126
72 92 122
75 95 125
71 91 120
71 92 122
72 93 124
70 89 119
70 90 120
73 93 123
73 93 124
74 95 126
72 93 124
72 93 125
74 94 125
70 91 122
73 94 125
72 93 124
70 91 121
71 92 122
72 93 125
72 93 125
74 94 124
72 93 125
73 93 124
73 93 124
71 90 119
72 92 121
75 95 125
74 95 126
73 92 122
73 94 125
73 94 125
70 90 120
73 94 126
70 91 121
74 94 124
70 91 122
72 92 122
72 92 123
72 92 122
71 91 121
74 96 128
71 92 122
74 94 125
72 93 124
71 91 121
73 93 123
74 94 124
73 94 125
74 94 125
72 92 124
70 90 119
72 92 121
72 93 124
73 94 125
70 92 124
73 94 126
75 95 126
74 93 122
71 91 120
75 95 126
74 94 123
73 93 124
74 93 123
72 93 123
69 89 118
70 90 120
74 94 125
73 93 122
72 92 122
74 95 126
74 95 126
73 94 124
72 91 120
73 92 122
74 94 124
73 94 125
73 93 124
73 94 126
73 93 122
73 94 124
70 90 121
72 93 124
73 92 121
70 89 119
72 93 123
74 94 124
72 93 123
74 94 124
73 93 123
73 94 125
73 95 127
72 93 123
72 93 124
71 92 123
73 93 123
72 93 124
72 92 122
72 93 124
71 92 123
74 95 126
74 94 124
72 92 123
73 93 123
73 93 124
71 92 122
73 93 124
73 93 124
73 94 126
73 93 123
74 95 127
74 94 124
75 95 126
74 95 127
73 93 124
71 91 122
73 93 124
72 92 123
73 94 124
74 95 126
72 91 121
73 94 125
73 94 125
72 92 122
73 93 124
72 93 124
75 95 125
75 95 127
72 93 123
74 94 124
75 96 127
74 94 125
75 96 127
73 93 124
76 96 126
72 93 124
71 92 123
73 94 126
74 95 127
72 92 123
74 94 125
73 94 125
73 94 125
75 95 125
73 94 126
74 95 126
74 94 124
74 95 126
75 96 126
74 94 125
73 94 125
73 94 126
72 94 126
75 95 124
73 94 126
72 91 120
74 94 126
74 95 128
74 94 124
74 95 126
74 95 127
75 96 126
73 93 123
74 94 124
73 94 125
72 92 123
75 95 126
74 95 126
75 95 126
77 97 127
73 94 126
73 94 126
76 97 128
91 112 144
119 141 172
156 177 209
195 217 249
201 223 255
201 223 255
201 223 255
201 223 255
201 223 255
201 223 255
201 223 255
201 223 255
201 223 255
201 223 255
201 223 255
201 223 255
201 223 255
201 223 255
201 223 255
201 223 255
201 223 255
201 223 255
201 223 255
201 223 255
201 223 255
201 223 255
201 223 255
201 223 255
201 223 255
201 223 255
201 223 255
201 223 255
201 223 255
201 223 255
201 223 255
201 223 255
201 223 255
201 223 255
201 223 255
201 223 255
201 223 255
201 223 255
201 223 255
202 223 255
202 223 255
178 199 231
153 175 207
110 131 162
80 100 131
75 96 128
74 95 127
74 95 126
73 94 126
74 95 126
74 94 125
76 96 126
74 95 126
74 95 126
73 94 126
73 95 126
74 95 126
75 95 126
75 95 126
74 95 126
75 95 125
74 94 124
73 93 124
74 95 126
74 94 125
75 96 127
71 92 123
74 96 128
73 93 122
74 94 125
71 92 123
73 93 122
71 91 122
74 95 126
73 95 126
74 94 124
75 95 126
74 95 125
74 94 125
74 94 124
74 95 126
75 96 127
74 95 126
71 92 122
73 94 126
74 95 126
72 93 124
73 94 125
74 95 126
75 95 126
74 94 126
73 94 126
73 93 124
73 94 125
73 94 125
74 94 124
73 93 124
72 92 122
73 93 123
74 95 126
76 95 124
74 95 126
75 96 127
73 94 125
75 95 125
75 95 126
74 94 125
72 93 124
73 93 124
73 94 125
73 93 122
74 93 123
71 92 122
75 95 126
72 93 123
72 92 122
72 92 123
71 92 124
73 93 124
73 93 123
73 93 124
72 92 123
72 93 124
71 92 124
76 96 126
72 92 121
73 92 121
72 92 121
73 93 123
74 94 124
74 93 123
72 93 124
74 96 128
73 93 125
72 93 123
74 94 126
76 96 127
73 93 124
73 93 123
75 95 124
74 94 124
72 92 122
74 95 126
74 94 124
74 95 126
72 92 123
72 92 122
72 92 123
72 94 126
71 91 122
72 92 121
74 94 124
74 94 125
71 92 123
71 90 120
73 93 123
73 93 123
74 94 124
72 91 120
73 93 124
74 94 125
72 93 125
74 94 123
73 93 124
71 92 123
74 94 126
73 93 124
73 94 125
72 93 123
73 94 126
72 92 123
73 94 126
74 94 124
73 93 123
72 93 124
73 94 125
71 91 121
73 93 125
71 93 124
74 95 125
73 93 124
73 93 125
73 94 124
73 93 123
72 92 122
72 93 125
73 92 121
73 94 126
72 92 123
73 94 125
73 94 126
73 93 123
72 93 123
72 91 120
73 93 122
73 93 123
72 92 122
74 95 126
72 91 121
72 92 122
74 94 125
73 93 124
72 92 123
73 93 123
72 92 122
70 91 123
74 94 125
71 92 122
73 93 123
74 94 125
73 92 122
72 92 122
73 93 123
73 94 125
70 92 123
71 92 124
75 95 126
73 94 124
73 93 124
73 94 125
69 88 118
73 94 125
74 94 123
76 96 127
73 94 124
72 93 124
73 93 124
75 95 125
72 92 122
74 94 126
72 92 122
74 95 126
72 92 123
70 90 118
72 93 124
73 93 123
74 93 123
74 94 125
73 94 125
72 92 121
73 94 125
71 91 120
72 93 125
73 94 124
73 93 123
72 92 121
73 94 126
72 92 123
72 92 123
73 94 126
74 95 126
68 89 120
75 95 126
72 92 123
73 93 123
71 92 123
73 94 126
75 94 124
76 96 126
73 93 123
73 94 126
72 93 124
72 91 120
73 92 122
73 93 124
71 91 120
74 94 124
73 93 123
74 94 124
72 92 123
74 94 124
73 94 124
73 93 123
74 95 126
72 93 123
73 93 123
74 95 125
71 91 122
72 92 123
73 93 123
74 95 126
73 93 124
71 91 121
71 91 120
72 93 123
72 93 124
71 92 124
73 94 126
70 90 120
72 92 122
71 91 120
73 93 124
72 92 122
71 93 124
73 93 123
73 94 125
73 93 123
74 95 125
74 94 125
72 93 124
72 92 122
73 94 126
72 93 125
73 92 122
71 92 123
69 89 120
72 92 123
72 92 123
72 91 121
74 94 125
72 92 123
72 93 124
73 93 123
73 94 125
73 94 124
76 96 126
73 94 126
75 95 124
74 94 124
72 92 123
72 93 124
73 94 126
73 94 124
73 93 124
72 92 122
70 90 121
75 95 125
73 93 122
73 93 123
72 92 122
73 93 124
75 95 125
75 95 126
73 94 125
73 93 124
73 94 124
72 93 126
73 94 125
73 94 125
75 95 126
73 94 125
74 94 124
73 93 124
74 95 126
72 92 123
73 94 124
74 95 126
75 95 126
74 94 125
72 93 124
74 95 127
73 94 126
71 91 120
73 94 126
73 94 125
74 95 125
74 95 127
71 91 121
74 94 124
73 93 122
74 95 125
73 94 124
74 95 126
75 95 126
74 95 127
74 95 126
72 92 123
73 94 125
75 96 127
73 94 125
73 94 126
73 94 126
72 94 126
70 90 121
72 92 121
73 94 124
74 95 126
72 93 125
73 94 126
73 94 126
74 96 128
74 94 124
73 93 123
75 95 126
75 95 125
73 95 126
73 94 126
73 94 125
74 94 123
75 95 126
74 95 126
76 96 127
74 95 127
75 96 127
73 94 125
73 93 124
73 94 125
73 94 126
75 95 127
75 97 129
111 133 165
137 158 189
174 195 227
200 222 254
202 223 255
201 223 255
201 223 255
201 223 255
201 223 255
201 223 255
201 223 255
201 223 255
201 223 255
201 223 255
201 223 255
201 223 255
201 223 255
201 223 255
201 223 255
201 223 255
201 223 255
201 223 255
201 223 255
201 223 255
201 223 255
201 223 255
201 223 255
201 223 255
201 223 255
201 223 255
201 223 255
202 223 255
202 223 255
202 223 255
202 223 255
202 223 255
202 223 255
199 221 253
157 178 210
113 135 167
85 106 138
74 95 126
74 95 126
75 95 126
75 96 127
75 95 126
74 94 125
72 94 126
74 95 126
73 94 126
72 93 125
76 97 128
73 95 127
75 95 126
73 94 126
73 94 126
74 95 125
74 95 125
73 93 124
74 95 127
73 95 127
74 95 127
73 94 125
73 94 125
74 95 126
76 96 126
74 95 126
74 95 127
74 95 126
75 96 127
73 93 124
71 92 123
73 93 123
75 96 127
73 94 125
73 94 126
74 95 125
73 95 126
73 94 125
72 93 124
72 93 125
74 94 126
74 93 123
73 94 126
73 93 123
73 93 124
74 94 123
73 94 125
75 95 126
73 94 126
75 96 127
73 94 126
74 95 126
71 92 123
75 95 126
75 96 126
75 96 127
75 96 127
74 95 125
73 93 123
74 94 125
72 94 126
74 95 126
75 96 126
72 92 123
73 94 125
69 90 120
72 94 126
72 93 124
74 95 128
73 93 122
74 94 124
72 93 123
74 95 126
73 93 124
72 92 122
72 93 124
72 92 123
72 93 125
73 93 124
72 93 125
73 93 124
70 91 122
73 93 123
73 94 125
73 94 125
74 95 126
72 93 124
73 93 124
74 94 125
75 95 124
73 94 126
71 90 119
76 95 125
74 94 125
72 93 123
73 94 124
73 93 124
71 92 123
71 90 118
73 93 124
72 94 125
73 94 126
74 94 124
75 95 126
74 95 126
72 92 123
73 94 126
72 93 124
72 92 123
73 93 122
71 91 123
74 94 126
74 94 123
75 95 126
74 95 127
73 94 125
74 94 125
73 94 124
74 94 123
74 94 124
73 93 123
71 92 123
73 94 125
71 92 123
73 93 123
71 90 120
73 93 123
74 95 125
74 95 127
71 92 123
72 93 123
73 93 124
72 93 124
73 94 126
73 94 124
72 93 124
75 96 126
73 93 124
72 92 122
73 93 123
73 94 126
74 94 124
74 95 127
73 92 122
74 95 126
74 95 126
71 92 123
70 90 120
73 94 125
73 94 125
74 94 123
74 95 125
72 93 123
74 94 125
72 93 123
72 92 123
71 90 120
73 93 123
72 93 123
74 95 126
72 92 123
74 93 123
71 92 123
71 91 120
73 92 121
71 91 121
72 92 123
71 91 120
71 92 123
72 92 122
71 92 123
72 92 122
72 92 123
73 93 125
71 92 122
72 93 124
71 92 123
71 92 124
74 95 126
74 94 125
73 94 126
74 95 126
74 94 124
73 93 124
73 93 124
73 92 121
74 94 123
73 93 124
72 93 124
72 93 123
73 94 125
74 96 128
73 93 123
74 95 126
71 92 123
73 93 123
73 94 124
73 93 123
74 94 125
73 94 126
73 94 125
73 94 125
71 91 122
73 92 120
74 94 124
71 91 121
72 92 121
76 95 125
73 94 125
71 91 121
75 95 124
74 95 126
73 93 122
72 93 124
74 95 126
72 92 122
75 95 126
75 95 125
73 93 123
72 92 122
71 91 121
71 92 122
72 93 123
74 94 124
74 94 124
72 93 124
73 93 123
73 94 125
72 93 124
71 93 125
72 93 125
70 91 122
71 92 122
74 94 126
73 94 126
75 96 127
73 93 124
73 93 123
76 96 126
74 94 124
72 92 122
71 91 122
73 93 123
74 94 124
73 94 125
74 94 125
72 92 122
71 91 121
73 94 125
72 93 123
73 93 123
72 91 121
72 93 124
74 94 123
73 94 124
73 93 124
74 94 125
74 95 126
74 94 124
72 92 123
72 93 124
72 92 123
73 94 125
71 91 122
72 93 125
72 91 121
73 94 124
72 92 121
73 94 124
73 94 124
72 93 125
72 92 122
73 94 125
72 93 125
73 93 123
73 93 123
74 95 126
72 94 126
74 95 127
70 90 120
73 93 124
72 93 123
73 94 125
72 93 124
73 94 126
72 93 123
73 93 124
75 95 126
73 93 123
74 95 126
73 93 124
72 92 123
75 95 125
73 93 123
73 93 124
73 93 122
73 94 125
74 94 125
73 93 124
73 94 125
73 93 124
73 94 125
76 96 128
74 95 126
73 93 124
73 94 126
74 95 127
73 93 125
74 94 125
74 95 125
73 95 126
73 95 126
74 94 126
74 95 126
73 94 125
74 95 127
73 93 123
73 93 124
74 95 126
74 95 127
73 94 125
75 95 126
74 94 126
72 93 124
74 95 126
75 96 126
72 92 123
73 94 125
75 95 126
74 94 126
75 94 124
74 95 126
74 94 124
73 93 125
74 95 126
73 94 127
76 96 126
74 95 126
73 94 126
73 94 125
75 95 126
74 95 126
74 95 127
72 92 124
75 96 126
74 95 126
74 94 124
73 94 124
75 95 126
72 94 125
73 94 126
74 95 126
75 95 126
74 95 125
74 95 126
75 96 128
74 94 124
75 96 127
74 95 127
75 96 127
76 96 126
73 94 125
95 115 146
126 147 179
165 186 217
194 216 248
202 223 255
202 223 255
202 223 255
202 223 255
202 223 255
201 223 255
201 223 255
201 223 255
201 223 255
201 223 255
201 223 255
201 223 255
201 223 255
201 223 255
201 223 255
201 223 255
201 223 255
202 223 255
202 223 255
202 223 255
202 223 255
202 223 255
202 223 255
202 223 255
202 223 255
202 223 255
202 223 255
189 211 243
160 181 213
109 130 161
79 100 131
74 95 126
75 95 125
74 95 126
75 96 127
76 96 128
75 96 127
74 94 124
73 93 123
74 95 126
74 95 126
73 94 125
74 95 126
75 94 124
75 96 127
73 93 122
73 94 126
73 94 125
73 94 125
73 93 123
75 95 125
73 94 126
73 93 124
74 95 126
73 94 126
73 94 126
74 95 126
74 95 126
73 93 124
75 95 126
72 92 122
73 94 125
73 95 126
76 96 126
72 93 125
73 93 123
74 94 125
73 94 124
73 94 125
73 93 124
74 95 125
74 95 126
74 95 126
74 95 126
73 93 123
72 92 123
74 94 125
73 94 126
74 94 125
73 93 124
74 94 125
74 94 126
74 94 124
74 95 126
76 96 126
72 93 124
73 94 126
72 93 123
72 92 122
73 94 125
71 92 125
75 95 124
75 95 125
71 92 123
73 94 125
74 94 125
71 92 123
73 94 125
74 95 126
72 91 121
74 95 126
73 94 126
72 93 124
73 94 126
73 94 126
73 94 126
74 94 126
72 93 124
73 93 124
71 92 122
72 93 125
73 92 121
72 93 124
73 94 126
73 93 124
75 95 126
76 96 125
74 94 125
71 91 121
74 94 124
74 94 125
74 95 126
74 94 125
70 90 121
73 94 125
73 93 125
72 93 123
72 93 124
73 93 124
73 94 125
74 93 123
76 96 126
73 93 122
73 93 124
76 96 126
71 92 123
73 94 125
71 91 121
72 93 125
73 93 123
71 91 122
74 94 125
75 95 125
73 94 125
71 92 123
75 95 124
74 94 124
71 91 121
71 92 123
73 93 123
73 94 126
73 93 124
73 94 126
72 92 123
72 93 124
71 92 123
74 95 126
70 91 121
72 92 121
75 96 127
72 93 124
71 92 122
73 93 124
73 94 124
72 93 124
72 93 123
75 96 126
72 92 122
73 94 125
73 94 125
75 95 124
73 94 125
73 94 125
72 92 121
73 94 126
74 94 124
73 94 126
74 95 126
73 94 126
73 94 124
72 92 122
73 94 124
73 94 124
72 92 123
74 94 124
75 95 126
72 93 123
74 95 126
72 93 124
72 91 121
74 95 126
71 91 122
74 95 126
74 94 125
72 93 124
73 93 124
70 90 120
73 93 124
73 93 124
73 94 125
72 92 123
70 91 121
73 93 124
72 93 124
72 91 120
70 91 123
72 93 124
74 94 125
73 94 125
71 92 124
73 93 124
73 93 124
73 94 125
73 94 126
71 93 125
75 96 126
72 93 123
74 94 124
71 91 120
71 91 121
75 96 127
73 95 127
70 91 122
72 93 125
73 94 125
73 93 124
73 94 125
71 92 122
74 94 124
72 93 123
72 92 123
74 94 126
75 95 125
73 94 125
74 95 126
75 95 124
71 91 122
74 95 126
73 94 124
73 93 124
73 94 124
74 94 126
74 94 124
72 93 123
73 94 125
74 94 124
74 95 126
75 95 126
71 92 124
74 94 123
73 94 124
74 94 123
73 94 125
74 95 127
72 93 124
72 93 125
73 94 124
73 93 124
75 95 125
73 94 125
74 94 125
74 94 124
72 93 123
74 95 127
72 92 121
71 93 125
73 94 124
71 92 124
73 94 126
73 94 126
73 93 124
70 90 121
71 92 123
75 96 127
74 94 125
73 94 126
71 91 122
72 93 124
71 91 122
70 91 122
71 92 123
73 93 123
72 93 123
72 93 124
74 93 123
73 94 125
71 92 124
70 91 123
73 93 123
72 92 122
74 94 125
73 94 124
73 93 123
72 92 122
72 93 123
72 93 123
71 92 123
72 93 124
74 95 126
75 95 125
74 95 126
75 94 123
73 93 123
72 93 125
74 94 125
74 95 126
72 93 123
74 94 124
71 92 123
73 94 126
70 90 120
73 94 125
73 93 124
75 95 126
74 94 124
74 93 123
73 94 125
73 93 124
71 91 122
72 92 122
72 94 126
74 95 126
73 93 124
72 92 121
73 93 124
73 93 124
72 92 122
74 95 126
72 92 123
74 94 124
74 94 125
74 95 126
73 93 124
74 94 124
72 93 125
73 93 123
73 94 126
75 96 128
73 94 126
73 94 125
74 94 124
74 94 125
71 92 123
72 92 123
72 93 124
74 94 125
73 94 125
74 95 126
74 95 127
74 94 125
75 96 127
75 95 125
72 93 123
72 93 125
74 96 128
73 94 126
75 96 127
73 93 124
73 94 124
74 95 126
75 95 126
76 96 127
74 94 124
73 94 126
75 96 128
73 94 126
72 93 125
75 96 127
74 94 126
74 95 126
72 93 123
74 95 125
75 96 127
72 92 123
75 96 127
75 96 128
74 95 126
75 96 126
73 94 126
73 94 124
77 97 127
73 94 125
73 94 125
72 94 126
75 95 125
74 95 126
73 94 126
74 94 125
74 95 127
74 95 126
75 95 126
75 96 128
74 95 126
74 95 128
71 93 125
76 96 126
75 96 128
73 95 126
75 96 127
87 107 138
114 135 167
155 177 209
186 208 240
202 223 255
202 223 255
202 223 255
202 223 255
202 223 255
202 223 255
202 223 255
202 223 255
202 223 255
202 223 255
201 223 255
201 223 255
202 223 255
202 223 255
202 223 255
202 223 255
202 223 255
202 223 255
202 223 255
202 223 255
202 223 255
176 197 229
132 153 184
107 128 160
75 96 128
75 95 126
75 95 126
73 94 126
74 95 127
74 94 125
74 95 126
75 96 127
75 96 127
75 96 128
74 95 126
75 96 127
75 96 127
74 95 127
75 95 126
72 93 124
74 94 126
72 93 123
75 96 128
74 95 126
74 94 125
75 96 126
76 96 127
74 94 125
72 93 124
71 91 121
72 93 123
74 95 127
75 96 127
74 95 125
73 94 126
73 94 126
74 94 125
73 94 125
75 96 127
74 94 125
74 95 126
73 93 124
72 93 124
75 96 128
75 96 127
72 93 124
73 93 124
76 96 127
74 94 126
73 94 126
73 94 124
71 92 123
75 96 127
74 95 126
73 94 125
71 91 121
74 95 126
73 94 126
73 93 124
72 93 124
73 94 125
73 93 123
74 94 125
73 94 126
73 94 126
75 95 124
74 94 124
72 93 125
72 93 124
74 95 126
74 95 126
74 94 124
74 95 127
72 94 126
73 94 125
73 94 126
72 93 123
74 94 124
73 94 125
74 94 124
74 95 126
74 95 126
75 95 127
72 93 123
75 95 125
73 94 125
74 95 126
75 95 124
73 95 126
73 94 125
72 92 123
73 93 125
75 95 126
71 91 121
72 92 123
72 92 123
73 94 125
73 93 124
73 94 126
73 93 122
71 93 124
73 92 122
74 95 126
72 93 124
74 95 126
75 96 126
72 92 122
73 94 125
72 93 125
73 94 125
75 94 124
75 95 126
71 92 124
72 92 123
72 92 123
74 94 124
72 92 121
73 93 125
72 93 124
70 91 122
72 92 122
74 94 126
72 92 122
71 92 123
73 93 124
73 93 124
73 93 123
74 95 127
70 90 120
72 94 126
73 94 125
72 92 123
75 95 126
74 95 126
73 94 125
73 93 124
73 94 126
74 95 126
72 93 124
72 93 125
71 91 121
73 94 126
72 92 122
72 92 123
73 93 123
73 94 126
72 92 123
72 93 125
73 94 125
73 93 124
70 90 120
73 93 124
72 93 124
70 91 123
74 94 126
71 92 122
71 91 121
72 93 125
74 95 126
74 94 123
72 93 123
72 92 122
72 93 124
72 92 122
73 94 126
73 93 123
74 94 124
72 93 124
72 92 123
74 94 124
74 94 125
72 92 122
73 93 124
75 95 126
70 90 120
73 94 124
72 92 122
71 91 121
74 95 127
74 94 124
73 94 126
73 93 123
73 94 125
72 93 124
70 90 120
72 93 124
74 94 126
72 92 123
72 93 123
72 92 123
73 94 125
73 94 125
71 92 123
73 93 124
73 94 125
73 94 125
74 95 125
73 93 124
72 92 123
74 95 126
71 92 122
73 93 123
72 92 122
72 92 122
72 92 123
72 92 123
73 92 120
73 93 124
72 92 122
73 93 123
69 89 120
74 95 127
71 91 122
73 93 124
70 90 121
74 95 126
73 94 124
73 94 125
75 95 126
72 92 123
74 94 124
72 92 122
73 93 122
74 94 124
72 93 125
74 94 124
74 94 124
74 95 127
72 92 121
71 91 122
71 92 123
72 92 124
72 93 124
71 92 123
73 93 123
73 94 124
74 94 125
71 92 123
73 93 124
73 93 124
72 92 123
73 94 125
73 92 122
71 92 123
73 94 126
72 93 124
72 93 124
72 93 125
72 92 123
72 93 124
73 94 126
73 93 123
72 92 123
73 93 124
74 94 124
74 95 126
72 93 124
71 92 123
72 92 123
71 91 121
73 95 126
74 95 126
71 92 124
71 92 123
72 93 123
74 94 126
73 93 123
72 93 123
73 94 124
72 93 124
73 94 124
75 96 126
74 94 124
74 95 127
72 91 120
73 94 125
73 94 126
72 93 123
73 94 126
75 94 124
73 94 126
74 94 124
73 94 126
73 93 124
70 91 122
73 93 124
72 92 124
74 94 125
73 93 124
73 95 126
73 94 125
73 93 125
75 95 126
72 93 124
72 92 123
73 94 125
74 94 125
73 93 124
74 94 125
73 93 124
73 94 125
73 93 124
75 95 126
73 93 123
74 95 126
72 92 122
74 94 125
75 95 125
73 94 125
74 94 125
73 93 123
73 94 125
74 95 125
71 91 122
72 93 125
74 95 126
71 92 123
73 93 123
74 95 125
73 94 126
72 93 123
72 93 124
73 93 124
73 94 126
75 95 126
73 92 121
73 93 124
72 93 124
75 94 124
74 95 126
74 94 123
72 92 123
73 93 124
73 94 125
73 94 126
73 94 125
75 96 127
74 93 122
73 94 125
75 95 126
73 94 126
74 94 125
73 95 126
74 94 124
75 95 126
73 94 125
73 93 125
75 95 126
74 95 126
76 96 127
73 94 126
74 94 125
73 94 124
74 94 124
74 95 126
73 94 125
73 93 124
73 93 124
73 94 125
76 96 126
73 94 126
73 94 126
73 94 124
73 93 124
74 95 127
75 96 128
75 95 126
73 94 126
75 95 126
73 94 126
72 93 126
76 96 126
73 95 127
74 94 125
73 95 127
75 96 127
76 96 127
75 95 126
75 95 126
75 96 127
101 122 153
149 170 202
176 198 230
199 221 253
202 223 255
202 223 255
202 223 255
202 223 255
202 223 255
202 223 255
202 223 255
202 223 255
202 223 255
202 223 255
202 223 255
202 223 255
202 223 255
200 221 253
172 193 225
119 140 172
87 109 140
75 96 127
75 95 127
75 96 127
76 96 127
74 94 125
74 94 124
74 96 128
76 96 126
73 94 125
72 93 126
75 96 128
74 94 124
74 95 126
74 94 125
74 95 127
74 95 126
74 95 127
75 95 125
74 95 126
75 96 128
74 94 126
73 94 125
77 97 128
73 93 123
74 95 128
73 93 124
75 95 124
75 95 126
75 96 128
74 94 126
73 94 126
75 96 128
72 93 123
73 94 124
76 97 128
74 95 125
75 96 127
75 96 126
74 94 123
72 92 122
74 95 127
74 95 126
74 95 126
71 92 124
76 96 127
73 94 125
74 95 127
73 93 123
75 96 127
74 95 127
73 95 127
74 95 125
73 94 126
73 94 126
75 94 124
73 93 124
74 95 126
74 95 125
74 94 126
73 94 125
74 95 126
74 95 126
75 95 126
74 95 125
76 96 126
74 95 125
72 92 123
72 92 123
74 95 126
72 93 124
75 95 126
75 95 125
73 94 125
73 93 124
76 96 128
74 94 124
74 95 127
72 93 124
72 92 122
74 94 124
73 94 125
76 96 127
74 94 125
74 95 127
71 91 122
72 93 125
73 93 124
72 92 122
70 89 119
74 95 127
74 94 125
73 94 124
73 93 122
72 92 121
72 93 124
72 93 125
71 91 120
74 95 126
72 93 124
73 93 124
72 93 124
73 93 123
74 94 124
73 93 124
74 94 124
74 94 124
72 92 123
73 94 126
72 93 124
69 90 121
73 93 123
71 92 122
74 95 127
74 94 125
74 95 126
72 92 122
72 92 122
74 94 126
73 93 124
74 94 123
72 93 124
72 93 124
74 95 126
74 93 122
72 93 123
75 94 123
73 93 124
72 93 124
73 94 124
72 92 122
74 95 126
71 92 122
74 95 126
73 93 123
71 92 123
70 91 123
72 93 123
72 93 123
72 93 124
74 94 124
76 97 128
71 93 125
72 92 122
72 93 124
72 93 124
72 93 126
74 94 124
70 90 120
71 91 122
74 94 125
71 92 123
73 95 127
71 91 123
73 94 125
75 96 127
75 96 126
73 93 124
73 94 126
74 94 124
74 95 126
74 94 124
74 95 127
74 94 125
74 95 126
74 95 126
72 93 125
75 95 126
74 94 124
73 93 123
73 94 125
73 94 124
71 93 125
71 91 122
72 92 122
73 93 123
74 94 125
72 92 122
72 93 124
73 94 126
73 93 124
72 92 123
73 93 123
72 92 123
73 94 124
73 93 124
74 94 124
73 94 125
74 94 123
74 94 126
73 94 125
74 94 124
71 93 124
69 90 121
70 90 118
73 94 126
74 95 126
72 93 124
71 92 124
71 91 120
72 92 123
73 93 123
73 94 125
74 96 128
74 94 125
74 95 128
75 96 128
73 94 125
70 90 120
74 95 126
71 92 123
72 92 122
71 92 122
74 94 125
74 94 124
72 91 121
71 91 120
72 93 124
72 92 123
74 94 125
73 94 125
71 91 121
74 94 125
70 91 122
72 92 122
73 93 123
73 93 124
72 93 124
73 93 124
72 92 122
72 92 122
74 94 124
73 94 126
72 93 125
73 94 125
70 91 122
73 94 125
73 93 124
72 92 122
73 93 122
72 93 125
71 92 122
72 93 124
74 94 126
75 95 127
72 92 123
72 93 123
72 92 122
73 93 124
70 90 121
72 93 124
74 95 126
71 93 126
71 93 124
72 94 126
74 95 126
72 93 124
72 92 122
75 96 126
73 93 125
72 93 123
70 91 121
74 94 122
75 94 124
74 94 124
71 91 121
72 94 126
72 92 123
73 93 124
74 94 124
74 94 125
73 94 124
73 94 126
72 93 123
72 92 123
72 92 122
73 93 124
74 94 125
73 93 124
74 95 126
75 95 126
74 95 126
71 92 123
74 94 124
71 91 122
73 93 124
73 92 122
75 94 124
72 93 124
72 91 121
73 95 128
74 95 126
73 93 124
73 94 125
73 94 125
74 94 125
72 93 123
73 94 124
74 94 125
73 94 125
73 93 124
74 95 127
74 95 126
73 93 124
72 92 122
72 92 123
71 91 120
75 96 127
74 94 125
74 95 127
74 94 125
74 94 124
73 94 124
74 94 125
74 94 125
71 92 123
73 94 124
70 90 120
73 94 125
73 94 126
74 94 124
75 95 126
71 92 123
73 93 123
72 93 125
76 96 126
72 92 122
73 94 126
72 93 124
74 95 126
76 96 126
73 94 125
73 93 124
73 93 124
75 95 125
73 94 126
74 94 124
72 93 124
74 94 124
74 95 126
73 94 125
73 94 126
73 95 126
74 95 127
73 93 123
74 95 126
76 96 126
74 94 124
73 94 125
76 96 128
74 95 126
76 97 127
74 95 126
73 94 127
74 95 127
73 95 127
74 95 126
74 94 125
74 95 126
76 97 127
73 94 126
73 93 124
72 93 126
72 93 125
74 95 126
74 95 126
75 95 126
73 94 125
73 94 125
75 95 127
73 94 125
73 94 126
74 95 126
74 95 126
73 94 126
73 93 124
74 95 126
73 94 125
74 94 125
74 94 125
74 95 127
75 95 126
75 96 128
86 106 136
135 157 188
157 178 209
197 218 250
202 223 255
202 223 255
202 223 255
202 223 255
202 223 255
202 224 255
202 224 255
181 202 234
152 173 204
101 122 154
76 97 129
75 95 125
73 95 126
74 95 126
73 93 124
74 95 127
75 95 125
75 96 127
75 96 127
75 96 128
74 95 126
75 95 125
74 95 125
74 95 125
74 95 127
74 94 125
74 95 128
74 94 125
75 95 124
74 95 126
76 96 128
75 95 126
73 94 125
73 94 125
75 95 127
73 94 126
75 95 125
74 95 126
74 94 125
73 94 125
76 96 126
74 95 127
74 94 125
72 93 123
74 95 126
75 96 127
75 96 126
73 93 124
74 95 126
74 94 124
75 95 126
73 95 127
74 95 126
72 93 124
72 92 122
75 95 127
75 96 128
73 94 126
75 95 125
72 93 124
73 93 124
73 93 124
73 93 123
74 94 124
73 94 126
73 94 126
74 94 124
74 95 127
73 94 126
72 93 124
76 97 128
74 95 125
73 94 125
72 93 123
75 96 126
73 93 124
73 93 124
74 94 125
71 92 123
75 95 124
74 94 125
75 95 126
73 94 125
74 95 126
75 96 127
75 95 124
74 95 126
75 95 126
73 94 126
70 91 122
74 94 125
72 93 124
75 95 126
72 92 123
74 94 124
73 94 125
73 94 126
71 91 121
73 94 125
71 91 121
73 94 125
72 92 121
74 94 125
73 93 123
75 95 124
74 94 125
74 94 125
72 93 124
75 96 127
73 94 126
72 92 123
75 95 126
73 93 123
73 94 125
74 94 124
73 93 123
72 93 124
73 94 125
74 94 125
72 92 123
71 92 124
74 95 127
73 94 125
74 94 126
74 94 123
73 93 124
70 90 120
72 92 123
74 94 123
73 93 124
72 93 124
73 93 123
72 92 121
74 95 126
71 91 121
70 91 122
71 92 122
72 92 122
72 93 124
74 94 124
72 93 124
73 94 125
72 92 123
73 93 124
72 93 124
74 94 126
73 93 123
72 93 125
70 91 122
75 95 125
73 93 124
73 93 124
73 93 124
73 94 125
72 92 121
73 94 125
72 93 125
74 93 123
74 96 128
73 94 124
73 92 122
72 92 123
71 91 120
73 94 126
72 93 125
75 95 126
74 94 125
74 94 125
73 94 124
74 93 122
72 92 123
74 94 125
73 92 122
74 93 123
72 93 125
74 94 125
73 95 126
72 93 123
70 90 120
73 94 125
73 92 121
73 93 124
73 93 122
75 96 127
72 91 120
75 96 126
70 90 120
72 92 123
76 96 126
73 93 124
71 92 122
72 93 123
72 92 121
73 93 124
74 94 124
73 93 124
73 93 124
75 95 125
75 96 128
73 93 124
74 95 126
72 93 124
73 93 124
73 93 124
73 94 124
72 92 121
74 95 125
72 93 125
73 94 125
74 94 125
73 95 126
72 92 122
71 91 120
73 93 124
72 93 123
74 94 125
74 94 125
73 93 124
72 93 123
73 93 124
73 93 123
74 94 124
71 92 122
74 95 126
72 92 123
72 92 122
75 95 124
73 93 124
72 93 124
73 93 123
73 92 121
73 93 124
73 94 125
73 94 124
72 92 122
71 91 121
73 93 123
71 92 123
72 93 124
73 93 124
74 94 124
73 93 124
72 93 124
72 93 124
73 93 123
73 94 126
71 92 122
71 92 123
73 94 125
73 93 124
75 95 126
73 93 124
74 94 126
73 93 124
73 93 124
74 93 123
72 93 123
73 93 124
74 94 125
72 93 124
72 93 125
74 94 125
74 95 126
72 93 123
72 93 124
75 94 124
76 95 125
71 91 123
74 94 123
73 94 125
73 94 125
73 93 122
73 94 125
71 92 124
74 94 124
72 92 123
73 93 124
73 93 123
74 95 126
72 93 125
74 93 123
73 93 124
74 94 124
73 93 124
72 93 124
74 95 127
72 93 123
72 92 122
74 94 125
70 91 122
72 93 123
73 93 124
71 92 123
74 94 124
74 94 124
74 94 124
72 93 123
71 91 122
74 95 126
73 94 125
72 93 124
70 91 121
74 94 124
75 96 127
74 95 126
73 93 125
73 94 125
73 94 124
72 92 123
72 93 123
76 96 127
74 94 125
74 95 126
72 93 123
74 95 126
72 93 124
71 92 122
74 94 125
73 94 125
72 92 123
73 94 126
74 96 128
73 93 124
73 93 124
75 95 124
73 94 124
76 96 126
73 94 125
74 94 124
74 94 126
72 93 125
72 93 123
77 97 127
75 96 127
74 95 126
72 93 124
71 91 122
73 94 125
73 94 125
75 95 127
74 95 127
74 95 127
73 93 125
74 94 124
73 94 126
74 95 126
75 95 126
74 94 125
74 94 123
75 95 125
73 93 124
73 93 124
74 95 126
76 96 125
74 94 125
75 95 126
73 94 126
73 94 126
75 95 125
72 92 124
73 93 122
76 96 127
72 93 124
73 94 125
73 94 126
72 94 126
73 93 123
73 93 124
72 93 125
73 93 124
73 94 124
72 93 124
73 95 127
75 95 126
74 95 126
75 95 126
74 94 125
76 96 127
74 95 126
75 96 127
74 95 125
74 95 126
73 94 125
73 95 127
73 94 125
74 95 126
74 94 124
75 96 127
75 96 128
74 95 126
75 96 127
74 95 127
74 95 127
74 94 125
74 95 127
74 95 126
75 96 128
73 94 126
75 95 126
79 99 130
106 127 158
152 172 203
193 215 247
202 224 255
202 224 255
135 156 188
93 114 145
74 95 126
74 95 126
74 95 127
73 94 125
74 95 127
75 95 126
73 94 124
74 94 125
73 93 124
74 95 127
76 97 128
74 95 127
75 96 127
74 95 126
73 94 126
73 95 127
74 94 124
75 95 125
73 94 125
73 94 125
72 93 124
75 96 127
73 95 127
75 95 125
71 93 124
75 95 125
75 96 127
75 95 125
71 91 122
72 93 124
74 94 125
74 94 125
75 95 126
73 94 126
73 93 123
75 96 127
73 94 125
72 92 122
74 95 126
75 96 126
73 95 126
75 95 125
74 95 126
75 95 126
74 94 125
74 95 126
76 96 127
75 95 125
73 94 125
75 94 123
71 93 125
72 93 124
73 94 124
75 96 127
72 91 121
72 94 126
74 95 125
75 94 123
73 93 123
74 95 125
73 93 124
74 94 124
74 95 127
75 95 126
74 95 126
74 94 124
74 95 126
74 95 126
74 95 126
73 94 125
73 95 128
72 93 124
76 95 124
74 94 125
73 94 126
73 93 123
73 94 124
72 91 121
74 95 127
73 94 125
74 95 125
73 93 124
74 95 126
73 94 124
72 92 122
74 94 125
74 94 124
73 93 123
73 93 124
73 93 123
72 92 120
74 94 125
73 94 126
72 94 126
73 93 124
75 95 125
71 91 122
74 95 126
72 93 124
71 91 121
72 93 124
74 94 125
75 95 126
74 95 126
74 95 126
73 94 125
73 93 125
73 93 124
72 93 124
73 94 126
74 94 125
71 92 123
73 94 125
74 95 126
74 94 124
74 94 124
73 93 123
72 93 124
73 94 125
73 93 124
73 94 126
73 95 127
72 93 124
73 93 123
72 92 123
74 95 126
72 93 124
71 92 123
74 94 125
74 94 125
75 95 126
72 92 122
73 94 126
75 95 126
73 93 124
72 93 124
77 97 127
73 93 124
75 95 125
75 95 126
70 90 120
73 93 123
75 95 126
73 94 125
72 93 123
74 95 126
73 94 125
72 92 122
73 94 125
72 92 123
73 93 123
72 92 123
73 93 123
72 92 121
73 94 125
74 95 126
74 95 126
72 92 124
73 93 124
74 94 124
72 93 123
73 93 123
72 93 123
73 95 126
72 93 124
75 95 124
71 91 121
73 93 124
73 95 127
74 94 123
71 93 124
73 94 126
72 93 123
71 92 123
72 93 124
74 94 124
71 91 122
73 93 124
71 92 122
72 93 125
73 93 123
70 90 120
73 94 125
72 93 124
72 91 120
72 93 125
74 94 125
72 92 122
70 90 120
72 93 125
72 93 123
74 94 124
75 95 126
73 93 124
71 91 122
73 93 124
73 94 125
72 91 121
73 93 124
73 94 126
72 93 124
73 94 125
72 94 125
72 93 124
75 95 126
72 92 123
74 95 125
73 94 126
73 94 126
75 94 124
74 94 123
74 95 126
69 89 118
76 95 125
72 93 124
74 94 125
74 95 126
73 94 126
73 93 123
75 96 126
72 93 124
74 94 125
75 95 126
73 92 121
73 93 124
73 94 126
73 94 126
71 91 122
76 95 125
72 92 122
73 94 125
71 92 123
73 94 126
74 94 124
75 95 124
71 92 124
75 95 125
72 92 122
73 93 124
72 92 122
72 92 123
73 92 122
71 91 122
72 92 122
74 94 124
73 93 122
71 91 121
73 94 125
76 96 127
73 93 123
71 91 121
70 91 122
73 93 124
73 93 122
74 94 124
74 95 126
72 92 123
71 91 121
70 90 121
74 94 124
73 93 123
73 94 126
72 92 123
72 93 124
73 94 124
72 93 124
74 94 125
73 93 123
71 91 122
74 94 124
73 93 124
74 93 123
73 93 124
74 94 124
73 93 124
71 92 122
75 95 125
72 92 122
73 94 126
74 93 122
71 91 122
72 92 123
73 94 126
73 94 126
73 93 124
73 94 124
74 95 125
75 95 125
75 96 126
74 94 125
72 92 122
74 95 126
74 95 126
74 95 126
73 94 125
74 95 125
72 93 125
72 91 121
74 95 127
71 91 122
73 93 123
74 95 126
73 94 125
73 94 125
73 94 126
74 95 126
74 94 124
76 95 125
72 92 123
72 93 123
75 96 126
73 94 125
73 93 124
73 94 125
73 94 125
73 93 124
73 94 126
74 95 126
74 94 125
74 95 127
73 94 125
72 93 124
72 93 124
73 94 126
73 94 124
74 94 124
76 96 127
73 94 126
74 95 126
73 93 123
73 93 124
75 96 127
73 94 125
73 93 124
73 94 124
75 95 124
73 94 126
72 94 126
75 95 125
73 94 126
73 94 124
71 92 123
73 94 124
73 93 125
73 94 126
73 94 125
73 94 125
73 94 126
75 95 124
74 94 125
74 95 126
72 92 122
73 95 127
74 95 127
75 95 126
73 94 127
74 95 127
73 95 126
75 96 127
73 94 125
75 96 126
73 94 125
75 95 125
73 94 126
73 93 125
73 94 126
74 95 127
74 94 124
73 94 126
73 94 126
73 95 127
75 96 128
74 95 127
73 93 124
75 95 126
74 94 125
74 95 127
73 94 125
73 94 126
74 95 126
73 94 126
74 95 127
74 95 126
75 95 125
75 95 125
75 95 125
74 95 127
74 95 126
74 94 125
75 96 127
74 95 126
72 93 126
74 95 128
75 96 128
75 96 127
75 96 127
97 118 149
141 162 193
75 95 126
76 96 128
75 95 125
75 96 127
75 95 126
75 95 126
75 95 125
75 96 127
75 95 126
75 96 127
75 95 126
75 95 126
75 96 127
73 94 125
73 95 127
75 95 126
75 96 127
74 95 127
75 95 126
75 96 127
73 93 124
73 94 126
76 96 128
73 93 124
74 94 125
74 95 126
75 95 125
74 95 127
73 94 126
74 95 126
75 96 126
71 92 124
74 95 126
72 93 123
74 94 125
76 96 126
75 96 127
74 95 126
72 93 125
74 95 128
73 93 124
75 96 128
73 93 125
71 92 124
74 95 126
74 95 127
74 94 125
75 95 126
73 93 123
74 94 125
74 94 125
74 94 124
72 93 124
73 94 125
74 94 125
74 95 126
72 92 123
72 94 125
73 93 123
75 95 126
76 95 125
74 95 126
74 94 124
72 93 124
75 96 127
75 95 126
74 94 124
73 93 123
73 95 127
72 93 124
72 92 123
74 95 126
75 95 126
73 94 126
73 92 122
73 93 122
74 93 123
73 93 124
73 94 126
75 96 126
76 96 128
72 93 125
74 94 125
74 95 126
75 96 128
70 91 122
73 93 124
74 94 124
72 92 122
73 94 125
72 92 123
73 94 125
74 95 125
76 96 126
73 93 124
73 93 122
74 94 124
72 94 126
74 94 125
72 92 124
74 95 125
72 92 122
72 93 123
73 93 124
74 94 125
70 90 121
74 95 126
74 94 123
74 95 125
74 94 126
73 94 125
74 95 126
75 94 124
74 95 126
74 95 127
73 94 126
73 93 122
74 95 126
72 93 123
73 93 122
74 95 127
72 92 123
74 95 126
73 94 124
73 93 123
72 93 123
73 93 124
71 92 124
72 92 123
73 93 124
75 95 125
72 93 123
73 94 126
72 93 125
74 94 125
72 92 122
73 93 125
72 91 120
73 94 124
72 93 125
73 94 125
73 93 123
73 93 123
74 94 124
72 94 127
73 93 123
72 92 124
71 92 122
74 94 124
73 94 125
71 92 124
72 92 123
74 95 126
73 94 125
73 94 126
73 93 123
73 93 124
73 93 123
73 93 123
74 95 126
73 94 126
72 93 123
74 95 125
73 94 126
74 95 125
74 94 124
73 95 127
73 94 124
72 93 123
74 95 125
70 91 121
72 92 122
71 92 124
75 96 127
74 94 125
70 91 122
72 92 122
74 94 124
71 92 124
71 92 124
73 94 125
75 96 128
73 93 124
72 92 123
73 94 125
74 94 125
73 93 123
74 95 126
73 93 123
75 96 127
76 96 126
73 94 126
73 94 126
73 93 124
73 94 125
72 93 126
73 94 125
73 93 123
72 92 122
72 92 122
73 94 126
73 94 125
75 95 125
73 94 125
72 92 123
73 94 126
74 95 126
72 93 124
73 94 125
73 94 125
72 93 124
73 95 126
75 94 124
73 93 125
74 94 124
74 95 127
73 94 125
73 95 126
74 94 124
73 93 125
73 93 123
74 94 124
72 92 121
73 93 125
72 93 123
73 94 125
72 93 123
73 93 123
75 95 125
72 93 124
73 94 125
75 94 124
70 91 122
74 95 125
72 92 123
73 93 122
74 94 124
73 94 126
73 94 124
72 92 122
73 94 125
75 95 126
73 93 124
76 96 128
74 95 126
75 95 126
74 93 122
72 93 125
71 92 122
75 96 127
74 94 124
74 95 125
73 93 124
73 94 125
73 93 123
72 92 121
73 94 125
74 94 126
73 93 124
72 93 126
73 94 124
72 93 124
73 94 125
72 92 123
76 96 126
73 94 125
71 92 123
73 94 125
75 95 126
73 93 124
74 94 124
74 93 123
72 93 125
72 93 123
72 93 125
74 95 127
74 95 126
72 93 125
74 95 126
72 92 122
75 95 124
74 95 126
73 94 125
73 93 124
73 94 126
74 94 125
73 93 123
70 91 121
71 92 122
74 95 126
72 93 124
74 94 125
75 96 127
74 94 125
72 93 125
72 92 123
73 93 124
74 95 126
74 95 127
74 94 124
73 94 126
74 94 125
73 93 124
74 94 124
74 94 124
73 94 126
74 95 126
73 93 125
71 92 122
75 95 126
73 94 126
70 91 123
72 92 122
73 94 125
75 95 126
73 94 125
74 95 127
73 94 125
73 94 125
73 94 125
73 94 125
74 95 127
74 95 127
74 94 124
74 94 125
74 94 126
75 96 128
74 95 126
71 92 124
72 93 125
74 95 125
74 94 125
74 95 127
74 94 125
73 93 124
74 95 128
74 95 126
75 95 126
75 95 126
75 95 124
73 94 125
71 92 123
72 92 122
74 95 125
71 94 127
75 95 126
74 94 125
72 93 124
74 94 124
74 95 126
73 94 126
72 93 125
74 95 126
74 94 125
72 94 126
72 93 124
73 94 126
73 93 124
72 93 124
76 96 126
73 94 124
73 94 125
74 94 123
75 95 125
75 95 126
73 94 125
75 96 128
71 93 125
73 93 124
74 94 124
73 94 126
73 94 126
71 92 123
73 94 125
74 96 128
73 95 127
74 95 127
74 94 125
73 93 124
72 92 123
75 96 127
76 96 126
74 95 125
74 94 124
73 94 125
74 95 127
73 94 125
76 96 127
75 95 126
75 96 128
73 94 126
73 95 126
73 95 127
76 95 125
74 95 127
75 96 126
75 96 126
75 96 127
73 94 126
73 94 125
75 96 126
73 95 126
74 94 124
74 94 125
74 94 123
74 95 126
75 96 128
75 95 126
75 96 127
76 96 127
72 94 126
74 95 126
73 94 126
73 95 127
74 95 126
73 94 125
75 96 127
76 96 127
74 95 127
73 94 125
73 93 124
76 96 126
73 94 126
76 96 125
72 93 124
73 93 125
75 96 127
73 94 125
74 95 126
74 95 126
76 96 126
74 95 126
75 96 126
75 96 127
75 95 125
74 95 128
74 96 128
73 94 124
74 94 124
73 93 122
76 96 126
73 94 126
73 94 124
72 93 123
72 94 126
72 93 124
74 95 126
74 94 125
73 95 126
75 95 125
73 94 125
74 95 125
75 95 125
74 95 126
73 94 126
73 94 125
72 93 124
74 95 126
74 95 126
73 94 125
75 95 126
74 95 126
73 93 123
73 94 124
72 93 125
74 95 125
73 94 126
73 93 124
74 95 126
76 96 126
74 94 123
74 93 123
74 95 126
73 94 126
73 94 124
75 95 125
73 94 126
73 93 123
71 91 122
72 93 124
72 94 127
73 94 125
74 95 126
74 94 124
76 96 126
73 94 126
74 94 126
74 95 126
74 95 127
75 95 126
73 94 126
73 93 124
75 96 127
73 94 126
73 93 124
71 93 125
72 92 122
74 95 127
71 91 123
72 93 125
72 92 121
73 94 126
72 93 125
72 93 125
75 95 126
74 95 125
73 94 126
72 93 124
75 95 126
73 94 125
74 94 124
74 95 126
74 94 126
74 95 126
72 93 124
75 95 125
74 94 125
73 94 125
71 93 125
71 92 124
74 94 124
73 93 123
72 93 124
72 92 123
73 93 125
73 94 126
76 96 126
73 93 124
73 93 123
76 96 127
73 93 123
74 94 125
74 95 126
74 95 125
74 94 124
75 96 126
70 91 123
74 94 125
73 94 125
73 94 124
73 94 126
74 95 125
74 95 125
72 93 124
73 93 124
73 94 126
69 89 119
73 93 123
71 91 122
73 93 124
74 94 125
77 97 127
73 94 126
72 93 124
73 94 126
71 91 123
73 93 123
73 94 126
73 93 124
74 95 127
71 91 122
72 93 124
72 92 124
74 93 123
73 92 122
72 91 121
73 93 123
73 93 124
73 93 124
72 92 122
74 94 124
73 93 122
74 95 126
74 94 125
72 94 126
74 94 125
72 93 124
73 93 124
75 94 124
75 95 125
73 93 123
71 91 122
74 95 126
74 94 124
72 92 122
73 94 125
75 95 126
74 94 125
73 94 124
71 92 122
73 94 124
72 93 123
72 93 125
75 95 127
74 94 125
73 94 126
74 94 124
74 94 125
73 94 124
72 93 124
75 95 125
72 93 124
73 94 126
72 92 122
72 92 122
74 95 126
72 92 123
74 94 125
74 95 126
71 92 124
74 94 124
75 95 125
74 94 124
75 95 125
73 94 124
72 93 124
73 93 125
72 92 122
73 93 124
74 94 125
74 95 126
72 92 122
74 95 126
73 94 125
72 93 125
72 92 123
72 92 122
73 94 127
73 93 124
75 95 126
73 92 122
73 93 123
74 94 124
74 95 126
71 91 121
71 91 121
74 95 126
72 93 125
72 93 124
73 93 124
70 91 122
72 93 125
73 94 124
70 92 123
73 93 123
74 95 125
73 93 124
72 92 123
72 93 124
73 94 124
72 93 124
74 95 126
74 93 122
73 94 124
74 94 123
72 92 123
71 92 122
72 92 122
73 94 125
74 95 126
72 93 123
72 93 124
74 95 126
74 95 126
72 92 122
75 95 126
71 92 123
72 92 124
74 94 125
71 91 121
75 95 125
74 95 125
73 94 125
73 93 123
71 92 123
74 95 127
74 94 124
73 94 126
73 93 124
72 92 123
75 95 125
74 95 126
71 92 124
74 95 127
73 93 124
73 94 124
72 94 127
74 95 126
74 95 127
75 95 126
72 92 122
74 94 126
71 93 125
72 92 123
71 92 122
74 95 126
75 95 126
72 93 125
75 95 125
72 92 122
73 93 123
74 95 125
73 94 125
75 95 125
73 93 124
73 94 126
72 93 123
72 93 123
74 94 125
74 96 128
75 95 125
72 92 121
72 93 124
72 92 122
71 92 123
73 94 124
74 95 126
73 94 124
72 92 122
70 90 120
73 94 125
74 94 125
74 95 126
72 93 125
74 94 125
71 92 122
74 94 123
74 95 126
71 92 123
75 96 127
74 95 127
73 94 124
73 94 125
73 93 124
73 94 125
74 94 125
74 95 127
75 95 126
75 95 126
74 95 126
74 94 123
74 94 125
74 94 125
74 95 126
72 93 125
73 94 126
74 95 126
74 95 126
73 95 127
73 94 126
73 94 124
76 96 126
73 93 123
74 94 125
74 94 125
74 95 126
76 96 127
74 95 125
72 92 122
75 96 127
74 94 125
76 96 127
73 94 125
74 95 128
73 93 123
76 96 127
76 96 126
74 94 125
73 94 125
74 94 125
74 95 126
75 95 125
72 93 125
76 97 128
76 96 126
74 95 126
73 94 126
73 93 123
74 95 126
75 95 126
76 96 126
74 94 124
73 94 125
73 94 125
74 95 127
74 95 126
74 95 126
76 97 128
74 95 128
73 93 125
75 95 126
75 95 125
75 95 126
72 93 124
73 94 125
74 94 125
74 95 126
75 95 126
73 94 126
74 95 126
75 95 126
74 95 126
74 95 126
72 93 125
75 95 126
74 95 126
75 95 126
74 94 126
75 95 127
74 95 127
75 95 126
77 97 127
72 93 125
75 95 125
74 95 126
73 94 125
75 95 126
74 95 127
73 95 127
75 96 126
73 94 126
73 93 124
72 93 124
74 94 124
75 95 125
73 94 126
74 95 126
72 93 123
75 96 127
72 93 125
75 95 125
71 92 124
73 94 125
74 94 125
74 94 125
74 96 128
75 95 126
75 96 126
75 95 126
72 92 123
74 95 126
73 94 126
73 95 126
74 95 127
74 95 126
73 94 125
74 95 125
76 96 126
74 95 126
75 96 126
74 94 124
72 93 124
74 95 127
73 94 124
73 93 124
75 95 126
74 95 126
73 94 124
73 93 124
72 92 123
71 91 122
72 92 121
74 95 126
73 94 126
74 95 126
74 94 125
72 93 124
73 94 125
73 93 124
72 92 122
73 93 124
73 93 124
74 95 126
73 94 126
74 95 126
75 96 127
76 95 125
73 95 128
73 94 125
74 94 124
73 94 125
72 93 124
73 93 124
72 93 125
75 95 125
74 94 124
74 95 125
75 95 126
73 94 124
75 95 127
73 94 125
72 93 124
71 92 124
73 94 126
73 93 124
74 94 125
74 95 126
74 95 125
72 92 123
75 95 125
74 94 125
74 95 127
73 93 125
73 94 126
74 94 126
72 93 124
73 93 124
73 93 122
73 95 127
74 94 124
73 94 125
74 94 124
70 90 121
75 95 126
74 95 126
75 96 126
76 96 127
72 93 125
73 93 124
70 90 121
73 93 124
72 93 124
73 94 124
72 92 123
75 96 126
73 95 126
74 95 126
74 94 125
74 94 126
75 94 124
73 94 126
74 95 126
73 94 125
72 93 124
72 93 124
72 93 124
72 93 124
74 93 123
70 90 121
73 93 121
72 93 124
73 94 126
75 94 124
75 95 127
72 93 125
72 93 124
73 93 123
73 94 125
74 94 125
73 94 124
70 90 119
74 94 124
73 93 123
74 94 125
75 96 128
73 94 125
74 95 125
73 93 123
73 94 126
74 95 126
74 95 125
71 92 124
74 95 125
73 94 124
73 93 123
74 95 126
74 95 126
75 95 126
73 94 126
73 94 125
73 93 124
73 94 125
75 95 126
71 92 123
73 94 125
73 94 126
72 92 124
74 94 124
72 93 124
73 94 125
74 93 123
74 94 125
73 94 125
73 93 124
71 92 123
72 92 123
74 94 123
72 92 123
72 93 123
73 93 124
72 92 123
74 94 124
73 93 124
71 93 124
73 94 125
73 94 125
72 93 124
73 92 121
74 95 126
72 92 121
73 93 123
74 94 125
75 96 127
71 91 122
73 93 124
74 94 124
73 94 125
75 95 126
73 94 125
73 94 124
72 93 125
74 94 124
72 92 123
72 93 124
74 94 125
74 94 125
73 94 125
75 95 126
73 94 125
74 95 125
75 95 126
71 92 123
71 92 122
74 94 126
73 93 122
72 93 125
72 93 124
74 94 125
74 94 125
72 92 123
74 95 126
72 93 125
72 92 123
73 93 124
73 93 123
74 94 125
70 90 120
72 93 124
72 93 125
71 91 122
73 94 124
73 93 123
74 95 126
74 94 125
72 94 125
72 93 124
74 94 124
73 94 125
73 94 126
72 93 125
72 94 126
72 92 124
74 94 125
75 96 127
75 96 126
73 94 125
74 95 127
71 92 122
73 93 124
74 95 127
73 94 126
73 93 123
73 93 123
71 91 123
74 93 123
74 94 124
74 94 125
74 95 125
72 92 121
72 91 121
73 94 124
73 93 124
73 94 125
72 93 124
73 93 124
74 94 125
71 91 122
73 94 124
75 95 126
73 94 126
73 95 127
74 95 126
75 95 125
73 94 125
73 94 124
71 92 122
74 94 125
72 93 125
72 93 124
71 93 125
74 95 126
73 94 125
74 95 126
74 95 126
74 95 126
73 94 125
73 94 126
70 91 123
73 94 125
74 94 124
73 94 125
72 92 122
74 95 126
72 93 124
73 93 124
73 94 124
73 94 125
73 94 124
73 93 125
73 94 124
69 89 118
74 95 126
72 92 123
74 94 124
73 94 124
73 93 123
72 93 124
75 96 127
72 93 126
74 94 125
73 94 126
74 94 126
73 94 125
72 93 125
73 93 124
73 94 126
74 94 124
74 95 126
75 95 126
73 93 124
73 94 126
72 93 124
75 95 127
74 96 128
73 94 125
73 94 125
75 96 127
73 94 125
73 94 125
73 94 126
74 95 126
75 96 127
75 96 127
75 95 125
75 96 127
76 96 126
73 92 122
72 93 124
73 95 127
74 95 126
76 97 128
74 95 125
74 94 124
74 95 125
74 95 126
72 93 123
75 95 125
73 94 126
74 95 126
72 92 123
73 95 126
74 95 127
72 93 124
74 95 128
74 94 126
74 95 127
74 95 126
74 94 126
74 95 126
74 94 124
73 94 126
72 94 126
74 95 126
76 96 128
71 91 120
74 95 126
73 94 124
74 95 126
74 95 127
74 94 126
72 93 125
73 94 125
74 95 126
73 93 123
75 95 126
74 95 125
74 95 126
73 93 124
74 94 126
74 94 125
75 95 126
73 94 125
75 96 127
73 95 126
74 95 126
71 92 123
74 95 126
75 95 126
73 94 125
74 95 126
74 95 128
74 95 126
74 94 125
74 95 126
74 95 126
75 96 127
76 96 127
73 94 124
75 96 127
75 96 127
75 96 127
74 94 124
75 95 126
74 94 125
75 95 126
73 95 126
74 94 124
73 94 125
74 94 124
74 95 127
75 95 127
72 93 125
75 95 126
73 94 125
75 96 128
74 95 126
73 94 124
74 95 126
73 94 125
73 95 126
73 94 126
74 95 128
73 93 123
74 95 126
75 95 125
74 94 125
73 94 124
73 94 124
74 95 128
71 91 122
72 93 124
73 94 125
75 95 125
73 93 123
73 94 125
74 94 124
72 94 126
73 94 126
74 95 127
74 95 127
74 94 123
74 94 125
73 94 125
73 94 126
74 95 126
73 93 124
75 95 126
75 95 126
74 95 128
74 95 127
74 95 127
74 94 125
73 94 125
73 94 125
72 93 125
74 94 124
74 95 126
75 95 126
73 93 123
72 93 125
72 94 126
73 94 124
75 95 126
74 95 127
75 96 128
73 93 123
72 92 123
74 94 125
73 93 124
72 92 123
74 94 126
73 94 126
75 95 126
75 95 126
73 94 125
74 94 126
74 94 123
73 92 122
74 94 125
73 93 124
69 90 120
74 95 126
73 93 124
72 93 124
74 94 125
75 95 126
71 92 123
74 94 124
74 95 126
74 94 125
71 92 124
72 93 125
71 92 124
72 93 124
74 93 123
73 93 124
72 93 124
73 94 125
74 95 126
74 94 125
75 95 126
74 94 125
74 93 122
73 94 126
74 95 126
71 93 125
73 94 126
73 94 126
75 95 126
75 95 125
75 95 125
72 93 124
73 94 125
74 95 126
74 94 124
73 94 125
73 94 125
72 93 125
72 93 125
74 95 126
73 93 123
73 94 125
73 94 125
73 94 126
72 93 123
72 92 122
72 92 122
71 92 123
75 95 126
72 92 123
71 91 122
75 95 125
73 93 123
74 94 125
75 96 127
74 94 125
73 94 124
73 94 124
75 95 126
74 94 125
72 93 123
73 94 125
73 93 124
74 95 127
74 94 125
73 94 125
72 92 122
70 91 121
73 95 127
74 94 125
73 94 125
74 93 122
74 94 125
74 94 126
73 94 125
72 92 122
71 91 122
73 95 127
74 95 126
71 92 122
72 93 124
73 93 124
73 94 124
73 94 125
73 93 124
74 95 126
73 94 126
72 93 125
73 94 126
74 94 124
74 95 126
75 95 125
76 96 127
73 92 122
72 93 124
73 94 125
73 94 125
71 92 122
75 96 128
75 96 127
75 95 126
72 94 126
73 93 124
72 93 124
72 94 126
73 94 124
74 94 123
73 94 126
73 93 123
71 91 122
74 95 126
73 94 124
74 94 125
74 95 125
73 94 125
73 94 125
74 94 124
74 94 126
72 93 124
71 91 122
74 94 125
72 92 122
72 93 124
73 93 124
74 95 126
71 91 121
73 93 124
74 94 125
73 92 122
73 93 124
73 94 125
74 95 127
71 91 121
73 93 124
72 93 125
72 93 124
74 94 126
73 93 124
73 94 125
74 94 125
72 93 124
73 93 123
72 93 124
70 91 122
73 94 124
73 93 125
72 92 123
73 93 122
72 93 125
72 93 123
72 92 122
73 94 125
71 91 121
74 95 126
73 93 123
73 94 125
72 93 124
70 90 121
73 94 125
73 94 124
73 93 124
73 94 124
72 92 122
73 94 125
73 94 126
74 95 127
72 92 121
74 94 124
75 95 127
71 92 124
73 94 124
76 96 126
72 92 122
74 94 125
71 92 124
73 94 126
74 95 126
73 94 126
73 93 124
74 94 126
73 93 124
75 95 126
75 95 126
75 95 126
73 93 124
75 95 126
72 92 121
73 94 124
75 95 126
71 92 122
74 94 125
75 95 125
75 95 125
72 93 123
73 94 124
74 95 126
73 94 125
74 95 127
73 94 125
72 92 123
73 93 123
75 95 126
72 92 122
73 93 124
73 94 125
72 92 124
76 96 126
74 94 126
73 93 123
73 93 124
73 94 126
72 93 124
74 95 126
73 93 124
74 95 126
74 95 126
74 95 126
73 94 125
72 92 123
73 94 125
73 94 126
71 92 122
74 95 126
75 95 126
76 96 126
73 95 127
73 94 125
74 93 123
73 93 123
74 95 126
74 94 124
75 95 126
73 94 125
71 92 124
75 96 127
73 93 124
73 94 125
73 94 125
75 95 126
75 96 128
73 94 125
74 94 125
73 93 124
75 95 126
74 95 126
73 93 124
71 91 121
73 94 126
74 95 127
71 92 123
73 94 126
73 94 124
73 94 125
74 95 127
72 93 125
74 94 126
75 96 128
74 95 126
73 93 122
74 95 126
74 95 126
73 94 124
74 94 125
73 94 126
74 94 125
74 95 126
74 94 125
74 95 126
74 95 126
74 95 126
74 94 126
75 95 126
73 94 125
73 93 123
76 96 127
73 94 126
75 96 127
74 95 126
74 94 125
73 93 124
74 95 126
73 94 126
75 95 125
75 95 126
73 93 124
75 95 126
75 95 125
75 95 126
73 94 127
77 97 128
75 95 126
73 94 124
76 96 128
75 96 127
74 95 127
74 94 125
74 95 126
74 94 124
73 95 127
74 94 125
76 96 128
73 94 126
75 96 127
74 95 128
75 96 128
73 94 126
73 94 126
75 95 125
74 95 126
75 95 126
75 96 126
72 94 126
75 96 128
75 96 126
75 95 126
74 95 127
74 95 126
73 94 126
74 95 127
74 95 126
74 94 125
75 95 126
74 95 126
75 96 128
74 95 126
72 93 125
74 95 126
75 95 125
74 94 126
73 93 123
73 94 124
73 94 125
76 97 127
74 93 123
74 95 126
75 95 124
73 94 126
74 94 126
76 96 126
75 95 126
74 95 126
74 94 124
75 95 127
74 95 126
74 95 126
74 95 127
75 95 126
73 94 125
73 94 126
74 94 125
73 94 126
73 94 126
73 94 125
73 94 125
75 95 126
76 96 126
73 93 124
73 95 127
72 93 125
73 94 125
72 93 124
74 94 125
74 95 126
74 95 128
74 94 124
74 95 126
74 95 127
73 94 125
73 93 124
73 94 126
74 94 125
73 94 126
71 93 124
75 95 126
74 95 127
76 96 127
74 94 124
73 93 124
73 94 125
72 94 126
75 94 123
74 93 123
71 93 125
75 95 127
71 91 120
73 94 125
74 95 126
75 96 127
74 95 126
74 95 127
73 93 124
74 95 128
73 94 125
73 93 124
72 93 124
73 94 125
72 92 122
74 95 127
74 94 126
74 96 128
74 94 124
74 93 123
73 93 124
75 96 128
73 94 125
75 96 127
75 95 126
73 94 124
72 92 122
72 92 122
73 93 123
71 91 122
75 94 124
73 94 126
74 95 127
74 94 124
71 91 122
72 93 125
71 92 123
72 92 122
73 93 124
73 94 124
73 94 125
73 93 124
73 94 125
74 95 127
74 94 123
73 93 123
72 93 123
73 94 124
73 95 126
74 95 126
75 95 126
74 94 125
74 94 125
72 93 125
73 94 126
73 95 127
72 93 124
72 93 124
74 94 125
74 95 126
74 94 125
73 93 123
71 91 122
74 95 126
74 95 126
73 93 124
73 94 124
72 93 124
73 93 123
72 92 122
74 95 126
74 94 124
72 93 123
74 95 126
73 93 125
74 95 126
73 94 127
73 94 126
74 95 126
75 95 126
72 93 124
73 94 126
73 94 125
72 92 122
73 94 125
75 95 126
73 94 126
73 93 124
71 92 122
72 92 123
74 94 125
74 94 124
73 93 124
73 94 125
74 95 125
72 93 124
74 95 127
74 95 125
73 93 123
73 93 124
73 93 123
72 92 122
74 95 126
73 94 126
73 94 125
73 94 126
73 95 126
73 94 126
74 94 126
75 95 126
72 93 123
72 92 123
74 94 126
72 92 122
74 94 124
73 93 124
73 94 125
73 94 125
73 94 125
74 94 125
72 93 126
74 94 125
73 93 123
74 95 126
74 95 126
72 93 124
74 95 125
71 91 121
75 95 126
72 92 121
73 93 123
74 95 127
72 93 125
75 95 126
72 93 124
74 95 126
73 94 125
73 94 126
73 93 124
73 93 123
73 94 125
74 94 125
73 94 125
73 93 124
72 92 122
73 94 126
73 93 124
73 93 124
74 94 124
73 94 125
74 94 125
72 93 124
72 92 122
72 93 124
75 95 125
73 94 124
73 93 123
71 92 122
74 94 125
72 92 122
72 93 124
74 95 126
73 93 124
73 94 126
72 92 123
74 94 126
71 92 122
73 94 125
73 94 124
72 93 125
73 94 124
72 93 125
74 94 125
73 94 125
72 93 123
73 94 126
72 93 124
76 96 128
73 93 124
72 93 124
76 95 124
74 94 123
74 94 124
74 93 123
73 94 126
72 92 123
74 94 125
75 95 126
74 95 126
72 93 123
73 93 124
74 94 124
73 94 126
76 96 126
74 94 124
74 94 124
72 93 123
73 94 126
74 95 126
72 93 124
71 91 121
74 94 125
74 95 125
74 95 126
75 96 127
72 92 122
72 93 125
73 94 126
73 94 126
74 94 126
75 96 127
72 93 124
71 92 122
75 95 126
76 96 127
73 94 124
74 94 125
74 94 125
71 92 123
75 96 126
74 95 126
73 94 125
75 96 128
74 95 128
73 94 124
73 94 125
72 94 126
73 93 123
74 95 126
73 95 127
74 94 125
73 94 125
73 94 125
72 93 124
73 94 125
74 95 126
72 92 122
74 94 125
72 93 123
74 96 128
72 93 123
74 94 125
73 94 125
73 93 122
75 96 126
74 95 126
73 94 124
73 93 122
72 94 126
74 95 126
72 93 125
73 93 123
72 92 122
72 94 126
75 95 126
74 95 126
72 93 125
74 94 126
74 94 124
72 92 123
73 95 126
73 94 125
75 96 127
72 93 125
75 95 125
74 94 125
73 94 125
70 91 121
74 95 126
74 95 126
73 93 125
73 94 124
76 96 127
71 92 122
74 94 124
74 95 126
74 95 126
74 95 127
73 94 125
73 94 127
74 95 127
76 96 125
75 96 127
74 94 125
74 95 127
73 94 125
73 94 126
74 94 125
73 94 126
74 95 127
74 95 127
74 95 126
73 94 124
76 97 128
74 95 127
73 94 124
73 94 126
74 95 126
73 94 126
75 95 125
75 96 128
76 96 127
73 94 126
72 92 123
74 94 125
74 95 126
75 95 126
72 93 124
73 94 126
73 94 126
74 95 126
75 96 126
74 95 126
73 94 125
75 96 128
73 94 126
73 93 125
72 94 126
74 95 127
74 95 126
73 94 126
73 94 126
75 96 126
73 94 126
74 95 126
75 95 125
75 96 127
72 93 125
74 94 126
74 94 124
73 95 127
74 94 125
72 93 125
74 95 128
72 93 123
73 94 125
74 94 126
74 95 126
73 94 125
75 95 126
73 94 125
74 95 126
75 95 126
75 95 126
73 95 127
73 94 125
75 96 127
72 93 124
74 95 125
74 95 125
72 92 122
74 95 126
73 93 123
73 94 125
73 94 126
75 96 127
74 94 125
75 95 126
74 94 125
74 95 126
74 94 125
73 93 123
73 93 125
73 93 124
76 96 126
74 96 128
76 96 126
74 95 128
74 95 126
74 95 126
73 95 127
74 95 126
74 94 126
75 96 127
73 94 125
74 95 126
74 95 126
74 95 126
72 93 124
72 92 122
72 93 124
73 93 124
75 95 125
73 93 124
72 93 124
73 93 125
73 93 123
73 94 126
72 93 124
74 94 124
73 93 122
75 96 127
76 96 126
74 93 122
75 95 126
72 93 123
74 94 123
73 94 124
72 93 123
73 94 125
72 92 122
73 94 125
72 94 125
72 93 124
74 95 125
74 95 126
75 96 127
74 95 126
72 93 123
73 93 124
74 94 125
74 94 125
73 93 124
74 94 126
72 92 121
75 96 127
73 94 126
73 94 126
75 95 126
72 93 123
73 93 123
74 94 125
72 93 123
73 95 127
73 93 123
74 94 126
73 94 126
74 94 126
74 94 124
74 94 125
76 96 127
74 95 126
73 94 125
74 94 125
72 93 124
72 93 125
72 93 124
72 93 125
75 96 126
74 95 125
73 93 124
73 94 125
73 93 123
73 94 125
73 94 125
73 93 124
74 94 125
74 95 127
73 94 125
72 92 123
71 92 123
72 92 122
73 93 124
73 94 125
72 93 124
73 93 123
74 95 125
73 95 127
73 94 124
72 92 124
72 93 124
74 95 126
76 97 128
73 94 126
72 93 125
72 93 125
72 93 124
75 95 126
73 94 125
74 95 126
73 94 125
74 94 124
73 94 125
74 94 125
71 93 126
77 97 127
73 93 123
74 94 124
75 95 126
73 94 125
72 93 125
74 94 124
74 95 126
73 94 126
75 96 127
72 93 124
74 95 126
74 94 124
75 95 126
72 92 123
73 93 122
71 91 121
74 95 126
71 91 122
74 95 127
73 93 124
75 96 126
73 93 124
73 94 125
74 94 124
73 93 124
72 93 124
74 94 125
71 91 120
73 93 124
74 95 126
73 95 126
74 95 126
73 94 126
73 93 125
71 92 124
72 92 121
72 92 124
74 95 125
74 94 124
73 93 124
73 94 126
73 94 126
74 94 124
75 95 125
71 92 122
73 93 124
73 94 125
72 93 124
72 92 123
72 93 123
72 93 124
72 93 124
73 94 125
74 94 126
72 94 126
73 94 126
70 91 122
72 92 123
73 93 123
72 93 123
72 93 124
74 94 125
73 94 126
73 94 124
72 94 126
74 96 128
72 93 123
73 93 123
73 93 124
74 94 126
73 94 124
73 93 123
72 93 125
74 95 126
73 93 124
73 93 125
72 92 123
73 94 125
74 94 124
74 95 125
72 92 123
72 93 123
73 93 123
75 95 126
74 95 127
72 93 124
73 93 123
73 92 121
75 96 127
76 96 128
71 93 125
73 93 123
73 94 126
73 94 126
76 96 126
74 95 125
72 93 124
73 94 126
74 95 127
72 93 124
75 95 126
72 92 123
73 93 122
72 92 121
72 93 124
73 94 126
73 93 124
73 94 125
75 96 127
74 95 126
72 92 123
73 94 126
73 94 126
73 93 124
74 95 126
73 94 124
74 94 125
74 94 125
74 94 123
72 93 124
73 94 124
73 94 125
74 95 125
74 94 124
72 92 122
74 95 126
74 95 127
70 90 121
72 92 122
72 92 122
75 94 122
74 94 126
75 95 125
73 93 123
75 95 126
73 94 125
75 95 125
73 93 123
75 95 126
76 96 126
75 96 126
75 96 127
74 94 126
72 93 126
72 93 124
74 95 126
74 95 126
73 93 124
74 94 125
71 92 124
72 93 125
74 94 124
72 92 122
74 95 126
73 94 125
72 92 123
72 93 124
72 93 124
73 94 125
73 94 125
72 94 127
75 95 126
73 94 127
74 95 126
75 95 126
73 93 125
74 94 125
73 94 124
74 95 126
73 94 124
73 94 126
73 93 124
73 93 124
74 94 125
74 95 126
75 95 127
75 96 127
74 94 126
73 94 126
74 94 126
72 93 124
75 95 126
73 93 125
73 94 125
72 91 121
74 94 125
74 94 125
74 95 127
73 94 126
73 94 126
73 94 126
73 94 125
74 95 127
74 94 125
74 94 125
74 94 125
73 94 126
76 96 126
75 96 126
73 94 125
71 91 121
75 96 127
74 94 125
74 94 124
73 94 124
74 94 125
73 94 126
73 93 124
74 96 128
74 95 126
74 94 125
74 94 125
75 95 126
72 92 123
73 94 126
74 95 126
75 95 125
74 94 124
75 95 125
76 96 127
74 94 125
72 94 125
74 95 126
76 96 127
74 95 126
74 95 127
73 94 126
73 93 124
73 94 126
73 93 124
72 92 123
74 96 128
74 95 126
73 94 125
72 93 124
73 94 125
73 94 126
74 95 126
74 95 126
74 95 127
74 95 125
73 94 124
73 94 126
73 94 124
77 96 126
73 94 126
74 95 127
74 95 126
74 95 126
77 97 127
73 94 125
74 95 126
74 95 126
75 95 126
75 95 126
75 95 126
74 95 126
73 94 125
73 95 127
74 94 125
74 95 126
73 95 127
75 96 128
73 94 125
75 96 127
74 95 126
73 94 126
75 95 126
74 94 124
75 96 127
73 93 124
73 95 127
75 96 127
75 95 127
76 96 128
73 94 126
74 94 125
71 92 123
76 97 128
76 96 126
76 96 126
76 97 127
75 95 125
74 94 125
75 96 127
74 95 125
74 94 124
74 95 128
73 94 126
75 96 126
72 93 124
74 95 126
76 96 127
72 93 123
72 94 126
75 96 127
75 95 125
75 96 126
74 94 124
75 96 127
75 96 128
76 96 126
73 94 125
75 96 127
76 95 125
75 94 124
75 95 126
74 95 126
74 93 123
76 97 127
74 95 127
71 91 122
74 95 126
70 92 123
73 94 126
75 95 126
72 94 126
74 95 126
74 95 127
72 93 124
74 95 126
75 95 125
75 95 125
74 95 126
73 94 124
76 96 127
73 94 126
73 95 127
73 94 125
72 93 125
74 95 126
74 96 128
75 96 127
75 95 125
74 95 126
73 94 126
73 95 127
74 94 125
74 95 126
74 94 125
74 95 127
74 95 126
73 93 123
73 94 126
75 95 125
72 92 122
73 94 125
74 94 124
71 93 126
73 94 125
75 96 127
72 92 123
72 93 125
73 94 125
75 95 126
73 95 126
73 94 126
73 94 125
73 94 124
72 93 124
73 94 125
74 95 127
72 93 125
75 94 124
72 94 126
72 91 121
72 92 124
74 95 126
74 95 126
73 94 126
74 94 125
74 94 124
74 95 126
75 96 127
75 95 125
74 94 124
72 92 122
71 91 122
74 94 125
73 93 124
74 95 126
72 93 124
72 91 121
73 93 124
75 95 125
73 93 123
73 94 125
73 93 123
75 95 125
75 95 126
73 94 126
74 95 127
76 96 126
73 94 126
74 95 127
74 95 127
74 94 124
74 95 127
73 93 124
75 95 126
73 94 125
73 93 124
74 94 124
75 95 126
73 93 123
70 91 122
73 94 126
72 93 123
74 94 125
73 94 125
74 95 125
74 95 125
73 93 124
73 94 124
74 95 126
72 93 123
75 96 128
75 95 125
71 92 124
74 95 126
74 94 126
74 95 128
74 94 125
72 92 122
72 92 122
73 93 124
74 95 125
71 92 122
73 92 122
73 93 124
71 92 123
73 93 123
73 93 124
72 93 125
74 94 125
74 95 126
73 94 126
73 94 124
73 94 125
73 94 124
73 95 127
72 93 125
73 94 125
73 94 126
73 93 124
73 93 124
73 93 124
74 94 126
71 93 125
75 96 128
73 93 124
73 94 126
73 93 123
73 94 126
73 93 125
72 93 124
70 90 120
73 94 125
71 91 120
72 93 124
74 95 126
74 95 126
74 94 124
73 93 125
73 94 125
75 95 124
75 96 127
74 94 125
73 94 125
73 94 126
74 95 126
73 94 126
72 92 123
73 93 123
72 91 121
73 94 125
73 94 125
74 95 126
71 92 122
72 93 124
74 95 126
73 94 126
73 93 123
72 91 120
74 94 125
75 95 126
75 96 127
74 94 125
70 91 122
74 94 125
73 93 123
75 95 126
73 94 126
75 95 126
74 94 124
73 94 124
74 95 126
75 94 124
73 93 125
70 91 122
74 95 126
75 95 125
74 94 125
73 94 126
74 94 126
73 94 126
74 95 126
74 95 126
73 93 123
72 93 125
74 95 126
72 92 122
73 94 125
74 94 125
72 92 123
73 94 125
73 94 125
73 94 126
73 93 124
72 93 125
72 93 124
76 96 126
73 94 125
72 92 121
73 93 124
73 95 126
71 92 124
73 94 125
73 94 126
73 93 125
72 93 124
72 92 123
74 95 126
73 93 124
74 94 124
74 95 126
72 91 120
75 95 125
74 94 125
72 92 123
73 93 124
75 96 128
74 95 126
69 89 120
74 95 126
72 93 124
73 94 124
72 93 124
75 96 126
72 92 123
74 94 124
75 96 127
73 94 126
74 94 125
71 92 123
73 94 125
74 95 127
74 95 126
75 95 126
73 93 124
72 93 124
72 93 124
73 94 126
74 94 124
74 94 126
74 95 126
74 94 124
73 93 122
73 94 126
74 94 125
73 94 124
73 93 123
72 93 124
72 93 125
74 93 123
72 92 123
74 94 125
75 95 126
73 94 126
74 94 125
74 95 126
74 95 127
74 94 125
73 93 124
73 94 126
75 96 127
73 94 125
74 95 126
73 93 124
73 94 124
73 93 124
75 95 125
72 92 123
73 93 124
73 94 125
73 94 126
73 94 126
75 95 125
75 96 128
74 94 123
74 95 126
73 93 124
72 92 122
73 94 125
73 94 125
74 95 127
75 96 128
75 95 126
74 95 126
73 94 125
73 94 125
74 95 126
71 92 124
73 93 124
75 95 126
72 93 125
74 95 126
73 94 125
73 94 125
73 94 125
75 96 127
72 94 125
73 94 127
76 96 126
75 96 127
76 96 126
74 94 124
73 94 125
72 93 125
73 93 123
74 95 126
72 93 124
75 96 127
74 95 126
74 95 128
74 94 124
74 94 125
75 95 126
74 95 125
75 95 127
74 95 126
75 96 126
74 95 126
74 94 126
75 95 127
74 95 126
74 94 126
74 95 127
75 96 127
73 95 126
74 95 125
74 95 125
73 94 124
74 95 127
74 95 126
76 96 126
73 94 126
76 96 126
76 96 126
73 94 126
73 94 125
75 95 125
75 96 126
75 95 126
75 95 126
74 95 126
74 95 127
74 96 128
72 93 126
73 95 126
74 95 128
73 94 125
74 94 125
75 95 126
74 94 125
75 95 126
75 96 127
75 95 126
73 94 125
73 94 126
73 94 124
74 94 124
76 97 127
74 95 126
75 95 126
74 94 125
74 95 125
72 93 124
74 95 126
73 93 125
74 96 128
74 94 124
74 95 126
73 94 125
74 94 125
72 92 123
74 95 126
74 95 126
75 95 126
74 94 125
74 95 126
76 96 127
75 96 126
74 95 126
75 95 126
75 96 127
75 95 126
72 92 122
73 94 126
76 96 127
74 94 125
74 95 126
74 95 125
74 95 126
74 95 127
74 95 127
75 96 127
72 93 124
73 93 123
73 94 126
72 93 124
73 94 126
75 95 125
76 96 126
73 94 125
72 93 123
74 95 127
74 94 126
73 94 125
74 95 126
74 94 125
74 95 127
75 95 125
73 93 125
73 94 125
73 94 124
72 91 121
73 95 127
73 94 125
74 94 123
73 94 126
75 95 126
73 94 124
72 92 122
71 93 124
74 94 124
76 97 128
74 94 124
72 93 124
74 95 126
73 94 124
72 94 126
72 93 124
72 93 124
74 95 126
72 92 123
73 93 124
75 95 126
74 94 124
73 94 124
73 94 126
71 92 123
74 94 124
75 96 126
73 94 125
74 95 126
74 94 125
74 95 127
74 95 126
73 93 124
74 94 125
74 95 127
72 92 122
75 96 127
72 92 122
74 94 125
73 93 124
70 91 122
71 91 121
74 94 126
75 95 125
74 95 126
73 94 125
73 93 124
74 95 126
74 95 126
74 95 127
72 92 122
75 95 126
73 94 125
75 95 126
74 94 126
72 93 124
74 95 126
73 94 125
74 94 125
72 93 124
73 95 127
72 93 124
73 93 124
73 93 123
73 94 125
74 94 125
71 92 123
74 95 126
73 94 126
75 96 128
72 93 123
75 95 125
74 94 125
71 92 124
71 92 122
72 94 126
70 90 120
73 93 124
73 93 124
75 96 127
73 94 126
74 95 126
75 95 126
72 92 122
73 93 124
71 92 122
73 94 125
74 94 124
72 92 123
73 94 125
74 94 124
74 94 125
72 92 121
73 94 126
76 95 124
74 95 127
74 95 125
73 93 124
75 95 125
74 95 126
72 92 124
73 94 125
73 93 123
74 94 124
73 94 125
74 94 124
74 94 125
72 93 124
73 94 125
71 92 122
72 93 123
74 95 127
74 94 124
77 97 127
75 95 126
73 94 125
75 96 127
71 92 124
75 95 126
73 93 124
75 95 126
73 94 126
71 92 125
74 95 126
73 94 124
72 92 122
77 96 126
73 94 126
74 95 126
73 93 123
75 95 125
73 94 124
73 93 123
74 95 126
74 95 127
75 96 128
75 95 125
74 95 126
73 93 124
74 95 126
74 95 125
72 93 124
74 95 127
73 94 124
72 92 123
71 92 124
72 93 124
72 92 123
73 94 124
73 93 123
71 93 125
72 93 124
74 95 126
75 95 124
73 94 126
73 94 126
74 94 125
75 95 126
72 93 124
73 93 123
74 95 126
72 92 122
73 94 126
73 94 126
73 94 125
76 96 126
73 95 127
72 92 122
74 95 125
74 94 125
75 95 126
74 95 126
73 93 124
73 93 124
74 95 126
75 95 126
70 91 122
73 94 125
74 95 126
72 92 123
71 91 121
73 94 126
73 94 125
74 94 125
74 95 127
76 96 127
76 96 126
74 95 126
72 93 125
73 95 126
71 92 123
73 94 124
74 94 124
74 95 126
73 94 125
73 93 124
73 93 123
74 94 125
72 93 125
73 94 125
72 93 124
75 95 126
72 93 124
73 93 125
72 93 124
75 96 127
74 94 124
73 93 124
73 94 126
72 93 124
71 92 124
75 95 127
72 93 123
73 94 126
74 95 128
73 93 124
73 94 126
75 95 126
73 94 126
74 95 126
74 95 125
72 93 124
72 93 123
73 94 125
74 95 126
74 95 125
73 94 124
74 95 125
73 94 126
74 94 125
76 96 126
74 95 126
72 94 126
73 94 127
72 93 124
72 93 125
74 95 125
72 93 124
73 93 124
75 95 124
74 95 125
74 94 126
74 95 126
72 94 126
74 95 126
73 94 125
73 93 124
74 94 123
74 94 124
76 96 126
73 93 124
74 94 126
73 93 123
73 93 124
74 94 124
72 92 122
72 94 126
74 95 126
75 96 127
71 92 125
73 93 124
73 93 124
72 93 124
74 95 126
75 96 127
74 94 126
73 94 126
74 94 125
74 95 127
73 94 124
73 93 123
75 95 126
74 95 127
74 95 127
72 93 125
75 95 126
72 94 126
76 96 126
74 95 125
74 95 126
74 95 127
74 95 126
73 94 125
74 95 125
73 95 126
74 95 127
75 95 126
73 95 128
76 96 127
74 95 126
76 97 128
73 94 126
76 96 126
73 94 124
73 93 123
75 96 127
74 95 127
72 93 126
75 95 126
72 92 122
76 96 126
73 94 126
76 96 126
74 95 127
73 94 126
75 95 126
75 96 128
75 95 126
74 95 126
74 95 126
74 94 124
74 94 126
73 94 127
72 93 124
73 94 126
73 94 125
74 95 126
74 95 127
74 95 126
74 94 125
74 95 126
74 94 124
74 95 126
73 95 126
74 95 126
75 95 126
74 95 126
73 94 126
73 94 125
74 95 127
74 95 126
73 94 126
73 94 126
75 96 128
73 94 124
74 94 124
74 95 126
72 93 124
75 95 125
74 94 125
74 95 127
73 95 126
73 94 125
74 95 125
72 93 124
73 93 124
73 94 125
74 94 126
74 95 125
76 95 125
73 94 125
73 93 125
74 94 125
75 96 127
73 94 126
73 94 126
74 94 124
73 94 126
74 96 128
73 95 126
73 94 124
74 95 126
73 93 124
73 93 125
74 95 126
74 94 126
74 95 126
73 94 125
74 94 124
75 96 128
73 94 125
72 92 123
72 92 121
72 93 126
74 95 126
74 94 125
75 96 128
75 95 125
75 95 126
74 95 127
73 93 124
73 94 125
75 95 126
75 95 125
74 95 126
73 94 125
74 94 125
73 93 123
74 94 124
74 95 126
73 94 125
71 92 125
73 94 125
72 92 123
74 95 126
73 94 125
73 94 126
73 94 126
73 94 126
73 95 128
72 93 125
74 96 128
74 95 126
74 95 126
74 94 125
76 96 128
72 93 123
72 93 124
74 94 125
74 94 124
75 95 125
74 95 126
74 94 124
72 94 126
74 94 126
73 93 124
75 96 127
74 95 127
73 94 126
72 92 123
73 95 128
73 94 125
73 93 123
72 92 122
71 91 121
73 94 124
73 94 126
74 95 126
74 95 125
75 96 128
73 94 125
72 94 125
72 92 122
72 92 122
75 94 124
72 92 122
73 92 121
72 92 122
72 92 122
74 94 125
73 94 125
74 94 125
75 95 125
73 93 123
74 95 126
74 95 127
74 95 127
72 93 124
73 93 124
73 94 125
72 93 124
74 94 125
74 95 125
73 93 124
74 94 124
74 93 123
74 94 125
72 93 125
72 92 123
73 93 123
75 96 126
73 93 124
74 95 126
74 95 125
72 93 125
74 95 127
73 94 125
74 94 124
71 92 123
73 94 125
72 93 124
72 92 123
73 93 124
74 95 126
73 94 124
75 96 126
73 94 126
73 94 125
72 92 122
74 95 127
71 91 120
74 94 126
73 94 126
71 92 125
74 95 126
74 95 126
72 93 124
71 91 121
74 94 124
72 92 121
72 92 123
74 95 127
73 94 125
74 95 125
71 91 122
74 94 125
74 94 125
72 93 124
73 94 124
73 94 125
74 94 124
74 94 125
72 93 123
73 94 125
73 94 126
73 94 126
72 93 123
73 94 125
73 94 124
74 95 126
73 94 125
72 94 126
74 94 125
74 95 126
73 93 124
72 93 123
73 94 125
71 92 123
72 93 124
73 93 123
74 95 126
73 93 124
75 95 127
75 94 123
75 95 126
72 93 124
73 94 125
75 96 126
72 93 125
73 93 123
74 95 126
73 94 124
73 94 125
75 95 126
74 94 124
75 96 126
73 94 126
73 94 125
75 96 128
75 95 125
74 95 125
73 94 125
73 93 124
73 92 121
71 92 124
72 93 123
75 94 124
72 93 124
72 93 124
74 94 126
73 94 125
75 96 127
73 93 123
72 93 123
75 95 126
73 94 125
74 96 128
74 94 125
74 94 125
74 94 125
74 95 126
74 95 126
73 95 127
73 94 124
73 93 124
71 92 123
73 95 126
74 94 124
73 94 125
75 95 126
74 94 124
75 95 126
71 92 123
73 94 126
73 94 126
73 93 124
72 93 125
73 94 125
73 93 123
72 94 126
75 96 126
73 94 125
73 93 124
74 94 124
74 94 124
73 94 124
74 94 125
71 92 123
73 94 125
74 95 126
74 95 126
76 96 126
73 93 124
73 94 126
72 93 124
73 94 124
74 94 126
74 95 126
72 93 125
71 91 122
74 94 126
74 95 126
72 93 123
73 93 124
73 94 126
73 94 126
73 95 128
76 97 128
73 94 125
75 95 126
73 94 126
73 94 126
71 92 123
73 94 125
73 94 126
73 94 125
75 96 127
71 91 121
73 94 125
74 94 125
73 94 125
71 92 123
73 93 123
75 95 125
73 94 124
73 94 125
71 91 122
74 95 126
73 93 124
74 95 126
71 92 124
71 92 122
73 94 125
74 94 125
75 96 126
73 93 123
74 94 125
73 94 127
75 95 125
74 95 126
73 94 125
74 95 127
74 94 124
75 95 126
73 94 124
73 93 124
74 94 125
75 95 126
74 95 126
74 94 124
72 93 124
74 94 126
74 95 126
72 92 123
74 95 126
74 94 125
74 94 125
72 93 124
73 94 125
76 97 128
73 94 125
74 94 125
73 93 124
72 92 123
72 93 123
74 94 125
74 94 125
73 94 126
73 94 125
74 95 126
73 93 123
72 93 124
74 94 125
74 95 126
74 95 126
75 95 124
72 93 124
74 95 126
74 95 127
73 94 125
72 93 125
73 94 125
75 96 127
76 96 128
74 95 127
72 93 125
75 95 125
75 96 128
73 94 125
74 94 124
75 96 127
72 93 124
74 95 128
74 95 126
74 95 126
73 94 125
73 94 125
74 95 126
75 95 126
74 95 126
74 94 125
73 94 125
73 94 126
74 95 127
74 94 125
74 95 126
74 94 125
73 94 125
73 93 124
74 95 127
75 96 127
74 95 126
74 94 125
74 95 126
75 95 126
74 95 126
73 94 125
75 95 126
73 94 126
74 95 126
76 96 128
74 95 127
73 95 128
73 93 123
75 95 126
76 96 126
73 94 125
73 94 125
76 96 127
75 96 127
73 93 124
74 94 124
74 94 125
75 95 125
74 94 125
75 96 128
74 94 125
74 95 126
74 95 126
74 94 125
74 94 125
74 94 125
74 95 126
74 95 127
75 95 126
74 94 125
74 95 126
74 94 125
74 95 126
76 96 127
74 95 127
74 95 125
73 93 123
74 95 126
76 96 126
75 96 127
74 94 126
75 96 126
73 93 124
73 93 124
74 94 124
74 95 126
72 92 123
72 93 125
73 94 125
74 95 127
74 95 127
73 94 126
73 94 124
75 95 126
73 94 125
72 94 126
74 95 126
73 93 125
73 94 126
74 95 126
73 93 124
72 93 124
73 93 123
74 95 127
72 93 124
74 94 124
74 94 125
75 95 125
74 94 126
75 95 126
73 93 124
73 94 126
74 95 126
74 94 124
74 94 124
74 94 125
75 96 126
75 95 126
73 93 124
73 94 125
71 93 124
75 95 125
75 96 126
72 93 124
73 93 124
73 94 126
73 95 127
73 93 123
74 94 125
75 96 128
75 96 127
77 96 125
74 95 126
71 92 124
74 94 126
74 95 126
75 95 126
72 93 124
72 91 121
74 95 126
74 95 126
73 94 126
73 94 124
74 95 127
73 94 126
75 95 126
73 93 124
73 94 124
75 95 126
75 95 126
74 95 127
73 95 127
72 93 125
72 92 122
73 93 122
73 94 125
73 94 124
73 94 126
73 93 123
73 94 125
75 95 126
73 93 125
75 95 126
77 96 126
73 95 127
73 93 124
71 92 122
74 95 127
72 92 123
77 97 128
74 95 125
75 95 126
73 93 124
75 95 124
71 93 125
74 94 125
74 95 125
74 95 126
73 94 126
74 95 125
72 92 121
74 94 125
72 93 124
73 94 126
74 94 124
73 93 122
73 93 124
73 93 123
73 94 125
74 94 126
73 93 123
73 93 124
74 95 127
73 93 123
74 95 125
74 94 125
73 94 125
70 91 122
74 95 126
73 93 124
74 95 126
73 94 125
75 96 127
73 94 126
72 92 122
73 94 125
73 93 123
72 93 125
73 94 124
72 93 123
73 93 123
74 94 124
72 93 123
74 94 126
74 94 124
73 93 124
74 94 124
71 92 124
74 94 126
72 93 124
74 94 126
72 93 124
73 94 125
72 93 123
75 95 125
74 94 124
74 95 126
76 96 127
74 94 125
71 93 125
70 91 122
72 93 124
72 94 126
73 94 125
72 94 125
74 94 125
75 95 126
72 92 122
73 94 125
73 94 125
76 96 126
73 94 125
73 94 125
73 95 126
74 94 124
73 93 124
74 95 127
72 92 123
73 94 125
73 94 125
73 93 124
75 96 127
74 94 124
74 94 124
72 94 126
71 92 124
74 95 126
74 94 125
75 96 127
74 94 124
70 92 125
73 93 124
74 94 124
73 94 126
71 90 120
74 94 124
74 95 126
73 94 126
74 93 123
75 95 126
72 93 124
73 94 125
73 93 123
73 93 124
73 94 125
71 92 122
73 93 124
75 95 126
72 93 124
72 94 126
74 95 126
72 92 122
72 93 123
74 94 126
73 93 124
72 93 124
74 95 126
73 94 125
74 95 127
74 94 125
73 93 124
73 93 124
72 92 123
72 92 123
74 95 126
73 93 123
71 92 124
73 94 125
73 94 125
74 94 125
72 92 123
73 94 125
73 94 126
71 91 121
74 95 127
73 94 126
75 95 126
69 90 120
75 95 125
73 94 125
74 95 126
73 93 123
74 95 127
73 94 124
74 95 127
75 96 127
73 94 126
74 93 123
74 95 125
74 95 126
74 95 128
74 95 126
75 95 126
72 93 124
74 94 124
75 95 126
73 94 124
72 94 126
73 94 125
73 94 125
72 93 125
75 96 126
73 94 125
73 94 125
72 93 125
72 94 127
74 95 125
75 96 126
72 92 122
73 94 125
73 93 125
74 94 124
74 94 124
74 94 124
73 93 124
73 93 122
75 95 127
75 95 126
72 93 125
73 94 125
74 95 126
75 96 126
75 95 126
73 93 123
73 94 125
74 94 124
74 94 125
73 93 124
74 95 126
72 93 126
72 92 123
72 93 124
73 94 124
73 94 125
74 95 126
73 94 125
73 93 124
73 94 124
71 92 123
72 93 123
74 95 126
73 94 126
74 95 127
75 95 125
73 94 127
72 92 123
74 95 126
73 93 124
73 93 124
74 94 125
75 95 126
73 93 123
73 94 127
76 96 128
73 94 126
74 94 125
74 94 125
73 93 124
73 93 123
74 94 126
74 95 126
73 94 125
73 94 125
75 95 125
73 93 124
74 95 127
72 93 125
75 95 125
74 94 125
74 94 125
73 94 125
74 95 126
74 95 126
75 96 128
74 96 128
72 93 124
74 95 126
75 95 127
74 95 126
72 93 124
73 94 125
75 96 127
74 94 125
74 95 127
71 93 125
74 95 126
73 94 125
73 93 123
74 95 127
75 95 126
74 95 126
72 94 126
75 96 126
76 97 128
76 97 128
72 93 125
75 95 126
73 95 127
74 95 125
72 93 123
74 94 124
74 94 125
75 95 126
72 93 125
76 96 126
75 96 127
74 95 126
74 95 127
74 95 127
74 95 127
75 95 127
73 93 123
73 94 126
74 95 127
74 95 126
72 93 124
74 95 127
74 95 126
74 94 126
74 95 126
75 95 126
75 96 127
75 96 128
75 95 125
74 94 126
76 96 127
74 95 127
75 95 127
75 96 126
72 92 122
74 96 128
73 94 126
74 94 125
73 95 128
74 94 125
74 95 126
73 94 125
75 95 126
74 95 125
74 94 126
73 94 126
75 95 127
73 94 125
73 94 125
73 94 126
74 95 126
74 95 125
73 94 125
74 95 125
74 95 126
76 95 125
73 94 126
73 94 125
73 93 124
74 94 124
74 95 126
75 95 126
74 95 126
74 94 124
74 95 127
75 96 128
75 96 126
73 94 126
73 95 127
75 94 124
73 94 125
74 95 127
74 95 127
74 95 126
73 94 125
75 96 126
74 94 124
73 94 126
76 96 127
73 94 126
73 95 126
76 96 126
74 95 126
74 94 125
74 95 128
73 94 124
72 93 124
75 96 126
74 94 125
73 94 125
72 93 123
74 95 126
75 94 124
73 95 126
73 93 123
76 96 127
73 93 125
72 93 124
74 95 126
72 93 125
73 95 127
75 95 126
72 93 125
72 93 125
73 93 124
75 96 126
75 95 126
72 92 122
74 95 126
72 92 123
74 95 128
72 93 125
71 91 121
73 93 124
72 93 125
74 94 126
74 95 125
74 95 125
75 95 125
73 94 125
72 93 124
72 93 125
73 93 124
74 95 126
73 94 125
74 95 128
72 93 124
74 95 125
72 93 124
72 93 124
70 91 122
72 92 123
71 93 125
72 93 123
74 94 126
73 94 126
74 94 125
73 94 124
74 95 126
72 93 124
74 95 127
73 94 127
75 95 126
71 92 123
74 95 127
74 94 126
74 95 126
72 93 123
72 92 124
73 94 126
72 92 122
73 94 126
75 95 126
75 95 126
73 93 124
72 93 125
74 95 126
75 95 125
73 94 125
74 95 127
74 94 124
73 94 126
73 94 124
75 95 125
73 94 125
74 94 124
75 95 125
73 94 126
72 93 124
73 94 125
75 96 127
74 95 127
73 94 125
73 94 125
73 94 125
73 94 126
77 97 127
75 95 124
74 95 126
70 90 120
73 94 126
74 94 125
72 92 123
75 95 126
73 94 126
72 93 123
73 94 125
74 95 127
73 93 123
74 95 126
72 92 123
73 93 125
74 94 126
72 93 123
74 94 125
72 93 123
73 94 124
72 93 126
73 93 124
71 92 123
73 93 123
73 94 125
73 94 124
74 94 124
72 93 124
73 94 125
74 95 125
73 94 124
72 93 124
74 94 125
71 92 123
73 94 127
73 94 125
74 95 127
74 94 125
74 94 125
75 96 127
74 95 125
74 95 126
74 94 124
72 93 123
74 94 126
72 93 124
73 93 124
72 93 124
73 93 124
73 94 127
73 94 125
73 93 124
74 95 127
74 95 126
75 95 126
75 95 125
74 95 126
75 95 125
74 94 125
73 92 122
72 93 126
75 95 125
75 96 128
73 93 123
73 94 125
72 93 125
75 95 125
73 94 126
73 94 126
73 94 125
74 94 125
73 94 125
73 94 124
76 96 126
72 92 123
72 93 123
75 95 125
71 92 123
75 96 127
71 92 124
72 93 125
74 94 124
74 94 124
73 93 124
75 96 127
72 92 123
74 95 126
74 94 124
73 94 126
73 94 124
73 94 125
74 95 127
72 93 124
72 93 125
75 95 126
74 95 126
75 95 126
74 94 124
73 94 126
73 93 124
73 93 123
74 95 126
73 94 126
74 94 124
73 94 125
73 94 125
74 95 127
72 92 121
73 94 124
74 95 126
76 96 128
74 95 126
71 91 122
74 95 125
74 95 126
73 93 124
74 94 124
74 94 124
74 95 126
73 94 125
74 95 127
73 94 125
73 93 124
74 94 124
74 95 125
73 93 124
74 94 124
74 94 125
74 95 127
71 91 121
74 95 126
72 92 123
75 95 125
75 96 126
72 92 124
73 93 123
74 95 125
74 94 125
74 95 125
74 94 125
73 93 122
73 94 124
75 96 128
73 93 123
74 95 126
72 92 123
74 95 126
73 94 124
72 94 126
73 94 125
70 91 123
74 94 125
74 94 125
71 92 122
73 94 124
73 93 122
73 93 124
73 93 123
75 95 125
75 95 127
73 94 124
72 93 124
75 95 125
72 92 121
74 95 126
73 93 123
75 95 127
74 95 126
73 94 125
74 95 126
72 93 124
75 95 125
74 95 127
76 96 125
73 93 124
74 94 125
72 92 123
73 94 126
75 95 126
73 94 126
74 95 126
74 95 126
75 96 128
74 95 126
72 93 125
72 93 124
74 95 125
72 92 123
74 95 126
74 95 126
74 95 126
75 95 126
73 93 123
73 94 125
76 96 126
73 94 126
73 94 124
73 93 124
73 94 124
74 94 125
76 96 127
74 94 124
74 95 125
73 93 123
74 95 126
72 93 124
74 95 127
73 94 125
75 95 126
73 94 124
75 96 127
75 96 126
75 95 126
73 94 125
72 93 123
75 96 128
74 95 126
74 94 125
73 94 126
75 96 127
73 93 124
74 94 125
72 93 124
73 95 127
73 94 126
74 95 127
74 95 126
74 95 125
73 94 125
74 94 124
74 94 126
74 95 126
75 96 127
74 95 126
74 95 128
74 94 125
73 94 126
76 96 127
73 94 126
73 95 128
75 96 127
74 95 126
74 95 127
75 95 126
75 96 127
70 91 123
74 95 126
74 95 127
75 95 125
73 94 126
74 95 127
75 94 124
74 95 126
74 94 125
74 95 125
73 93 124
72 94 127
76 96 126
74 94 125
73 94 126
74 94 125
72 93 125
75 96 128
73 93 124
75 96 127
74 96 128
73 94 126
75 95 126
73 94 126
77 97 127
74 95 126
74 95 127
72 94 126
76 96 127
74 94 126
71 93 125
75 96 127
72 93 125
75 96 128
74 95 126
75 95 126
73 94 126
74 95 126
72 93 125
74 94 125
73 93 124
74 95 126
73 93 125
75 95 125
74 94 126
74 94 124
74 94 126
72 93 126
74 95 126
73 93 124
73 94 126
74 95 126
73 93 124
73 93 124
75 96 127
75 96 128
73 94 126
74 95 126
72 93 125
74 96 128
74 95 127
74 94 124
75 95 126
73 94 126
72 93 125
73 93 124
76 95 123
73 93 124
75 95 124
75 95 126
74 95 127
75 95 126
75 95 125
74 95 126
73 94 125
73 93 124
74 94 125
72 93 125
73 94 124
73 94 126
74 95 126
75 95 126
73 94 124
74 95 125
73 94 125
76 96 127
73 94 126
75 96 127
74 95 126
74 95 126
75 95 126
73 94 126
73 94 124
75 95 126
75 95 126
74 93 123
72 92 123
74 94 126
76 96 127
75 95 126
73 93 123
73 94 125
74 94 124
72 93 124
73 94 125
74 94 125
72 92 123
75 95 126
74 95 127
71 92 123
74 95 126
74 95 127
73 94 126
73 94 125
74 95 126
71 92 124
73 95 127
74 95 126
74 95 125
72 93 124
74 95 127
72 93 125
74 94 124
74 94 125
73 94 126
73 94 126
74 94 123
74 95 126
75 96 127
74 94 125
73 94 125
73 94 126
76 96 126
74 95 126
73 94 125
73 94 125
76 96 126
75 95 124
76 96 128
75 95 125
72 93 125
75 96 128
74 95 126
74 95 126
73 93 123
74 95 125
73 93 124
74 94 124
74 95 128
72 93 124
75 95 125
70 91 123
72 93 124
74 95 126
75 95 127
74 94 124
73 94 126
73 93 125
73 94 125
75 95 126
76 96 126
76 96 126
74 93 123
72 92 122
74 95 127
71 91 121
73 94 124
74 95 126
72 93 123
73 94 126
74 94 125
73 94 126
72 93 125
73 93 123
72 93 125
72 92 123
73 94 126
72 93 125
72 92 122
73 93 124
73 93 123
75 95 126
74 94 124
75 95 126
72 93 123
74 95 126
74 94 125
74 94 125
73 95 127
76 96 128
72 93 123
74 94 124
73 94 124
74 95 126
75 96 127
72 92 123
73 94 124
73 94 125
71 92 123
73 93 124
73 93 124
73 93 123
73 95 128
72 93 124
73 94 126
73 94 124
73 94 125
74 94 126
73 94 125
73 94 126
73 94 126
75 96 126
76 96 127
72 92 123
74 94 123
73 94 125
74 95 126
74 94 126
72 92 123
75 95 124
75 95 126
73 94 124
74 94 124
72 94 126
74 94 124
71 91 121
76 97 128
75 96 127
74 95 126
72 93 125
73 94 125
76 96 126
74 94 125
74 95 126
73 93 124
73 94 124
73 93 124
74 95 126
73 94 124
74 95 126
73 94 126
75 95 125
75 95 126
73 95 127
73 93 124
73 94 124
76 96 126
73 94 126
75 95 125
73 94 124
72 93 126
74 94 125
74 95 126
75 95 126
72 92 123
74 94 125
73 93 123
74 95 125
74 95 125
73 94 125
75 96 127
74 95 126
74 94 125
73 94 124
75 95 126
73 94 124
74 94 123
75 96 126
74 95 125
74 95 128
73 95 127
75 96 127
73 94 126
72 94 126
71 91 121
75 95 126
74 95 127
74 95 126
73 93 124
73 94 124
72 93 124
73 94 124
72 94 126
74 95 126
73 94 125
75 96 127
73 94 126
73 95 127
74 94 125
72 92 122
73 94 124
76 96 126
73 94 126
75 95 126
74 95 127
74 95 126
74 95 127
73 94 126
75 95 126
73 93 123
72 93 125
75 96 126
72 92 123
74 94 124
74 95 126
72 93 124
73 93 124
72 93 123
73 94 124
76 96 126
71 92 124
74 95 126
74 95 126
73 93 124
75 95 127
76 96 128
76 97 128
74 94 124
74 95 126
76 96 126
73 94 125
73 93 123
73 94 126
74 94 124
73 93 124
73 93 124
73 94 125
73 95 127
73 92 122
73 94 126
74 94 124
72 92 123
76 96 127
76 96 127
75 95 126
71 92 123
73 93 123
73 93 124
73 94 126
74 94 123
75 96 127
74 94 124
72 93 124
74 94 125
73 94 125
72 94 125
73 93 124
73 94 126
75 96 127
73 93 124
75 96 128
73 94 126
74 95 126
75 96 127
75 95 126
71 91 121
73 94 125
74 95 126
73 94 125
74 95 126
74 94 124
74 95 126
74 95 126
76 96 127
75 96 128
75 95 126
73 94 126
71 91 121
73 93 124
74 95 126
75 95 126
74 95 126
73 94 126
75 95 125
72 93 125
72 93 125
76 96 128
72 93 125
73 94 125
73 93 123
72 93 124
73 94 126
75 95 126
74 94 124
76 97 128
75 96 128
75 95 126
75 96 127
75 96 126
74 95 126
73 94 126
74 96 128
74 95 127
74 95 127
74 95 127
74 95 126
74 94 125
75 95 127
74 95 125
75 96 126
73 94 124
73 94 125
75 96 127
74 94 125
74 95 126
73 94 126
75 96 128
75 96 128
74 94 126
73 93 124
74 96 128
73 94 125
73 93 124
75 96 127
74 95 127
73 94 126
72 93 124
75 95 125
73 93 123
73 93 124
75 95 125
74 95 126
72 93 124
72 93 124
74 95 126
74 95 126
74 95 127
74 95 126
75 96 126
74 95 126
74 94 125
73 95 127
74 94 124
74 95 128
74 94 123
75 96 127
74 94 126
74 95 127
75 95 125
75 95 126
76 96 126
75 95 126
74 95 127
75 95 126
71 92 122
74 95 127
74 95 126
73 94 126
72 93 124
72 93 125
75 95 125
74 94 126
74 94 125
75 96 128
73 95 126
74 94 124
75 96 126
74 94 124
74 95 126
75 95 125
73 94 124
73 95 126
73 93 124
74 95 127
73 95 127
74 94 126
76 96 127
75 95 126
72 93 125
74 94 125
74 95 127
74 94 123
74 95 126
74 95 126
76 96 126
73 94 125
74 95 127
74 95 125
74 94 124
74 94 124
73 93 124
73 94 126
74 95 126
73 94 125
72 92 123
72 93 125
75 96 126
72 94 126
72 92 122
74 95 125
73 94 125
73 94 125
74 95 127
74 95 126
75 95 125
74 94 125
76 96 125
74 94 126
73 94 125
74 95 126
71 91 121
75 95 126
76 96 127
75 95 126
75 96 126
75 95 127
72 93 123
74 94 125
72 93 125
76 96 125
73 94 126
73 93 124
76 96 127
75 96 127
72 93 125
74 94 125
74 95 127
74 95 127
75 95 126
74 94 126
75 95 124
74 94 125
73 94 125
73 94 125
75 95 125
73 93 125
73 94 125
74 94 125
73 93 124
71 92 123
74 94 124
73 94 125
73 94 125
73 93 124
74 94 124
73 93 124
73 94 125
75 95 126
73 93 124
71 91 122
74 94 123
71 92 122
74 95 126
73 94 126
73 93 124
74 95 126
74 94 125
74 95 126
73 93 124
74 95 126
74 95 126
73 94 126
73 93 123
73 93 124
75 96 126
72 93 125
73 94 126
75 95 126
71 91 122
76 95 124
73 93 124
74 95 126
73 94 126
74 95 126
74 94 125
74 94 125
73 94 126
75 96 127
74 94 125
75 95 126
72 93 125
74 94 124
74 94 124
75 96 126
74 94 126
75 95 126
74 95 126
72 92 123
72 92 122
73 94 126
72 93 124
75 96 128
74 95 125
73 94 126
74 95 126
74 94 126
75 96 127
75 95 126
73 93 124
74 95 125
73 94 125
74 95 126
72 94 126
74 94 125
75 95 126
73 94 124
75 95 126
73 94 125
72 93 124
75 95 126
74 95 126
73 94 125
73 93 124
72 93 124
73 94 125
73 93 124
75 96 128
75 96 128
72 93 123
73 94 125
72 93 124
74 95 125
73 94 125
74 95 127
74 94 126
76 97 128
74 95 126
73 95 127
71 91 122
75 96 128
73 94 125
73 94 125
72 93 123
76 96 128
74 94 125
75 95 125
73 93 124
74 95 125
74 94 125
73 93 123
73 93 123
74 94 125
74 94 125
74 94 125
74 95 126
74 95 126
74 95 126
73 93 124
74 94 124
72 92 123
75 96 128
73 95 126
71 91 122
72 92 122
73 94 126
72 93 125
73 93 124
75 95 125
72 93 125
72 93 124
74 94 123
74 95 126
73 93 123
73 94 125
73 94 126
73 94 124
73 94 126
71 92 123
74 94 126
72 93 124
76 96 126
73 94 125
73 94 124
73 94 125
74 94 125
75 96 127
71 92 122
73 93 124
73 94 125
73 94 127
74 95 126
74 94 125
75 95 125
73 94 126
74 95 126
76 96 126
74 94 124
75 95 125
71 93 125
74 95 126
74 94 125
74 95 126
73 94 125
73 94 126
74 95 126
72 92 123
73 94 124
74 94 125
72 92 123
74 95 126
73 93 124
74 95 126
74 94 125
73 94 126
75 96 128
75 96 127
74 95 126
73 93 123
75 95 125
74 95 126
74 94 125
73 94 126
74 95 126
73 93 124
73 94 126
75 95 126
72 93 125
75 95 126
73 94 126
72 93 125
73 95 126
72 94 126
74 94 125
74 94 124
73 94 125
73 94 125
74 94 124
74 94 124
73 93 123
74 94 123
73 94 126
74 95 127
74 95 126
76 96 127
74 94 124
73 94 125
76 96 126
73 94 125
75 95 125
74 94 124
74 94 125
75 95 126
75 95 123
74 94 124
75 96 127
72 92 123
75 95 126
75 95 126
73 93 123
73 94 125
76 96 125
72 93 124
75 96 127
74 95 127
74 95 126
74 95 126
74 94 124
73 93 124
72 92 123
75 95 125
75 95 126
74 95 127
74 95 126
72 93 123
74 94 126
72 93 124
76 96 128
72 92 123
73 95 127
74 95 126
75 95 126
74 95 127
74 95 126
75 95 125
75 96 127
74 95 126
74 95 126
73 94 125
74 95 126
73 92 122
73 94 125
74 95 127
75 96 126
75 96 128
75 95 127
74 95 126
72 93 125
74 95 126
74 95 126
74 95 126
73 95 127
74 95 126
74 95 126
73 93 124
74 95 127
75 95 127
75 96 127
74 94 125
75 95 126
75 96 128
73 94 126
74 94 125
74 95 126
74 96 128
74 94 126
71 92 123
76 96 128
75 96 127
73 95 127
74 95 126
72 93 124
74 95 126
73 94 124
74 95 126
75 96 126
74 95 127
73 93 123
73 94 125
72 93 125
73 94 126
74 95 126
74 95 126
74 94 125
75 95 125
75 95 126
75 95 125
72 93 124
75 96 127
74 94 126
75 96 128
74 94 126
74 94 125
76 96 128
74 95 126
75 96 127
74 95 126
75 95 126
76 96 127
74 95 128
75 96 128
75 96 127
73 95 127
74 95 126
75 96 126
72 93 125
74 95 125
75 95 126
74 94 124
75 96 128
74 95 126
74 94 126
73 94 126
73 95 127
75 95 127
74 95 125
74 95 126
75 96 127
73 95 128
71 92 124
72 93 124
73 93 124
74 95 126
75 96 127
74 94 124
76 96 126
74 95 126
74 95 126
74 95 126
75 95 125
74 95 126
74 95 126
74 95 126
73 94 125
73 94 124
71 92 123
75 95 126
75 96 126
74 95 126
74 95 127
73 93 123
73 94 126
72 92 123
75 95 126
72 94 126
72 92 123
75 95 126
73 94 124
73 94 124
74 94 125
72 94 125
74 95 126
73 94 126
75 95 126
74 94 125
74 95 126
72 93 124
73 93 123
74 95 126
74 95 126
75 95 126
75 96 127
76 96 128
73 94 125
72 92 122
73 94 124
75 95 125
72 93 125
75 95 126
73 93 123
73 95 126
75 95 126
74 95 126
72 94 126
72 93 124
73 93 123
72 94 126
71 92 123
71 92 123
72 93 123
75 95 126
74 95 126
73 93 125
75 96 128
75 95 126
75 95 126
73 94 125
73 94 126
76 96 127
74 95 126
75 95 125
72 93 125
73 93 124
74 95 126
75 95 125
75 95 126
74 95 126
75 95 125
74 95 125
74 95 126
73 94 126
75 96 126
73 94 124
72 92 122
73 94 126
74 94 125
75 96 127
76 95 125
73 94 125
72 93 123
72 92 123
75 96 126
71 90 119
75 96 126
75 95 126
74 95 126
75 95 126
72 93 125
74 95 126
73 93 124
72 93 123
73 94 127
73 93 123
73 93 125
73 93 125
76 96 126
73 94 125
74 94 125
73 93 124
73 93 124
74 94 125
74 95 125
73 94 126
72 93 125
72 93 123
74 95 126
74 95 125
75 95 126
74 95 126
74 95 127
73 93 124
74 94 124
72 94 126
74 95 126
73 95 127
73 93 124
73 93 124
73 93 124
74 95 125
71 92 124
74 94 125
70 90 119
72 93 124
72 93 124
72 92 122
74 94 124
74 95 125
72 92 121
73 94 125
74 94 125
74 94 125
73 94 125
74 94 126
71 91 121
74 95 127
72 93 124
73 93 123
72 92 122
74 95 127
74 95 125
73 95 126
72 92 123
71 92 123
73 94 126
74 94 126
75 95 126
72 93 124
71 91 122
74 94 125
73 94 126
74 95 127
73 93 123
72 94 126
74 94 125
74 94 126
74 94 125
74 95 127
74 94 125
75 96 127
73 94 125
75 94 124
73 93 124
73 94 125
74 94 125
75 95 125
72 92 122
72 94 126
74 95 126
73 94 124
74 94 123
74 95 126
74 95 126
73 94 125
73 94 126
73 94 124
75 95 124
74 95 126
73 94 125
74 94 124
72 93 124
73 94 126
72 93 124
73 94 126
72 92 122
72 93 124
73 93 124
74 95 126
75 95 126
72 94 125
73 94 125
74 95 126
75 96 127
72 92 123
75 96 128
72 91 120
74 94 125
76 95 125
73 94 125
74 95 125
73 94 125
73 94 125
73 94 126
72 92 123
73 93 124
75 95 126
74 95 126
74 95 126
71 91 121
74 94 125
74 94 124
74 94 125
72 93 124
71 93 124
72 93 124
72 93 124
72 93 125
74 95 126
71 92 122
74 96 128
74 94 124
74 95 127
74 95 126
74 95 127
74 95 127
74 94 125
72 92 124
73 94 126
74 95 127
72 93 124
75 95 126
71 92 123
73 94 125
73 94 125
75 96 127
74 95 127
74 95 127
72 92 124
74 94 124
74 95 127
74 95 127
75 96 127
75 96 127
74 95 126
74 95 125
75 95 125
73 94 125
73 94 124
73 94 126
74 95 127
74 94 126
75 96 127
73 94 125
73 95 128
73 93 124
74 95 126
73 93 124
74 95 128
73 94 125
74 95 126
74 95 126
73 94 126
76 96 127
75 95 126
74 95 126
73 94 125
73 94 126
74 95 127
74 95 126
75 95 126
73 94 125
73 94 126
74 95 126
73 94 125
74 95 126
74 95 126
74 94 125
73 95 127
74 95 127
76 96 126
72 93 124
73 94 125
72 94 126
74 95 125
73 94 125
75 95 125
73 94 125
75 96 128
72 93 124
74 94 123
75 95 125
75 95 125
75 96 127
71 92 124
74 95 126
73 94 125
74 94 126
75 96 126
76 97 127
74 95 126
75 95 127
74 94 126
73 94 125
76 96 127
75 96 128
76 96 128
75 95 126
75 95 126
74 94 125
74 95 126
75 96 127
74 95 126
74 94 125
74 95 126
75 96 128
73 94 125
74 94 124
75 95 125
73 94 126
74 95 126
73 94 126
76 96 127
76 96 128
75 96 127
75 95 126
74 95 127
75 95 125
75 95 126
74 95 127
73 94 127
74 95 126
75 95 126
73 94 125
73 94 125
74 94 126
73 93 123
75 96 127
76 96 127
74 95 127
75 96 128
75 95 126
74 94 125
72 93 125
73 94 125
75 96 127
74 94 125
75 95 126
74 95 127
74 94 125
74 95 127
74 95 126
74 94 124
74 94 124
73 94 124
75 96 127
75 95 125
74 95 127
71 92 124
73 94 124
75 95 127
74 94 125
75 95 126
73 93 124
75 96 127
75 96 128
75 96 127
75 95 126
74 94 125
72 93 125
75 95 126
77 97 128
72 93 124
71 92 123
71 91 122
72 94 127
76 96 126
72 93 124
72 93 124
75 95 125
73 94 126
73 94 124
75 95 125
75 95 126
75 95 127
73 93 124
74 95 125
73 94 125
75 95 126
75 96 127
73 93 124
74 95 127
74 95 126
74 94 125
74 94 125
73 94 125
74 94 125
73 94 126
72 94 126
74 95 126
75 96 128
73 93 124
74 95 127
73 93 124
72 93 125
73 95 126
75 95 126
74 96 128
73 94 125
73 94 127
75 95 126
73 93 124
72 93 124
72 94 126
73 93 123
72 93 124
73 93 124
74 94 126
73 94 126
74 95 127
73 93 124
73 95 127
73 94 125
72 93 125
74 95 126
74 94 125
73 94 125
74 94 124
73 94 126
73 94 125
73 95 127
73 94 126
75 95 127
75 95 125
73 94 125
74 93 123
75 95 126
74 95 126
75 96 127
73 94 126
75 95 126
75 96 126
73 93 123
70 90 120
74 95 126
75 95 124
71 92 123
75 95 126
73 94 125
75 96 126
73 94 125
72 93 125
72 94 126
74 94 125
73 94 126
75 95 125
72 92 124
73 94 124
74 94 125
74 94 126
74 94 125
73 94 125
73 94 126
73 93 124
75 95 125
73 94 125
74 95 126
75 95 127
74 94 124
72 92 123
76 97 128
73 93 123
74 94 124
75 95 126
72 92 122
74 94 125
73 94 124
73 94 125
75 95 124
74 95 127
74 94 125
73 93 122
72 93 124
73 94 124
74 95 126
72 93 124
72 93 124
74 95 127
74 95 126
74 95 126
74 95 126
74 95 126
74 94 124
75 95 125
74 95 127
74 94 125
73 94 126
72 93 125
72 92 122
76 96 126
73 94 125
72 93 125
74 94 124
72 93 125
73 95 127
72 92 122
73 93 124
74 94 125
73 94 124
75 95 125
73 94 124
74 94 124
74 94 125
74 95 125
74 95 127
74 94 125
72 93 125
73 93 124
74 95 126
74 94 125
73 93 123
73 93 124
74 95 127
75 95 126
74 94 125
74 95 126
74 95 126
75 96 126
74 94 124
74 94 123
74 94 126
74 95 127
74 95 126
73 93 124
75 95 126
73 94 124
74 94 125
75 96 126
73 94 126
73 94 124
74 94 125
71 92 124
73 93 123
74 94 124
74 94 124
71 91 120
75 95 125
74 95 126
74 95 126
74 95 125
72 93 124
73 94 125
75 95 125
72 93 123
74 94 125
74 95 125
72 92 123
73 94 124
74 95 126
74 94 124
73 94 124
73 94 125
71 93 125
74 95 126
72 94 126
74 94 125
73 93 124
74 94 124
74 95 126
72 93 126
72 93 124
74 94 124
75 95 126
73 95 127
74 95 126
73 94 125
74 95 126
74 95 127
73 94 125
74 94 125
73 95 127
73 93 125
73 94 126
74 94 125
74 95 125
73 94 126
73 93 124
73 94 125
72 93 123
74 95 125
74 95 126
72 93 125
75 95 126
74 94 126
73 94 124
75 95 126
73 93 123
73 94 125
73 95 126
75 95 126
74 95 126
74 94 125
73 94 125
72 92 123
74 95 125
74 95 126
75 96 127
75 95 126
73 93 124
73 94 126
74 95 127
73 93 124
75 95 126
74 94 126
75 96 126
72 93 124
75 95 126
75 95 124
72 94 126
71 92 123
74 94 126
74 94 124
73 93 124
73 94 126
76 96 127
73 93 124
74 94 123
73 94 127
74 95 127
74 95 126
74 94 124
73 93 124
73 94 125
73 94 126
73 95 127
72 94 126
73 94 125
72 93 124
73 94 125
74 95 126
73 94 126
75 95 126
74 95 126
74 95 126
75 96 127
74 94 125
73 94 126
74 94 125
73 94 125
72 93 124
72 93 123
74 94 126
72 92 123
75 95 125
74 95 126
75 95 125
75 95 126
75 95 125
73 94 126
74 94 126
75 95 126
74 94 125
74 95 126
75 96 128
74 95 126
74 94 125
72 92 123
76 96 127
73 95 126
72 93 124
72 93 125
75 96 127
75 95 125
75 95 125
75 95 126
74 94 124
74 94 124
72 93 125
74 94 126
75 95 125
73 93 124
75 95 126
71 91 121
73 94 124
74 95 126
73 94 126
73 94 126
75 96 128
74 95 125
74 95 126
74 95 126
75 94 124
73 94 125
73 95 127
75 96 127
75 95 126
74 94 126
74 95 127
74 94 124
74 94 124
73 93 124
74 94 125
75 96 127
74 95 127
74 94 125
73 94 126
73 93 125
75 95 126
75 96 126
74 95 127
75 96 128
73 94 125
74 95 126
75 96 128
72 93 124
74 95 126
74 95 126
75 96 127
76 96 126
74 95 127
72 93 123
74 95 126
74 95 126
75 96 127
73 94 126
74 94 125
74 95 127
74 95 126
73 95 126
76 97 128
74 95 125
76 96 126
75 95 127
73 94 126
74 95 128
73 94 125
75 95 126
75 96 127
75 95 125
73 94 127
73 94 126
73 93 125
73 95 126
75 95 126
74 95 126
75 95 126
75 96 126
74 94 124
75 96 127
75 95 126
75 95 126
76 97 128
73 95 126
73 94 126
73 93 125
74 95 125
75 96 126
74 95 126
73 94 125
73 94 125
75 95 126
73 94 126
73 93 124
75 96 128
76 95 125
74 95 126
72 93 125
74 94 125
74 94 124
76 96 127
76 96 126
73 94 125
74 94 124
74 95 127
75 96 128
73 94 125
74 94 124
73 94 125
75 95 126
74 95 126
75 96 127
75 95 126
73 94 124
73 94 125
73 94 126
73 94 125
73 94 125
73 94 126
73 94 126
74 95 126
75 95 126
74 95 126
75 95 126
73 93 124
73 94 125
74 95 126
73 94 126
76 96 126
73 94 126
71 92 122
73 94 125
73 94 125
73 95 127
74 95 125
72 92 123
74 95 127
73 93 124
72 92 122
73 94 126
74 94 125
72 94 125
74 94 125
75 95 126
74 95 125
75 96 127
72 93 124
72 92 123
73 94 124
71 92 123
74 94 124
72 93 124
73 94 126
73 94 125
73 94 124
74 94 125
75 95 126
74 95 127
72 93 125
73 93 123
74 95 126
74 95 126
72 93 125
75 96 127
75 95 126
73 94 126
73 94 126
75 96 126
71 92 122
72 93 125
74 94 125
72 92 121
72 92 123
74 95 126
74 95 126
75 95 125
74 93 122
72 93 125
75 95 126
75 95 126
75 95 126
74 95 126
72 93 124
73 94 124
72 93 124
75 95 126
74 94 125
75 95 126
73 94 124
75 96 127
74 94 125
73 94 124
73 94 126
74 96 128
72 92 123
75 96 128
71 92 124
75 96 127
73 94 125
74 94 125
75 95 126
73 94 126
74 95 126
72 92 123
74 95 126
73 92 121
72 93 124
73 93 123
75 95 126
74 94 125
74 94 126
76 96 127
75 96 128
73 94 125
73 94 125
74 94 124
71 92 124
73 93 124
73 93 124
74 94 123
72 93 125
73 93 124
74 95 126
72 93 124
74 95 126
74 94 124
72 92 122
73 94 124
74 95 126
74 95 126
73 94 127
72 93 124
74 95 126
74 94 125
74 94 125
74 95 126
75 96 128
73 94 126
75 96 127
73 94 126
75 95 126
74 94 126
73 94 125
74 95 126
75 95 126
73 94 126
71 92 123
71 91 120
73 94 126
74 95 126
73 94 125
74 95 126
74 95 126
72 93 123
72 92 123
71 93 124
72 93 125
74 95 125
74 94 125
71 92 124
74 95 127
75 95 126
74 94 126
71 92 123
72 92 122
72 92 123
74 95 127
72 93 123
75 96 126
72 92 122
73 94 125
74 94 125
71 91 121
74 95 126
73 94 126
73 93 124
73 94 126
73 94 124
74 95 126
74 95 126
73 93 124
73 93 122
74 95 125
74 95 127
74 95 127
76 96 128
74 94 124
76 96 128
73 93 123
74 94 124
72 93 123
75 95 126
75 95 125
73 93 124
72 93 124
71 91 122
75 96 127
73 95 127
73 94 125
75 95 126
74 94 125
73 95 128
75 96 126
72 93 125
71 91 121
74 95 126
75 95 126
74 95 126
72 92 123
73 95 127
72 92 123
73 95 127
74 94 123
74 94 124
72 93 125
73 94 125
74 94 125
73 94 126
73 94 126
74 95 126
74 94 124
73 94 126
73 94 125
73 93 123
72 93 124
74 94 126
73 93 124
73 94 125
75 95 125
72 92 123
73 94 125
73 94 124
72 93 124
75 95 126
74 94 125
73 94 126
72 93 125
75 96 126
73 94 126
75 94 123
74 95 125
73 93 123
74 94 125
75 95 126
72 93 124
74 94 125
74 94 126
75 95 124
74 95 126
72 93 125
73 94 125
76 96 126
74 95 126
75 95 126
73 94 126
73 92 122
74 94 125
74 95 128
72 94 126
72 93 124
76 96 126
73 94 126
73 93 124
72 93 125
72 93 124
73 93 124
74 94 125
74 94 126
73 93 123
74 95 126
74 95 127
74 95 128
74 95 127
74 95 127
74 94 125
74 95 127
73 93 124
74 94 125
74 94 125
74 95 126
75 95 126
73 94 126
74 95 126
74 95 126
76 96 127
74 95 126
76 95 125
73 93 124
74 95 126
73 93 124
72 93 124
73 94 125
75 95 125
72 93 125
73 94 126
72 93 123
72 93 125
73 94 125
75 96 127
75 96 126
72 94 126
73 94 124
75 96 128
75 96 127
73 93 123
75 96 128
74 94 125
73 93 124
72 93 124
73 94 125
74 94 124
75 95 126
76 96 126
76 96 127
75 95 126
74 95 128
71 92 124
74 94 124
74 95 126
74 95 126
74 94 125
72 93 124
74 95 127
76 96 126
75 95 126
75 96 127
73 93 124
74 95 126
74 96 128
74 95 126
73 94 126
74 95 126
75 96 127
73 94 125
75 95 126
74 95 126
75 95 126
73 93 124
74 96 128
75 95 126
74 95 128
77 97 128
73 94 126
73 94 125
74 95 128
75 95 126
75 96 128
73 94 125
74 95 126
74 94 125
74 95 127
73 94 125
75 95 126
73 94 126
72 94 125
75 95 126
73 94 126
73 94 125
74 95 126
74 95 126
75 96 126
73 94 125
75 96 127
73 93 123
73 95 127
73 93 125
75 95 126
74 95 127
75 96 127
75 96 127
74 95 127
73 95 126
74 94 125
75 96 127
75 95 126
75 96 127
76 96 127
74 95 127
75 96 127
75 96 126
74 95 126
75 95 126
75 96 127
74 95 127
74 95 126
75 95 126
74 95 126
73 93 123
74 95 126
75 96 127
72 93 123
73 94 124
73 94 125
73 94 125
72 93 124
73 94 125
76 97 127
73 93 123
75 96 128
75 96 128
74 95 125
71 92 124
75 95 126
73 94 126
74 94 125
73 94 125
74 95 125
70 90 121
74 95 126
73 95 127
75 95 126
74 95 126
72 92 123
73 95 127
76 96 126
73 93 124
74 95 125
73 94 125
75 95 126
75 95 126
73 93 124
73 95 127
74 94 124
75 95 126
75 95 126
75 95 127
72 92 123
72 93 124
72 93 125
76 96 126
74 94 124
74 95 126
73 93 124
74 95 126
73 94 125
76 96 126
73 94 126
75 95 126
73 94 124
73 94 125
74 94 126
72 93 124
74 95 125
73 93 124
73 94 126
74 94 125
72 93 124
74 95 126
73 94 125
75 96 127
73 94 125
74 95 126
73 94 125
74 95 126
75 96 127
75 95 126
75 96 128
74 95 126
72 93 124
75 95 126
73 94 124
73 94 125
74 95 127
74 95 126
74 95 126
72 93 124
75 95 126
73 93 125
74 95 126
75 95 124
73 94 125
75 96 127
74 94 125
74 95 128
72 93 125
73 94 125
73 94 126
74 95 126
72 93 124
75 95 126
73 94 126
75 95 126
72 93 124
72 92 123
73 94 126
74 94 124
75 96 128
72 93 124
75 96 127
72 92 124
72 93 124
74 95 128
73 94 125
75 96 128
75 95 125
74 95 127
72 92 124
73 94 124
73 94 125
75 96 127
74 94 125
72 92 122
73 94 126
74 94 126
73 94 125
75 95 125
74 94 125
75 95 126
72 93 124
73 93 123
72 93 125
74 95 126
73 94 125
73 93 124
72 94 126
72 93 123
73 93 124
74 94 124
74 94 125
73 94 125
73 94 125
75 96 128
73 94 126
73 93 123
74 94 124
71 92 124
72 94 127
75 95 125
74 96 128
73 93 123
73 93 123
74 95 125
73 94 124
74 95 127
75 96 127
73 94 126
72 93 124
73 94 125
72 94 126
74 95 125
75 95 126
73 93 123
73 94 125
75 95 124
72 92 123
72 93 125
73 93 123
73 94 125
74 95 126
74 95 126
74 94 124
73 94 124
74 94 123
74 94 125
73 93 124
74 95 126
74 93 123
71 92 124
73 95 127
74 95 125
74 93 123
72 92 123
72 94 126
75 95 126
74 94 125
74 95 127
73 95 127
73 94 125
72 94 126
75 95 124
74 95 126
74 94 123
74 94 126
74 94 124
73 93 124
74 95 126
74 95 125
76 96 126
74 94 125
74 94 123
73 94 126
74 94 124
73 93 125
76 96 126
75 95 126
73 95 126
75 95 125
73 94 125
74 94 125
76 96 127
73 94 124
74 95 128
74 94 126
74 95 126
73 94 124
74 94 125
74 94 125
74 95 125
71 91 121
72 93 125
73 93 123
71 91 121
74 94 125
76 97 128
73 93 124
74 93 123
73 94 126
72 93 124
75 95 127
73 94 126
72 92 123
73 93 124
75 95 126
74 93 123
73 94 125
75 95 126
71 92 124
72 93 124
73 94 126
71 91 120
73 93 123
71 92 124
74 94 125
73 94 126
72 93 124
73 93 124
71 91 122
74 94 124
76 96 127
75 95 125
74 94 125
74 94 126
74 95 126
74 94 126
74 95 126
74 95 125
73 94 126
72 93 125
75 95 125
72 94 125
73 94 126
74 95 126
74 95 126
76 97 128
73 94 125
75 95 126
74 95 126
74 95 127
74 94 126
73 94 126
73 94 127
73 94 124
75 95 125
72 93 125
73 93 124
72 93 124
74 94 125
75 96 127
74 94 125
72 94 125
74 95 126
74 94 125
75 96 127
75 95 126
76 96 128
74 94 124
74 95 126
73 93 123
73 93 124
74 94 126
73 94 126
75 95 125
74 95 127
73 94 125
74 95 127
74 94 125
72 93 124
74 94 125
72 93 124
75 95 125
75 96 127
72 93 125
73 94 126
74 95 126
72 93 124
73 94 126
74 95 126
74 95 126
74 94 125
74 95 126
73 93 124
72 92 121
74 94 125
72 93 125
75 95 126
75 96 128
75 95 126
75 95 126
72 92 123
73 93 124
73 94 124
73 94 125
74 95 127
74 94 125
74 94 125
73 94 126
75 95 126
72 93 124
72 92 123
71 92 123
74 95 126
73 94 126
73 94 124
74 95 127
75 96 127
75 96 127
73 94 125
75 95 126
74 94 126
73 94 125
74 95 127
75 95 126
75 96 127
73 94 125
75 96 128
73 94 125
74 95 126
75 96 127
75 95 126
74 95 127
75 95 126
73 94 125
74 95 126
72 94 126
72 93 123
75 96 128
73 94 126
75 96 127
74 95 126
75 95 126
76 96 127
72 93 125
75 95 127
74 95 126
74 94 125
74 94 124
75 95 126
75 96 126
74 94 125
75 95 125
75 96 128
73 94 126
73 94 126
75 96 127
73 93 124
74 95 126
76 97 128
75 95 125
73 94 125
74 95 128
74 96 128
75 95 126
72 93 125
75 96 127
73 93 125
74 95 127
74 95 126
74 94 126
76 96 127
75 96 127
74 95 126
74 94 126
74 95 127
74 96 128
73 95 127
74 95 127
74 95 127
74 94 125
73 94 125
75 95 125
74 95 126
74 94 125
73 93 124
75 96 128
74 95 126
74 94 124
74 95 126
74 94 125
74 94 125
74 95 126
76 96 126
73 94 126
74 94 125
75 95 126
73 92 122
74 94 126
74 93 123
75 95 126
74 95 127
76 96 125
76 96 127
72 93 124
76 97 128
73 93 124
73 93 123
74 94 125
75 95 127
74 95 127
74 95 126
74 95 127
74 95 126
74 94 125
74 95 125
73 93 123
74 95 126
75 95 126
72 94 126
73 94 125
73 94 125
74 95 126
73 93 125
73 94 125
72 92 122
75 95 126
74 95 127
73 95 127
74 95 126
76 97 128
72 94 127
75 95 126
74 94 124
74 94 124
75 96 127
72 92 123
74 95 126
76 96 128
73 94 126
74 95 127
74 94 125
73 94 126
74 95 126
72 93 126
76 96 128
75 95 126
75 95 126
75 95 126
73 93 124
75 95 126
74 94 126
73 95 127
74 95 126
74 96 128
70 91 122
73 94 125
73 93 124
76 96 126
74 94 125
74 94 124
75 94 124
73 94 125
73 95 127
74 95 127
75 95 126
75 96 128
73 93 123
74 94 124
74 94 125
73 94 126
73 94 124
73 93 123
74 95 126
75 96 128
75 95 126
74 95 125
73 94 126
71 92 122
72 94 126
73 93 124
74 95 127
75 95 125
73 95 126
72 94 126
73 93 122
74 94 124
74 95 126
72 93 124
72 92 123
74 94 126
75 95 126
74 95 127
74 95 127
71 92 124
73 93 122
75 96 126
71 93 125
75 95 126
74 95 126
73 94 126
73 94 126
71 92 124
75 95 126
74 95 126
74 95 126
73 94 124
75 95 126
73 93 122
73 94 125
75 95 125
74 95 125
74 94 125
72 94 127
72 93 124
72 93 125
72 93 124
72 92 122
72 93 124
74 95 126
72 93 124
73 95 126
74 94 125
73 93 122
73 94 126
75 96 128
74 96 128
74 94 125
74 94 125
74 96 128
73 94 125
74 95 127
74 94 126
75 95 125
72 94 125
75 95 124
73 94 127
74 95 126
74 95 126
74 94 126
73 93 124
72 93 125
75 95 125
72 93 124
75 95 124
73 94 126
73 93 125
72 93 125
74 95 125
72 93 123
75 95 126
73 93 124
74 94 125
75 95 126
72 92 123
74 95 126
72 93 124
72 92 124
73 94 125
73 94 125
73 93 123
74 94 125
72 93 124
73 94 124
75 95 126
73 94 124
70 91 121
74 95 127
73 94 125
73 94 126
74 94 125
72 92 121
74 94 124
74 95 126
74 95 126
75 95 127
73 93 125
73 94 125
75 95 126
73 95 127
73 94 126
73 93 124
74 95 126
72 93 124
73 94 124
72 94 126
73 94 126
74 95 126
75 95 124
75 95 126
73 94 126
74 94 124
73 94 126
73 94 126
72 93 124
75 95 126
75 96 127
75 95 126
74 95 126
73 95 126
74 94 124
73 94 125
72 93 123
72 94 126
75 96 126
69 90 121
73 94 125
72 92 123
74 95 127
73 93 125
74 94 126
73 93 124
74 95 126
72 93 124
73 94 126
74 95 126
74 95 127
73 94 125
71 92 123
73 94 124
75 96 128
73 93 124
76 96 126
73 93 123
75 95 125
72 92 123
74 94 124
75 96 127
73 94 126
75 95 125
72 93 124
74 95 126
74 95 127
75 95 126
75 96 128
74 95 126
72 93 124
74 95 127
74 95 126
74 94 124
74 95 125
72 94 125
75 95 125
74 94 126
74 94 123
73 94 125
74 95 126
73 94 126
73 94 126
74 95 126
75 95 126
74 94 125
74 94 124
72 93 125
72 92 123
73 93 124
73 94 125
73 94 126
75 95 126
74 94 125
73 94 125
73 95 126
74 95 126
73 94 125
76 95 125
72 92 123
73 94 125
74 95 126
73 94 125
73 93 124
73 94 126
74 94 124
73 93 124
75 96 128
75 95 125
75 95 125
74 95 126
73 93 124
73 93 124
73 93 123
75 95 125
76 96 127
70 92 123
74 95 126
74 95 128
73 94 125
74 95 125
75 96 128
73 94 126
73 94 126
75 96 127
73 94 125
74 95 126
71 92 123
76 96 127
72 93 124
73 93 124
72 93 125
74 95 126
75 96 127
73 93 124
73 94 126
72 93 124
73 93 124
74 94 125
73 93 125
73 93 124
75 95 126
74 95 126
71 92 123
74 95 127
74 94 125
73 93 122
73 93 124
74 95 126
73 94 126
74 94 126
75 96 126
73 94 124
72 94 126
75 96 126
73 93 124
75 96 127
73 94 124
75 96 128
73 93 125
74 95 126
75 96 127
71 92 123
75 96 126
73 92 122
75 95 127
75 95 126
74 94 125
75 95 126
74 95 126
75 95 125
73 94 126
74 95 128
75 95 126
73 94 125
74 95 126
75 95 126
74 95 126
74 95 126
74 95 126
75 95 126
76 97 127
74 95 126
74 95 126
75 96 128
73 94 126
74 95 126
75 96 127
73 94 125
75 95 127
74 95 127
75 95 126
73 94 125
74 95 126
75 95 127
74 95 127
74 95 126
74 94 126
74 93 123
74 95 127
75 96 127
73 95 127
75 95 125
75 96 128
73 95 127
73 93 124
76 96 128
75 95 126
72 93 125
73 94 125
73 94 126
73 94 125
75 96 126
74 95 127
73 94 125
74 95 126
74 95 127
73 93 124
74 95 126
75 96 126
75 95 126
74 95 127
74 95 126
74 95 126
73 94 124
74 95 128
75 96 127
74 95 126
74 95 126
73 94 124
73 94 125
74 95 126
74 94 125
74 95 127
72 93 125
74 95 126
75 96 127
74 95 127
75 95 126
73 94 126
75 96 127
73 93 123
74 96 128
75 96 127
74 94 123
75 95 126
74 93 123
73 94 126
74 95 127
74 95 127
76 96 127
74 95 126
73 94 124
76 96 126
74 95 126
72 93 125
74 95 126
74 94 124
73 93 125
73 94 125
75 95 126
73 94 126
74 94 124
74 95 126
74 95 127
73 94 125
75 95 125
75 95 126
74 94 125
74 95 125
74 94 126
74 95 126
74 95 126
74 94 125
77 96 126
75 95 125
73 94 126
72 93 124
73 94 125
75 95 126
74 95 127
75 96 127
73 94 125
74 94 126
73 94 127
74 94 125
72 93 124
74 95 126
74 95 127
73 94 124
75 95 126
73 93 125
74 95 126
73 95 127
73 94 126
74 95 126
74 95 127
74 94 124
74 94 124
74 95 127
71 91 121
73 93 125
73 94 126
74 95 127
75 96 126
73 93 124
73 94 125
73 93 123
72 93 123
75 95 126
73 93 123
75 96 127
71 91 122
74 94 125
72 93 124
72 92 122
74 95 126
75 96 127
76 96 126
74 95 125
74 94 126
74 95 126
74 95 126
72 93 125
71 91 121
75 96 127
74 95 127
76 96 128
74 95 127
75 96 126
72 94 127
73 94 125
70 90 120
74 94 123
76 97 128
75 95 125
72 93 124
76 96 125
73 94 124
74 94 125
73 94 124
74 94 124
73 94 125
73 94 125
74 95 126
73 93 123
75 95 126
74 95 127
75 95 125
76 96 125
75 96 126
71 92 124
74 94 125
74 95 126
75 95 126
73 94 125
71 92 124
74 95 126
75 96 128
75 95 125
73 93 124
73 94 126
74 95 126
72 93 124
74 95 126
74 94 125
74 94 124
73 94 125
74 95 127
74 95 127
73 93 124
71 92 124
74 94 125
73 95 127
75 96 126
76 96 126
75 96 126
73 94 125
73 94 124
74 94 125
74 95 125
72 92 122
74 95 126
74 95 126
74 95 127
73 93 124
71 91 122
74 95 125
74 94 123
73 93 123
73 94 125
72 93 125
72 93 125
73 94 125
73 93 124
74 94 126
74 95 127
75 96 127
73 93 124
74 95 126
74 94 125
74 94 126
76 96 126
74 94 124
73 94 125
73 94 126
73 92 122
73 95 127
73 94 126
73 95 127
74 95 127
73 93 124
73 94 124
75 94 124
73 94 125
74 95 126
73 93 124
71 92 123
72 92 123
74 95 127
74 94 124
73 92 121
74 95 126
74 94 126
76 96 125
74 95 126
74 94 124
75 95 126
72 92 122
72 92 122
73 94 124
74 94 126
76 96 126
74 95 127
73 94 126
74 95 126
75 96 127
74 95 126
73 94 124
72 93 126
74 94 125
75 95 126
75 96 126
76 96 128
76 96 126
75 96 127
75 95 126
74 94 125
74 95 126
74 95 126
73 94 126
76 96 126
74 94 124
73 94 126
73 94 125
75 95 126
74 94 125
71 92 124
74 95 127
72 92 122
75 96 128
74 95 127
74 94 124
72 93 125
73 93 124
73 95 127
73 93 124
73 94 126
74 95 125
71 92 123
75 96 128
75 96 127
73 94 126
73 94 125
73 95 128
74 95 126
73 93 124
74 94 126
74 95 125
74 95 126
75 96 127
76 96 126
73 93 124
74 95 126
76 96 126
74 95 126
73 94 125
73 94 125
73 94 125
75 96 128
73 94 125
74 95 127
74 96 128
72 93 126
74 94 125
73 94 126
74 95 127
75 95 126
70 90 120
75 96 127
74 95 127
73 94 126
74 94 124
74 94 126
73 94 124
73 94 125
72 93 124
74 95 126
74 95 126
74 95 126
71 91 122
74 95 126
73 93 124
74 94 125
74 94 126
74 94 125
73 93 123
72 93 123
72 92 123
73 93 123
72 93 124
75 96 126
71 92 124
74 94 125
74 95 125
74 94 125
75 94 123
74 94 126
72 92 123
71 93 124
74 95 125
74 95 127
74 95 126
76 96 126
75 96 126
75 95 127
75 95 125
74 94 124
74 93 123
73 94 125
73 93 124
72 93 124
74 95 127
75 95 126
73 94 126
73 95 127
73 95 128
73 93 124
73 93 123
76 96 126
73 93 124
74 95 126
72 93 124
74 95 126
74 94 126
74 94 124
73 93 125
74 95 127
72 93 124
74 95 127
73 94 126
74 94 126
75 96 127
74 95 126
75 95 126
74 94 125
75 96 127
74 94 125
74 95 126
76 96 128
73 93 123
75 95 125
75 96 127
75 96 127
75 96 127
74 95 125
76 96 127
74 95 126
74 94 124
74 95 126
72 93 125
73 94 126
74 95 128
72 93 125
73 94 124
73 94 125
74 95 126
75 96 126
75 96 128
74 95 125
75 95 126
74 95 125
74 95 127
77 97 128
74 95 127
74 95 126
75 96 127
72 93 123
75 95 126
74 95 125
74 95 126
76 96 128
73 94 125
75 96 127
74 95 125
74 95 125
76 96 126
73 94 124
74 94 126
74 95 126
76 96 126
74 95 125
76 96 126
74 95 128
75 95 125
75 95 126
75 95 126
75 96 127
73 94 125
75 96 128
73 94 126
76 96 128
74 94 125
75 95 126
74 95 125
74 95 125
74 95 126
74 95 126
74 95 126
73 94 125
75 95 126
73 94 125
75 95 126
75 96 128
74 95 126
73 94 125
75 96 127
74 95 126
76 96 127
74 95 126
74 94 125
74 95 127
74 94 125
74 95 126
74 94 124
75 95 126
74 94 125
73 93 124
74 95 126
74 95 127
73 94 126
75 96 128
74 95 125
73 94 125
74 95 126
74 95 127
73 93 124
74 95 126
73 94 127
73 94 124
74 94 126
74 95 126
74 94 124
74 95 127
73 93 124
74 95 128
73 94 125
75 95 125
74 94 125
72 93 125
73 94 125
74 94 124
75 95 126
74 94 126
73 94 125
74 95 125
74 93 123
72 93 124
72 94 126
73 93 125
73 94 125
74 95 126
75 96 126
74 95 126
73 94 126
74 95 126
74 94 125
75 96 126
73 94 126
75 95 126
74 95 126
74 95 126
74 95 126
74 95 126
72 92 123
74 94 126
73 94 125
72 93 125
74 95 127
72 93 123
74 95 126
74 94 125
74 95 126
72 92 122
75 95 124
72 92 124
75 96 126
74 94 125
73 94 126
75 95 126
72 93 124
72 92 122
74 95 128
72 91 120
74 95 126
73 94 126
75 96 126
74 94 125
72 93 124
73 94 126
73 95 127
73 95 127
73 95 126
73 93 124
73 94 126
74 95 126
74 95 126
74 95 126
73 93 123
73 94 126
74 95 126
75 96 128
72 93 123
73 94 126
74 95 126
73 94 124
72 93 123
74 95 126
73 94 125
74 96 128
72 93 124
74 95 127
75 96 127
73 93 124
74 95 125
74 94 125
73 94 125
75 96 127
76 96 127
75 95 124
74 95 126
73 94 125
72 93 125
73 95 126
75 95 126
76 95 125
71 92 123
74 95 126
74 94 125
75 96 128
74 95 126
73 94 125
74 94 126
75 96 127
74 95 126
73 93 123
73 94 125
73 94 125
74 94 124
74 95 126
73 93 125
73 93 124
74 94 125
72 93 124
73 94 125
73 93 123
73 94 125
74 94 126
72 93 125
73 94 126
72 93 124
75 95 126
73 93 123
74 95 126
70 91 121
75 96 128
73 92 121
73 94 126
75 95 126
74 94 126
73 93 123
75 96 128
74 95 126
73 93 123
73 93 125
71 92 124
74 95 126
73 93 124
73 94 125
74 95 127
72 93 124
74 95 127
74 94 125
73 94 126
73 94 125
75 95 125
73 94 125
72 92 123
73 93 123
74 95 126
74 94 124
74 94 125
75 95 125
75 96 126
73 93 123
74 94 126
74 95 126
75 96 128
74 94 124
74 94 125
75 96 127
74 95 127
75 95 125
74 94 123
72 93 124
74 95 126
75 95 126
75 96 127
72 93 124
71 91 122
73 94 126
72 92 123
75 95 126
72 92 123
73 93 123
74 95 127
75 95 126
72 93 124
72 93 126
74 95 126
72 93 124
72 94 126
73 94 125
74 95 126
75 95 126
73 94 125
74 94 124
76 96 126
75 96 126
74 94 125
74 94 125
71 92 123
72 93 124
73 93 123
74 95 128
71 93 125
74 94 125
74 93 123
74 94 126
74 95 125
72 92 122
73 95 126
73 93 124
75 96 127
74 95 126
74 95 126
72 93 124
74 95 127
74 95 125
73 94 126
74 94 124
75 95 126
73 94 125
75 95 126
74 95 126
73 93 124
74 95 127
75 96 127
74 94 124
74 95 126
74 94 123
74 93 123
76 96 127
73 94 125
74 95 125
73 94 126
75 96 127
74 94 124
74 95 126
73 94 125
75 95 127
72 93 124
74 94 125
74 95 126
73 93 125
75 95 125
73 94 125
75 95 125
72 93 123
74 95 127
74 94 126
75 95 125
73 93 124
73 94 125
74 94 124
74 94 125
72 93 124
75 95 126
73 93 123
73 93 124
74 95 126
73 93 124
73 94 126
75 96 128
73 93 124
74 95 126
75 95 127
73 94 125
74 95 127
72 92 123
73 94 125
73 93 123
75 96 127
73 94 126
75 96 127
74 95 126
73 94 125
75 95 126
73 93 124
73 94 125
76 96 126
73 95 126
74 94 124
72 93 124
73 94 125
75 96 127
74 95 126
75 94 124
73 95 127
73 94 126
77 97 127
73 94 125
75 95 127
71 91 121
73 94 124
74 95 127
76 96 126
75 95 125
73 94 126
74 95 127
74 94 124
75 95 126
75 95 125
75 94 124
73 94 125
72 93 124
75 95 126
74 95 127
73 95 127
74 95 127
74 95 127
74 94 124
74 95 128
75 96 127
74 95 126
73 94 125
74 94 126
75 96 127
73 94 124
74 95 127
74 95 126
75 96 126
73 95 127
74 95 127
74 95 125
76 96 126
73 94 125
74 95 127
73 94 126
74 95 126
73 94 126
74 95 126
73 94 125
73 93 124
76 96 127
74 95 127
75 95 126
77 97 128
75 96 127
74 94 125
74 95 127
75 96 127
74 95 126
74 95 126
73 94 125
75 95 126
75 95 126
76 97 127
74 95 127
75 95 125
76 97 128
74 95 128
75 96 127
73 95 126
75 96 127
73 93 124
73 93 124
74 95 127
75 96 127
74 95 126
75 95 126
75 96 126
76 96 127
75 96 126
75 95 126
74 94 126
72 94 125
73 94 126
75 95 125
74 95 125
73 95 127
75 96 126
74 95 127
75 96 128
75 95 126
74 95 126
77 97 127
76 96 128
74 94 125
72 92 123
76 96 128
75 96 128
75 95 126
73 94 125
74 94 125
74 94 125
74 95 126
75 96 126
75 96 126
75 96 127
75 96 128
74 95 125
72 93 124
75 95 126
73 94 125
75 94 124
72 93 124
75 95 125
74 94 125
72 94 126
74 95 126
74 95 126
75 95 126
74 95 125
74 95 126
73 94 126
74 94 125
74 95 126
74 95 127
73 93 123
75 95 125
75 95 124
76 96 128
73 94 126
76 96 127
74 94 124
74 95 126
73 94 125
74 95 126
72 93 124
73 94 125
74 95 126
76 96 127
75 95 125
75 95 126
74 95 125
73 93 125
74 96 128
74 94 125
73 95 127
75 96 127
75 95 126
72 92 123
74 95 126
72 92 121
74 95 127
74 94 124
75 96 127
73 94 124
75 95 126
73 94 126
74 93 123
75 96 127
74 94 124
74 94 124
73 92 122
73 94 125
73 93 123
75 95 127
73 93 124
73 94 125
73 95 128
73 94 125
75 95 125
73 94 125
73 93 123
73 93 123
74 95 127
75 96 127
74 95 126
75 95 126
72 94 125
74 94 125
73 94 125
74 94 125
74 95 126
76 96 127
72 92 122
73 94 126
74 95 126
74 94 124
74 95 125
76 95 125
72 92 123
73 94 126
74 95 126
73 94 126
73 94 125
75 96 128
74 95 127
74 94 125
74 94 124
74 95 126
74 95 126
72 94 126
73 94 125
72 93 123
72 93 124
73 94 126
73 94 126
73 94 125
74 95 125
74 96 128
73 94 125
73 93 123
74 95 127
77 97 126
75 95 126
76 96 127
74 94 124
73 93 123
73 93 124
73 94 125
75 95 125
74 94 125
74 95 127
74 95 126
74 94 125
74 94 124
74 95 125
72 92 123
73 94 126
74 95 126
74 95 128
74 95 126
73 94 126
75 95 125
73 93 123
74 94 125
74 94 124
74 95 126
73 94 125
72 92 123
74 95 126
75 95 126
73 94 125
73 94 125
74 95 125
72 92 122
75 95 126
75 95 125
73 94 126
73 94 126
75 96 126
74 95 126
72 92 122
75 95 126
74 95 127
73 94 124
75 95 126
75 95 127
74 95 127
72 92 122
73 94 125
75 95 126
72 93 124
74 95 127
71 92 123
73 94 126
73 94 126
73 94 126
74 95 126
73 93 123
73 94 126
73 94 126
74 94 125
74 93 123
74 95 125
75 95 125
73 94 126
77 97 126
72 93 124
75 95 126
73 94 124
74 94 125
73 94 125
73 94 124
74 95 127
73 94 125
74 94 126
73 94 125
74 93 123
71 92 122
74 94 124
74 94 124
76 96 128
72 93 124
74 94 125
73 93 124
73 93 123
75 95 125
73 94 125
74 94 125
75 96 128
74 94 125
73 94 125
75 96 127
75 96 127
73 94 126
72 93 124
73 94 126
74 94 124
73 94 125
74 94 125
75 95 125
72 93 124
73 94 126
73 94 126
72 93 125
73 94 125
73 93 123
73 94 126
73 95 126
74 94 124
74 95 127
74 94 126
75 95 125
75 95 126
74 95 126
75 95 126
74 95 126
74 94 125
75 96 127
72 92 122
74 95 127
74 94 125
71 92 124
74 95 126
75 96 127
73 94 125
74 94 126
73 93 122
73 94 126
72 92 122
73 93 123
74 95 126
74 95 126
74 95 126
75 96 128
73 94 125
74 95 126
74 95 128
75 96 127
74 94 125
74 95 127
74 94 124
75 96 127
75 96 126
75 95 126
74 94 125
74 95 126
74 95 126
71 92 124
71 92 122
77 97 127
73 94 125
73 94 125
73 94 125
74 94 125
76 96 127
73 93 124
73 94 124
72 93 125
72 93 125
74 95 125
75 95 126
72 92 122
74 95 127
74 95 126
75 96 128
75 95 126
74 95 125
75 95 126
74 94 124
76 96 128
72 93 124
75 95 126
75 95 126
73 93 123
72 93 125
73 94 126
76 96 126
74 95 126
72 93 126
74 94 124
72 92 122
72 92 123
72 93 124
73 94 124
74 94 126
73 94 124
73 94 126
73 93 124
72 94 126
73 94 126
76 96 127
73 94 125
74 95 128
72 93 124
71 92 123
73 95 127
75 95 125
73 94 127
73 94 125
73 94 125
72 93 124
73 94 125
75 96 126
73 94 126
74 95 127
74 95 126
73 94 126
76 97 128
74 94 125
75 95 126
75 95 126
74 95 127
74 95 127
74 95 126
74 94 124
76 96 127
74 95 127
72 93 124
73 93 124
73 94 126
73 94 125
73 94 126
72 92 123
75 95 126
73 94 125
72 93 125
75 96 126
74 95 126
74 95 126
76 97 128
71 92 124
74 95 127
75 95 125
75 95 125
76 97 128
74 95 127
72 93 126
75 95 125
73 94 125
76 96 126
75 96 126
76 97 128
73 94 124
75 96 127
76 96 126
71 91 121
75 95 126
73 94 126
75 95 125
75 96 128
75 96 126
76 96 126
75 96 127
74 95 126
74 95 127
74 95 125
74 95 126
75 95 126
75 96 127
75 95 126
74 96 128
74 95 125
73 93 123
76 96 127
76 96 127
75 96 127
72 93 125
74 95 126
75 96 127
76 96 127
75 95 126
74 95 126
74 95 127
74 95 125
75 95 127
73 95 127
73 94 126
74 94 123
71 92 123
74 95 125
75 95 126
73 94 126
73 93 124
74 95 125
74 95 126
73 94 125
75 96 127
76 96 126
75 96 127
75 96 127
75 95 125
74 94 125
72 92 123
75 96 127
74 94 126
75 95 126
76 96 126
76 96 126
74 95 126
74 95 126
75 95 126
74 95 126
75 95 125
75 95 124
73 95 127
72 93 123
75 96 127
74 95 126
74 94 125
73 95 128
73 94 126
73 93 124
72 93 125
73 94 126
75 95 126
73 94 125
73 94 126
73 94 124
72 94 126
74 94 125
73 94 125
72 93 125
72 93 124
76 96 126
76 96 127
74 94 124
74 94 125
73 93 123
74 95 127
74 94 124
74 94 125
74 94 126
75 96 126
71 91 121
73 94 125
74 94 126
76 96 127
74 94 125
73 94 125
73 93 123
73 94 125
73 94 125
73 93 124
76 96 126
74 94 124
73 94 125
73 94 126
73 95 127
75 95 124
72 93 124
74 94 123
75 95 126
73 94 125
75 96 128
73 94 124
74 95 126
73 94 126
74 94 125
75 96 126
73 95 128
75 96 127
73 94 125
72 93 124
73 94 125
72 92 123
73 94 125
75 95 126
74 95 126
76 96 126
73 94 125
75 95 125
74 95 126
74 94 124
72 94 125
74 95 127
74 94 125
72 93 125
74 95 127
73 94 126
74 95 126
74 93 123
75 96 128
73 94 124
74 94 125
74 95 126
74 94 125
74 95 126
73 93 124
74 95 126
73 94 125
74 95 127
74 95 126
73 94 125
73 93 124
72 93 123
73 93 124
71 92 123
73 94 126
74 94 123
75 96 126
75 96 128
73 93 124
74 94 125
74 95 126
74 94 125
74 95 128
75 96 127
73 93 123
74 94 125
75 94 124
74 94 124
72 93 124
73 93 123
76 96 128
73 93 124
73 93 123
74 95 126
74 94 125
73 94 126
74 95 125
72 92 123
74 94 123
75 95 126
75 95 127
72 93 125
74 94 125
74 94 125
75 96 127
73 93 123
76 96 126
73 93 125
75 96 127
73 94 125
74 94 124
73 94 125
72 93 125
73 94 125
73 94 125
76 96 127
74 94 124
75 95 126
74 94 125
73 94 125
73 94 126
75 96 127
74 95 126
73 94 125
73 93 122
75 95 125
73 95 127
73 93 124
73 94 125
76 96 126
74 95 126
74 94 123
76 96 127
73 94 126
74 95 127
72 93 123
71 91 122
74 94 124
72 93 125
73 94 126
75 95 126
74 94 125
75 95 126
74 95 126
73 94 125
73 93 124
73 94 126
74 95 125
73 94 125
75 95 126
73 94 126
72 93 124
72 93 125
71 92 123
74 95 126
73 94 126
75 96 127
75 95 126
74 95 127
75 96 127
72 92 123
73 94 126
72 92 122
74 95 126
73 93 124
75 95 126
72 93 123
73 94 125
75 95 126
74 94 126
73 94 125
73 94 125
75 95 126
75 96 126
75 96 127
74 95 127
75 95 126
75 96 126
75 95 126
75 96 127
75 95 126
74 95 125
71 92 123
73 94 126
73 93 124
72 93 125
72 94 126
73 94 125
73 94 125
74 94 126
73 94 125
72 93 125
74 95 126
75 95 127
73 94 126
74 95 127
74 95 127
74 95 128
75 95 126
74 94 123
75 95 125
74 95 127
74 94 124
77 97 126
73 94 125
73 94 126
74 95 127
71 91 122
74 95 127
74 96 128
75 95 126
74 94 126
72 93 124
73 93 125
75 95 126
74 95 127
73 94 126
76 97 128
74 95 127
74 94 125
74 95 127
73 93 123
72 93 123
73 93 123
74 95 126
74 95 126
75 95 126
73 94 126
73 94 126
75 96 128
73 94 125
74 94 124
74 95 125
73 95 127
75 96 127
74 95 127
74 94 125
74 95 127
76 96 127
74 94 125
74 94 124
74 94 126
73 93 123
74 95 126
74 94 124
74 95 126
74 95 126
74 94 124
72 94 126
74 94 125
74 94 124
72 93 125
75 96 127
75 95 126
72 93 124
73 93 125
74 95 126
74 95 126
74 95 127
73 94 125
74 95 126
74 95 125
75 96 127
73 94 125
74 94 125
73 94 125
74 95 126
72 94 125
74 94 125
74 95 126
74 94 124
74 95 126
74 95 126
76 96 126
75 95 126
75 96 128
72 94 126
75 95 125
74 95 127
74 95 126
73 94 124
73 93 123
75 95 126
73 94 125
74 95 126
75 96 126
74 95 125
76 96 127
74 95 126
73 94 125
75 96 127
74 95 126
73 94 126
72 93 124
76 96 126
73 94 126
74 95 125
76 96 127
74 95 127
73 95 126
75 95 127
76 96 125
76 96 126
74 95 126
74 94 125
73 95 126
73 94 125
76 97 127
74 95 125
73 93 123
74 95 128
74 94 125
75 95 126
73 94 125
74 94 125
76 96 127
75 96 128
76 96 127
74 95 125
73 94 125
75 96 127
74 95 126
74 95 126
72 93 125
74 95 126
73 94 125
73 94 126
75 96 127
74 94 124
73 94 124
72 93 123
73 94 126
74 95 126
74 95 126
75 96 126
74 95 127
74 95 126
76 96 128
71 92 124
75 96 128
73 94 126
75 95 126
74 95 126
73 94 125
75 96 126
75 95 126
76 97 128
72 93 123
72 93 126
74 94 126
75 95 125
76 96 126
74 95 127
73 93 123
73 94 126
74 95 127
75 95 125
73 93 124
74 94 125
75 96 127
73 94 126
75 96 127
74 95 127
73 94 125
74 94 125
72 92 123
76 97 128
75 95 126
75 95 127
75 96 126
74 96 128
75 96 126
74 94 125
75 96 126
74 94 126
73 94 126
73 94 126
75 95 126
73 94 125
73 93 124
72 93 125
74 94 126
73 94 125
74 95 126
73 94 125
74 95 126
75 96 127
72 94 126
74 94 125
74 96 128
73 93 125
73 94 126
73 94 126
75 95 126
73 95 127
76 97 128
72 92 122
72 93 124
75 95 126
75 96 127
73 94 126
73 94 125
75 95 126
75 95 126
72 94 126
73 93 124
73 95 126
75 96 127
73 93 123
73 94 125
75 96 127
74 94 125
74 95 126
72 93 125
75 95 124
74 95 126
75 96 127
73 94 126
73 94 126
72 93 124
72 92 123
73 93 124
75 96 128
73 93 124
73 94 126
73 94 126
73 94 126
74 94 125
74 94 126
72 93 124
72 93 125
74 94 124
74 95 126
73 93 125
73 94 125
73 94 124
73 94 125
74 94 125
73 93 124
74 94 125
73 94 124
74 94 125
74 95 127
72 93 124
74 95 126
73 94 125
74 94 124
74 95 126
74 94 124
74 95 126
72 93 123
74 94 125
73 93 123
74 94 124
74 95 126
74 94 124
74 95 126
76 96 127
72 94 126
74 94 124
74 94 125
73 94 126
73 94 125
74 95 126
73 94 126
74 94 124
73 94 125
74 94 125
73 94 126
74 95 127
74 94 125
74 95 126
76 96 128
75 96 127
72 93 125
72 92 123
73 94 124
72 93 124
73 94 125
76 96 126
73 94 125
74 95 126
75 96 126
74 94 125
71 91 122
71 91 122
76 96 126
74 95 127
75 95 125
74 95 126
74 94 124
75 96 127
73 94 125
74 95 127
74 94 124
72 94 126
75 96 127
74 95 127
74 95 125
74 94 124
73 94 125
74 94 126
74 95 126
75 95 126
74 95 126
74 94 125
74 94 124
74 94 125
75 95 126
73 93 124
74 94 124
74 95 127
72 92 121
74 95 127
73 93 123
75 94 123
73 94 126
76 96 126
73 93 124
73 93 123
75 96 127
72 93 126
74 94 125
74 95 126
74 95 127
74 94 124
75 95 125
74 94 125
73 94 125
72 92 121
74 95 126
73 95 126
75 95 126
74 95 126
72 92 124
74 95 127
74 95 127
74 95 127
74 95 126
74 94 125
73 93 122
73 94 126
74 95 125
74 94 125
73 93 123
73 93 124
74 95 126
75 95 126
73 93 124
74 95 126
73 95 128
75 96 128
75 95 126
74 95 126
74 94 125
74 95 126
73 93 123
72 93 124
74 95 127
73 94 124
72 93 124
74 95 126
74 94 126
73 93 122
74 94 124
73 94 125
72 92 123
73 94 125
76 96 128
73 94 125
75 95 125
73 93 125
75 96 127
72 93 124
74 95 126
73 94 124
73 93 124
74 95 126
73 94 125
72 93 124
74 94 124
74 95 126
73 94 126
73 94 125
74 94 124
75 96 127
74 94 125
73 93 124
76 96 128
74 94 125
76 96 128
74 96 128
74 95 126
75 95 125
73 94 126
76 96 126
74 95 127
72 93 123
73 94 125
73 94 125
76 96 127
75 95 126
75 95 126
73 94 125
72 93 125
74 95 126
74 94 125
72 93 124
74 94 125
70 92 124
73 94 126
72 93 124
72 93 123
73 94 126
71 92 124
75 96 126
74 94 125
74 94 123
75 95 125
74 94 124
72 93 125
73 94 125
74 95 125
75 96 128
73 94 125
75 96 128
74 94 125
73 93 125
74 94 126
74 95 126
74 95 127
73 94 126
73 94 125
73 94 125
74 95 127
74 95 127
74 94 124
72 94 127
72 92 122
74 95 125
73 94 126
74 95 128
74 95 126
74 95 126
75 95 126
74 94 125
72 93 124
74 94 125
74 95 127
73 94 125
76 97 128
74 95 127
72 93 125
75 95 125
75 95 126
74 95 126
75 95 125
76 96 126
73 94 126
72 94 126
73 94 125
73 94 125
75 95 126
73 94 126
75 96 126
74 95 127
75 95 127
72 93 124
74 95 126
74 95 127
75 95 126
74 95 126
75 95 126
75 95 126
74 95 126
74 94 124
71 92 123
73 95 126
74 96 128
73 95 127
76 97 128
75 95 126
74 95 127
75 95 126
74 95 126
73 94 126
73 94 126
72 94 126
74 95 126
73 95 128
73 94 127
74 94 125
74 95 126
72 93 125
73 94 127
75 95 126
73 93 124
75 95 125
73 94 124
73 94 125
75 95 125
72 93 124
76 95 125
74 94 125
73 94 125
73 94 126
75 96 127
75 96 126
75 95 126
73 93 123
72 93 125
74 94 125
73 94 126
75 96 128
74 95 126
76 96 126
74 94 125
73 93 123
74 95 126
74 95 126
75 96 128
75 95 126
73 94 125
75 95 127
76 97 128
74 95 126
76 96 127
75 95 125
74 95 126
75 95 126
74 95 126
74 95 126
74 95 127
75 95 127
74 95 126
74 95 126
75 96 127
73 94 125
73 94 126
73 94 125
73 94 126
74 95 125
74 95 126
74 95 127
75 95 126
76 97 128
74 95 126
74 95 126
75 96 127
72 93 124
74 94 125
74 95 127
77 97 127
73 93 125
75 96 128
76 96 126
75 96 128
75 96 126
74 95 126
73 93 123
75 95 127
74 93 123
74 95 126
72 93 124
73 94 126
71 92 124
74 94 124
74 95 126
71 92 123
73 94 126
75 95 125
74 95 125
74 94 125
73 94 125
73 94 125
75 96 126
75 95 126
74 94 125
74 94 125
74 95 127
73 94 126
73 94 125
72 93 125
72 94 126
73 94 127
74 95 127
75 95 126
75 96 127
74 94 124
74 95 127
73 94 125
74 95 126
74 94 124
73 94 125
75 96 127
76 96 126
74 95 126
74 95 127
75 95 126
74 95 126
76 97 128
74 94 124
75 96 127
74 96 128
73 94 127
74 94 126
73 93 123
73 93 124
72 93 124
73 94 126
75 95 126
74 94 125
73 94 126
72 93 124
75 95 125
73 93 124
72 94 126
72 92 123
75 96 127
74 95 126
72 92 123
73 94 126
74 95 126
74 95 126
73 93 124
73 94 126
73 93 124
73 94 125
73 94 126
74 95 127
73 94 126
73 93 123
74 94 124
73 94 125
72 93 124
72 93 123
71 92 122
74 95 126
73 95 127
72 93 124
75 95 125
74 94 125
75 94 124
75 95 126
72 92 123
75 95 126
75 95 126
73 94 126
74 95 127
73 95 126
74 95 126
74 94 124
72 91 121
74 95 127
75 95 126
74 94 126
73 93 124
74 94 125
73 94 126
72 93 124
73 94 125
73 94 126
74 95 126
75 96 128
73 94 125
74 95 127
74 95 126
75 95 125
73 94 125
75 95 126
72 93 125
72 93 124
72 93 125
73 93 125
74 94 125
73 94 125
76 97 128
73 94 126
74 95 126
72 93 124
72 94 126
75 96 127
74 95 126
74 94 125
74 95 127
74 95 127
74 95 126
73 93 124
75 96 127
75 96 127
75 95 127
74 95 127
75 96 127
73 94 125
73 93 123
73 93 123
74 94 125
72 93 123
75 96 128
73 93 125
73 94 126
74 94 125
73 94 125
73 94 126
72 93 124
73 93 123
75 95 126
73 93 122
73 94 125
71 92 124
72 92 122
74 94 126
74 94 126
73 94 124
75 95 126
74 95 126
71 92 123
73 94 126
74 95 126
73 93 124
72 93 124
75 95 125
74 95 127
75 95 126
75 95 125
74 95 126
74 95 127
72 94 125
75 95 125
75 96 127
72 94 126
74 94 125
74 94 124
74 94 124
74 94 125
72 93 124
74 95 126
74 95 126
75 96 126
76 96 126
75 95 126
74 95 127
74 94 125
73 94 125
74 95 126
73 94 126
74 95 126
74 95 126
74 95 127
73 94 125
75 95 126
74 94 125
75 95 126
74 95 126
74 95 125
71 92 124
74 94 124
74 95 126
73 94 124
74 95 126
73 94 126
73 94 126
74 95 125
74 95 126
74 94 124
74 95 126
74 94 125
74 94 125
73 94 126
73 93 124
74 94 124
75 95 126
76 96 128
74 95 126
72 93 124
73 93 125
73 93 124
74 94 125
73 94 126
74 95 126
72 93 123
74 94 126
73 94 125
75 95 125
74 95 125
74 95 126
73 95 127
73 94 124
73 94 125
73 94 125
74 95 125
73 94 126
75 95 126
74 94 126
75 95 126
74 95 127
74 94 123
73 94 126
75 96 127
75 96 127
72 94 126
72 93 124
74 94 123
71 92 124
75 95 126
74 94 125
72 93 124
74 95 126
73 93 124
73 94 125
73 94 125
73 93 124
75 95 126
75 95 127
72 92 122
73 93 124
73 94 125
73 94 126
74 94 125
72 93 124
74 94 125
76 96 126
74 94 126
74 95 126
75 96 128
72 93 125
72 93 124
74 95 126
73 94 126
73 95 127
74 95 127
71 91 121
74 95 127
75 96 127
76 96 126
73 94 125
73 94 126
74 95 126
73 94 125
75 96 128
74 96 128
74 94 125
74 94 124
72 93 124
76 96 125
75 95 125
73 95 127
76 96 126
71 92 124
74 95 126
74 94 125
73 94 126
74 95 126
73 94 126
72 92 123
73 95 126
73 93 124
71 91 122
73 95 126
74 95 126
74 94 126
74 95 125
73 94 126
74 95 126
73 93 123
76 96 126
73 94 125
74 94 124
74 95 126
75 95 126
73 94 125
72 93 124
74 95 126
74 94 124
75 95 125
76 96 128
76 96 127
74 95 126
74 95 125
72 93 124
74 94 124
75 95 127
74 94 124
73 94 126
75 95 127
72 93 125
76 96 126
75 96 126
75 95 126
74 95 126
74 96 128
73 94 127
75 96 127
73 93 124
74 96 128
73 94 126
72 92 123
73 94 126
76 96 126
73 94 124
75 96 127
75 96 127
75 95 126
76 96 128
74 95 126
74 95 126
74 94 125
74 94 125
75 96 127
75 96 128
74 95 126
72 94 126
74 94 124
73 95 127
74 94 124
76 95 125
73 94 125
74 96 128
75 95 126
74 95 127
74 94 125
76 96 127
75 95 126
74 95 126
73 94 125
74 95 126
73 94 125
75 95 126
74 95 127
72 94 126
73 94 126
72 93 124
75 96 127
75 96 127
74 95 127
74 95 126
75 95 126
73 94 125
75 95 126
75 96 128
73 95 127
74 96 128
75 96 126
75 95 126
73 94 126
75 95 126
76 96 128
74 95 126
75 95 126
74 95 127
74 94 126
73 95 127
75 95 126
74 95 126
73 95 127
75 96 127
76 96 127
74 94 125
73 94 125
74 95 126
73 94 126
74 94 125
75 95 126
72 93 124
75 95 126
75 96 126
75 96 127
72 93 124
72 93 125
73 93 124
75 94 124
74 95 126
74 95 127
74 94 124
74 94 125
74 95 127
72 93 124
75 96 127
73 94 127
73 94 126
74 95 127
73 94 124
75 95 126
74 95 126
74 95 125
72 92 122
72 92 123
76 96 128
74 95 126
74 95 126
74 94 125
74 94 126
75 95 126
74 95 127
78 97 127
73 94 126
72 92 122
73 94 126
73 93 123
73 95 127
75 95 126
75 95 125
75 96 127
73 94 126
75 96 126
73 94 125
73 93 125
75 95 126
74 95 126
75 95 125
73 94 126
73 94 124
74 95 126
73 93 124
74 95 126
74 95 126
72 93 124
72 94 127
73 94 124
75 96 127
73 95 126
73 94 126
75 96 126
72 94 126
73 94 126
73 94 125
74 95 127
72 93 124
75 95 126
73 93 124
74 94 125
74 95 127
74 94 124
75 95 126
76 96 126
74 94 124
73 95 127
76 96 127
73 93 123
74 95 126
74 94 124
76 95 125
72 93 124
76 97 128
74 93 123
75 95 126
73 93 124
74 94 125
74 94 124
73 93 125
76 97 127
73 94 125
75 95 127
73 94 124
74 95 127
72 93 124
74 94 126
74 95 126
75 95 127
73 94 127
74 94 125
76 96 126
75 96 127
72 93 125
74 94 125
74 95 126
74 94 124
75 95 126
73 94 126
74 95 127
74 95 127
75 95 125
73 93 124
73 95 127
73 95 127
73 93 124
76 96 127
73 94 126
75 95 126
75 96 127
74 95 127
75 95 126
75 96 127
74 95 125
75 96 127
73 94 126
73 93 124
75 95 126
73 94 124
72 94 126
75 95 124
74 95 126
74 95 126
74 94 124
74 95 126
73 94 124
74 94 124
73 94 126
73 95 127
72 93 123
73 94 126
73 94 126
75 96 127
74 95 126
74 94 124
73 94 126
74 96 128
75 95 125
75 95 126
74 94 124
71 92 122
73 94 125
75 96 128
72 93 123
75 95 126
73 93 123
73 93 124
71 91 121
73 94 126
73 94 124
72 93 124
73 94 126
74 95 127
73 94 126
74 95 126
74 95 126
73 94 126
76 96 127
73 94 125
72 93 124
73 94 126
74 95 125
74 94 125
74 95 125
73 93 124
72 93 125
74 95 126
74 95 125
75 95 126
74 95 126
74 94 124
74 95 126
74 95 127
72 94 126
73 94 124
73 93 124
74 94 124
75 96 128
74 94 124
74 95 126
76 96 127
74 95 126
73 94 124
74 95 127
74 95 127
75 95 125
71 92 123
73 95 127
74 95 126
73 94 125
73 94 125
73 93 124
73 94 124
74 94 125
74 94 124
72 93 124
74 95 125
73 95 127
72 93 124
73 93 124
74 95 126
72 92 123
74 95 126
74 95 127
73 94 125
73 94 124
74 95 125
73 94 125
73 95 127
74 95 126
71 92 123
72 93 124
74 95 127
73 94 125
75 96 127
74 94 125
74 95 126
72 92 124
74 94 124
72 93 125
76 96 126
73 94 124
73 94 127
73 94 125
72 94 127
75 96 127
74 95 126
75 96 127
72 93 124
75 95 125
73 93 124
74 95 126
74 95 126
75 95 126
74 95 126
74 95 126
74 95 127
75 96 127
73 93 124
72 93 124
74 94 125
72 92 121
72 93 125
74 94 126
72 92 122
73 93 125
74 94 125
72 93 125
72 93 123
76 96 127
75 95 126
74 95 127
74 94 125
73 94 126
74 94 124
74 95 126
70 91 122
75 95 125
75 95 126
74 94 125
73 92 121
74 95 127
75 95 126
73 94 124
73 93 123
75 96 126
73 93 123
73 94 125
74 95 126
74 95 126
74 94 124
74 95 126
74 96 128
73 94 126
75 95 126
75 96 126
74 95 127
74 95 125
75 95 126
76 96 126
73 94 126
71 92 124
74 94 125
75 96 127
74 95 126
73 95 126
73 94 125
74 95 126
74 95 126
74 94 125
72 93 124
75 95 125
76 96 127
75 95 126
74 95 127
75 96 128
74 95 126
73 94 125
74 94 124
73 94 125
74 95 126
74 95 127
73 93 123
73 94 125
72 93 124
72 93 125
75 96 128
73 94 124
73 93 123
74 94 125
73 94 126
75 96 128
74 95 127
74 94 124
73 94 125
75 96 127
74 94 125
73 94 126
73 95 127
74 95 126
75 95 126
75 95 125
74 94 124
75 96 127
74 95 126
74 95 126
73 94 126
75 95 126
74 95 126
73 94 126
75 95 127
76 96 127
73 93 123
75 96 126
74 95 125
73 94 125
72 93 124
75 96 127
74 95 128
75 95 126
72 93 124
75 95 126
75 96 126
73 94 126
74 94 124
74 94 126
75 96 126
75 96 127
75 95 126
73 93 124
73 94 125
74 94 124
75 95 125
75 96 127
74 94 126
74 94 124
75 96 128
74 95 126
75 96 126
73 94 125
74 95 126
75 95 126
73 93 124
75 96 127
73 94 124
73 93 124
73 94 126
74 94 125
75 95 126
73 94 125
77 97 128
74 95 127
74 94 124
73 94 125
74 95 127
73 93 124
75 96 127
75 96 128
74 95 126
73 93 124
74 95 126
74 95 127
74 94 125
74 95 126
74 94 124
76 96 126
76 96 128
72 93 124
74 95 126
75 96 127
74 95 126
74 94 125
73 94 124
74 94 125
74 95 126
76 96 126
73 93 123
75 96 127
73 94 124
74 94 126
75 95 126
75 96 127
73 94 125
72 94 126
74 94 124
74 95 126
74 95 125
73 94 125
73 94 126
75 96 128
74 94 125
72 93 123
74 95 126
76 96 127
75 95 127
72 92 123
75 95 125
75 95 125
73 94 125
74 94 124
72 92 124
74 94 124
76 96 126
75 96 128
75 95 125
74 95 126
73 94 125
74 94 124
74 94 125
76 96 127
74 94 125
73 95 126
74 95 126
72 92 122
74 94 124
75 95 124
76 96 127
74 95 127
73 95 126
74 95 126
74 95 128
73 94 125
73 94 126
75 96 128
73 93 124
74 95 126
74 95 127
74 95 126
72 93 125
73 94 124
71 92 124
73 94 126
73 94 125
75 95 125
74 95 126
73 94 126
76 97 128
72 93 123
73 93 123
73 94 125
73 94 126
75 96 128
74 95 125
73 94 126
74 95 127
73 94 126
71 92 123
73 94 126
75 95 126
73 94 125
72 94 126
72 93 125
74 94 125
73 94 124
75 96 126
73 93 123
72 93 124
73 94 126
73 94 126
74 95 126
72 92 122
76 96 127
73 95 126
72 93 124
75 96 127
75 95 125
74 95 126
75 95 126
74 95 126
74 95 126
75 96 128
74 95 126
73 94 126
76 96 128
74 94 125
73 94 125
72 93 124
73 94 125
73 94 126
75 96 127
75 95 126
74 95 127
73 94 125
73 95 128
75 96 126
73 94 125
74 95 127
74 94 125
75 95 125
72 92 122
72 93 125
73 93 125
75 96 126
74 94 125
73 93 124
73 94 126
74 95 126
72 92 123
73 94 125
73 93 124
76 96 128
75 96 127
72 92 123
74 95 127
75 95 126
73 94 124
73 95 127
75 96 126
73 93 124
74 95 126
74 95 126
75 95 126
74 94 125
73 93 123
74 95 127
74 94 125
73 94 125
75 94 123
74 94 125
73 94 126
74 96 128
73 94 125
75 95 126
71 92 123
74 94 125
74 95 126
73 94 125
74 95 126
75 96 127
74 94 124
73 94 126
73 93 124
74 94 125
72 93 125
75 95 125
74 95 126
73 94 125
74 95 127
74 94 125
74 95 126
74 94 125
74 95 125
72 93 124
73 94 125
73 94 124
74 94 125
74 95 126
72 93 125
74 95 126
73 93 124
73 93 122
74 95 126
75 95 126
73 94 126
73 93 124
73 93 123
74 95 127
72 93 124
74 95 126
75 96 126
73 94 125
72 93 125
74 93 123
73 94 126
73 94 124
73 94 124
74 95 126
74 95 127
71 91 122
74 94 124
71 91 121
74 95 126
72 93 124
74 95 125
74 94 125
73 94 125
75 95 125
72 93 125
76 96 127
74 94 125
72 92 123
72 94 126
74 94 124
74 94 125
75 95 126
73 94 125
75 95 126
75 95 126
75 96 127
74 94 125
73 94 125
74 93 122
73 94 125
74 94 125
73 93 124
75 95 126
73 94 126
75 95 126
73 94 125
72 93 125
75 96 126
75 95 126
73 94 126
74 94 126
75 95 126
76 97 128
75 94 124
72 91 121
75 94 124
73 94 126
74 95 126
73 94 125
73 93 123
74 95 126
73 93 123
74 95 127
74 95 126
72 92 123
74 95 126
72 94 126
73 94 125
75 95 125
74 95 127
74 95 126
73 94 125
73 94 125
74 94 124
73 94 127
75 95 125
73 94 124
76 96 127
75 95 126
73 95 128
74 95 126
73 95 126
72 93 125
73 94 125
73 94 125
71 92 123
73 94 124
73 93 122
74 94 126
73 93 123
74 95 125
73 94 126
74 94 125
72 94 126
72 93 124
74 95 126
74 94 125
73 94 125
72 93 124
73 94 125
74 94 125
73 94 126
72 93 125
74 95 125
72 92 122
76 96 126
75 95 126
74 95 126
72 92 122
74 95 127
75 96 127
74 95 126
74 95 126
76 95 125
75 95 126
75 96 127
74 95 126
74 95 127
74 95 126
73 93 123
73 94 124
73 94 125
74 95 127
72 93 124
74 95 126
74 95 126
74 95 126
74 94 124
75 96 126
74 94 123
75 95 126
74 95 126
73 94 126
73 93 124
74 95 128
75 96 127
75 96 126
72 92 122
76 97 128
76 96 127
73 94 125
73 94 125
74 94 126
75 96 126
73 94 125
73 94 125
73 94 125
73 94 125
74 95 126
75 95 126
73 94 127
71 92 123
75 96 127
74 95 126
75 95 126
74 95 127
73 94 125
74 94 125
73 94 124
72 94 126
74 93 123
73 94 126
76 96 126
76 97 128
75 96 126
73 95 127
72 94 125
73 94 125
74 95 128
75 95 126
71 92 122
75 95 126
73 94 126
76 96 128
75 95 126
73 94 126
74 94 124
73 93 123
74 95 126
73 94 126
75 96 128
73 93 122
75 95 125
73 93 124
74 95 126
73 95 127
72 93 125
75 95 126
74 95 126
76 96 127
73 94 125
72 93 125
73 94 126
75 95 126
75 96 127
74 95 126
75 95 126
73 94 126
74 95 126
74 95 126
76 96 126
74 94 124
74 95 126
74 94 124
75 96 128
72 93 124
73 94 124
73 95 126
75 96 128
74 94 125
74 95 125
73 94 125
74 95 126
74 95 127
71 92 123
75 95 126
75 95 126
76 96 127
76 96 127
74 95 127
73 94 126
74 96 128
72 92 123
75 96 127
74 95 126
72 92 123
74 95 125
73 94 126
75 96 126
73 94 126
74 94 125
74 94 124
75 96 126
74 95 126
76 96 127
73 94 126
75 96 126
74 94 125
74 93 123
73 94 125
74 95 128
75 96 126
74 94 125
74 94 125
74 94 125
75 96 127
71 92 123
75 96 127
74 94 125
74 95 128
73 94 125
74 94 125
75 96 126
74 95 126
75 95 126
72 93 125
73 94 126
73 94 125
72 93 125
72 94 126
75 96 127
74 94 125
73 93 124
75 96 126
74 95 126
74 95 126
77 97 128
74 94 126
75 96 126
74 94 124
74 94 124
75 96 128
74 94 125
74 94 126
74 94 124
74 95 126
76 95 125
73 94 125
75 96 127
73 95 126
75 96 128
74 95 127
72 92 123
74 95 128
73 94 126
74 95 126
74 95 127
75 95 126
74 95 126
73 94 125
73 94 124
73 93 123
74 95 127
73 94 124
75 96 127
76 96 127
74 94 125
75 96 127
74 95 126
74 94 124
74 95 126
73 94 125
73 93 122
72 93 124
74 95 126
73 94 126
74 95 126
73 94 125
74 95 126
74 95 126
75 95 126
74 95 126
74 95 128
72 93 124
75 95 126
70 92 124
75 95 125
73 92 121
73 94 125
75 95 126
76 96 126
73 94 126
74 95 127
74 95 127
72 93 125
74 95 126
73 94 125
73 94 125
74 94 126
75 95 125
74 94 126
74 95 126
75 95 126
74 95 125
74 94 124
73 93 125
75 95 125
74 94 124
72 93 123
73 94 126
72 93 123
75 95 127
73 94 125
73 94 126
74 94 124
75 96 128
74 95 128
74 95 126
72 93 123
73 94 126
73 93 124
72 93 123
74 94 125
74 95 126
74 94 124
73 94 126
75 96 127
74 95 126
74 94 126
73 94 126
72 92 123
74 94 126
73 94 124
74 95 127
73 94 125
74 94 124
73 94 125
75 95 125
74 95 125
74 94 124
72 94 125
74 95 125
75 96 127
73 93 124
72 93 125
75 95 125
74 95 126
75 95 125
75 96 127
75 95 125
74 95 126
75 96 127
73 94 126
73 94 126
73 94 125
74 95 127
73 94 125
74 94 124
76 96 126
74 95 126
73 94 125
75 96 126
73 93 124
74 94 125
74 94 125
73 94 125
75 96 127
74 94 125
74 95 126
73 94 125
73 93 124
74 94 125
73 94 125
73 94 124
74 95 127
73 94 124
74 95 127
75 95 125
71 92 122
74 94 124
75 96 126
75 95 126
73 95 126
74 96 128
74 95 126
74 94 125
72 94 126
73 94 126
74 95 126
75 96 128
75 95 125
74 94 124
73 94 126
73 93 124
74 94 124
74 94 125
74 95 126
74 94 125
72 93 125
74 95 126
74 94 126
72 93 124
73 94 125
73 95 127
71 92 124
74 95 127
71 93 125
74 95 126
74 94 125
75 95 125
74 95 126
74 94 125
73 93 124
75 96 126
74 94 124
72 93 124
74 95 126
73 94 126
74 94 126
72 92 122
75 96 127
73 94 126
72 93 124
73 94 126
75 96 127
72 93 124
72 93 126
74 95 127
73 93 124
75 95 126
73 94 126
75 96 126
73 94 125
72 93 125
74 95 126
73 93 123
74 95 125
73 94 126
74 95 127
72 93 124
74 95 126
71 93 125
72 93 123
73 93 125
74 94 125
74 95 127
74 95 127
73 94 125
74 95 126
74 94 125
73 94 125
72 92 123
75 95 126
73 94 125
72 93 125
75 96 128
75 96 126
75 95 125
73 94 125
73 95 127
74 95 127
72 93 125
73 94 125
74 95 126
73 93 123
73 95 127
74 95 126
74 95 125
73 94 126
73 94 125
73 94 126
74 94 126
71 91 122
73 94 125
72 93 125
75 96 127
73 94 126
73 93 122
73 94 126
75 96 128
76 96 126
71 93 125
74 95 127
76 96 127
74 95 126
74 95 127
76 96 125
74 94 124
74 95 126
74 95 125
74 95 126
73 93 122
76 96 128
74 95 126
76 96 128
71 93 125
75 95 126
72 93 123
74 95 127
74 95 126
74 94 125
74 95 127
74 95 126
74 95 127
73 95 126
72 93 125
74 95 126
74 95 126
72 93 124
77 96 126
75 96 126
73 94 125
73 95 126
75 96 128
73 94 125
76 96 126
74 95 126
76 96 125
74 95 126
76 96 127
73 94 124
74 94 124
74 95 126
76 97 127
74 95 125
74 95 126
76 96 127
73 94 124
75 96 126
73 94 124
75 95 126
73 94 125
74 95 126
75 95 125
75 96 127
74 95 127
75 96 126
73 94 126
74 95 126
75 96 127
75 95 126
74 94 126
74 95 126
75 96 127
74 95 126
73 95 127
74 95 126
75 95 126
74 95 125
73 93 124
73 94 126
76 96 127
74 94 124
76 96 127
74 94 126
75 95 126
72 93 124
75 96 127
74 94 125
74 95 126
73 94 125
75 95 126
74 95 126
73 94 126
74 95 127
74 94 125
74 95 126
74 95 127
75 95 126
75 95 126
74 95 127
73 94 125
74 95 126
73 94 125
77 97 127
74 95 126
74 94 125
72 92 123
73 94 126
74 95 127
74 95 126
72 93 124
74 95 126
73 94 126
74 94 125
75 95 126
73 94 125
74 95 126
73 94 126
74 95 126
73 93 124
73 94 125
73 93 124
72 93 124
73 94 126
75 96 128
74 94 124
75 95 126
74 95 127
74 95 126
76 96 127
73 94 126
74 95 127
73 95 126
74 95 126
74 95 126
74 95 127
74 94 124
75 95 126
74 95 126
73 92 122
73 94 124
73 94 124
73 94 125
73 95 126
73 94 126
75 96 127
75 95 125
75 96 126
74 95 126
73 93 124
74 94 126
74 94 124
75 95 126
74 95 125
76 96 127
75 96 127
75 95 125
74 94 125
73 94 126
73 94 125
72 93 124
75 95 126
74 95 126
74 95 127
76 96 126
74 94 124
73 94 127
75 95 126
71 92 124
75 96 126
74 95 126
73 94 125
74 94 124
73 92 122
74 94 124
73 94 126
75 95 126
73 94 125
72 93 123
73 94 127
73 94 126
75 95 125
74 94 124
74 94 126
75 95 126
73 94 126
72 93 125
74 95 126
73 94 126
74 95 126
74 95 126
72 94 127
75 95 126
74 95 126
75 95 125
73 94 125
72 94 126
74 94 126
72 93 123
75 96 126
74 94 125
75 95 125
73 93 123
76 96 128
73 93 124
73 94 126
73 94 126
74 95 127
73 94 125
73 94 124
74 95 126
73 94 126
71 93 125
73 95 126
74 94 123
73 94 124
72 93 123
73 94 125
74 95 126
74 95 126
74 95 126
74 95 126
73 94 126
74 95 126
74 95 125
72 93 124
75 95 124
76 96 127
74 94 125
71 92 124
74 95 126
75 95 125
74 95 126
74 94 125
74 95 126
72 93 124
73 94 126
75 96 127
76 96 127
73 94 126
75 96 127
75 96 127
75 96 128
76 96 127
74 95 126
73 94 124
75 95 125
75 95 126
72 93 123
73 94 125
73 94 126
74 95 126
75 94 124
73 94 125
73 94 125
75 96 127
74 95 125
72 92 122
73 94 124
76 96 126
75 96 128
74 95 126
74 95 127
73 94 126
73 94 125
74 95 126
74 94 124
75 95 126
75 95 125
73 93 124
73 94 126
74 95 126
74 95 126
72 94 125
74 94 126
73 93 124
74 96 128
72 93 124
75 96 126
73 94 125
73 95 127
74 95 126
74 95 126
74 94 124
72 93 124
73 94 126
75 94 124
74 95 127
73 94 125
74 95 126
74 95 125
73 94 125
72 93 125
74 94 124
74 95 127
73 94 126
74 95 126
74 95 126
75 95 126
74 95 126
72 93 124
75 96 127
72 93 125
74 95 126
73 94 124
74 94 125
73 94 126
74 95 126
74 95 127
73 94 126
75 95 126
74 95 126
74 95 126
74 94 125
72 92 122
75 96 127
73 95 126
74 95 127
71 92 123
74 95 127
71 93 125
73 94 126
75 95 126
75 96 127
74 95 127
75 95 125
74 95 126
75 96 127
73 94 124
74 95 126
74 95 125
73 93 124
77 97 126
74 95 127
75 96 127
76 96 126
72 93 125
75 95 125
74 95 126
73 93 124
73 95 127
73 94 124
75 95 124
74 95 126
74 95 126
75 95 124
74 95 126
73 94 126
73 94 126
72 93 124
74 95 126
74 94 125
74 95 128
75 95 125
72 93 125
74 95 126
72 92 123
74 94 124
75 95 126
73 95 126
75 95 125
74 94 125
73 94 126
74 95 126
74 95 126
73 93 124
72 94 126
73 94 125
74 94 125
73 93 124
72 92 122
74 94 125
74 94 125
75 96 126
73 94 125
75 96 126
74 94 125
73 93 124
74 94 125
74 95 126
73 94 124
75 96 126
73 94 125
74 94 125
74 95 127
74 95 126
74 95 126
74 95 126
73 94 125
71 92 124
76 95 125
72 93 125
74 95 127
73 94 125
73 94 124
74 94 126
74 94 125
75 95 125
75 95 126
74 94 125
74 95 126
74 95 127
73 93 124
75 95 126
74 95 126
72 92 122
73 94 124
76 96 127
75 95 127
73 93 123
75 96 126
73 94 124
75 96 127
75 96 128
73 93 124
75 96 127
73 93 124
75 95 126
74 95 126
72 93 124
73 94 124
75 96 127
72 93 124
74 95 127
73 93 125
73 94 125
76 96 128
74 95 126
74 95 126
73 94 125
74 95 126
74 96 128
73 94 126
72 93 125
75 94 124
74 95 126
73 94 125
75 96 128
74 95 126
75 96 127
75 96 127
75 95 126
76 96 127
74 95 126
74 95 125
74 95 125
76 96 127
74 94 126
74 95 126
74 95 126
75 95 126
72 93 125
71 94 127
74 95 126
74 95 126
76 97 128
75 95 125
75 95 126
73 94 125
71 92 123
74 95 126
73 94 126
75 95 126
75 96 128
73 94 126
76 96 127
74 95 125
75 96 127
75 95 124
74 95 126
75 96 126
74 95 127
74 95 127
73 94 125
74 95 126
74 95 128
75 95 126
75 96 128
75 95 125
75 96 127
73 94 125
74 95 126
73 94 124
75 96 126
76 96 127
74 94 125
74 94 125
73 94 126
73 93 123
74 95 127
74 95 127
74 94 124
72 93 124
74 95 126
74 95 127
74 95 127
73 94 124
75 96 127
74 95 127
74 95 125
74 95 126
73 94 124
74 95 126
74 95 127
75 95 126
75 95 127
73 94 124
74 96 128
74 95 127
73 94 125
75 96 127
73 94 125
73 93 124
75 95 126
74 95 128
74 95 126
74 95 127
75 96 127
76 96 127
74 95 126
75 95 126
74 95 127
73 94 126
74 95 125
75 95 127
73 94 126
75 96 127
74 95 126
74 95 126
76 96 128
75 95 126
74 94 124
74 94 124
73 93 124
75 96 127
74 94 126
73 94 125
76 96 126
73 95 127
74 95 126
75 95 126
75 96 128
75 95 126
74 94 126
74 94 125
75 95 126
75 96 126
75 95 126
75 95 126
74 95 125
74 94 125
76 96 127
73 94 127
73 95 128
75 96 127
74 94 124
73 94 126
75 96 127
74 94 125
74 95 125
73 94 125
75 95 126
76 97 128
73 94 125
76 96 126
74 95 127
74 95 126
75 95 126
73 94 125
74 95 126
73 93 124
74 95 126
73 94 125
75 96 127
75 95 126
75 95 126
74 95 126
75 96 126
73 94 125
72 92 123
73 94 126
73 93 125
76 97 128
75 96 128
76 96 127
74 95 126
75 95 126
74 94 126
73 93 125
75 96 128
75 96 127
76 96 126
73 94 124
73 94 126
74 94 125
73 94 126
73 93 124
74 95 127
71 92 123
74 95 125
74 94 126
75 96 127
74 95 126
76 95 125
74 95 127
74 94 125
73 95 126
74 94 124
74 95 126
75 95 126
72 93 125
74 95 126
74 95 126
74 96 128
74 95 127
74 95 126
73 94 125
75 95 126
74 96 128
75 95 125
73 94 125
74 95 126
73 93 123
76 96 128
73 94 126
72 92 123
73 94 125
75 95 126
73 94 126
74 95 126
75 96 127
71 93 125
74 94 123
74 94 125
73 94 125
74 95 127
75 95 126
76 96 126
74 95 126
74 93 123
76 96 127
74 94 125
75 95 126
73 93 123
73 93 124
74 94 125
74 95 126
72 93 123
74 95 126
75 95 126
74 94 125
74 95 126
74 95 127
75 96 127
72 92 122
72 93 123
74 95 126
74 94 124
73 94 125
74 95 126
74 94 126
73 94 124
75 96 127
73 94 125
73 93 124
74 95 126
72 94 126
75 95 125
73 94 126
73 94 126
76 96 127
76 97 128
73 95 127
76 96 126
74 96 128
73 94 126
73 92 122
73 94 126
74 95 126
74 95 127
73 94 125
75 96 128
72 94 126
73 94 125
76 97 128
73 94 126
74 95 126
75 96 127
72 94 125
73 93 123
75 95 126
74 95 126
76 96 127
76 96 126
74 95 126
73 94 125
75 96 127
72 93 123
72 93 123
74 94 126
74 94 126
75 95 127
74 95 127
72 93 124
74 95 127
74 95 126
72 92 122
73 94 125
73 94 126
73 94 126
73 95 127
74 94 126
75 95 125
73 94 127
75 95 126
74 95 126
74 95 126
75 96 126
73 94 126
77 97 127
73 94 125
74 96 128
74 94 124
73 93 124
74 94 123
74 94 126
74 95 126
74 95 127
73 93 124
74 95 126
74 95 127
74 95 126
76 96 125
73 93 124
74 95 126
75 96 127
74 95 127
73 94 126
76 96 126
73 95 127
73 93 124
75 95 125
73 94 126
72 93 126
75 95 125
73 93 123
74 94 125
75 96 128
75 95 126
73 94 126
73 94 126
74 94 124
72 94 126
75 95 126
74 94 126
74 95 126
72 92 122
73 94 125
76 96 128
74 95 127
74 94 124
74 95 125
74 95 127
74 95 126
72 92 122
74 95 128
72 93 125
75 96 127
71 92 124
75 96 126
72 93 123
73 94 125
74 93 123
73 93 123
74 95 127
74 95 126
73 93 124
75 96 127
72 93 124
74 95 126
74 94 126
73 93 124
73 94 125
75 95 126
74 94 126
74 94 125
74 95 126
73 94 125
73 93 123
73 94 126
72 93 125
75 96 127
75 95 127
71 92 124
74 94 125
74 95 127
75 95 126
73 94 126
73 94 125
74 95 126
74 95 126
74 94 125
74 94 126
74 95 126
74 95 126
74 94 125
74 94 125
71 93 125
74 95 126
74 95 126
72 94 126
74 95 127
74 95 127
73 95 126
71 92 123
75 96 127
76 97 128
74 95 126
74 94 125
73 94 125
73 94 125
74 95 126
73 94 125
73 93 124
76 96 126
74 94 126
75 95 125
75 94 124
74 95 126
73 95 126
72 93 125
73 94 125
75 95 126
74 95 126
75 96 127
74 94 126
73 94 126
71 93 125
73 93 124
73 93 124
72 93 124
73 94 125
75 96 127
71 92 124
74 95 127
73 94 124
74 94 125
74 95 126
75 96 128
73 93 123
75 96 127
74 95 126
74 94 126
73 94 126
74 94 125
74 95 126
73 93 124
75 96 127
73 94 125
74 94 126
73 94 126
73 94 125
75 95 126
75 96 126
75 96 128
74 95 126
75 95 127
74 95 127
73 94 125
74 95 125
75 95 126
74 94 126
72 93 126
74 95 126
75 95 126
74 95 128
74 94 126
74 95 125
75 95 126
74 96 128
73 94 126
72 93 125
73 94 125
73 93 124
72 94 125
74 95 126
74 95 127
73 94 126
72 94 126
74 95 127
76 96 126
73 94 125
74 95 127
75 96 127
76 96 127
76 96 126
73 94 125
75 94 124
73 94 124
74 95 126
74 94 123
75 96 127
72 94 126
75 96 128
74 94 125
73 94 127
75 95 126
74 95 126
75 96 127
75 96 128
73 94 125
74 95 127
74 95 126
75 96 126
74 94 125
75 96 127
73 94 126
74 94 125
75 96 127
74 95 126
74 95 127
73 94 125
73 93 124
76 96 127
74 95 126
76 96 127
73 95 126
74 95 126
74 95 126
75 95 126
75 96 127
74 95 127
73 93 124
74 95 126
75 95 126
74 95 127
73 94 126
73 95 127
74 95 126
74 95 126
73 94 125
75 95 125
74 94 126
74 94 124
73 95 127
72 93 125
74 95 127
75 96 127
74 95 126
76 96 127
72 93 124
74 95 126
73 94 125
71 91 121
74 95 127
73 94 126
75 95 126
75 96 128
74 94 125
73 94 126
73 94 124
75 95 125
74 95 126
75 96 127
73 93 123
74 94 125
71 93 125
75 95 126
74 94 124
74 95 126
73 94 125
73 94 126
74 94 125
72 93 125
73 93 124
75 95 125
74 95 126
73 95 126
74 95 126
76 96 127
73 94 125
73 94 125
74 95 126
76 96 126
74 96 128
74 94 124
75 95 126
74 95 126
75 95 125
74 94 125
74 95 126
75 95 125
76 96 126
74 94 124
73 93 125
75 95 126
74 94 125
74 95 127
74 95 127
74 95 126
74 94 125
73 94 126
74 95 126
74 95 126
75 96 127
72 93 124
73 93 123
73 93 124
75 96 128
74 95 126
73 94 124
76 96 126
73 94 125
73 94 125
75 95 126
74 94 125
75 95 126
74 96 128
75 95 126
73 94 125
73 94 126
74 95 126
75 95 125
74 95 126
73 93 124
75 95 126
74 95 127
76 96 126
70 92 124
75 95 126
74 94 124
76 96 128
74 95 126
76 96 128
73 94 126
73 94 125
72 93 124
73 94 126
73 93 124
73 94 125
72 93 123
73 94 124
73 95 127
74 94 125
73 94 126
74 95 126
75 95 126
74 95 127
73 93 124
74 94 125
73 94 126
73 93 124
74 95 126
75 96 127
74 95 125
74 95 126
72 94 126
73 94 126
73 93 125
73 94 125
74 94 126
74 94 126
73 94 124
71 92 122
75 96 126
74 95 127
74 95 127
72 93 124
73 93 124
73 93 124
73 94 124
75 95 126
73 94 125
74 94 124
74 94 125
74 94 124
75 96 127
74 93 123
73 94 126
74 95 127
74 95 126
73 94 126
74 95 126
74 94 125
72 93 123
74 95 126
73 94 125
74 95 126
74 95 126
74 95 126
73 93 124
73 94 125
75 95 125
74 94 124
73 94 125
76 96 126
73 94 125
74 95 126
72 93 124
75 96 127
73 93 124
75 95 125
74 95 126
73 93 124
74 94 124
73 94 125
75 95 124
74 94 125
74 95 127
72 94 125
73 94 124
75 96 127
74 94 125
73 94 125
73 94 125
75 96 126
73 94 126
73 94 126
72 94 126
74 95 126
75 96 126
74 94 125
74 95 126
74 95 126
72 93 124
74 95 126
76 96 126
74 94 126
73 93 124
73 94 125
72 93 125
74 95 128
73 94 125
73 95 126
73 93 122
74 94 125
72 93 125
73 93 124
73 94 126
73 94 124
73 94 125
76 96 126
75 95 126
74 94 125
76 96 127
73 93 123
74 95 125
73 94 126
73 94 126
75 96 128
74 95 127
74 95 126
71 91 122
74 95 126
75 96 126
77 97 127
75 95 125
73 94 126
74 94 124
74 94 125
74 94 124
75 96 126
73 94 125
73 95 127
72 93 125
74 95 126
76 96 128
75 96 127
74 95 125
75 95 126
71 92 122
76 96 127
75 96 127
72 94 126
73 94 125
73 94 126
73 94 124
74 95 126
73 94 126
74 94 124
73 94 126
73 93 123
74 94 125
72 92 123
74 95 125
72 94 127
75 96 126
73 94 125
73 94 125
72 92 122
74 94 124
72 94 125
73 93 123
73 94 125
74 95 126
75 96 127
74 94 124
73 94 124
73 94 125
74 95 126
74 95 127
74 95 126
73 94 125
75 95 127
73 95 127
76 96 127
75 95 125
72 93 124
73 95 127
75 95 126
74 95 125
75 95 125
75 95 125
73 94 126
73 94 125
70 92 123
75 96 127
74 95 126
75 96 127
74 95 126
73 94 125
74 95 127
74 95 126
73 95 128
76 97 128
74 94 124
72 92 123
74 95 126
74 95 126
74 95 127
75 96 127
73 94 125
75 96 128
74 95 128
74 94 125
75 96 127
74 95 126
73 93 124
72 93 124
75 95 126
72 92 123
75 95 126
73 94 125
74 95 126
73 94 126
76 97 128
74 95 126
73 94 124
72 92 122
73 94 127
73 95 127
71 92 124
72 93 124
74 94 125
73 95 126
75 96 127
76 97 127
74 95 127
75 96 128
74 95 127
74 95 126
74 95 126
76 96 126
74 95 126
74 94 124
74 95 127
76 96 126
75 95 126
73 94 125
75 95 124
75 95 126
74 95 126
73 94 126
73 94 127
74 95 125
75 95 126
74 94 126
75 96 127
75 96 127
76 96 126
75 95 126
75 95 126
75 95 126
72 93 125
74 95 127
74 95 127
74 95 126
74 95 126
73 94 126
75 96 127
75 95 126
75 95 126
74 95 128
74 95 127
75 96 128
74 95 126
74 95 126
72 92 122
75 95 124
73 94 125
72 93 123
74 95 126
72 93 125
74 94 125
73 95 127
74 96 128
74 95 126
76 96 128
74 94 124
75 96 126
74 95 126
75 95 126
75 94 124
74 95 127
75 96 127
74 95 127
75 96 126
73 94 124
73 95 127
73 94 125
74 94 125
74 95 126
74 95 125
73 94 127
75 96 126
74 95 126
73 95 126
75 95 126
75 96 128
74 95 126
75 94 124
75 96 127
72 93 124
74 95 126
72 93 123
75 96 127
73 94 124
75 96 127
73 94 125
74 95 126
72 93 125
74 94 126
74 95 127
75 95 126
74 94 126
73 94 126
74 95 126
76 96 126
75 95 126
74 95 126
74 95 127
74 94 124
74 95 126
74 95 126
75 95 126
73 94 125
75 95 125
72 92 123
74 94 125
74 95 126
75 95 126
73 95 127
74 95 127
73 94 124
73 94 125
75 95 126
75 95 126
74 95 127
73 94 126
73 94 125
75 96 127
75 95 127
74 94 124
74 94 125
74 95 127
75 95 127
75 94 124
75 95 125
74 95 126
75 96 127
75 95 126
71 91 122
74 95 127
72 92 123
73 93 125
74 95 126
72 93 125
73 93 124
73 94 127
74 94 125
74 95 126
71 91 121
74 95 126
72 94 126
73 94 126
75 96 127
73 94 124
74 96 128
74 95 126
73 94 126
74 95 127
74 95 127
73 94 126
71 92 123
74 94 125
73 95 127
73 94 125
74 94 125
75 96 127
72 93 124
74 94 124
72 92 123
73 93 124
73 94 125
73 94 127
74 95 126
74 95 126
74 94 124
73 94 126
74 95 126
71 91 121
74 95 126
74 95 126
73 93 124
74 94 124
74 95 127
74 94 125
73 94 125
75 95 125
73 95 127
74 95 125
76 96 127
75 95 126
75 96 126
74 95 126
74 95 127
73 93 124
76 96 128
74 95 127
72 93 125
72 93 123
72 92 123
76 96 127
75 96 127
74 94 126
74 94 125
74 94 124
74 95 126
74 94 125
74 95 126
72 93 124
75 95 125
73 95 127
75 96 127
74 95 126
72 94 126
75 95 126
72 92 123
74 94 124
74 94 124
75 95 126
73 94 125
73 93 124
74 94 124
75 95 125
74 95 126
74 95 126
74 95 125
73 94 126
73 94 125
75 96 128
71 92 123
74 95 127
74 94 125
76 96 126
75 96 126
75 95 125
74 94 126
74 94 125
74 95 126
75 96 128
74 96 128
73 94 126
74 94 125
74 95 126
76 96 126
75 95 126
73 94 125
74 94 125
75 96 128
75 95 125
73 94 125
73 94 125
73 94 125
74 96 128
74 95 127
75 95 126
73 94 125
73 94 124
74 95 127
73 94 125
73 95 126
74 94 125
73 94 125
74 95 126
74 94 126
74 95 126
74 94 125
74 94 124
76 96 126
73 95 128
74 94 124
73 93 123
72 93 125
74 95 125
76 96 128
75 95 126
73 94 126
73 94 125
73 93 124
72 93 124
75 96 126
72 93 125
74 94 124
72 92 122
74 94 125
76 96 126
75 96 127
72 93 125
74 95 126
73 94 126
74 95 126
74 94 125
73 94 126
76 97 127
75 96 127
74 94 126
75 95 126
73 94 126
76 96 126
75 96 126
74 95 126
74 95 126
73 93 124
74 95 126
74 95 126
75 95 125
73 94 125
74 94 124
75 96 127
73 93 124
75 95 124
74 95 126
76 96 127
74 94 123
74 94 124
72 92 123
74 95 126
73 94 125
75 96 127
72 94 126
75 96 128
75 95 126
74 95 126
72 93 125
72 93 124
73 94 125
73 94 125
73 94 126
75 96 127
74 95 126
74 93 123
74 95 126
74 95 126
75 96 128
74 95 127
74 95 125
72 93 124
75 95 126
74 95 126
73 94 126
74 94 125
73 94 127
73 94 125
74 94 124
75 96 128
74 95 126
73 94 125
74 94 124
73 94 124
75 95 127
75 95 125
74 95 125
75 95 125
74 94 125
72 93 124
74 95 126
73 93 124
74 95 126
76 96 125
72 93 124
74 94 124
73 94 126
75 95 125
74 95 127
73 95 127
76 96 127
74 94 126
74 95 127
74 95 126
73 94 126
74 95 126
75 95 126
73 94 125
73 94 126
75 95 126
73 94 126
74 95 126
75 95 125
74 94 125
72 94 126
74 94 125
73 94 125
75 96 127
74 95 126
74 95 126
73 94 126
74 94 125
75 95 126
74 95 126
74 94 125
74 94 124
73 92 122
74 95 125
75 95 125
74 95 126
73 95 127
74 95 125
73 94 125
77 97 128
74 94 124
73 95 127
74 95 127
74 94 125
76 97 128
74 95 126
76 96 127
74 94 125
75 96 127
74 95 127
74 95 127
74 95 128
75 95 126
74 94 125
73 94 125
72 93 124
75 96 126
74 95 126
76 96 126
74 95 127
73 94 125
76 96 128
73 94 125
74 95 127
73 94 125
74 95 126
73 95 127
75 96 127
75 95 125
75 96 127
74 95 127
75 95 126
74 95 126
74 95 126
73 94 125
75 95 126
75 96 126
74 95 127
74 94 125
76 97 128
75 95 126
74 95 127
73 95 127
75 95 126
74 95 127
76 96 126
73 94 124
75 96 127
75 96 127
75 95 126
74 95 126
73 94 126
73 94 125
75 96 126
74 95 127
76 96 127
75 96 126
74 95 127
73 93 125
74 94 124
74 95 128
74 94 125
74 95 127
74 95 126
73 95 127
72 94 125
75 96 127
74 95 127
71 93 125
74 95 127
72 94 126
74 96 128
73 94 125
74 95 126
74 94 124
74 95 126
72 93 125
75 95 125
75 95 126
74 94 126
73 93 124
74 95 127
74 95 127
75 96 127
74 95 127
74 95 126
74 95 126
75 96 128
72 93 125
74 95 126
74 95 127
76 96 127
74 95 126
75 96 128
74 95 126
74 95 126
74 95 126
75 95 125
72 93 125
74 94 124
74 95 127
75 96 127
74 95 126
75 96 127
74 95 128
76 96 126
74 95 126
74 95 127
74 95 126
74 94 125
73 93 124
74 95 127
74 94 126
74 95 125
74 95 126
73 94 125
73 95 126
74 94 125
74 95 126
76 96 126
74 95 126
75 96 127
72 93 124
74 94 124
71 92 124
74 94 124
74 94 123
73 94 126
75 96 128
75 96 127
73 94 124
75 95 126
73 94 126
73 94 124
73 94 125
75 95 126
75 95 126
76 96 127
75 95 126
75 94 124
74 95 127
73 94 126
74 95 126
76 96 126
74 95 127
74 95 126
75 95 127
73 94 125
74 95 125
74 94 125
73 95 127
74 94 124
74 95 126
72 92 123
74 95 128
74 94 125
73 94 125
76 96 126
75 95 124
75 95 125
72 93 124
74 95 126
74 95 125
74 95 125
71 91 120
74 95 125
74 95 126
73 93 123
75 95 126
74 94 124
73 93 124
72 93 125
74 94 124
72 93 125
74 95 125
74 94 126
74 95 126
75 96 128
73 94 126
75 96 128
72 93 126
73 95 127
72 93 124
73 94 125
72 92 122
72 93 125
75 95 126
74 95 126
76 96 127
74 95 127
74 95 126
72 92 123
74 94 126
73 95 127
74 94 125
74 95 128
74 94 125
73 94 126
74 95 127
75 95 126
72 93 124
75 95 126
71 92 124
74 94 125
75 96 128
73 93 123
75 95 125
72 93 124
73 94 125
74 95 126
76 96 127
72 94 126
75 95 126
73 94 126
73 93 125
73 94 125
72 92 123
74 94 125
73 94 124
74 95 126
75 95 127
73 94 125
72 94 126
74 94 124
74 95 127
73 94 126
74 94 125
73 94 126
74 94 126
73 94 127
75 96 127
71 92 124
73 94 126
74 94 124
74 95 127
72 93 124
73 94 125
72 92 122
73 95 127
73 94 125
72 93 123
75 95 125
72 92 124
77 97 127
73 94 126
73 95 127
72 93 124
75 96 128
72 92 123
73 94 126
74 95 127
73 94 126
72 93 124
75 95 125
75 96 126
72 92 123
76 97 127
75 95 126
73 94 126
74 94 126
75 95 125
73 94 124
73 93 124
75 96 127
72 93 123
76 96 126
72 92 123
72 93 124
74 95 126
76 96 127
74 94 126
75 96 127
74 95 127
76 96 126
74 94 124
73 95 126
74 94 124
74 94 126
73 93 124
74 95 126
74 94 126
75 96 127
74 95 126
73 94 125
74 94 124
74 95 125
74 95 126
75 96 126
74 95 126
73 94 126
75 94 124
75 95 126
74 95 125
73 94 125
74 95 127
75 96 128
74 95 127
75 95 126
71 92 123
75 96 127
74 95 126
71 92 124
73 95 127
72 93 124
75 96 126
73 93 124
75 96 127
74 94 125
74 94 125
72 93 126
75 96 128
75 95 126
73 94 126
74 95 125
76 97 128
73 94 125
75 96 128
72 93 126
72 93 123
75 95 126
74 95 126
74 95 126
75 95 126
71 92 124
72 93 123
76 97 127
74 95 126
72 94 126
75 96 127
73 95 126
74 96 128
75 96 128
75 95 124
73 94 127
73 94 124
74 95 126
73 94 126
74 95 125
73 94 126
74 94 125
73 95 126
72 92 123
75 96 128
73 94 126
73 94 126
74 95 126
73 94 125
74 94 125
74 95 127
76 96 127
73 94 126
73 93 124
75 94 124
73 94 125
74 95 126
73 94 124
75 96 126
75 95 125
72 92 122
73 95 126
73 94 126
73 94 126
74 95 126
74 95 126
75 96 128
73 94 125
74 95 126
77 96 126
74 95 126
73 94 125
75 96 128
75 96 127
73 93 123
74 95 125
76 96 127
74 95 126
74 95 126
74 95 126
73 94 126
74 95 127
75 96 128
76 96 126
75 95 126
74 94 124
74 95 126
76 96 126
71 93 124
71 91 121
74 95 127
75 96 127
73 94 124
75 96 128
75 96 128
73 94 125
74 95 126
73 93 124
73 94 125
74 95 127
74 95 126
73 95 127
73 94 127
74 95 126
74 95 126
73 93 124
73 94 126
74 95 125
75 95 125
74 94 125
77 97 128
72 94 126
75 96 128
75 95 126
75 95 126
74 94 126
73 94 125
74 95 126
74 94 125
76 96 127
76 96 127
76 97 128
74 95 126
73 94 125
73 94 125
75 96 127
74 95 126
74 94 125
73 94 125
73 95 128
74 95 127
73 94 126
71 92 123
74 95 128
74 95 128
72 93 124
74 95 127
74 95 127
74 95 126
74 95 125
73 93 124
73 94 125
75 95 125
76 96 127
73 95 126
74 94 125
75 95 127
76 96 128
72 93 124
75 95 125
73 94 126
74 95 126
75 96 126
75 94 124
74 95 127
75 96 127
75 96 127
74 95 126
74 95 126
73 94 126
73 94 125
72 93 125
75 96 127
75 96 128
72 93 125
75 96 126
72 94 126
75 95 125
76 96 127
76 96 126
76 97 127
73 93 124
77 97 128
73 94 125
73 93 123
74 94 125
75 95 126
76 96 128
74 95 127
75 95 125
74 95 126
72 93 124
74 95 126
74 94 125
74 94 125
73 94 126
74 95 127
73 93 124
75 95 126
74 94 125
74 94 125
73 94 125
72 93 125
75 95 126
73 94 125
73 94 127
74 94 124
73 94 125
74 95 126
74 95 126
73 94 126
75 96 128
75 96 126
75 95 126
72 93 124
75 95 126
74 95 126
75 96 127
74 94 125
75 96 126
73 95 127
73 95 127
74 94 125
75 95 126
74 95 127
76 96 127
74 95 127
74 95 126
75 95 126
73 93 124
74 95 126
73 93 123
72 94 126
74 95 127
74 95 126
73 94 126
74 95 126
76 96 126
73 94 125
74 94 125
74 95 127
73 94 126
74 94 124
73 93 124
75 96 126
74 95 127
75 96 127
73 94 126
75 95 126
73 94 126
75 95 125
74 94 124
75 95 126
75 95 125
74 95 127
73 94 126
74 95 127
72 93 126
73 95 127
74 94 124
72 93 125
74 95 126
75 95 126
73 94 126
73 93 124
74 95 126
75 95 126
74 95 126
76 96 128
74 95 126
75 95 125
72 94 126
76 96 125
72 93 124
74 95 126
73 94 125
71 91 122
72 93 125
75 95 126
73 94 126
73 94 124
74 95 127
73 94 126
74 95 126
71 92 124
75 95 126
75 95 127
73 94 126
75 95 125
73 94 126
75 95 126
74 95 125
73 94 126
73 94 126
72 93 124
74 94 123
75 96 127
74 95 126
73 94 125
76 96 127
74 94 125
74 94 125
74 95 126
72 93 125
72 94 126
72 93 124
73 94 124
72 92 121
75 95 126
73 94 125
74 94 126
73 94 125
77 96 126
72 93 124
74 94 125
76 96 126
71 91 120
73 94 125
74 95 126
75 95 125
72 92 124
74 95 126
73 94 126
74 95 126
74 95 126
72 94 126
73 93 123
73 94 124
74 95 126
74 94 125
74 95 125
72 93 123
72 94 126
75 95 126
74 96 128
73 93 124
73 94 126
73 94 126
75 95 126
74 93 123
75 95 126
75 95 125
73 95 128
74 94 125
76 96 127
73 94 126
72 93 124
75 96 128
72 93 125
73 94 124
74 95 126
74 95 126
73 93 124
73 93 123
74 95 126
76 96 126
74 95 125
74 95 126
72 93 125
75 96 126
76 96 127
74 95 126
73 94 126
73 93 123
75 96 127
74 95 126
75 95 125
74 95 126
73 94 126
73 94 125
76 97 128
74 95 127
74 94 124
76 96 126
75 95 126
73 94 126
72 93 125
75 95 126
74 95 126
71 91 122
74 95 126
74 95 125
73 93 124
74 95 126
75 96 128
76 96 125
73 93 123
75 95 126
74 95 127
74 95 126
73 94 126
73 94 126
74 94 125
74 95 128
74 94 125
74 94 125
73 94 126
75 96 128
74 94 125
76 96 126
74 94 125
76 96 127
76 96 128
74 95 127
74 95 127
75 96 127
74 95 126
72 93 125
73 94 126
74 94 125
72 94 126
73 94 126
73 95 126
75 95 126
72 93 125
76 96 126
73 93 125
75 95 126
73 94 125
75 95 126
74 95 126
73 94 125
73 93 123
74 94 125
73 94 126
73 94 125
75 96 126
74 95 126
76 96 127
74 95 125
76 96 127
73 94 126
72 94 126
74 95 127
74 95 126
74 94 123
71 92 123
74 96 128
75 96 126
74 95 127
73 95 126
73 94 125
75 96 126
75 96 126
74 95 126
74 94 125
72 93 125
74 95 126
76 96 126
76 96 127
74 95 126
73 93 124
73 93 123
74 95 126
74 95 127
72 94 126
75 95 127
73 93 123
75 95 126
74 95 127
74 94 125
73 94 126
73 95 126
73 94 125
74 95 126
74 95 126
75 96 128
76 96 128
75 95 126
74 95 126
74 95 126
76 96 126
73 94 125
73 94 126
76 96 127
76 96 126
75 96 126
74 95 127
74 95 125
75 95 126
74 95 126
74 95 126
74 95 126
73 94 125
74 95 127
73 94 125
74 95 126
73 94 126
72 93 125
74 94 124
75 95 126
74 94 124
74 94 124
76 96 126
75 96 127
73 94 126
74 95 126
74 96 128
75 96 128
73 95 126
76 96 126
74 94 125
74 94 124
74 95 126
74 95 127
74 94 124
76 97 128
75 95 126
73 95 126
74 94 124
74 94 124
73 94 125
75 96 127
74 94 124
74 95 126
74 95 126
74 95 127
73 93 124
73 94 126
74 95 127
74 95 126
75 95 126
73 94 126
74 95 127
75 96 127
75 95 125
75 95 126
73 94 125
73 94 126
75 96 127
74 94 124
75 95 125
74 95 125
73 94 126
74 95 126
75 95 126
74 95 127
75 96 128
74 95 128
74 95 126
74 95 126
72 93 125
73 94 125
74 93 123
74 95 126
74 95 128
75 96 127
75 96 128
75 96 127
73 94 126
75 96 127
72 93 125
72 92 123
74 95 128
75 95 125
73 94 126
75 95 125
74 95 126
75 95 125
75 95 126
74 96 128
74 95 126
74 95 127
73 94 126
76 96 127
74 95 127
74 95 127
77 97 127
73 95 126
73 94 124
74 94 125
75 96 128
73 94 126
73 94 125
73 93 124
74 95 126
74 95 126
75 96 127
70 91 123
74 95 125
73 94 126
72 94 126
74 95 126
76 96 127
77 96 126
75 96 126
76 96 127
75 96 127
76 96 127
74 94 125
75 95 126
75 96 128
75 96 127
75 96 128
74 95 126
74 94 125
76 96 126
76 96 127
75 95 126
73 94 126
76 96 128
73 94 126
74 95 126
75 95 125
75 96 128
72 93 125
74 95 126
75 96 127
70 92 124
74 95 127
76 96 127
74 95 126
74 94 125
74 95 126
74 95 127
74 95 125
73 94 125
75 96 127
74 95 126
74 95 125
74 95 126
75 96 127
74 95 126
75 95 127
75 96 127
75 96 126
72 93 123
73 92 121
76 96 126
75 96 127
75 96 128
73 94 126
75 95 126
74 95 127
73 94 125
74 94 126
75 95 126
74 95 126
73 93 124
73 94 125
74 95 126
74 95 125
73 94 124
74 95 125
73 94 126
73 94 126
75 96 127
75 95 126
73 94 125
72 94 126
74 95 126
75 96 127
73 94 126
74 95 126
75 95 125
74 95 126
74 95 126
75 95 126
73 94 125
74 96 128
75 95 125
73 94 126
75 95 126
73 94 125
75 96 127
76 96 127
75 96 127
75 95 126
75 96 127
75 96 127
73 94 125
74 94 124
74 95 126
76 96 126
75 95 125
74 94 124
74 95 126
74 95 126
75 95 126
74 95 126
73 94 126
73 94 125
72 93 124
75 96 127
72 93 123
75 95 125
75 95 126
74 96 128
74 95 127
74 95 127
74 95 126
74 95 125
74 95 126
75 95 126
75 95 126
73 94 125
73 94 126
75 95 126
75 95 126
74 94 125
73 94 125
75 95 126
71 92 124
72 93 124
73 94 125
75 95 126
73 94 126
74 95 127
73 94 124
73 94 124
73 94 125
73 94 124
74 95 126
71 91 122
75 96 127
74 95 126
74 95 127
74 95 126
74 95 127
72 93 125
74 94 125
75 96 127
73 94 126
73 92 122
73 94 126
75 95 126
75 95 126
75 95 126
73 94 125
73 94 126
74 94 125
73 94 126
73 94 124
74 95 126
75 95 126
74 95 126
72 93 126
72 93 124
73 94 126
74 95 125
74 94 124
74 95 127
73 94 127
75 95 126
75 95 126
74 95 126
75 95 125
74 95 127
73 94 127
73 94 126
73 94 126
72 93 125
74 95 126
74 95 127
73 93 124
73 94 125
73 94 126
72 93 125
73 94 126
76 96 127
73 94 126
72 94 126
75 95 126
74 94 125
73 94 126
75 96 126
74 94 124
74 95 125
72 93 124
75 96 126
74 95 126
75 96 127
75 96 127
74 94 124
76 96 127
75 95 126
75 96 128
71 91 121
74 95 125
74 95 127
75 96 127
72 93 124
72 93 124
74 95 125
75 95 124
73 94 126
76 96 127
72 93 124
72 93 125
73 94 126
74 94 124
73 94 126
73 94 124
74 95 126
72 94 126
76 96 126
75 96 127
73 93 124
72 92 123
74 94 125
75 95 125
73 94 124
75 94 124
74 95 126
75 95 125
75 95 126
73 94 125
72 93 125
76 96 127
75 95 125
74 95 126
73 94 125
75 95 127
75 96 126
75 95 125
74 94 125
73 94 126
73 94 126
72 93 124
73 93 123
75 94 124
75 95 125
72 93 124
74 95 126
72 93 124
74 95 126
73 94 125
75 96 128
76 96 126
74 94 125
73 94 125
74 95 126
74 95 126
75 95 126
71 92 123
75 96 127
71 91 122
72 93 125
72 94 126
74 95 126
73 94 124
75 95 126
75 95 126
73 94 125
75 96 128
73 94 126
74 94 125
74 95 126
75 95 126
74 95 128
73 93 123
76 97 128
75 96 127
73 94 126
74 95 125
74 94 125
76 96 126
75 95 125
76 96 126
72 93 123
76 96 126
75 95 126
75 96 127
74 95 126
74 95 125
73 94 125
75 95 125
73 93 123
73 95 128
74 95 126
76 96 126
74 94 124
73 94 126
72 94 126
74 95 127
73 94 126
72 92 122
74 95 127
74 95 126
73 94 126
74 94 125
74 95 126
74 95 127
75 95 126
73 94 126
74 94 124
73 94 125
73 93 124
72 93 125
73 94 125
73 95 126
72 92 123
77 97 126
74 95 127
76 97 128
75 95 126
75 96 127
73 94 125
74 95 126
73 93 124
75 96 127
75 95 127
73 94 125
72 93 124
74 95 126
74 95 127
75 96 126
73 93 124
76 96 127
75 95 126
74 94 124
73 94 126
74 95 126
73 94 126
74 95 126
75 95 126
74 95 126
75 96 128
74 95 127
73 95 126
76 96 126
74 95 126
74 95 128
75 96 128
73 94 125
74 95 126
72 92 124
74 95 126
74 95 126
75 96 127
72 94 126
74 94 125
76 95 125
74 94 125
74 95 126
73 94 126
73 95 127
74 95 126
75 95 126
72 92 123
74 95 126
73 94 125
74 95 128
76 96 127
74 95 126
73 93 124
75 95 127
74 95 127
73 94 126
74 95 126
74 95 126
75 96 127
74 95 126
76 96 127
74 95 126
74 96 128
77 97 127
71 92 124
74 95 127
74 95 126
74 95 126
73 94 125
75 96 128
75 95 126
74 95 127
74 95 128
74 95 127
74 95 126
73 94 126
74 95 126
73 93 124
75 95 126
76 96 126
75 96 127
73 94 125
75 96 128
74 95 128
74 96 128
72 93 126
73 93 123
74 95 127
75 95 126
73 94 124
75 96 127
73 94 126
75 96 127
73 94 124
73 95 128
76 97 128
75 96 128
75 96 127
74 94 125
73 94 126
74 94 124
73 94 126
73 94 125
72 94 125
74 95 126
74 94 124
72 93 125
74 95 126
75 95 126
75 96 127
74 95 126
72 93 124
75 96 127
74 94 125
74 94 126
73 94 125
73 95 128
73 94 125
73 93 123
75 96 128
74 95 126
73 93 124
74 95 126
76 96 127
75 95 126
75 95 126
73 94 125
74 95 126
75 96 128
74 95 127
75 95 126
75 96 127
72 93 124
74 95 127
75 95 126
74 94 125
74 95 126
78 98 128
72 93 125
74 95 126
73 92 121
75 96 127
74 95 126
73 93 124
75 95 126
76 96 127
72 93 124
73 94 125
72 93 123
73 94 124
74 95 126
75 95 125
73 94 124
75 95 126
73 94 125
74 95 125
76 96 126
74 95 126
73 94 125
73 94 126
73 94 125
74 95 126
74 94 125
73 94 125
75 95 125
73 94 125
74 95 126
74 95 125
74 95 125
74 95 126
75 96 127
73 95 127
74 95 127
74 95 127
74 95 126
74 95 126
74 95 126
73 94 126
75 95 126
74 95 126
75 95 126
74 95 125
73 95 127
75 95 125
72 93 126
74 94 126
75 95 127
74 95 126
74 95 126
73 94 125
75 96 127
75 95 126
75 96 127
74 95 127
72 94 126
73 94 125
74 95 127
74 94 124
74 95 125
74 95 127
73 94 126
74 94 125
74 95 127
75 96 127
74 94 124
72 92 123
75 96 127
74 95 126
74 95 125
72 94 126
72 93 124
74 94 125
72 93 123
72 93 124
74 95 125
74 94 125
73 94 126
74 94 125
72 94 126
73 93 124
73 94 124
75 96 127
75 96 128
75 96 126
74 95 125
75 95 126
74 95 126
75 95 127
73 94 126
73 93 124
73 94 125
74 94 125
74 95 125
76 96 127
72 92 121
75 95 124
72 94 126
73 94 125
74 94 126
74 95 126
76 96 127
73 94 125
74 95 126
73 94 126
74 94 123
75 96 127
75 96 126
74 94 125
74 95 126
73 94 126
74 95 126
74 94 124
73 93 125
73 94 125
74 94 125
73 94 126
73 94 125
73 93 123
73 94 125
73 93 124
74 95 126
73 94 126
72 92 123
73 94 124
74 95 126
75 96 127
74 95 127
74 95 126
74 95 126
72 93 125
74 94 125
74 95 126
75 96 127
74 95 126
73 95 127
74 94 125
76 96 128
74 94 126
75 96 128
72 93 124
72 92 122
75 96 126
73 94 125
73 94 125
74 95 127
74 95 126
72 93 123
75 96 128
75 96 127
75 96 127
73 94 124
75 95 127
74 96 128
75 95 124
72 93 126
75 95 125
74 95 126
75 96 128
73 94 125
76 96 126
75 95 126
75 96 128
74 95 126
75 96 127
74 94 124
73 94 125
76 96 126
74 95 128
74 94 124
72 92 123
74 95 126
74 94 125
73 93 125
72 93 124
73 94 126
73 94 126
73 94 126
74 94 126
73 93 124
73 93 122
74 95 127
74 95 127
74 95 125
74 95 126
76 96 127
74 95 126
73 94 125
76 96 127
73 93 122
74 94 124
73 93 124
73 93 124
74 95 126
73 94 125
73 94 125
75 96 128
73 94 126
73 94 125
74 94 125
73 94 125
74 95 126
74 94 125
74 96 128
74 95 126
73 94 126
75 96 128
74 94 125
73 93 124
74 94 124
75 95 126
75 96 126
74 95 126
75 95 124
75 96 126
74 95 126
74 94 126
74 95 125
73 94 126
74 94 125
74 95 126
73 94 126
74 95 126
72 94 126
73 94 127
74 94 126
72 92 122
76 96 127
76 96 127
75 96 126
75 96 126
76 97 128
73 94 126
75 96 128
74 95 126
72 94 126
72 93 125
73 93 124
75 95 125
73 94 125
75 95 124
74 95 126
73 93 124
75 95 126
73 94 125
75 96 126
75 96 128
72 93 125
75 96 128
75 95 126
74 95 126
74 95 126
73 94 125
75 95 126
73 94 125
75 96 127
74 95 125
74 95 126
76 96 126
73 94 126
73 94 125
74 94 125
75 96 128
75 95 127
76 97 128
76 96 127
74 94 125
75 96 128
72 92 124
75 96 128
75 95 126
75 96 128
75 96 126
73 94 125
74 95 127
74 95 126
75 95 126
73 94 126
73 94 125
74 95 127
75 96 127
74 94 125
74 95 126
73 94 125
74 95 126
75 95 126
76 96 125
76 96 127
74 95 126
73 94 126
75 96 127
74 94 126
75 95 127
72 93 123
74 94 124
74 95 125
75 96 127
73 94 125
71 92 123
74 96 128
75 95 125
75 95 126
73 93 123
75 96 128
75 96 127
73 94 125
73 94 126
76 96 128
75 95 126
74 95 127
76 96 127
75 96 127
74 95 126
73 94 126
76 96 128
74 95 126
74 95 125
73 94 124
73 95 127
75 96 127
75 95 125
73 94 126
75 96 127
74 95 127
72 92 123
73 94 125
74 95 126
76 96 126
74 95 126
75 96 128
73 94 126
74 95 126
74 95 126
75 95 126
75 95 127
74 94 125
74 95 127
73 93 124
72 92 122
75 95 126
74 95 128
73 94 126
75 95 126
74 94 125
74 95 127
74 95 126
72 92 122
75 95 126
76 96 127
74 95 126
77 97 127
74 95 127
74 95 127
74 95 126
76 97 128
74 95 126
74 95 126
75 96 127
75 95 126
75 96 128
73 94 125
74 94 125
75 95 126
75 95 126
75 96 127
74 96 128
75 96 126
75 95 125
73 93 124
71 93 124
73 94 125
74 94 124
73 94 124
75 96 127
75 96 127
77 97 128
74 95 127
73 94 125
75 96 127
74 94 125
73 94 126
74 95 127
74 95 126
76 95 125
73 94 126
73 94 125
76 96 126
74 95 125
75 96 127
73 94 126
75 96 126
74 94 124
76 96 126
75 95 126
75 96 126
74 94 124
75 95 127
74 94 126
74 95 126
75 95 126
74 95 128
74 95 126
74 95 127
74 94 125
76 96 127
73 94 124
74 95 125
75 96 126
73 94 126
75 95 125
75 96 128
73 94 125
75 95 126
72 92 122
74 93 123
73 94 126
73 93 124
74 94 125
75 96 127
76 96 126
73 94 125
74 96 128
75 95 126
73 94 125
74 95 126
74 95 127
75 95 124
75 96 127
73 93 124
74 95 126
74 94 124
73 94 125
74 94 125
75 96 128
74 95 127
74 95 127
71 92 124
73 93 125
74 95 127
74 94 125
75 95 126
72 93 125
74 95 127
75 95 126
75 96 128
75 96 126
74 95 126
73 93 123
75 95 127
75 96 126
75 96 126
72 93 124
74 94 125
74 94 124
75 95 126
75 96 128
75 96 128
74 95 126
74 95 128
75 96 126
74 95 127
72 93 125
75 96 127
74 95 126
75 95 126
75 95 126
75 96 127
75 96 127
74 94 124
73 94 126
74 95 127
74 95 127
73 94 126
74 94 124
74 95 126
72 93 124
74 95 126
73 94 125
75 96 128
75 96 126
73 93 124
74 94 123
73 94 125
75 95 126
74 95 127
75 96 127
72 93 123
76 96 127
73 94 126
74 95 126
73 95 128
76 97 128
74 94 126
75 95 126
74 94 125
73 94 126
73 94 126
74 95 126
75 95 126
75 95 126
74 95 128
74 95 125
74 94 124
73 93 124
75 95 125
74 95 126
74 95 125
73 93 125
74 95 127
72 93 125
74 95 126
73 93 124
72 93 125
75 95 127
73 94 126
74 95 125
74 94 125
74 95 126
74 94 125
73 93 123
73 93 124
73 94 126
73 93 123
73 94 126
75 95 125
73 94 126
74 95 126
73 93 124
74 94 125
75 96 128
74 95 127
75 96 126
73 95 127
72 92 123
72 92 122
73 94 125
73 94 126
72 93 124
73 94 125
73 93 124
72 93 123
75 95 126
74 95 126
75 95 126
74 95 126
71 91 122
74 95 126
75 95 126
74 94 124
73 94 124
75 96 126
73 93 124
73 94 125
71 92 122
74 95 126
73 94 124
74 95 126
74 94 124
73 95 127
75 95 126
75 96 128
73 93 123
74 95 126
74 95 126
74 94 124
74 95 128
74 95 126
73 93 124
71 92 122
74 95 127
73 94 124
73 94 125
75 96 127
74 95 125
73 94 126
72 93 126
73 94 124
74 95 127
74 95 125
75 96 126
74 94 125
73 93 124
72 93 124
74 95 128
74 95 126
74 95 127
74 95 126
74 94 125
74 94 126
74 95 126
72 93 123
74 95 126
73 94 125
72 92 123
73 94 125
73 95 126
75 95 125
72 93 125
73 94 126
74 93 122
72 93 124
73 94 125
74 95 126
75 94 124
75 95 126
73 94 125
73 94 125
76 96 127
73 94 126
74 95 127
74 95 127
73 93 124
75 96 127
74 93 123
73 94 125
74 95 126
76 96 126
74 95 126
73 93 123
74 95 125
74 95 126
75 96 127
75 95 125
73 95 126
75 95 126
75 95 126
75 96 127
74 94 125
74 95 127
74 95 126
73 94 126
76 96 127
75 96 127
75 95 126
72 93 125
74 94 125
74 95 127
73 94 124
75 94 124
75 95 126
75 96 127
75 95 126
75 96 127
75 96 128
73 94 126
75 96 127
77 97 126
77 97 126
76 96 127
74 95 126
72 93 124
74 94 125
73 94 125
75 96 127
75 96 126
73 94 126
73 94 125
74 95 126
74 95 126
75 95 126
73 94 125
76 96 128
72 93 124
75 95 125
74 94 125
73 95 127
74 95 127
73 95 127
76 97 127
75 95 125
74 95 125
74 94 124
74 95 126
73 94 126
73 94 124
75 95 126
74 95 126
74 95 126
73 94 124
73 95 127
75 96 127
73 94 126
72 93 123
75 95 126
75 96 128
75 96 128
72 92 123
72 93 124
75 96 127
73 94 126
74 95 126
74 95 126
74 94 126
74 95 127
74 94 124
73 94 126
75 96 127
76 96 127
74 94 125
75 96 126
74 95 125
75 96 127
75 95 126
75 95 126
75 95 126
75 96 127
75 96 128
73 93 124
74 95 127
75 95 125
74 95 126
72 94 126
74 95 127
75 96 128
74 95 126
75 96 126
72 94 127
75 96 128
76 96 128
75 96 127
74 94 124
74 95 127
77 97 127
74 95 126
76 96 127
75 95 125
75 95 126
74 95 126
74 95 125
74 95 127
75 95 127
74 95 126
75 96 127
75 96 128
73 93 124
73 94 126
77 97 128
74 95 126
74 94 125
75 96 128
73 94 126
73 94 125
75 96 126
76 96 128
75 95 126
76 96 126
73 93 124
75 96 128
76 96 127
75 95 126
75 95 125
74 95 126
74 95 126
73 94 125
75 96 126
74 94 124
75 96 127
74 95 127
74 95 125
73 95 127
75 95 126
73 94 126
75 95 126
74 95 127
74 95 128
73 94 126
74 95 126
75 95 127
75 95 126
75 96 127
74 95 127
74 95 127
75 96 128
74 95 125
75 95 126
74 95 127
74 95 126
74 95 125
72 93 124
75 96 126
74 94 124
75 95 125
73 94 125
75 96 127
75 96 127
74 94 125
73 93 124
74 95 126
73 94 125
75 96 127
74 94 124
75 96 127
73 94 125
73 94 126
76 95 125
75 95 127
74 94 124
73 94 125
74 94 125
73 94 126
75 96 128
77 97 127
74 95 126
75 96 127
75 95 125
74 95 126
72 93 124
75 96 128
74 94 125
73 94 126
72 93 125
78 98 128
73 94 126
75 95 126
74 95 126
75 95 125
72 93 125
75 95 126
75 95 126
74 95 127
73 94 125
75 95 127
74 95 127
75 95 125
75 95 126
73 94 126
73 94 126
74 95 126
72 94 126
75 96 127
73 94 125
75 96 127
74 95 126
74 94 125
76 96 126
75 95 126
73 94 124
76 96 128
75 96 126
75 95 126
74 95 127
72 94 126
75 95 126
72 93 125
75 95 126
74 95 126
71 92 124
75 96 127
73 95 127
73 94 125
75 96 128
72 94 125
75 95 126
73 95 126
72 93 124
75 96 127
70 91 122
73 94 125
74 94 124
74 94 126
74 95 126
74 94 124
72 94 126
73 94 125
73 93 124
75 95 126
74 94 125
74 95 125
74 94 125
72 92 123
75 95 127
75 95 126
75 96 127
74 95 126
73 93 123
73 95 127
74 95 126
75 95 126
74 95 125
75 96 127
72 92 123
73 95 128
74 95 126
75 95 127
75 95 125
74 95 127
72 93 124
73 94 126
71 92 124
72 93 124
74 95 126
73 94 126
74 95 127
74 95 126
74 94 124
73 94 124
76 97 128
73 94 124
75 95 126
73 95 127
74 95 127
72 92 123
74 94 125
74 94 124
75 95 127
75 94 124
72 93 125
75 95 126
74 95 126
74 94 126
75 95 126
75 95 126
77 97 127
73 94 125
75 96 127
74 95 127
74 94 124
74 95 126
73 94 125
73 94 125
72 93 123
72 94 126
74 94 126
73 94 125
74 95 126
74 94 125
73 94 125
74 94 125
74 95 127
74 94 126
73 95 126
72 93 125
76 96 126
73 94 126
75 95 125
74 94 125
73 94 126
73 95 128
74 95 125
74 93 122
73 94 125
74 95 127
75 96 126
72 93 124
72 92 123
75 95 126
73 94 126
75 95 125
74 95 127
74 95 126
74 95 128
73 94 126
75 96 127
73 93 124
75 95 126
73 93 123
76 96 126
74 95 127
73 94 124
74 95 126
76 96 127
73 94 125
75 95 126
75 95 126
75 95 126
73 94 125
73 95 128
75 95 126
74 94 123
71 93 125
73 93 125
73 94 125
74 95 126
75 95 126
75 95 125
73 93 124
73 94 124
73 94 125
73 94 126
73 94 126
72 94 126
76 96 126
74 95 126
74 95 126
72 93 125
74 94 124
73 94 125
72 93 125
76 96 126
72 92 124
74 95 126
74 94 124
74 95 126
74 95 126
74 95 126
74 95 126
74 95 126
74 94 125
74 95 125
72 92 123
74 94 125
74 94 126
75 95 126
75 96 128
73 93 124
72 93 125
73 94 126
74 94 125
75 95 126
73 93 123
76 95 124
73 93 124
74 94 124
75 95 126
75 94 124
75 96 128
74 95 127
72 92 123
75 96 126
73 94 126
73 94 125
72 93 125
74 95 126
71 93 125
74 94 126
74 94 126
72 93 124
76 96 128
74 95 126
75 96 127
73 94 126
74 94 123
76 96 126
75 94 124
75 95 125
74 94 125
73 94 125
75 96 128
75 95 126
75 95 126
75 96 127
75 95 125
74 95 127
74 95 127
74 95 127
74 95 127
72 94 126
74 95 127
74 94 125
74 94 125
72 93 124
72 93 124
73 94 125
72 93 126
75 95 126
76 96 126
75 95 126
74 93 122
74 95 125
74 95 127
73 94 125
74 95 127
74 95 125
75 95 126
72 92 124
74 95 126
75 96 126
74 94 126
73 93 124
75 96 127
74 95 126
74 94 125
74 94 126
75 96 127
75 96 128
76 96 127
73 94 125
75 96 128
73 93 124
74 95 126
75 96 127
74 95 127
73 94 125
74 95 126
75 96 127
76 95 125
73 95 127
75 95 124
74 95 125
74 94 124
73 94 125
75 96 126
76 96 127
75 95 126
75 96 127
73 94 126
75 96 126
75 96 127
74 95 126
75 96 128
74 95 126
75 96 127
76 96 127
75 96 127
74 93 122
72 94 126
74 95 125
72 93 125
74 95 126
73 94 125
74 95 126
76 96 126
74 95 126
76 96 126
73 94 126
73 94 125
76 97 127
74 95 126
77 97 126
72 93 124
72 93 124
74 94 125
74 94 123
74 95 126
75 95 126
74 94 126
75 96 128
72 94 126
74 95 126
74 95 126
75 95 127
75 96 127
75 96 127
74 94 125
74 94 126
74 95 127
72 93 125
75 95 126
74 94 125
72 93 125
74 95 127
72 93 124
73 94 125
73 94 126
76 96 127
74 95 127
74 95 126
76 96 127
75 96 128
75 96 127
75 95 126
74 95 126
73 93 124
74 94 126
73 95 127
73 95 127
73 94 126
76 96 127
75 95 125
75 96 127
75 95 125
73 94 125
74 95 126
73 94 125
73 93 124
74 95 126
73 95 128
74 95 125
74 95 127
74 95 126
75 96 127
74 95 126
74 95 127
74 94 125
74 95 126
73 94 125
74 95 126
74 95 126
73 93 124
73 94 125
75 96 128
73 95 127
75 96 127
73 94 126
75 96 127
76 96 125
74 95 126
73 94 126
74 96 128
76 96 126
75 96 127
72 93 126
75 96 128
74 95 127
73 94 125
74 95 126
75 95 125
73 94 125
74 96 128
75 96 127
75 95 127
74 95 126
73 94 125
74 95 126
73 94 125
73 94 125
74 95 126
74 95 126
73 94 125
76 96 127
73 93 124
74 94 125
71 92 123
73 94 125
74 95 127
75 96 127
75 95 126
75 96 128
75 95 126
75 96 128
73 94 125
75 96 127
74 94 125
74 94 125
75 95 125
74 95 127
71 93 126
72 94 126
72 93 124
73 94 126
74 95 126
72 92 123
73 93 125
74 95 126
75 95 126
73 94 126
74 95 126
73 94 126
73 92 122
73 94 125
71 91 122
75 96 127
73 94 126
71 92 124
74 94 125
74 94 126
76 97 128
75 95 126
75 96 127
74 94 126
74 94 126
75 96 128
75 96 127
75 96 128
72 93 123
74 95 126
72 92 124
75 95 126
75 96 128
75 95 125
74 94 124
73 94 126
74 94 125
73 93 123
73 94 126
75 95 125
75 95 125
74 95 126
73 94 125
74 94 124
75 95 126
74 94 124
75 96 126
73 94 125
74 94 124
73 94 125
75 95 126
73 93 124
75 96 126
73 95 127
75 95 126
75 95 126
72 93 125
73 94 126
74 95 125
74 95 127
74 95 126
75 95 124
75 96 128
74 95 125
73 95 127
74 95 126
73 95 126
74 94 125
74 95 128
74 95 127
74 95 127
73 94 126
73 94 126
73 95 127
74 94 125
75 95 127
74 94 126
74 95 127
75 95 127
72 93 125
73 93 124
74 96 128
73 94 126
73 93 124
76 96 126
71 92 122
75 96 128
75 96 127
75 95 126
76 96 127
74 95 127
74 95 125
73 93 124
73 94 125
72 93 125
75 95 126
73 94 125
73 93 125
74 94 126
73 94 125
74 95 126
75 95 126
76 96 126
74 95 126
75 96 126
73 94 125
74 95 126
74 94 126
75 95 125
73 94 124
74 95 125
74 95 127
74 94 125
73 93 124
73 94 125
74 96 128
74 94 124
74 95 126
74 94 124
72 93 124
74 95 125
72 93 124
75 96 128
73 94 127
73 94 126
74 95 126
75 96 127
73 93 123
73 94 125
73 93 124
73 94 124
74 95 126
73 93 124
72 93 124
74 94 125
74 94 125
73 94 125
72 93 124
74 95 125
73 94 124
73 93 124
73 94 125
72 93 125
74 95 127
74 95 127
75 95 126
75 96 127
74 95 127
74 95 126
73 94 125
74 94 123
76 96 127
74 94 123
73 94 124
72 93 123
75 96 127
73 94 126
73 94 126
77 97 128
74 95 126
74 94 124
73 95 126
75 95 126
74 94 124
74 95 126
72 93 124
72 93 124
74 94 126
74 95 127
73 94 126
75 95 127
74 95 125
73 94 126
73 93 124
74 94 125
74 95 125
73 94 124
73 93 124
73 94 126
74 95 126
72 93 124
74 95 127
72 92 123
75 95 126
75 96 128
73 94 125
73 94 126
74 95 127
74 94 124
73 94 124
73 95 127
74 95 125
74 95 126
75 95 126
74 96 128
75 95 126
74 94 124
75 95 124
75 95 126
73 94 125
73 94 124
74 94 125
75 96 127
73 94 125
75 95 125
73 94 124
74 95 128
76 96 127
73 94 124
74 95 126
76 96 127
73 94 125
74 95 126
73 94 126
73 95 126
74 95 126
73 94 126
73 94 125
75 95 125
74 94 124
73 93 124
74 95 126
75 95 125
74 94 124
73 94 126
75 95 126
75 96 127
74 95 126
74 94 124
75 96 126
74 95 126
75 96 128
73 94 126
73 94 126
74 95 127
75 96 127
75 95 126
73 93 123
75 95 126
73 95 127
74 96 128
73 94 125
75 95 125
74 95 126
75 96 128
74 94 124
73 94 125
75 95 125
74 95 126
74 95 126
75 95 125
76 96 126
75 95 126
74 94 125
73 94 125
73 94 125
75 95 126
75 95 126
75 95 126
75 96 127
75 95 125
72 92 123
74 95 126
74 95 126
74 94 126
75 95 126
75 96 127
75 95 126
75 96 127
74 95 126
76 96 127
74 94 125
74 95 127
74 95 127
73 94 126
76 96 127
73 95 126
74 95 127
75 96 127
75 95 126
74 95 127
76 97 128
76 97 127
74 94 123
74 95 126
73 94 125
73 93 124
75 95 125
75 95 126
74 94 125
73 94 125
75 95 125
73 94 125
73 94 125
72 93 124
74 95 126
74 94 125
74 95 125
74 95 126
74 95 126
75 95 126
75 95 126
75 96 127
74 95 127
73 94 126
72 93 124
76 96 126
75 95 126
73 94 125
75 96 127
75 96 127
73 94 127
73 94 125
75 96 128
75 96 128
74 95 126
74 95 126
74 95 126
76 96 126
74 95 126
71 93 124
71 91 121
73 94 126
73 94 125
74 95 126
74 95 127
73 94 125
76 96 128
74 94 124
74 95 126
73 94 127
73 94 125
75 95 126
75 95 127
72 93 123
73 94 125
76 96 128
75 96 126
73 94 126
74 95 126
74 95 126
73 95 126
74 95 126
73 94 124
75 95 126
73 94 125
74 95 127
73 94 125
74 95 127
75 95 126
75 96 126
76 96 127
73 94 125
76 96 128
73 94 125
74 94 126
73 93 124
71 93 125
71 91 121
75 95 126
75 95 126
75 95 126
73 94 126
74 94 126
72 93 125
74 95 126
74 94 125
73 94 126
74 95 126
73 94 125
73 94 125
74 96 128
74 95 126
74 95 126
74 95 126
74 95 126
74 94 125
76 96 127
74 95 126
76 96 127
73 93 125
75 96 128
74 95 127
75 95 126
76 96 126
73 94 126
73 93 123
72 93 124
74 94 125
74 95 126
75 96 127
74 94 125
74 94 125
75 96 128
75 96 127
72 93 125
75 96 128
75 95 126
74 95 128
73 94 125
74 94 125
75 96 127
75 95 126
76 96 127
75 95 126
73 93 124
76 97 128
74 94 125
73 94 126
75 95 125
73 93 123
73 94 125
72 92 123
74 94 125
73 94 126
74 95 126
73 95 127
73 94 126
75 95 126
74 95 126
74 96 128
74 95 126
75 95 126
72 94 125
74 94 124
73 93 124
73 95 127
72 93 125
74 95 126
73 94 124
73 95 127
72 93 124
75 95 127
74 95 127
75 95 125
75 95 126
73 94 126
73 94 126
72 92 123
73 94 125
73 94 125
74 94 124
75 95 126
75 96 126
72 93 124
74 94 126
74 95 126
74 94 124
75 95 126
73 93 124
74 95 126
74 95 126
72 93 124
74 94 125
74 93 123
73 94 124
73 94 126
74 94 124
73 94 125
73 94 125
74 95 125
75 95 126
75 96 128
75 95 125
75 96 128
73 95 126
72 93 126
73 94 125
74 95 126
73 94 124
74 95 126
74 95 126
77 97 127
74 95 126
74 95 126
75 95 126
74 95 126
73 94 126
74 95 126
74 94 126
72 93 124
75 95 126
76 96 127
71 92 123
74 95 125
73 94 126
72 93 125
74 95 126
73 94 125
74 95 126
74 95 126
74 94 124
73 94 125
73 94 126
72 93 125
72 93 125
73 93 123
74 94 125
74 95 126
73 94 126
72 93 125
74 95 126
74 95 125
75 95 126
73 94 126
73 94 125
74 96 128
75 95 125
76 96 126
72 93 125
75 95 126
74 95 126
74 95 126
74 95 126
76 95 125
74 95 128
74 95 126
76 96 128
73 93 124
75 95 126
75 96 127
75 95 126
73 94 126
73 94 126
73 94 124
75 96 127
74 95 127
75 95 125
75 95 125
74 95 125
73 94 126
74 94 125
75 96 127
75 96 127
74 95 126
74 95 126
75 96 128
74 95 126
74 94 125
74 95 128
73 94 125
73 93 125
74 95 126
73 94 126
75 96 128
73 94 125
73 94 126
72 92 122
72 94 126
74 94 126
71 91 121
76 96 126
74 95 126
75 96 127
76 96 127
73 94 126
74 95 126
75 95 126
74 94 124
75 95 126
75 96 127
74 95 126
73 93 123
73 93 124
74 95 127
74 95 126
75 96 126
74 94 125
74 94 125
75 96 127
73 94 126
74 94 126
74 94 125
72 93 125
74 94 125
74 95 126
73 94 125
72 93 125
75 96 128
73 94 125
74 95 126
72 93 124
73 93 124
74 95 126
74 94 126
74 95 127
73 94 126
73 94 126
75 96 127
73 93 124
72 92 123
72 93 125
74 95 126
73 94 125
74 94 126
74 95 125
72 93 124
73 95 126
74 95 127
73 95 127
72 94 126
73 94 126
74 95 126
74 95 127
72 93 123
74 94 124
74 95 127
75 95 126
73 94 126
75 95 126
73 94 124
74 95 125
75 95 126
73 94 125
73 94 126
75 95 126
75 95 126
72 93 124
74 95 126
74 94 125
73 93 124
74 95 127
73 93 124
75 96 127
74 94 126
74 95 126
76 96 126
73 94 125
74 94 125
74 95 126
76 96 126
75 96 128
74 95 126
74 94 125
73 94 126
76 96 127
74 94 124
74 95 126
75 94 123
74 95 126
72 93 125
74 95 127
75 96 128
73 94 125
74 95 127
75 96 127
76 96 127
73 94 126
73 94 126
74 94 126
73 94 126
74 95 126
75 95 125
73 95 126
75 95 126
75 96 128
74 95 126
74 95 126
73 95 127
74 93 123
75 95 125
73 94 125
76 96 127
73 95 127
74 94 125
73 94 124
75 96 127
74 94 125
74 95 128
75 95 126
73 94 126
74 95 126
73 94 126
73 94 127
74 95 128
75 96 127
76 96 127
75 95 126
74 95 126
73 94 126
73 94 126
74 95 126
73 94 125
74 94 125
73 94 126
73 94 125
77 96 126
74 95 127
74 95 126
74 94 124
75 95 126
74 95 126
73 95 126
74 95 127
73 94 124
75 96 127
74 95 127
75 96 127
76 96 127
74 95 127
72 93 125
73 94 126
74 95 127
75 96 127
74 95 127
76 96 126
75 96 127
74 94 125
74 94 125
73 94 125
73 93 124
74 94 124
73 94 125
74 95 127
73 94 126
74 95 128
75 95 126
74 95 126
74 95 126
73 94 125
74 95 127
74 95 127
74 95 126
75 96 127
75 96 127
75 96 127
74 95 125
72 93 125
75 95 126
74 95 127
75 95 124
75 96 127
75 95 127
72 92 123
74 94 125
74 95 127
74 94 126
74 95 126
73 94 126
74 94 125
74 95 126
75 95 126
74 95 126
75 95 125
74 94 125
74 95 126
73 93 124
74 95 126
74 94 125
73 93 123
73 94 125
74 95 127
74 95 126
74 95 126
74 95 127
73 93 124
73 95 126
75 95 126
74 95 127
74 94 124
74 95 128
75 95 126
74 94 125
75 95 126
75 95 127
72 92 122
74 95 126
75 96 127
74 94 125
73 95 127
72 94 126
75 95 125
72 93 124
76 96 126
74 95 128
75 96 127
74 95 126
73 94 125
74 94 124
73 94 126
74 95 126
77 97 127
72 92 122
74 95 128
74 95 126
76 96 127
73 95 126
74 95 125
73 94 126
73 94 124
74 95 127
75 95 125
73 94 126
75 95 126
73 93 122
71 92 124
73 94 125
74 96 128
74 94 124
75 95 125
73 94 125
74 94 126
74 95 126
74 95 125
74 95 126
74 95 126
74 95 127
74 94 126
72 93 124
73 94 126
74 95 126
72 93 125
75 95 126
73 94 125
74 94 124
75 95 126
74 96 128
76 96 127
74 95 126
72 93 124
73 94 126
74 95 126
73 94 125
75 95 126
75 95 126
72 92 122
74 95 125
73 94 126
74 94 125
74 94 126
75 95 125
74 95 126
74 95 126
74 95 128
74 95 126
74 96 128
76 96 127
76 96 126
75 96 127
76 96 127
74 95 127
74 95 127
74 94 123
74 94 125
74 94 125
72 93 125
74 95 126
76 96 126
73 94 126
73 94 126
71 92 123
74 95 126
74 95 126
74 94 125
74 95 126
76 96 127
72 93 123
75 95 126
74 95 126
74 95 125
72 94 125
74 94 125
75 95 126
74 94 124
74 95 126
74 94 126
74 94 126
72 93 124
75 96 127
74 94 123
73 93 123
73 94 124
73 94 125
72 92 123
74 95 126
72 94 126
75 96 128
71 92 123
73 94 126
73 94 125
74 95 126
72 93 125
73 93 123
75 95 126
76 96 127
72 92 122
75 95 126
74 95 126
72 92 123
76 96 127
73 93 124
77 96 126
75 96 128
74 95 126
73 93 124
75 95 125
74 95 125
73 95 127
75 95 126
75 95 126
74 94 124
75 95 126
73 95 128
75 96 126
74 95 125
73 94 126
76 96 128
75 96 128
73 93 125
74 94 124
74 94 125
75 96 127
73 94 126
75 95 126
73 94 126
76 96 127
74 95 127
73 94 125
73 94 126
73 94 126
73 94 125
75 95 126
74 94 126
74 95 127
73 94 125
75 95 125
75 95 125
73 94 126
74 95 126
73 94 125
76 96 126
73 93 124
73 94 124
72 92 122
72 93 125
74 95 126
74 94 125
74 95 126
74 95 126
73 94 125
73 94 126
73 93 124
72 94 128
73 94 126
75 95 126
73 93 124
74 95 126
75 95 125
74 95 127
74 95 126
73 94 125
75 95 126
73 95 127
74 94 125
73 94 126
71 92 123
72 93 123
75 96 127
74 95 126
74 95 128
74 95 125
72 94 126
73 94 126
74 94 125
74 94 124
74 95 126
76 97 128
75 96 127
73 94 125
73 94 125
76 96 127
75 96 128
71 92 124
74 95 127
73 94 124
74 94 125
74 94 124
72 94 127
75 96 127
74 95 126
73 93 124
73 94 125
75 95 126
74 95 126
72 93 125
74 95 126
74 95 126
75 96 126
73 94 126
74 95 126
75 95 126
73 94 125
74 93 123
76 96 127
72 92 123
74 95 126
73 93 124
72 91 120
74 95 126
73 93 125
73 93 124
73 94 125
73 94 126
75 96 127
74 95 127
74 95 127
71 92 123
74 94 125
72 93 125
74 94 126
76 97 128
76 96 128
72 93 123
73 93 124
74 95 126
74 96 128
74 95 127
74 95 126
73 95 126
74 95 126
74 95 127
75 95 126
75 95 126
73 93 124
76 96 126
74 95 127
73 94 125
75 95 126
75 95 126
74 95 126
74 95 127
75 95 126
75 96 127
73 94 126
77 97 127
74 95 127
75 96 127
75 95 125
73 94 126
74 95 127
74 94 124
74 95 126
73 94 125
74 96 128
73 94 124
74 96 128
75 95 126
74 94 125
75 95 125
75 96 127
73 94 125
74 94 124
74 95 126
75 95 126
73 94 126
74 94 124
76 96 126
73 94 125
74 95 126
76 95 125
74 95 125
76 95 125
75 95 125
73 94 125
75 95 125
74 94 124
74 95 126
75 95 126
76 96 126
74 95 127
75 96 127
74 94 125
76 96 127
75 95 126
75 95 126
76 96 125
73 94 124
74 95 126
75 95 126
77 97 128
75 96 127
76 96 126
74 95 127
75 96 126
73 94 126
76 96 125
71 92 124
74 95 126
75 96 127
73 94 126
75 95 126
75 96 128
74 95 126
75 96 127
75 96 127
76 96 127
76 96 128
73 94 125
74 95 127
73 95 128
73 94 126
74 95 127
73 94 126
75 96 127
76 96 127
75 96 127
76 96 127
75 95 126
75 95 125
74 95 126
75 95 125
75 96 127
75 96 128
74 94 124
74 94 125
74 95 126
74 95 127
75 95 126
74 94 125
74 94 125
75 96 127
75 95 124
77 97 126
77 97 127
75 96 127
75 96 127
74 95 125
73 94 125
74 94 125
74 95 126
74 95 126
73 94 125
75 96 126
74 95 126
75 96 127
75 96 127
75 96 128
73 94 126
73 94 126
75 96 126
72 94 126
75 95 126
74 95 125
74 95 125
75 96 127
75 96 126
73 94 126
74 94 123
74 94 124
76 96 126
76 97 127
74 95 126
75 96 128
75 95 126
73 94 125
74 95 126
74 95 126
73 94 126
73 94 124
75 96 128
73 94 126
74 95 126
74 95 126
75 96 126
74 94 126
74 94 125
75 95 126
75 95 126
75 96 127
73 93 124
73 94 126
75 96 127
73 94 125
76 96 128
75 95 126
73 94 126
74 95 127
74 95 126
76 96 127
74 94 126
74 95 126
73 93 123
75 95 126
74 95 126
71 92 124
77 97 127
74 95 126
75 95 126
75 96 127
74 95 127
74 95 127
73 94 125
72 93 125
73 94 125
74 95 125
74 95 126
76 96 127
73 95 127
74 94 125
75 95 126
73 94 125
75 96 128
74 94 125
73 94 125
73 93 124
76 95 124
74 94 125
75 95 126
75 96 126
75 95 126
74 95 126
73 94 125
74 94 125
75 95 126
73 94 124
74 95 126
74 95 127
75 95 126
76 96 126
74 95 126
75 95 127
74 95 126
75 95 125
74 95 126
75 95 126
74 94 125
75 95 127
74 94 125
75 95 126
76 96 127
73 94 125
74 94 124
76 97 128
74 95 127
75 96 128
74 94 125
75 95 126
75 96 126
76 97 128
72 93 124
74 95 126
75 96 127
74 93 123
76 96 126
74 95 126
76 96 126
75 95 126
73 94 125
73 94 125
74 95 126
74 95 126
73 94 126
73 94 125
74 94 125
73 94 125
73 94 125
73 94 125
73 94 127
76 96 126
77 97 127
74 95 128
75 96 128
74 94 124
74 95 126
75 96 127
75 96 128
75 95 126
74 95 126
76 97 128
74 95 126
74 95 127
73 94 126
74 95 126
73 94 126
74 95 126
73 95 127
76 96 126
74 94 126
73 95 126
73 94 126
75 95 125
75 96 127
72 93 126
73 94 125
73 94 126
75 95 126
74 95 127
74 95 126
72 92 122
75 95 125
71 92 124
75 94 124
73 93 123
73 94 126
74 94 124
75 96 128
75 96 127
74 95 126
74 95 127
74 95 126
74 94 125
74 94 126
74 95 126
75 95 125
75 95 125
74 95 127
74 94 125
76 96 127
74 95 125
75 95 126
72 93 124
74 95 126
74 95 126
74 95 126
73 94 125
74 95 128
74 95 126
75 95 126
73 94 126
76 96 127
74 95 127
75 96 127
74 96 128
73 94 125
73 94 125
73 94 126
74 94 124
72 93 125
74 95 126
71 91 122
71 92 123
74 94 124
72 93 124
75 96 126
75 96 126
73 94 125
74 95 127
74 95 126
74 94 124
74 95 127
74 94 125
75 96 128
74 95 126
74 95 127
74 94 125
72 94 126
75 96 128
73 94 125
74 94 126
71 90 120
74 95 127
75 96 126
74 96 128
74 94 124
72 93 124
74 95 127
73 93 124
72 93 124
75 96 127
76 96 127
75 95 126
73 94 125
73 93 124
72 93 125
76 96 126
74 95 127
73 94 126
74 94 126
75 95 126
74 94 126
75 96 127
76 96 126
73 94 126
75 96 126
74 94 125
75 95 126
74 95 126
73 94 125
75 95 126
74 94 125
75 96 127
75 96 126
75 96 128
72 93 125
75 96 127
75 95 126
75 95 126
75 95 126
72 94 126
74 94 124
72 94 126
74 94 124
72 93 124
75 96 127
75 95 127
73 95 126
72 94 126
75 96 127
75 96 128
73 94 125
73 94 125
74 95 126
72 93 124
76 96 126
75 95 126
72 92 123
75 95 126
75 96 127
75 95 126
75 96 127
73 94 126
74 95 127
73 94 125
75 95 127
74 95 126
75 96 127
72 92 123
73 94 126
74 95 127
74 95 126
73 94 126
74 94 124
75 96 126
74 94 125
75 96 128
73 94 125
73 94 126
74 95 128
73 94 126
72 93 124
74 94 124
74 94 125
76 97 128
74 95 126
75 96 127
74 94 124
73 93 122
75 95 126
73 94 126
72 92 122
73 94 126
74 95 126
74 94 125
72 93 125
74 95 127
72 94 126
73 94 126
75 95 125
76 96 128
73 95 126
74 94 124
74 95 127
74 94 126
72 93 125
75 96 127
75 96 126
73 95 127
73 95 127
74 95 126
73 93 124
74 95 125
75 95 126
74 94 125
73 94 125
74 94 125
71 91 122
74 95 126
75 95 126
73 94 125
75 96 127
75 96 127
74 94 124
74 95 126
75 96 126
74 95 126
75 95 126
74 95 126
75 96 127
74 95 126
73 94 126
74 95 125
74 95 127
74 95 127
73 94 125
74 95 126
75 95 126
74 95 125
75 96 127
74 95 127
75 95 127
76 97 128
74 95 126
75 95 125
74 95 126
75 96 128
74 95 127
73 94 125
73 93 124
72 92 123
73 93 125
74 95 126
74 95 127
73 94 126
74 95 127
73 95 127
75 96 128
74 95 128
75 96 128
74 95 126
74 94 124
74 94 124
74 94 125
74 95 126
74 95 127
73 93 124
74 95 126
75 95 126
73 94 126
73 94 126
75 96 128
73 94 126
74 95 126
75 96 127
74 96 128
75 95 127
73 94 126
75 95 126
73 94 125
74 95 127
75 95 126
76 96 128
73 94 126
75 96 127
74 94 125
77 97 128
76 96 125
74 95 126
74 95 127
75 95 126
73 94 126
76 95 125
74 94 124
75 96 127
74 95 126
74 96 128
74 95 126
74 95 126
75 96 128
74 94 125
75 95 126
75 95 126
74 95 126
75 96 128
75 94 123
75 96 127
74 93 123
77 97 127
74 95 127
74 94 125
72 93 123
73 94 125
74 95 127
75 95 126
75 95 126
73 94 125
73 95 126
76 96 126
74 94 126
72 93 125
74 94 125
74 94 125
75 96 127
73 94 126
75 96 127
74 95 126
74 95 126
73 93 124
74 96 128
73 93 123
73 94 126
74 95 126
74 95 126
75 96 127
75 96 127
73 93 123
74 95 126
75 96 127
74 95 126
75 95 126
74 94 124
74 95 126
73 95 127
74 94 126
74 95 127
74 94 125
76 96 127
73 94 125
73 94 125
74 94 125
74 95 126
76 96 127
74 95 126
74 95 126
74 95 126
73 94 125
75 95 126
74 95 127
72 93 125
72 93 124
73 94 126
74 94 125
75 95 126
74 94 124
73 94 125
73 93 124
73 94 125
74 94 124
74 95 126
74 94 125
76 96 128
73 94 126
74 94 125
73 94 124
73 94 126
75 95 126
72 93 123
73 94 126
75 95 125
74 95 126
72 93 126
74 95 126
74 94 124
74 95 126
73 93 124
74 94 124
75 95 126
74 94 124
75 95 125
73 94 125
74 95 125
74 95 126
75 95 126
75 96 126
74 95 125
73 93 125
76 96 128
74 95 126
74 95 127
74 95 127
75 95 126
74 95 126
76 96 127
74 94 125
75 96 126
73 94 125
73 94 126
74 95 126
75 95 126
73 94 125
75 95 124
75 96 127
74 94 125
72 93 124
75 96 127
75 96 127
74 95 126
74 94 124
74 95 126
74 94 124
75 95 126
72 92 122
73 94 126
74 95 126
74 95 127
72 93 125
74 95 125
72 93 124
74 95 127
73 93 124
74 95 126
74 95 125
74 95 126
72 93 124
73 94 126
76 96 127
74 94 124
74 95 126
73 93 124
72 94 125
74 95 126
75 96 126
74 95 126
73 94 125
76 97 128
74 96 128
74 96 128
73 94 126
74 95 127
74 95 126
73 94 126
76 96 127
75 96 128
73 94 126
74 96 128
73 94 125
75 96 127
73 94 125
74 95 126
74 94 124
75 95 126
74 94 126
74 94 125
74 94 126
74 95 126
75 95 126
72 94 126
75 95 125
73 94 125
74 95 125
74 95 127
73 93 123
73 94 125
77 97 128
73 94 126
77 96 126
74 94 124
77 96 125
73 93 124
75 96 127
75 96 128
72 94 126
72 93 123
75 96 127
70 91 123
74 95 126
73 95 127
75 96 127
74 94 125
72 92 123
72 93 124
74 95 127
75 95 126
72 93 123
73 94 124
74 94 123
74 95 126
74 94 125
74 95 126
75 95 126
76 96 126
73 94 126
73 93 124
73 94 126
74 94 125
74 95 127
76 96 128
73 94 126
75 95 126
75 95 126
73 94 125
73 95 126
75 95 126
74 95 127
74 95 126
74 95 125
75 96 127
74 95 126
73 93 124
73 93 123
74 95 127
74 95 126
75 95 126
75 96 127
74 95 125
73 93 124
74 95 126
74 95 125
74 94 126
73 95 127
74 95 126
73 94 126
73 94 126
75 96 127
75 96 127
76 96 126
74 94 124
75 95 126
75 95 125
74 94 125
74 94 125
74 94 125
74 95 126
75 95 126
76 96 127
74 94 125
76 96 127
75 95 126
72 92 123
76 96 127
75 96 126
75 95 126
75 96 128
75 96 126
72 93 125
75 96 127
75 96 127
75 96 128
73 95 127
74 94 124
76 96 128
75 96 127
75 95 126
75 96 127
73 93 124
74 95 125
75 96 127
75 96 127
75 95 125
74 95 126
74 95 125
75 95 126
76 96 128
74 95 126
73 94 126
72 93 124
72 93 125
73 93 124
73 94 126
74 95 127
73 94 126
75 95 124
73 94 126
74 94 125
75 96 127
74 94 125
74 95 127
73 94 126
75 95 127
77 97 128
74 94 124
73 94 125
73 95 126
72 93 126
74 95 126
74 95 126
72 93 125
76 96 127
73 94 125
75 95 126
73 95 128
74 94 125
74 94 126
75 96 126
72 93 125
74 95 126
74 95 126
72 93 124
75 95 126
75 96 128
73 94 125
73 94 125
73 94 126
74 95 126
74 95 127
74 94 126
74 95 126
75 96 127
74 94 124
73 93 123
74 95 127
74 95 127
75 96 127
75 94 124
74 95 127
75 96 126
74 94 125
74 95 127
75 96 126
71 92 124
75 95 125
73 94 125
74 95 126
76 97 128
74 95 125
74 95 127
75 96 127
74 95 126
75 96 128
74 95 126
73 94 125
74 94 125
74 94 126
73 95 126
74 94 125
74 95 126
73 93 124
74 95 127
74 94 124
75 96 127
75 96 126
73 94 126
75 96 128
75 96 126
74 95 126
74 95 126
75 96 127
75 96 126
73 95 127
75 96 128
74 95 127
74 95 126
74 95 126
75 96 126
73 95 126
75 96 127
74 95 127
74 95 126
74 95 126
74 95 126
74 95 126
74 95 125
74 95 126
75 96 127
74 95 127
75 96 127
75 96 127
74 95 126
75 96 128
75 95 126
73 94 125
75 95 126
75 95 125
75 96 126
76 96 127
75 96 127
75 95 126
76 96 128
75 95 126
74 95 126
72 93 125
75 95 126
73 94 126
73 94 126
75 95 125
74 95 126
74 95 126
74 94 124
74 96 128
74 94 124
75 95 125
72 94 126
74 95 126
74 94 124
73 92 122
73 93 125
74 95 127
75 95 126
72 93 124
74 94 125
74 95 127
75 95 126
74 94 126
73 94 125
73 94 126
75 96 127
74 94 124
75 96 126
74 95 126
73 94 124
74 95 126
74 94 125
73 94 125
73 93 122
75 95 125
74 96 128
75 96 128
74 95 126
73 95 126
74 95 126
74 94 125
74 95 126
74 95 126
74 95 126
73 94 125
74 95 126
76 96 126
73 94 126
74 94 125
73 94 126
74 94 124
76 96 127
75 95 124
73 93 124
74 94 126
77 97 127
75 96 128
73 94 125
74 94 123
75 96 127
75 96 127
75 96 128
73 94 125
74 94 125
75 95 125
76 96 127
74 95 126
72 93 125
75 96 126
74 95 126
73 94 125
76 96 128
74 95 126
73 95 126
71 93 126
74 95 126
75 95 126
75 95 127
75 96 127
74 94 124
71 92 122
76 96 125
73 94 126
74 94 125
74 95 126
71 93 125
74 94 125
75 96 127
72 93 124
73 94 125
75 95 125
75 95 126
74 95 128
74 95 126
75 95 127
74 95 125
72 93 124
73 94 126
76 96 127
74 95 126
73 93 124
72 93 125
75 96 127
75 96 126
75 96 126
73 94 126
73 94 125
74 95 127
74 95 126
74 95 126
75 96 126
74 95 126
74 95 126
73 94 125
74 95 127
73 94 126
74 95 127
73 94 126
74 95 126
76 96 127
74 95 127
72 93 123
74 94 124
75 96 128
73 94 126
75 95 126
73 94 125
74 95 127
74 95 126
75 95 126
73 93 124
74 95 126
73 94 126
73 94 126
74 94 125
72 93 126
73 95 126
75 95 125
74 94 124
74 95 126
75 96 127
72 93 126
75 96 128
73 94 126
73 94 125
74 95 126
74 95 126
74 94 126
73 94 126
73 95 127
75 96 128
75 95 125
76 96 127
74 95 126
74 95 126
74 95 126
75 95 125
75 95 126
74 95 127
75 96 128
75 95 126
74 95 127
74 94 125
74 94 126
75 96 128
73 94 125
75 96 126
73 94 125
73 94 125
76 96 126
75 95 125
75 95 125
77 97 127
75 95 126
74 95 126
75 96 127
74 94 124
74 94 126
75 96 126
74 95 126
73 94 126
75 95 125
74 94 124
75 96 127
74 95 126
74 95 127
75 95 125
73 93 124
73 94 126
75 94 124
76 96 126
75 95 126
74 95 127
74 95 127
73 94 126
72 93 123
73 93 124
70 91 123
72 93 124
75 96 128
73 94 125
73 93 125
74 95 127
73 94 124
73 94 126
73 94 125
74 95 125
74 95 125
74 94 125
72 93 125
73 94 125
74 95 128
75 96 127
75 96 126
73 95 128
73 95 127
73 94 125
73 93 124
74 95 125
74 95 127
75 96 128
74 94 125
75 96 126
74 95 126
75 95 125
72 92 122
76 96 127
73 94 126
75 95 126
75 95 126
73 94 126
75 94 124
74 94 125
74 95 125
74 95 126
73 95 127
74 95 127
73 94 124
74 94 126
74 95 127
75 95 125
76 95 125
74 95 127
74 95 126
74 95 126
73 94 125
76 96 126
72 93 125
75 96 127
73 93 123
73 94 124
74 95 126
74 95 126
72 93 123
73 93 125
75 95 126
73 94 126
72 92 122
76 97 127
75 96 128
74 95 126
74 94 124
74 94 126
76 96 126
74 95 127
73 94 124
73 95 126
74 95 127
74 95 126
74 95 126
72 93 126
74 95 127
72 92 123
74 95 126
74 94 125
75 96 126
75 96 126
74 95 126
74 95 126
75 95 126
75 95 126
74 95 126
73 95 126
75 96 127
75 96 127
74 95 126
75 96 126
74 95 126
74 95 126
75 96 128
72 93 125
75 96 127
75 96 128
73 93 124
74 95 126
73 94 124
75 95 125
75 96 126
73 94 124
72 93 125
75 95 125
74 94 126
74 95 126
73 94 125
74 94 125
75 95 127
75 96 127
73 94 126
72 93 123
74 95 127
75 95 126
75 95 126
74 95 126
73 93 123
74 95 127
74 95 126
76 96 126
75 96 126
75 95 125
74 95 127
74 95 127
72 93 125
74 95 126
75 96 126
74 95 126
74 95 126
73 94 126
76 96 127
74 94 126
74 95 125
75 96 128
74 95 126
73 94 124
73 93 124
75 95 126
75 96 127
73 95 126
73 94 127
73 94 126
73 94 126
76 96 128
74 94 125
74 94 124
75 95 127
73 94 125
73 94 126
74 94 125
71 92 123
75 95 124
74 95 126
74 95 128
73 95 126
76 96 128
72 94 127
75 96 127
75 96 128
76 96 127
74 95 126
74 95 127
74 95 128
73 95 126
75 95 126
74 95 126
76 97 128
75 96 126
75 96 128
73 94 125
76 96 127
74 95 126
70 91 122
74 95 125
74 95 126
72 92 123
74 95 126
74 95 126
75 95 125
75 95 126
74 94 125
73 94 125
74 95 127
73 94 125
73 94 126
75 96 127
73 95 127
75 96 127
73 94 127
74 95 126
74 94 125
74 95 128
74 95 126
75 96 128
75 95 126
75 95 126
74 95 127
73 93 124
76 96 127
72 93 125
74 95 126
74 95 126
75 96 127
74 95 126
73 94 126
75 96 128
72 93 123
75 96 127
75 96 128
72 94 126
75 95 127
73 94 125
73 94 126
75 95 126
74 94 124
75 96 127
73 93 124
73 94 126
75 95 125
74 95 126
72 93 124
74 95 127
74 95 127
73 94 126
74 95 127
74 95 126
74 94 125
74 95 127
75 95 126
75 96 128
76 96 127
73 94 125
74 94 125
76 96 127
75 95 126
75 96 127
73 94 125
75 96 127
74 95 126
73 94 124
75 95 126
74 95 126
73 93 124
74 95 126
77 97 127
74 95 126
75 96 128
72 93 125
75 96 127
74 95 126
74 95 126
75 95 126
74 95 126
74 95 127
75 95 125
74 95 126
73 94 125
74 95 127
74 94 126
74 95 127
74 95 127
76 97 128
74 95 126
74 95 127
73 94 125
74 94 126
75 96 127
74 95 126
76 96 127
74 94 126
75 95 126
75 96 128
74 94 125
76 96 127
74 95 127
74 94 125
72 93 124
74 95 127
74 94 124
73 93 124
72 93 124
75 95 125
74 94 125
72 93 125
74 93 123
74 95 127
72 94 126
76 96 126
74 95 126
74 95 126
75 95 126
73 94 126
75 95 126
73 94 125
74 95 126
74 95 126
74 95 126
74 95 127
74 94 126
73 94 124
75 95 125
76 96 127
72 93 125
73 93 124
73 94 126
75 95 126
74 94 124
75 95 126
73 94 125
74 94 125
74 95 126
74 94 125
73 94 126
75 95 126
75 95 126
74 95 126
74 95 126
74 95 126
74 94 125
73 94 126
73 95 127
75 96 127
74 95 127
74 95 126
74 95 126
75 95 126
74 95 127
74 96 128
71 92 123
75 95 126
74 95 126
72 93 125
74 94 125
75 95 125
74 94 124
75 95 127
73 94 127
74 94 124
74 95 128
73 94 124
73 94 126
74 95 127
74 95 127
74 95 127
75 95 126
76 96 126
74 94 124
73 93 124
75 95 126
76 96 127
75 96 127
74 94 125
73 94 127
76 97 128
72 93 125
72 92 123
75 95 125
75 95 126
74 95 125
75 95 126
73 94 126
72 94 126
75 96 127
73 93 124
74 95 126
73 93 123
75 96 127
73 94 126
72 92 123
74 94 125
76 96 126
75 95 126
74 95 125
73 94 126
76 96 127
75 95 126
74 95 127
74 95 126
76 96 126
74 95 126
74 94 125
73 93 124
75 95 125
75 96 126
75 95 126
72 93 124
74 95 126
74 95 126
75 95 126
75 95 126
74 95 126
76 96 126
73 93 124
73 94 125
75 95 125
75 95 126
76 97 128
75 95 126
73 94 124
73 94 124
75 96 127
74 95 126
74 95 126
75 96 127
75 96 127
74 94 125
74 94 124
74 95 126
75 95 125
74 95 127
72 92 122
74 94 125
73 94 126
73 94 124
75 95 126
74 95 128
74 95 127
75 95 126
74 95 127
74 94 125
75 96 128
74 94 126
73 94 126
75 95 125
73 94 125
73 94 125
75 96 127
74 93 123
74 95 127
75 95 126
75 96 126
73 94 125
74 95 127
73 94 126
75 96 127
75 95 126
74 95 126
75 95 127
74 95 126
76 96 126
73 94 125
74 95 125
73 93 124
73 94 125
76 96 127
75 95 127
75 95 127
76 96 127
74 94 125
75 95 125
72 93 125
74 95 126
74 94 124
73 94 126
74 95 126
73 94 125
76 96 127
73 94 124
72 93 126
73 94 125
76 96 127
74 95 127
73 94 126
74 93 122
74 95 126
74 95 126
73 94 126
72 93 124
74 95 126
75 96 127
73 93 125
74 95 126
75 96 128
74 95 126
73 94 125
73 94 126
75 95 126
74 95 126
74 95 127
74 94 125
75 95 126
74 95 126
74 94 125
75 96 127
73 94 125
75 95 126
73 95 126
74 94 125
73 94 125
73 93 124
73 94 125
74 95 125
74 95 126
74 94 125
75 96 127
74 96 128
74 95 127
74 95 127
74 94 126
75 95 127
75 95 126
76 96 126
74 95 125
75 96 127
75 95 124
73 95 127
75 95 125
75 95 126
72 93 125
74 95 126
73 94 125
73 94 125
75 95 126
76 96 126
75 96 127
74 95 126
73 94 125
75 96 127
73 94 126
76 96 127
74 95 126
73 94 125
74 94 125
76 96 127
76 97 128
74 95 125
73 94 126
75 96 128
76 96 127
74 95 127
75 96 126
75 95 126
75 95 126
74 96 128
75 95 126
75 95 126
74 94 125
74 95 128
73 95 127
73 94 125
75 96 126
76 96 127
74 95 126
73 93 124
73 95 127
74 94 126
73 94 126
75 95 126
73 94 125
74 95 126
74 95 125
73 93 124
76 96 127
74 95 127
76 96 128
74 95 126
74 95 126
74 95 127
73 94 125
75 95 127
74 95 126
73 94 125
75 96 128
75 96 126
72 93 125
73 94 126
74 94 125
74 95 127
74 94 125
76 96 126
73 94 126
75 96 126
73 94 126
75 95 126
75 96 127
75 95 126
74 94 125
74 95 128
76 97 127
74 95 127
72 93 123
74 95 126
74 95 126
74 95 127
74 95 127
73 93 124
74 95 127
75 95 126
74 95 126
74 94 124
72 93 124
75 96 127
73 93 124
74 95 126
74 95 126
74 95 127
74 95 127
74 95 126
73 94 126
76 96 126
73 94 126
73 94 126
72 92 122
76 96 126
72 92 122
72 93 125
75 96 128
75 95 126
75 96 128
73 94 126
74 95 126
73 95 127
74 95 126
75 96 126
74 95 126
74 95 126
74 94 124
75 95 126
75 95 126
73 94 126
73 94 126
74 95 126
72 93 124
74 95 126
74 95 126
73 94 126
74 95 126
76 96 127
73 95 127
76 96 127
74 94 124
75 96 127
73 95 127
72 93 125
74 95 125
74 95 127
73 94 126
73 95 126
74 95 126
76 96 126
75 96 127
75 95 126
74 96 128
74 94 125
74 95 126
75 95 126
75 95 125
73 94 125
75 95 126
73 93 123
75 95 125
75 96 126
74 95 126
75 95 126
74 95 127
74 94 124
74 94 125
73 94 124
73 94 126
74 95 125
74 94 125
75 96 127
74 95 126
73 94 125
74 95 126
74 95 127
75 96 127
74 94 125
73 94 126
74 94 125
72 93 123
76 96 126
75 96 127
72 94 126
74 95 126
75 96 128
74 94 124
72 93 124
73 95 127
74 95 128
73 93 123
75 96 127
74 94 125
72 93 124
75 95 126
73 93 124
73 94 125
75 95 125
74 95 126
73 94 126
77 97 127
76 96 126
74 95 127
74 95 126
74 95 127
75 96 126
73 93 125
74 95 126
73 94 125
75 95 125
74 94 124
76 97 128
75 96 126
75 95 126
75 95 126
74 95 126
75 95 126
73 94 125
75 95 126
74 95 126
74 95 126
74 95 126
74 95 126
73 93 124
76 96 127
73 95 128
74 95 125
74 94 125
75 95 127
74 95 127
72 92 123
73 94 126
75 95 125
74 95 128
74 95 126
73 94 125
75 95 126
74 94 126
74 95 127
75 96 127
76 96 127
72 94 127
74 95 126
73 94 126
74 94 124
75 96 127
74 95 126
74 95 127
74 95 127
72 94 126
75 96 128
75 95 126
74 94 125
75 96 126
74 94 125
74 95 126
73 94 125
74 94 125
75 96 128
72 93 124
73 94 125
75 95 125
74 95 126
74 95 125
74 95 126
75 95 125
74 95 127
74 95 125
73 93 124
75 95 126
75 95 126
74 95 126
74 95 126
75 96 126
73 94 126
74 95 126
75 95 126
74 95 126
74 95 126
74 95 126
74 94 124
75 96 126
73 94 126
76 96 127
74 95 125
73 93 125
74 94 124
73 93 124
75 95 126
75 95 126
74 94 124
75 95 126
75 95 126
73 94 125
76 96 128
74 94 125
74 95 126
73 95 126
75 96 126
71 92 122
76 96 127
73 94 124
74 95 125
76 97 128
72 93 125
75 95 125
75 96 127
73 94 125
73 93 124
75 95 126
74 94 125
73 93 123
75 96 128
73 95 127
73 93 124
75 96 128
75 96 128
75 95 126
73 94 125
73 94 126
73 94 125
73 93 124
76 96 127
75 95 126
73 94 125
76 97 128
73 94 125
74 95 126
73 94 126
74 95 126
73 93 124
73 95 127
74 94 124
76 97 128
74 95 126
75 96 128
73 94 126
74 95 127
72 93 124
72 93 124
73 94 126
75 95 126
75 95 125
73 94 127
74 95 126
74 94 125
74 95 126
73 94 124
75 96 128
75 96 127
75 95 126
74 95 127
74 95 126
74 95 128
75 95 126
74 94 125
73 94 126
74 95 126
74 95 126
75 95 126
74 94 125
74 95 127
75 96 128
74 95 127
73 94 124
74 95 128
74 95 126
75 96 126
73 94 125
73 93 124
74 95 127
74 94 124
72 94 125
75 96 127
73 94 125
74 94 125
73 94 125
75 95 125
76 96 126
73 95 127
75 95 125
73 94 125
74 95 127
74 95 126
75 96 127
75 96 127
73 94 126
73 95 126
74 94 124
74 94 124
76 96 126
75 95 126
73 94 125
73 94 125
73 94 124
73 94 126
73 94 126
76 96 127
75 95 126
74 95 126
73 94 126
73 94 125
71 92 122
72 93 126
74 95 126
74 95 127
74 94 125
75 95 126
74 95 126
74 95 126
75 95 126
74 94 125
74 95 126
75 95 126
75 96 126
74 95 126
74 95 127
74 95 128
74 95 125
75 95 126
75 96 127
75 95 126
72 93 124
76 96 127
75 95 126
74 95 127
72 93 124
74 95 126
74 95 127
74 95 126
75 94 124
74 95 127
75 96 126
75 95 126
75 96 127
75 96 127
73 94 125
74 95 127
74 95 127
75 95 126
74 95 126
74 94 124
75 95 125
74 95 127
74 95 126
74 95 126
75 96 127
73 93 124
75 96 128
73 94 126
74 95 126
74 95 127
75 95 126
73 94 126
74 95 126
74 95 126
76 96 127
75 96 128
76 96 126
74 94 125
75 96 127
75 95 125
74 94 126
76 96 125
73 94 126
75 95 126
75 96 128
76 96 128
76 96 127
74 95 126
74 95 126
75 96 127
74 95 125
75 95 127
75 96 128
73 93 124
72 93 124
76 97 128
75 95 125
73 94 125
76 96 126
74 95 126
75 96 128
73 94 126
74 94 125
75 96 127
73 93 124
76 96 128
74 95 127
75 96 128
74 95 126
76 96 126
73 94 126
76 96 128
74 95 126
73 94 125
72 94 126
75 96 126
74 95 126
75 95 126
73 94 125
73 94 126
73 95 126
75 96 127
74 95 126
74 95 126
76 97 127
76 96 127
74 95 127
74 95 127
74 95 126
74 95 125
73 94 125
74 95 126
73 95 126
74 95 126
75 95 125
72 93 124
71 92 124
74 94 126
75 96 128
75 95 126
74 95 126
74 94 125
74 95 126
75 95 127
77 96 126
75 96 127
76 97 128
73 94 126
74 95 126
73 94 126
75 95 125
74 95 126
74 95 126
74 95 125
74 95 128
76 96 127
74 95 126
74 94 125
76 96 126
75 95 126
76 96 127
75 96 127
74 95 125
73 94 126
75 95 127
74 95 127
73 94 124
73 94 126
75 96 127
71 92 123
76 96 125
73 94 126
73 94 126
73 94 125
73 94 126
73 94 126
73 94 124
72 93 124
75 95 126
74 95 126
74 95 126
74 94 126
74 96 128
75 96 127
76 96 127
75 95 126
75 96 127
74 95 127
75 96 128
73 94 126
75 95 126
74 95 126
74 94 125
74 95 126
75 96 126
75 95 126
73 93 124
75 95 125
73 94 126
75 96 126
75 96 127
74 95 125
75 95 126
74 95 126
74 95 126
74 94 125
74 94 124
73 94 126
73 94 127
74 94 126
73 94 125
73 94 126
74 94 125
75 95 125
75 96 126
74 95 126
76 96 126
72 93 125
75 95 125
74 95 126
74 95 126
75 95 126
74 95 126
73 93 124
74 95 127
73 93 124
74 95 125
74 94 125
74 95 126
73 94 126
74 95 127
73 94 124
73 94 124
75 95 125
74 94 125
74 95 127
73 94 126
73 94 125
74 95 126
71 93 124
74 94 124
75 95 126
75 96 127
76 96 127
75 95 124
73 93 124
72 93 125
73 94 125
72 93 124
72 93 124
73 94 125
73 94 126
74 94 124
74 95 126
74 95 126
75 96 128
74 94 125
73 95 126
74 95 126
75 96 126
74 94 124
75 95 125
74 94 125
72 93 125
72 93 123
74 95 126
74 95 126
72 94 126
73 95 127
75 96 127
76 96 126
75 96 127
74 94 125
74 95 126
72 93 123
72 93 125
76 96 126
74 95 126
75 96 127
75 95 126
75 95 126
75 96 126
75 96 126
74 94 124
74 94 125
73 94 126
73 94 125
74 95 126
74 94 124
74 95 126
74 95 126
74 95 127
74 95 126
74 95 127
75 95 125
73 95 127
73 93 122
76 96 126
73 95 126
72 93 124
76 96 126
73 94 126
74 94 124
75 96 127
74 94 125
73 94 126
75 95 126
75 96 126
72 93 125
75 95 126
75 95 126
73 94 125
73 93 123
75 95 126
73 94 126
73 93 124
74 95 125
75 96 127
73 94 126
73 93 124
76 96 126
73 93 124
73 94 126
73 94 126
74 94 125
73 94 125
76 95 125
74 94 125
74 95 125
73 94 125
75 95 125
74 94 125
75 96 127
74 95 126
75 95 126
73 95 127
73 94 125
74 95 127
75 95 125
73 94 126
75 96 128
74 95 125
74 95 125
72 93 125
74 94 124
74 94 125
75 96 127
74 95 126
76 96 126
73 93 125
77 96 126
74 95 126
75 95 126
73 94 126
73 95 127
74 94 126
73 93 123
74 94 125
74 94 126
73 94 126
75 95 126
73 94 126
74 95 126
75 96 126
75 95 126
73 94 125
72 93 124
75 96 128
74 94 124
75 95 126
74 95 127
73 94 125
73 94 126
75 96 126
73 94 125
74 95 126
74 95 126
74 95 128
74 95 126
74 95 127
76 96 127
73 94 126
74 95 125
73 94 126
75 95 126
73 94 125
73 94 126
73 94 126
75 96 127
73 95 127
73 95 127
75 95 125
73 94 125
74 96 128
75 96 127
74 95 128
75 95 126
74 95 126
73 94 124
74 95 126
73 93 124
74 95 125
74 94 125
73 94 125
75 96 128
73 93 124
76 96 128
75 96 128
75 95 126
74 95 127
74 94 124
76 96 126
76 97 128
73 94 124
74 95 127
74 94 125
75 95 125
74 95 127
77 97 128
75 95 126
74 95 126
74 95 127
73 93 125
74 96 128
76 97 128
76 96 128
74 95 127
75 95 126
73 94 126
75 96 128
73 94 126
73 94 125
71 91 120
73 94 125
73 94 126
74 95 125
74 94 125
75 95 126
74 94 124
73 95 127
74 95 126
73 94 124
73 94 126
74 95 126
74 94 125
75 95 125
73 94 125
76 96 127
72 94 127
75 95 126
74 95 126
73 93 123
73 93 124
74 95 125
74 94 126
75 95 125
74 94 124
74 95 127
75 95 125
73 94 125
74 95 126
75 95 126
74 94 125
75 96 126
74 95 126
76 96 126
74 95 127
75 96 127
74 95 127
74 94 124
76 96 126
74 94 124
75 95 126
73 94 126
74 95 125
75 95 126
74 95 127
73 94 124
76 96 127
75 95 125
74 95 127
74 94 126
76 96 126
74 94 126
75 95 125
75 96 128
76 96 126
75 96 126
75 96 127
76 96 127
73 93 124
75 96 128
74 95 125
73 94 125
72 94 126
76 96 128
74 95 126
74 95 126
74 94 125
73 94 126
74 95 128
75 95 125
75 95 126
74 94 125
73 94 126
73 94 125
76 96 128
76 97 128
73 94 125
76 97 127
74 95 126
75 96 127
75 95 126
73 94 126
72 93 125
73 94 126
75 96 128
74 94 125
74 94 125
75 94 124
75 96 126
73 95 127
75 96 128
74 95 126
74 95 127
75 96 127
75 96 126
74 94 126
76 97 127
74 95 126
74 95 128
76 96 127
74 95 126
72 93 125
74 95 126
73 94 125
75 95 126
75 95 126
76 96 128
74 95 127
75 95 125
75 95 126
73 94 125
74 94 125
72 94 126
74 95 127
75 95 126
74 95 126
74 94 125
73 94 126
72 94 126
73 94 126
74 94 124
74 94 126
74 95 126
74 95 127
75 95 126
74 95 127
73 94 125
74 95 127
73 93 123
72 93 124
75 95 126
76 96 127
75 96 128
74 95 126
73 94 124
76 96 127
76 97 127
75 95 125
73 94 126
72 93 125
74 95 125
74 94 126
74 95 126
74 94 125
73 94 126
73 94 126
76 96 126
74 95 125
75 96 127
74 94 124
72 92 123
74 95 126
76 96 126
76 96 128
77 97 128
72 93 125
74 95 126
74 95 127
73 94 126
74 94 124
72 93 124
74 95 126
73 93 124
74 94 124
74 95 126
74 95 126
75 96 127
73 94 126
73 94 125
73 94 125
76 96 127
74 95 126
75 95 126
74 94 126
75 95 125
75 96 127
75 95 126
75 95 126
75 95 125
73 94 126
75 96 128
73 93 123
72 94 126
73 94 125
74 95 126
75 96 127
74 95 126
75 96 128
73 94 126
75 96 127
73 94 125
74 95 126
74 96 128
73 94 124
76 96 126
75 96 126
73 94 126
75 95 126
74 95 126
75 96 127
74 95 127
76 96 126
74 94 124
74 94 126
75 95 126
76 97 127
72 94 127
75 96 128
76 96 128
76 96 127
74 94 125
71 92 122
75 96 127
74 95 126
72 93 125
74 95 127
73 94 125
74 95 126
75 95 126
74 95 126
74 95 126
75 96 127
74 95 127
73 94 126
74 95 125
76 96 127
74 95 125
75 96 127
74 94 126
75 96 126
75 96 128
73 94 125
74 95 126
74 95 126
75 96 126
74 95 126
74 95 127
74 95 126
74 95 126
75 96 126
74 95 126
75 96 128
73 93 124
74 94 126
72 93 124
73 93 124
74 95 125
75 96 126
73 95 126
72 94 126
74 95 127
73 94 126
74 95 126
75 95 125
74 94 124
75 96 126
75 95 125
74 95 127
74 95 126
73 94 125
74 95 127
75 95 126
71 93 124
73 94 125
75 96 127
74 95 126
76 96 126
76 96 126
75 95 126
74 95 126
73 94 125
76 96 128
72 92 123
74 94 125
72 92 123
75 96 128
74 94 124
75 95 126
73 94 125
74 94 125
73 94 125
74 95 127
74 95 126
73 94 126
73 93 124
74 95 126
73 95 126
74 94 126
75 96 126
75 95 126
74 96 128
75 95 126
73 94 126
73 94 124
72 93 125
73 94 125
73 94 124
72 93 124
73 95 127
75 96 127
74 94 124
74 95 125
76 96 126
74 94 125
76 96 128
76 96 127
75 96 128
74 94 124
75 96 128
74 95 126
73 94 126
75 95 125
74 95 126
75 95 126
74 94 125
73 94 126
73 95 126
73 94 126
73 94 126
72 92 123
76 96 126
73 94 125
72 93 123
75 95 127
73 94 124
75 96 128
74 95 127
74 95 126
73 94 125
76 96 126
76 97 128
73 94 125
75 96 126
74 95 126
74 95 126
76 97 128
74 95 127
74 96 128
73 94 126
75 96 127
74 95 127
72 94 128
73 94 126
74 95 126
73 94 125
74 95 126
76 96 127
73 93 123
73 93 124
74 95 127
75 96 127
73 94 125
74 94 125
75 96 128
74 95 126
76 96 126
75 96 127
74 94 124
74 95 127
73 93 124
75 96 126
74 95 127
73 94 126
75 96 126
75 95 126
75 95 124
73 94 125
74 95 126
75 96 127
74 94 124
73 93 123
75 96 126
73 94 126
74 95 126
75 96 127
74 94 126
75 95 126
72 92 123
75 95 126
74 95 126
73 93 123
74 94 125
72 94 126
76 96 127
76 96 127
73 93 124
75 95 126
76 96 126
73 94 126
74 95 128
75 96 127
73 94 126
73 94 125
75 96 127
72 93 125
74 95 126
76 96 127
73 94 126
74 95 127
74 94 126
74 95 126
73 95 127
73 93 124
72 93 125
74 95 126
74 94 125
74 94 124
74 95 128
74 95 126
73 93 123
74 95 126
76 96 126
74 94 125
73 93 124
76 96 126
73 95 126
76 96 128
75 96 127
75 96 126
74 95 126
73 94 125
74 96 128
75 96 127
73 95 127
76 96 128
73 94 126
74 94 126
74 95 127
75 95 125
75 95 126
75 96 127
76 96 125
74 94 126
75 95 126
75 95 126
75 96 127
72 93 124
75 96 127
73 94 126
74 94 125
76 96 126
74 95 125
74 95 127
75 96 128
74 95 126
73 94 126
73 93 125
73 94 126
73 93 124
75 95 126
73 94 125
75 95 125
72 94 126
74 95 126
73 95 126
75 95 127
74 94 126
74 95 126
76 96 127
76 96 127
76 97 128
74 95 126
74 95 127
73 95 126
76 96 126
75 96 128
74 95 127
74 95 126
73 94 126
75 95 125
74 94 124
72 93 123
74 95 126
72 94 126
77 97 128
74 95 127
75 96 127
74 95 128
73 94 126
74 94 126
73 94 126
75 95 124
75 95 124
75 96 126
74 95 126
75 95 126
76 96 127
74 95 126
73 94 126
75 96 128
75 95 127
73 94 125
74 95 128
74 96 128
73 93 123
73 95 126
74 94 125
75 96 127
75 95 125
73 94 125
74 95 127
74 94 124
74 95 127
74 94 125
75 96 127
73 94 125
76 96 127
75 95 126
73 94 126
74 94 125
74 95 126
74 95 126
75 96 127
75 95 126
74 94 124
74 95 126
74 95 127
75 96 128
74 96 128
75 95 126
75 96 127
73 93 124
74 94 124
73 95 128
74 95 126
75 95 125
73 94 124
74 95 126
73 94 126
76 96 127
75 96 126
75 96 127
74 94 125
75 95 126
75 95 126
74 95 126
75 96 126
74 94 126
75 94 124
74 95 128
74 95 126
73 94 126
74 94 124
76 96 127
75 95 127
74 95 125
74 95 125
73 94 125
74 95 127
75 95 126
74 95 127
74 94 125
73 94 125
73 94 125
73 93 123
72 92 123
74 95 126
75 96 127
72 93 124
73 94 126
74 95 126
75 96 127
73 93 123
74 95 126
74 95 125
74 94 124
73 94 126
73 94 126
73 94 126
76 96 127
73 94 125
74 95 127
73 94 126
74 94 125
75 95 126
74 95 127
75 95 125
74 94 125
75 95 125
74 95 126
75 95 126
73 93 123
74 95 127
75 95 126
74 94 125
75 95 126
75 95 126
73 94 125
73 94 125
73 94 126
74 96 128
75 95 125
72 93 124
74 94 124
73 93 124
75 96 127
74 95 127
73 94 125
75 95 126
75 96 128
74 95 126
73 94 124
74 94 125
74 95 126
74 93 123
73 94 125
73 94 126
74 95 127
73 94 125
74 95 125
75 96 126
73 93 124
72 92 123
73 94 126
73 94 126
75 95 124
74 94 125
74 94 125
74 95 127
74 94 125
74 95 127
73 94 125
72 94 126
75 95 126
76 96 127
72 93 124
74 95 126
74 95 126
73 94 126
71 92 125
74 95 126
73 94 126
75 96 126
74 95 127
74 95 126
74 95 126
72 94 127
74 94 124
74 95 126
74 95 126
74 95 126
74 95 126
75 96 127
74 95 125
73 95 126
75 95 125
74 95 126
74 94 125
74 95 126
73 94 124
73 93 124
74 94 124
76 96 127
75 95 126
75 96 128
75 96 128
73 94 124
76 96 127
75 96 127
74 95 126
75 96 126
74 94 124
74 95 128
75 96 128
75 96 126
73 93 125
74 95 126
72 94 127
74 95 127
75 96 126
76 96 127
74 95 126
74 95 126
73 94 126
74 95 127
75 95 126
74 95 128
73 94 125
73 95 128
74 95 126
73 94 126
73 94 126
72 93 124
74 94 125
75 95 126
73 93 123
71 92 124
73 94 126
73 94 126
74 94 124
75 95 125
74 94 125
75 96 128
74 95 126
75 96 128
73 94 125
74 95 127
73 94 125
73 94 125
74 95 126
71 92 123
75 95 126
75 96 128
76 96 127
73 94 126
72 93 124
73 94 125
75 95 126
74 94 125
75 95 126
73 94 126
75 95 126
74 94 126
75 96 127
76 96 126
74 95 125
75 96 127
76 97 128
75 96 127
74 95 126
75 95 126
74 94 125
76 96 125
74 95 126
76 96 127
74 94 123
73 94 124
76 96 127
73 94 125
74 95 126
74 95 127
76 96 127
74 95 126
74 95 127
74 94 126
74 94 125
76 96 126
74 94 125
75 96 126
75 96 127
73 94 125
75 96 128
73 94 125
74 95 127
73 94 125
75 96 126
76 96 126
74 94 123
72 93 125
75 95 126
74 95 126
74 94 125
72 93 125
72 93 125
75 96 127
74 95 127
73 95 127
74 95 127
74 95 126
75 96 126
73 94 125
74 95 126
72 93 124
75 95 125
72 93 125
71 92 124
74 95 126
74 95 128
75 95 125
73 94 126
72 92 123
74 94 125
72 94 126
72 93 124
75 96 126
74 95 127
71 93 125
73 94 125
73 94 125
74 95 126
73 95 128
74 95 126
76 96 127
73 94 126
75 95 125
74 95 127
74 95 128
74 95 126
74 95 127
73 95 128
75 95 126
74 94 124
74 95 126
74 95 127
74 94 125
74 95 126
72 93 123
75 96 127
73 94 125
75 96 128
73 94 126
74 94 124
75 96 128
75 96 126
75 95 126
74 94 125
74 94 124
75 96 127
73 95 127
73 95 127
74 95 126
75 95 126
74 95 127
73 94 125
75 96 127
73 94 125
73 95 127
75 96 127
74 94 126
75 94 124
73 94 126
73 94 125
73 94 126
73 94 126
74 94 125
74 95 126
74 95 126
75 95 126
75 95 126
74 95 126
74 96 128
74 95 128
74 96 128
75 96 127
75 96 127
73 93 123
74 95 126
75 96 127
76 96 126
73 94 125
73 94 126
73 94 126
74 95 127
74 95 126
75 96 126
75 95 126
75 96 127
74 95 126
75 95 126
75 96 128
75 96 128
73 95 126
76 96 128
73 94 125
73 94 126
73 94 125
74 94 124
76 96 126
76 96 126
75 96 128
77 97 128
76 96 128
75 96 127
75 96 127
74 95 127
75 96 128
73 94 126
73 94 126
75 95 126
73 94 125
72 93 124
76 96 127
74 95 126
73 94 125
73 93 123
72 94 127
77 97 127
75 95 126
76 96 127
74 95 126
74 95 126
75 95 126
76 96 126
75 95 126
74 94 125
75 95 127
75 95 125
74 95 127
75 96 126
72 92 123
74 94 125
75 95 126
72 93 124
76 96 126
73 94 126
73 94 126
75 95 126
77 97 127
73 93 123
74 94 125
75 95 126
74 95 126
74 95 126
75 96 127
76 96 127
73 94 125
74 95 126
73 94 125
73 95 127
76 96 126
74 94 126
74 94 126
73 95 127
75 96 126
75 96 127
74 95 127
71 92 124
74 95 126
75 96 127
76 96 127
75 95 125
73 94 125
78 97 127
72 92 122
75 96 128
73 94 126
73 94 126
75 96 127
74 95 126
73 94 125
74 95 125
75 96 127
74 94 125
74 95 128
74 95 126
75 96 128
73 94 125
73 93 124
73 93 124
73 94 125
74 95 126
74 94 125
75 95 126
73 93 123
73 93 124
74 95 127
75 95 124
74 95 127
73 95 128
73 94 124
75 96 127
75 95 126
73 94 125
74 95 127
74 94 126
74 95 127
73 94 126
73 94 126
74 95 127
76 96 126
73 95 127
74 95 127
75 96 126
74 95 126
73 94 125
76 97 128
74 95 126
73 94 126
75 96 128
72 93 125
75 96 128
76 96 127
74 95 126
75 96 126
74 95 127
74 95 127
74 95 127
74 95 126
74 95 126
74 95 126
74 94 124
73 94 125
74 95 126
74 94 125
74 94 126
73 94 126
74 95 125
77 97 128
74 94 125
74 95 127
76 97 127
74 95 127
73 94 127
75 96 126
74 95 125
72 93 125
74 95 126
74 95 127
73 94 126
74 95 127
74 95 126
73 93 122
74 95 126
74 95 127
72 93 124
73 93 124
73 94 125
74 95 126
75 96 127
75 95 126
73 95 126
75 95 125
74 95 127
75 95 126
73 94 126
74 94 125
75 95 126
74 96 128
74 95 125
75 96 128
73 94 125
74 95 125
75 95 126
75 95 126
75 96 128
75 95 125
74 95 127
75 96 127
74 95 127
74 94 125
75 96 127
71 92 123
74 95 127
75 95 125
73 94 126
74 95 127
75 96 127
74 95 127
74 95 127
75 96 127
73 94 125
74 94 125
74 95 127
75 96 126
73 94 125
72 93 125
75 95 126
72 93 125
76 97 128
73 94 125
74 95 125
75 96 126
74 95 127
73 94 126
75 96 126
74 94 126
73 94 125
74 94 126
73 94 125
76 96 128
73 94 125
73 93 124
74 96 128
74 95 126
74 95 125
73 94 126
74 95 125
75 95 126
74 95 126
74 93 123
75 95 125
74 95 126
74 95 127
72 92 124
74 94 124
73 93 124
74 95 126
75 95 126
74 95 126
74 95 127
73 93 123
73 95 128
75 95 127
76 96 126
74 95 127
75 96 127
72 93 125
73 94 126
73 93 124
73 94 125
74 94 125
72 93 125
72 93 124
75 96 127
75 96 127
74 94 124
74 94 125
74 95 126
73 95 128
73 94 126
73 94 125
74 94 125
75 96 127
73 93 123
74 95 125
74 95 126
74 95 126
75 96 126
75 95 126
73 95 126
73 94 125
75 95 125
75 95 124
75 96 127
75 95 125
73 94 126
76 96 126
73 94 125
74 94 124
75 96 127
74 95 127
72 93 123
73 94 126
73 94 125
75 96 126
75 96 128
75 95 126
74 95 126
74 94 126
72 93 123
73 93 124
72 94 126
75 96 127
72 93 123
75 95 126
74 95 127
73 94 124
75 96 126
74 95 125
76 96 128
73 93 125
73 94 125
74 95 128
73 94 125
75 95 126
75 96 127
74 94 125
74 95 126
72 92 124
74 95 126
74 94 126
75 96 128
74 95 126
73 94 127
72 93 125
73 94 126
74 95 126
72 93 125
73 95 127
74 95 127
76 96 126
73 94 125
74 95 127
73 94 126
74 94 125
74 95 127
73 93 123
74 95 126
74 95 126
76 96 126
76 96 126
73 94 126
75 95 125
74 95 126
75 95 126
74 95 126
74 94 124
75 96 128
73 94 125
75 95 125
72 93 125
75 95 125
74 95 126
75 96 127
74 95 127
74 95 127
74 94 125
74 94 125
74 94 125
74 94 126
74 95 126
74 95 127
72 93 124
74 95 126
75 96 127
74 95 126
73 95 127
73 93 123
74 94 126
75 96 127
75 95 127
75 95 125
73 93 124
73 94 126
73 94 125
75 96 128
74 95 126
75 96 127
73 94 126
74 94 125
73 93 125
74 95 126
72 93 125
75 95 126
74 95 126
73 93 125
75 95 126
74 94 125
74 95 126
74 95 127
73 94 126
74 95 127
72 93 123
74 95 127
73 94 126
73 94 126
73 94 126
75 96 127
75 95 126
74 95 127
78 97 127
74 94 125
74 95 128
73 94 125
73 94 125
73 94 125
74 95 127
75 95 126
74 94 125
74 95 126
75 95 125
74 95 125
74 95 127
73 94 126
73 94 126
74 95 126
75 95 126
73 94 126
74 95 126
75 96 127
75 96 126
75 96 127
74 95 126
74 95 127
74 94 126
73 94 126
74 95 126
73 93 124
75 96 127
74 95 126
74 95 126
73 94 126
74 95 127
75 96 128
76 97 128
76 97 127
73 94 126
75 96 126
73 94 125
75 96 127
73 94 126
75 95 126
73 95 127
75 96 127
74 94 124
75 95 126
75 96 126
74 94 125
77 97 127
73 94 125
73 94 124
74 95 128
73 94 125
74 95 126
74 95 126
74 94 125
75 96 127
75 96 127
74 95 126
73 94 124
74 94 126
75 96 128
75 96 127
73 94 125
76 96 125
74 95 126
73 94 125
75 95 126
76 96 127
74 95 126
74 95 126
76 96 128
74 95 126
75 96 127
74 96 128
75 96 128
75 96 127
74 95 126
75 96 127
73 94 125
73 93 123
75 96 127
74 95 126
74 95 126
74 94 126
74 95 127
73 95 127
74 95 127
74 95 126
73 94 125
74 94 124
75 95 127
74 94 125
75 96 127
70 91 123
74 94 125
76 96 128
75 96 127
72 93 126
75 96 127
75 96 127
75 96 128
75 96 126
73 94 124
75 95 125
75 96 127
75 95 126
73 94 125
73 94 125
74 95 126
74 95 126
75 96 127
73 94 126
73 94 125
74 95 126
73 94 125
73 94 126
73 94 126
72 94 126
73 94 125
74 95 127
73 94 126
74 94 125
74 94 124
74 95 126
74 94 125
76 96 127
75 96 128
74 95 126
74 94 124
74 95 127
74 95 126
73 94 125
73 94 125
74 94 125
74 95 126
74 95 126
75 96 127
75 96 127
73 94 124
74 94 125
74 95 127
74 94 125
73 94 124
72 93 124
73 93 124
74 95 126
74 95 126
73 95 127
73 94 125
75 95 126
74 94 124
74 94 124
75 96 127
73 93 124
72 93 126
75 95 126
74 95 127
75 95 126
73 94 126
74 94 124
77 97 128
75 95 125
74 95 126
74 95 126
74 94 125
74 95 125
74 95 126
75 95 126
72 92 123
74 95 127
73 94 126
74 94 126
75 96 127
71 93 125
77 97 128
74 95 126
75 95 126
74 94 124
74 95 126
76 96 127
74 95 126
74 95 126
74 95 126
75 95 126
76 96 127
75 96 127
75 96 128
74 95 127
74 94 125
73 93 124
73 94 127
73 94 125
73 94 125
75 95 126
73 94 125
75 96 126
72 93 124
75 96 128
73 93 124
74 95 126
75 96 128
73 94 126
76 96 127
74 93 123
73 94 126
73 93 123
73 94 126
75 95 126
74 95 126
74 95 127
73 93 124
73 94 126
76 96 126
76 96 127
75 95 126
74 95 127
74 95 126
75 95 126
74 94 124
73 94 125
73 94 125
74 95 126
75 96 127
75 95 125
75 94 124
73 94 125
74 95 126
73 94 125
75 96 127
76 96 127
74 94 125
72 93 125
77 97 127
75 95 126
75 96 128
75 96 126
74 95 126
74 95 126
75 94 123
74 94 124
73 93 124
75 95 126
73 94 127
74 95 126
73 95 127
75 96 126
72 93 123
74 95 126
74 94 125
75 96 128
73 94 127
73 94 125
74 95 126
74 95 125
74 94 125
76 96 127
76 96 128
73 94 125
72 93 124
75 96 126
72 93 125
74 95 126
72 94 126
72 94 125
74 95 126
75 95 126
73 94 125
75 96 127
73 94 126
73 95 128
75 95 126
73 94 125
74 95 127
75 96 128
74 95 125
75 95 126
73 95 127
75 96 127
74 95 125
74 95 126
73 94 125
74 95 128
73 94 124
74 94 125
73 94 125
72 94 126
74 95 127
75 96 128
74 95 126
72 93 125
74 94 125
75 96 127
73 94 126
72 93 124
74 95 127
74 95 126
75 95 126
75 95 126
75 95 126
74 95 126
74 95 126
75 96 127
74 96 128
74 95 126
75 96 126
74 95 127
77 97 128
74 94 125
75 96 127
74 95 126
76 96 128
73 94 125
73 95 127
74 94 124
75 96 127
74 94 125
73 93 124
73 94 125
76 96 127
74 94 125
74 95 127
75 95 126
73 94 125
73 94 125
76 96 125
72 93 125
75 95 125
73 94 126
75 95 126
74 95 126
73 94 125
76 96 126
75 95 126
75 95 126
73 95 127
74 94 125
73 94 126
73 95 126
74 95 127
74 94 125
75 95 125
74 95 126
77 97 128
74 95 126
74 95 126
74 95 127
74 94 125
74 94 124
74 94 126
74 95 126
75 96 127
74 96 128
76 97 127
74 95 126
73 93 124
72 94 126
74 95 128
76 96 127
72 93 125
73 94 127
74 95 127
74 95 125
75 95 126
72 93 125
74 95 127
74 94 125
72 93 125
76 97 128
74 94 125
75 96 126
74 95 126
75 96 126
74 94 126
74 95 126
75 95 125
73 94 126
74 94 125
74 95 126
74 94 124
74 95 126
74 94 125
76 96 127
74 94 125
73 94 125
73 94 125
73 94 126
72 93 125
73 94 126
74 94 126
75 95 126
75 95 126
74 95 126
74 95 127
74 94 125
74 95 126
74 95 127
75 94 123
73 94 125
74 95 126
73 94 126
74 94 125
72 94 126
74 95 126
75 96 127
75 96 128
75 96 127
74 95 127
75 95 126
73 94 126
73 94 126
74 94 126
74 94 126
74 94 125
75 96 127
74 94 126
74 94 126
75 96 127
75 95 126
74 95 127
74 94 126
74 95 126
74 95 126
74 95 126
76 97 128
74 95 126
76 96 126
76 96 126
74 94 124
74 94 125
73 94 126
74 95 126
75 95 125
74 96 128
77 97 127
74 95 128
74 96 128
75 96 127
74 95 126
75 96 127
73 93 124
75 95 126
74 94 124
74 94 125
74 94 125
75 95 126
73 94 125
74 95 126
74 95 127
74 94 124
76 97 128
73 95 127
75 96 127
74 95 126
75 95 126
75 96 128
75 96 128
75 95 126
76 96 125
76 96 126
74 95 127
74 95 126
73 94 126
74 95 127
72 93 124
73 94 126
74 94 125
73 94 125
75 96 128
73 94 126
73 94 125
74 95 126
75 96 127
74 95 127
72 94 126
73 94 126
74 95 126
75 95 125
75 95 126
74 94 125
74 95 127
74 94 125
75 96 127
75 95 126
73 94 124
73 94 126
73 94 126
74 96 128
72 94 126
75 96 127
75 96 127
75 95 126
74 95 125
74 95 127
74 95 126
73 94 125
73 94 126
76 96 126
76 96 127
74 94 124
73 94 125
74 95 126
73 94 124
74 95 126
74 95 125
75 95 126
74 95 126
75 96 128
73 95 127
73 94 126
73 94 126
74 94 123
73 95 128
74 95 126
72 92 123
73 94 126
76 96 127
74 95 127
75 96 127
75 95 127
75 96 127
73 95 127
75 96 126
74 95 126
75 95 126
73 94 126
75 95 127
73 94 125
73 94 125
75 95 126
72 93 125
75 96 127
75 95 125
77 97 128
75 96 127
73 94 126
75 96 126
74 94 125
73 95 127
72 93 124
75 96 127
74 95 126
73 94 126
74 95 126
72 93 124
75 95 126
73 94 126
74 95 128
75 96 126
75 95 125
73 95 127
73 94 126
75 96 127
74 95 125
75 95 126
73 94 124
76 96 126
74 95 126
73 94 125
73 95 127
74 95 126
74 95 126
72 94 126
75 96 126
72 93 124
74 95 126
73 95 126
74 94 124
74 95 126
75 96 128
74 95 126
76 97 128
73 93 124
75 96 127
74 95 125
74 94 125
75 95 127
76 96 128
75 96 127
74 94 125
73 94 125
75 96 127
75 95 126
76 95 125
73 94 126
75 96 126
72 94 126
74 95 126
73 94 126
74 95 126
73 94 125
74 95 126
75 95 124
73 93 124
74 95 128
76 96 128
75 95 126
74 95 128
76 96 127
74 95 126
74 95 127
74 95 127
76 96 125
75 96 126
74 95 126
75 95 126
73 94 125
73 95 127
73 94 126
74 95 126
74 95 126
74 95 127
73 94 126
75 96 126
73 94 124
75 96 127
73 94 125
75 96 126
75 95 126
73 94 126
73 94 126
75 95 126
73 93 124
74 94 125
73 94 125
75 95 126
75 95 126
75 96 128
73 93 123
71 93 126
73 94 125
72 93 126
73 94 124
71 92 124
73 95 128
75 95 126
75 95 126
74 96 128
74 95 126
73 93 123
74 95 126
73 94 125
74 95 126
73 94 126
76 96 127
73 94 126
74 95 126
73 93 123
74 95 125
76 96 127
74 94 126
74 94 125
73 94 125
75 96 126
75 95 125
72 93 125
74 95 126
75 95 126
74 94 125
75 96 127
74 95 127
71 92 123
73 94 124
74 95 126
73 95 126
74 95 125
74 94 125
74 95 127
74 96 128
73 94 126
72 93 125
76 97 127
74 94 125
73 94 125
74 95 127
73 93 124
73 94 125
73 95 128
74 94 125
74 94 124
73 94 124
73 93 124
76 96 126
73 94 124
77 97 127
74 95 127
72 93 125
74 94 125
76 96 126
73 94 125
74 95 126
74 95 126
76 96 127
75 95 126
74 95 126
75 95 125
73 94 125
74 95 126
73 94 125
74 95 126
74 95 127
75 95 126
73 93 124
72 93 124
74 94 125
75 95 126
74 95 126
73 95 127
73 95 127
74 95 126
74 94 123
76 96 126
74 94 126
73 94 126
74 95 127
75 96 126
76 96 127
72 94 126
75 96 127
75 95 127
74 94 124
75 96 127
74 95 126
74 95 126
75 96 128
73 94 125
74 95 127
75 95 126
73 94 126
75 95 126
74 96 128
75 96 127
75 95 127
75 96 127
74 94 125
74 95 126
72 93 124
75 96 128
75 96 127
74 95 126
75 95 125
75 95 126
75 95 126
73 93 123
75 96 127
73 94 125
73 93 124
74 95 126
73 94 124
75 95 127
74 95 126
75 96 126
73 95 127
74 94 125
74 95 127
73 94 125
74 94 125
73 93 124
76 97 128
76 96 128
74 95 126
75 95 126
73 94 125
74 95 126
73 94 126
74 95 126
75 95 126
75 96 127
75 95 124
75 95 126
73 93 124
77 97 128
73 93 123
76 96 128
74 95 128
74 94 125
72 93 125
74 95 127
73 94 126
73 95 128
73 93 123
73 94 124
75 95 125
73 94 126
76 97 128
74 95 127
74 94 124
75 96 127
74 95 126
73 94 126
75 95 126
73 93 124
76 96 127
75 96 127
74 95 126
74 94 126
74 95 126
74 94 126
72 92 122
73 94 125
73 93 124
75 95 126
73 95 127
75 96 128
73 93 124
74 94 126
76 96 126
74 94 126
73 94 125
72 92 123
75 95 127
75 96 127
73 94 125
74 95 126
76 96 126
74 95 127
75 96 128
75 96 127
72 93 124
74 95 127
73 94 125
74 95 126
74 95 126
75 96 126
72 93 125
76 97 127
75 95 126
74 95 126
74 94 125
75 95 126
75 96 128
76 96 126
74 95 127
74 94 126
74 95 126
74 94 124
74 94 125
74 95 126
76 96 128
75 96 127
75 96 128
74 95 128
74 95 126
74 95 127
74 95 126
74 95 127
75 96 127
75 95 126
77 97 127
74 95 127
76 96 127
75 96 127
77 97 127
75 95 126
75 95 127
75 96 127
74 96 128
74 94 125
73 95 127
74 95 126
73 94 126
74 95 127
75 95 126
72 93 123
73 95 128
74 95 127
76 96 128
73 93 124
75 96 128
72 94 126
73 93 123
74 94 126
75 95 126
75 96 127
75 96 128
73 93 123
75 96 128
74 95 126
75 95 126
71 92 124
74 95 128
74 95 126
75 95 124
74 95 126
74 95 126
74 95 126
74 95 126
73 94 126
76 96 125
74 94 125
75 95 126
75 96 127
76 96 126
75 96 128
73 93 124
75 95 125
75 96 127
73 94 125
73 94 125
75 96 127
75 96 126
73 94 126
76 96 127
73 93 125
72 94 126
73 93 124
73 93 124
72 93 124
74 95 126
74 94 124
75 95 126
73 94 126
76 96 126
75 95 126
74 94 126
73 94 125
73 94 125
74 94 125
74 95 126
74 94 125
72 93 123
74 95 126
75 96 127
74 94 126
73 93 124
74 95 126
74 94 125
74 95 126
74 96 128
75 95 126
74 94 126
73 94 127
73 93 124
75 96 126
74 94 124
75 96 127
73 94 126
75 95 126
74 94 125
74 94 126
73 95 126
75 95 126
75 95 126
72 94 127
73 94 125
76 96 126
73 94 125
75 96 127
75 95 126
75 96 126
75 96 127
73 94 125
74 95 126
72 93 125
75 96 128
74 96 128
74 94 124
74 95 126
75 96 127
75 96 126
75 95 126
74 94 124
76 97 128
73 94 126
75 95 126
74 95 126
74 95 126
74 94 124
73 93 124
75 95 125
73 94 126
74 95 126
73 93 123
72 93 124
75 95 127
73 93 124
76 96 126
73 94 125
73 94 125
74 95 126
75 96 128
76 96 127
75 96 127
76 96 127
73 94 126
72 94 126
76 96 126
73 94 126
73 94 125
74 95 126
75 95 126
75 96 126
74 95 126
75 95 127
72 93 124
73 94 125
73 94 126
71 91 122
73 94 125
75 95 125
74 95 126
74 95 126
74 94 125
72 93 124
73 94 126
72 94 127
74 94 125
74 95 126
74 95 125
74 95 126
74 94 124
74 94 125
73 94 126
74 94 125
76 96 126
74 95 127
73 94 125
75 95 126
74 95 126
74 96 128
74 94 125
73 94 126
75 95 125
73 94 125
73 93 124
75 96 127
74 95 126
75 96 127
74 95 126
75 96 128
74 95 126
74 95 125
73 95 126
72 93 125
75 96 128
74 93 123
76 96 126
75 95 126
73 95 127
75 95 127
74 95 126
75 96 127
72 93 124
75 95 126
74 95 127
75 95 126
74 94 126
73 94 125
73 94 125
75 96 127
73 94 125
75 95 126
73 94 125
74 95 127
74 94 125
72 93 124
73 94 126
77 97 126
75 96 127
73 95 127
74 95 126
75 95 126
73 93 124
74 94 125
74 95 126
75 96 127
74 94 125
74 95 127
75 95 124
74 94 125
76 96 127
74 95 126
73 94 126
76 97 127
74 94 124
76 96 126
76 97 128
75 95 127
73 93 123
73 93 124
75 95 126
76 96 126
74 95 126
74 94 123
73 93 124
74 95 126
74 95 126
74 94 125
72 92 123
73 95 127
74 95 126
75 96 126
75 95 127
75 96 127
75 95 126
74 94 124
74 94 125
74 94 126
74 94 124
73 94 126
75 95 125
75 95 126
75 96 127
75 96 126
72 93 125
74 94 125
72 93 124
76 96 127
74 95 126
72 92 123
75 95 126
74 94 126
73 94 125
74 95 126
76 96 126
73 94 126
73 94 126
75 96 127
75 95 126
74 94 126
75 96 127
73 93 124
75 95 126
73 94 125
75 95 126
74 94 124
73 93 124
72 94 126
74 95 126
74 96 128
74 94 124
75 96 127
75 95 126
77 97 128
73 93 125
74 95 128
75 95 126
73 95 126
74 95 126
75 95 126
74 94 125
74 94 124
74 95 127
75 96 126
74 95 126
74 95 126
72 93 124
73 94 124
75 96 127
74 95 125
73 94 124
74 94 125
75 96 127
73 94 125
74 95 125
73 93 124
72 93 125
73 94 125
75 95 126
72 94 126
74 95 127
75 95 126
74 96 128
73 94 125
76 96 127
75 96 127
74 94 123
73 94 126
73 94 124
74 96 128
74 94 126
73 94 126
73 94 126
75 95 125
76 96 127
75 95 126
74 95 126
75 95 126
73 93 124
73 94 125
74 95 126
76 96 126
75 96 126
74 95 125
74 96 128
74 94 125
76 96 126
74 94 125
75 95 127
74 95 126
75 95 126
75 96 126
71 92 124
74 95 127
73 94 125
74 95 126
75 96 127
74 95 126
74 95 126
75 96 128
73 94 125
73 94 126
74 95 127
74 94 125
74 95 126
75 95 125
74 95 127
75 95 125
75 95 127
75 96 126
75 95 125
74 95 125
73 94 125
76 97 127
75 95 126
74 95 127
74 95 126
72 92 123
74 95 125
75 96 127
73 93 124
73 94 126
75 95 125
73 94 125
74 95 126
73 95 127
76 96 128
75 96 127
74 95 126
76 96 127
76 96 127
75 95 125
76 97 128
75 96 127
76 97 128
74 94 125
73 94 125
74 95 126
74 94 125
73 94 126
75 96 127
74 96 128
74 95 126
74 95 127
74 95 125
74 95 127
74 95 128
76 96 128
75 96 127
75 95 125
73 95 126
73 94 125
74 94 124
76 96 128
73 93 125
75 95 125
75 95 124
73 95 127
74 94 124
74 95 127
73 94 126
74 95 125
75 96 126
74 95 127
74 95 126
75 95 125
74 95 126
75 95 126
71 92 123
75 96 127
74 95 126
74 95 127
72 94 126
74 94 126
74 94 125
74 95 127
74 95 127
75 96 127
75 96 127
77 97 128
73 94 125
74 94 124
76 96 127
73 94 125
74 95 126
74 94 125
74 95 127
75 96 127
75 95 127
74 95 127
74 94 125
75 95 125
75 95 125
75 96 128
75 95 124
74 95 127
72 94 126
74 95 126
73 94 126
73 94 125
74 95 126
75 95 124
73 94 126
74 94 125
76 96 127
73 94 125
73 94 126
74 94 125
76 96 126
73 94 125
72 93 124
75 96 128
73 94 124
75 95 126
73 94 126
75 95 125
74 94 125
77 97 127
74 94 124
75 96 127
73 95 127
74 94 124
72 94 126
75 96 128
74 95 127
73 94 124
74 95 126
73 94 126
74 95 126
75 96 127
75 95 125
76 96 126
74 95 126
72 93 124
74 95 125
75 96 127
75 96 126
73 94 125
76 96 127
74 95 126
73 94 125
73 93 124
75 95 125
74 95 126
73 94 126
75 96 128
73 94 126
75 96 127
74 94 125
74 95 126
74 95 127
72 93 123
73 94 126
75 96 126
73 94 127
74 95 128
74 94 124
74 95 127
75 96 127
73 93 122
75 96 127
74 95 127
74 95 127
74 95 127
74 95 127
72 93 125
73 95 127
74 94 124
74 94 125
75 96 127
73 94 126
74 94 126
75 95 126
74 95 125
74 94 124
76 96 127
73 94 125
74 94 125
74 95 126
75 96 126
72 94 126
74 95 126
75 96 126
73 94 126
73 94 125
72 93 125
74 95 127
77 97 127
75 96 126
74 95 127
75 96 127
76 96 127
76 96 127
74 94 125
73 94 126
73 94 125
74 95 126
75 96 127
73 94 126
75 95 125
75 95 126
74 95 126
72 93 125
74 96 128
73 95 127
74 94 125
72 92 122
73 94 125
75 95 126
73 94 126
73 94 126
72 93 123
74 94 126
74 95 126
75 96 127
73 94 126
74 94 125
72 94 127
72 94 126
75 96 127
74 95 126
73 94 126
73 94 125
75 95 126
71 93 125
75 95 124
75 95 126
75 95 126
75 96 127
73 94 125
75 96 127
73 93 124
75 96 126
74 95 127
73 94 126
76 96 127
76 96 126
74 95 126
73 93 125
74 94 124
75 95 126
74 94 125
76 96 126
74 95 126
75 95 125
75 96 128
73 94 127
74 95 127
75 95 126
76 96 127
73 94 126
74 95 126
72 92 123
71 92 122
75 95 126
72 93 124
73 94 125
74 95 126
74 95 126
74 95 127
74 95 126
75 96 127
73 94 125
76 96 126
74 94 126
74 95 126
75 95 127
74 94 125
72 92 123
73 95 127
74 95 126
76 96 126
76 96 126
74 94 126
72 93 124
72 94 128
73 94 126
75 95 126
75 95 125
73 93 124
73 94 124
76 96 127
74 95 126
76 96 127
75 95 127
74 94 123
73 94 126
73 94 126
75 95 125
72 92 123
75 96 126
75 96 127
74 95 127
74 95 126
74 94 125
74 94 125
75 95 126
75 96 127
74 95 126
74 95 126
75 95 126
72 93 126
75 96 128
74 95 126
76 96 127
73 94 126
75 96 127
75 95 125
74 95 126
73 93 123
75 95 125
75 95 125
74 95 127
74 95 126
74 95 127
75 95 126
72 93 125
74 95 126
73 94 126
75 95 126
74 94 125
74 95 127
73 94 125
75 95 125
74 95 126
75 96 128
74 95 126
74 95 125
76 96 126
74 95 126
73 94 125
75 96 127
74 95 127
73 95 128
73 94 125
73 94 126
75 95 126
73 94 126
73 94 126
74 93 123
75 96 126
74 95 126
75 95 125
72 93 125
75 95 126
73 94 126
75 95 126
73 93 124
75 96 127
75 96 126
74 95 126
74 94 124
75 96 126
75 96 128
75 96 126
73 94 126
73 94 124
74 94 125
75 96 127
75 96 127
74 95 127
73 94 126
74 94 124
74 94 125
74 94 124
73 93 124
74 95 125
75 95 126
75 96 128
75 95 126
75 96 128
74 94 125
73 93 124
75 96 126
75 94 124
74 95 127
74 95 126
75 95 126
75 96 128
72 93 125
75 95 126
72 93 124
75 95 126
74 95 126
76 97 127
74 95 126
76 96 127
75 96 127
72 93 124
72 92 121
74 95 126
73 94 124
75 95 127
75 95 126
74 95 127
77 96 126
74 96 128
74 95 126
72 93 124
75 96 127
75 96 128
74 95 126
75 96 126
73 95 126
74 95 126
75 95 126
76 96 126
75 96 128
74 95 127
73 94 125
73 94 125
75 96 128
74 95 127
73 94 126
76 96 126
72 93 126
73 95 127
74 95 126
75 95 126
75 95 126
73 94 125
76 97 128
72 93 123
76 96 127
74 95 126
73 94 125
74 94 125
74 94 125
73 93 124
72 93 124
75 96 128
74 95 128
73 94 126
74 95 126
75 96 127
75 95 126
74 95 127
75 95 126
74 95 126
74 94 126
72 94 126
74 95 127
75 95 125
74 94 125
75 95 125
74 95 126
74 95 126
73 95 126
75 96 126
74 95 127
74 96 128
75 96 126
73 94 127
73 94 125
75 96 127
75 95 125
73 94 126
75 95 126
75 96 128
75 96 127
75 95 125
75 96 126
73 93 123
73 94 125
74 95 126
73 93 123
74 95 126
74 95 126
73 94 125
74 95 126
74 95 126
75 96 128
73 94 126
74 95 127
75 95 126
74 95 126
74 95 126
74 95 126
74 95 126
77 97 128
73 94 125
73 94 126
73 94 126
72 93 125
73 93 124
74 96 128
75 96 128
75 95 126
75 96 126
75 95 126
75 96 127
75 96 127
75 95 126
73 94 125
76 96 127
75 95 126
75 95 126
72 93 126
73 95 126
74 94 124
76 97 128
73 93 124
75 95 126
75 96 128
72 93 125
72 93 123
73 94 124
75 96 126
74 95 126
74 95 127
73 94 126
74 95 128
75 95 126
74 95 126
74 94 126
73 95 126
75 95 126
74 95 127
73 94 126
74 95 126
75 95 126
75 96 127
74 95 126
73 93 123
74 94 126
75 95 126
74 95 127
74 94 125
76 96 126
74 95 127
75 95 126
75 96 127
74 95 126
74 94 124
75 95 125
77 97 127
75 96 128
73 94 125
72 93 125
75 96 127
72 93 124
75 95 125
75 96 128
73 93 124
74 95 126
74 94 125
76 96 126
73 94 126
74 94 125
73 93 123
75 96 127
74 96 128
73 94 126
75 95 126
73 94 125
74 95 125
74 95 126
74 95 126
74 95 126
74 94 125
74 95 126
74 95 126
73 94 126
73 94 125
75 95 126
74 95 127
75 96 127
74 94 125
73 94 126
74 95 126
75 96 128
74 95 127
73 94 126
73 95 127
74 95 126
74 95 126
76 96 126
75 95 126
73 95 127
73 94 126
74 94 126
74 95 126
73 95 127
74 95 127
74 95 127
74 95 127
74 95 126
72 93 125
76 96 127
74 94 125
74 95 126
73 94 126
74 94 125
76 96 127
76 96 128
73 93 124
74 95 125
75 96 127
74 95 126
76 96 127
73 94 125
75 95 126
76 97 128
73 94 125
73 93 124
73 93 123
72 93 124
74 95 126
74 95 127
75 96 127
73 94 125
73 94 126
74 94 124
73 94 124
74 94 125
72 93 125
74 95 127
73 94 124
74 94 126
74 94 125
74 94 124
73 94 126
72 93 125
74 95 126
74 95 126
74 95 126
75 96 128
73 95 127
74 95 126
75 96 127
75 95 125
74 94 126
75 95 126
74 95 126
74 95 126
73 94 125
73 94 126
76 96 127
73 94 126
72 93 124
75 95 126
75 96 126
74 95 126
73 94 125
75 96 127
73 93 124
74 95 126
74 96 128
75 95 126
73 94 126
74 95 127
74 94 123
76 96 126
73 93 124
75 95 126
74 95 126
75 96 128
75 96 127
74 95 126
75 96 128
75 95 126
73 93 124
73 94 125
73 94 126
73 93 124
74 94 126
72 93 125
73 94 125
75 96 126
75 96 127
74 95 128
75 96 128
76 97 128
75 96 128
75 96 128
75 96 127
75 96 127
75 95 125
73 94 125
74 96 128
75 96 128
74 95 126
73 94 125
74 95 126
74 95 126
74 95 127
75 96 126
75 95 126
74 95 126
74 94 126
73 95 126
75 95 126
75 96 128
73 94 125
75 96 127
73 93 124
73 94 126
73 94 126
75 96 128
74 95 126
75 96 128
75 96 128
75 96 128
76 96 127
73 94 126
76 96 127
74 94 124
76 96 128
74 94 125
75 95 126
73 94 125
75 95 126
74 95 126
74 95 126
75 94 123
74 95 125
72 94 126
73 95 127
75 95 126
73 94 127
74 95 126
76 96 127
74 94 125
73 94 125
74 95 127
75 96 126
76 96 126
74 95 126
73 94 124
73 94 126
75 96 127
74 95 126
72 93 124
74 95 126
74 95 127
75 95 126
74 95 127
76 97 127
74 94 123
75 95 126
74 95 126
75 96 128
76 96 128
75 96 127
73 94 125
73 94 125
74 94 125
75 96 127
76 96 126
75 95 126
74 94 125
73 94 126
75 95 126
71 93 125
75 95 126
74 95 126
73 94 126
75 95 126
75 95 125
74 95 127
74 94 124
76 96 127
74 95 126
74 95 127
75 96 127
76 96 127
75 95 126
74 94 124
73 94 125
74 94 125
74 95 128
73 93 124
75 95 126
75 95 126
73 94 126
74 95 126
75 96 128
74 95 127
74 95 127
75 96 127
76 97 127
75 95 126
74 95 126
72 92 124
75 95 126
74 95 126
75 96 127
75 96 128
75 95 126
75 95 125
74 94 125
75 95 126
74 95 126
74 95 126
74 95 126
75 96 128
73 93 124
74 95 125
74 95 126
74 95 127
75 94 124
77 97 128
74 95 127
74 95 126
72 93 125
74 95 127
74 95 125
74 95 126
73 94 126
74 95 127
75 96 128
74 94 125
73 94 125
75 95 126
74 95 127
74 95 127
77 97 126
76 96 127
76 96 126
75 95 127
74 95 126
75 96 127
75 95 124
73 94 126
74 95 126
74 95 126
75 95 126
75 96 128
75 96 128
73 94 126
74 95 126
73 94 125
75 95 126
73 94 126
73 95 127
74 95 126
75 96 126
74 95 126
74 94 126
74 95 126
75 96 127
75 96 127
75 96 127
74 94 124
75 95 125
73 95 127
74 95 127
75 96 127
74 94 125
75 95 126
74 95 126
73 95 127
77 97 128
74 95 126
75 96 128
75 96 127
75 95 126
76 97 127
74 94 126
73 94 125
74 95 126
73 95 127
75 95 124
75 95 126
74 95 126
73 95 127
74 95 126
75 96 127
75 96 127
73 94 126
74 94 125
75 95 126
75 95 125
74 94 124
74 95 128
73 94 125
73 94 125
74 94 124
73 94 125
75 96 126
73 94 126
75 96 126
74 95 126
74 95 127
75 96 126
73 94 126
74 95 127
74 95 125
75 95 126
73 94 125
74 95 127
75 95 126
74 95 126
73 94 125
75 96 127
75 95 126
73 94 126
75 95 126
73 94 125
73 95 128
74 95 126
74 95 128
75 96 127
74 94 125
74 94 126
74 95 127
75 96 127
73 94 126
75 95 125
73 94 125
76 96 127
74 94 126
73 94 124
75 96 128
74 95 126
73 94 126
74 95 127
74 94 125
74 94 125
73 95 128
74 95 127
76 96 128
73 94 125
73 94 126
76 97 128
75 96 128
74 95 128
73 94 125
75 96 127
74 95 128
74 95 126
75 95 125
74 95 126
74 95 125
75 96 127
75 96 127
74 95 127
73 93 123
74 95 126
75 95 125
73 94 126
72 93 125
73 94 126
74 95 128
75 95 126
75 95 127
74 95 127
75 95 126
74 95 126
73 93 124
72 93 125
75 96 127
74 94 123
74 94 125
76 97 128
75 95 125
73 94 125
74 95 127
75 95 126
73 94 126
74 94 124
75 95 126
73 94 125
75 95 125
74 94 124
73 95 126
73 94 125
75 95 127
74 95 126
74 95 127
75 96 127
74 95 128
75 95 126
74 94 125
73 94 126
74 95 127
73 94 125
74 95 126
74 96 128
73 94 125
75 95 125
75 95 125
74 94 125
74 96 128
75 95 126
75 96 126
72 93 124
74 94 125
75 95 126
75 96 127
75 96 126
75 95 126
74 95 127
75 96 127
75 95 126
73 95 127
76 96 128
75 95 127
74 95 128
75 96 128
74 94 125
76 96 126
74 94 125
75 95 126
76 96 128
73 93 122
74 95 126
72 94 126
73 94 126
73 94 126
73 94 124
74 95 126
75 96 127
74 95 126
74 96 128
72 93 124
74 95 126
75 96 127
75 96 127
76 96 127
75 96 127
74 95 126
74 95 128
74 94 126
74 94 125
74 94 125
73 94 125
75 96 128
73 94 126
74 95 126
74 95 127
74 95 126
75 95 127
75 95 125
74 95 126
75 96 126
74 94 125
73 94 126
73 94 126
73 94 126
76 96 126
73 95 127
73 93 124
75 95 126
72 92 123
72 93 123
72 93 125
74 94 125
74 95 127
74 95 127
74 95 126
74 95 126
75 95 126
75 95 126
74 95 126
75 95 126
73 94 126
74 95 126
73 94 124
73 94 125
75 95 126
72 93 125
73 93 124
74 94 126
74 95 126
74 94 124
72 93 124
73 94 125
74 94 125
72 93 124
74 94 126
74 94 125
75 96 128
74 94 126
74 94 125
74 95 125
73 94 126
75 96 126
75 95 127
75 96 128
74 94 125
74 95 126
75 94 124
75 96 128
74 95 126
73 94 124
73 94 126
75 96 128
75 96 126
73 94 126
73 95 126
74 95 126
73 94 127
76 96 126
73 93 124
75 96 126
74 95 126
73 94 125
75 95 126
73 93 125
73 94 125
74 94 123
73 94 125
74 95 126
74 94 125
76 97 128
75 95 127
74 95 126
74 94 125
74 95 126
73 95 127
73 94 125
73 94 125
74 94 125
74 95 126
74 95 127
74 95 127
73 94 125
72 93 125
74 95 126
73 95 127
73 94 126
74 95 127
74 95 126
75 95 126
73 94 126
75 95 126
72 93 124
75 95 126
74 94 126
73 94 125
72 94 127
74 95 126
74 94 125
74 95 127
73 94 125
75 96 128
73 94 125
74 95 126
74 95 127
75 96 127
74 95 127
74 95 127
75 95 126
73 94 126
76 96 127
74 94 125
75 96 127
76 96 128
73 94 125
75 96 127
73 94 125
73 94 125
74 94 126
75 95 126
75 96 126
74 94 125
74 94 125
75 95 126
75 96 127
75 95 124
75 96 127
74 94 125
75 96 127
74 95 126
74 94 126
73 94 125
75 96 127
73 94 126
75 95 127
75 95 126
74 95 126
75 95 126
74 95 125
72 94 126
75 96 127
77 96 126
75 96 127
72 93 125
74 95 126
74 94 124
75 95 127
73 94 125
75 96 127
73 94 125
73 94 126
74 95 127
74 94 125
74 95 127
73 95 127
75 96 128
74 96 128
74 95 126
75 96 127
75 96 127
74 95 126
74 94 125
74 96 128
74 94 125
73 93 124
76 96 127
74 95 126
74 95 125
74 95 127
74 94 125
74 95 125
75 95 126
74 94 124
73 95 126
74 95 127
75 95 126
74 95 126
74 95 127
75 95 126
76 96 127
74 95 126
71 93 125
72 94 127
74 95 126
76 97 128
74 95 126
74 94 125
73 94 125
75 95 126
75 95 126
73 95 127
75 94 124
77 97 127
71 92 123
74 95 126
75 95 126
74 95 126
74 94 126
75 95 127
74 94 126
73 93 123
76 97 127
76 96 127
75 95 126
75 95 126
76 96 126
71 92 123
76 96 126
76 97 128
75 96 127
73 94 124
73 94 127
72 93 123
74 95 126
73 94 126
76 96 127
76 97 127
76 97 127
74 94 125
75 95 126
75 95 126
72 92 123
75 95 126
75 95 126
75 96 127
73 95 126
76 97 128
76 97 128
73 94 126
73 95 127
74 95 126
73 94 125
75 96 127
75 96 126
73 93 124
74 94 126
75 96 127
75 95 126
75 95 125
74 95 126
75 96 127
75 95 126
73 94 126
74 94 125
74 95 126
74 95 128
75 95 125
74 94 125
74 94 125
76 97 128
72 93 125
74 95 126
76 96 127
75 95 126
76 96 126
74 95 126
74 95 127
75 96 128
74 95 126
73 95 127
74 95 126
74 94 125
74 95 127
74 94 124
74 95 127
73 94 126
75 96 127
75 96 127
73 94 125
74 95 126
73 94 124
74 95 127
76 96 126
74 95 126
73 94 125
73 94 124
74 94 124
75 96 128
75 96 128
73 94 124
76 97 127
74 94 124
74 95 126
76 96 126
74 94 126
73 94 125
74 94 124
75 96 127
74 95 126
73 94 124
73 93 123
74 95 127
75 96 126
74 95 126
73 95 127
72 93 124
76 96 126
74 95 127
74 95 126
74 93 123
77 97 126
75 95 126
74 94 124
74 95 126
73 95 127
74 95 126
76 97 128
76 97 128
74 94 125
75 96 127
74 95 126
74 95 126
73 94 125
74 94 125
75 95 125
73 95 127
75 96 127
75 95 126
74 95 126
75 96 127
74 94 126
75 95 126
73 94 126
76 96 127
75 95 126
75 95 126
72 93 125
73 94 124
76 96 126
75 95 126
74 95 126
73 94 125
75 95 126
75 95 126
74 96 128
75 96 127
73 95 127
73 94 126
71 92 122
74 95 126
74 95 126
73 95 127
74 95 125
75 96 127
74 95 126
74 95 126
74 95 126
75 96 128
71 92 123
74 95 126
75 95 126
73 94 125
74 95 126
75 96 126
73 93 124
73 93 123
75 95 125
73 94 126
76 96 127
74 94 125
74 95 126
74 94 125
74 94 125
72 93 124
72 92 122
74 95 126
73 94 125
75 95 126
74 95 126
73 94 126
74 95 127
74 95 126
74 95 126
74 95 126
75 95 126
73 93 124
75 95 124
75 96 127
75 95 126
73 94 125
74 94 124
75 95 126
74 95 126
74 95 126
75 95 126
75 96 127
74 94 125
77 97 128
74 95 126
75 95 126
74 95 126
74 95 128
74 94 125
73 94 126
74 95 126
74 95 126
75 96 128
73 94 125
74 95 126
74 95 126
73 94 125
74 94 125
75 96 126
75 95 127
74 95 127
73 94 125
73 94 126
77 97 126
74 94 125
74 94 125
75 96 128
73 94 125
72 92 122
74 94 125
75 95 126
73 93 124
74 95 127
72 93 124
73 94 126
74 95 126
75 95 126
73 95 127
74 95 126
75 95 125
75 96 127
77 96 126
74 95 126
73 94 124
73 94 125
73 94 125
75 96 127
74 94 125
72 93 125
76 96 127
72 93 124
75 95 125
74 95 126
75 96 127
76 97 128
73 94 125
75 96 127
73 94 125
74 94 126
74 95 127
75 95 125
74 94 125
74 95 126
74 94 124
75 95 126
73 94 126
74 95 126
74 95 126
73 94 126
75 94 124
75 95 125
74 94 124
73 94 125
74 94 124
75 96 127
74 94 124
75 96 127
73 94 125
73 93 125
74 95 126
74 94 125
72 93 124
73 94 127
74 95 126
74 95 126
75 96 128
72 93 124
74 95 126
74 94 125
73 95 127
74 94 125
74 94 126
72 93 125
76 96 125
73 94 125
72 92 123
74 94 125
73 94 125
74 95 126
73 94 126
75 96 127
75 96 127
72 94 126
75 96 127
73 95 126
75 96 126
75 95 126
75 95 126
75 96 127
74 95 126
74 95 125
75 96 128
73 94 125
74 95 126
73 94 126
75 95 126
74 94 125
73 94 125
75 95 126
72 94 126
73 94 126
74 95 126
74 94 125
75 96 127
73 94 126
76 96 127
72 92 122
75 96 127
74 95 127
73 94 125
74 95 126
72 93 125
73 94 125
77 97 128
74 95 126
73 95 127
74 95 127
74 94 125
75 95 126
76 96 127
75 96 127
75 96 127
73 94 125
74 94 125
72 94 125
74 94 125
73 94 127
73 94 126
74 95 126
76 96 126
75 95 126
75 96 127
75 96 126
75 95 125
73 94 126
75 96 127
74 95 127
74 94 126
74 94 125
75 95 126
75 95 126
75 96 128
74 95 126
76 96 127
75 95 126
75 96 127
74 94 125
73 93 125
75 95 126
74 94 126
74 95 126
74 95 126
76 96 126
73 94 126
75 95 127
74 95 126
73 95 127
75 96 128
75 95 126
75 96 127
74 95 126
74 95 126
75 95 126
73 94 126
73 94 124
72 93 125
74 95 125
73 95 127
76 96 128
75 96 127
75 96 128
74 95 126
74 94 125
75 96 128
74 95 126
75 95 126
75 96 127
74 95 126
75 96 128
73 94 126
75 96 128
73 94 125
75 95 126
73 94 124
74 94 124
74 95 127
76 96 128
74 95 126
75 95 126
74 94 125
74 95 127
74 95 127
73 94 126
75 96 128
74 95 126
74 95 126
74 94 125
74 95 127
74 94 125
74 95 126
74 94 125
72 93 123
72 94 126
73 94 125
74 95 127
74 95 127
76 96 128
73 93 124
73 94 125
74 95 126
74 95 126
76 96 126
75 95 126
74 95 126
74 95 126
74 95 126
75 96 126
74 95 126
74 95 126
75 95 125
73 94 126
73 94 126
75 96 128
76 96 127
74 95 126
75 95 125
74 95 126
77 96 126
75 96 128
76 96 126
75 96 128
72 93 124
77 97 128
74 95 127
76 96 126
73 94 125
74 94 124
75 96 127
75 95 126
74 95 126
74 94 125
75 96 127
74 95 126
75 96 127
75 95 126
75 95 125
75 96 128
74 95 127
74 95 127
75 96 127
73 94 126
74 95 127
76 96 127
74 95 125
73 94 127
75 95 125
75 96 126
76 95 125
73 94 126
74 95 126
76 96 128
74 95 127
75 95 127
75 95 126
73 94 124
76 96 126
75 96 126
75 96 128
77 97 127
75 95 124
74 95 126
74 95 126
73 93 125
75 95 125
74 95 126
75 96 128
74 94 124
76 96 127
73 93 124
74 95 127
74 95 126
72 93 125
73 95 127
75 96 128
73 93 124
74 95 126
75 96 126
74 95 127
75 95 125
76 96 126
73 94 126
75 95 125
72 93 125
74 95 126
74 95 127
76 97 127
75 95 126
73 94 125
75 96 127
74 95 126
73 93 124
73 94 126
74 94 125
75 95 126
75 95 126
74 94 125
74 95 128
74 95 126
74 94 125
75 95 126
74 95 127
74 94 125
74 95 127
75 96 128
76 96 127
75 96 128
74 95 125
73 94 127
74 95 126
75 95 126
73 93 124
76 97 128
74 95 126
74 94 124
75 96 126
74 94 124
75 95 126
74 95 126
74 95 126
74 94 125
76 96 128
74 94 125
75 96 126
74 94 125
75 96 126
74 95 126
74 94 126
75 95 126
75 95 126
74 95 128
75 96 126
74 95 126
74 95 127
76 96 128
73 94 126
74 94 126
75 96 127
75 96 126
76 96 126
74 95 127
75 95 125
76 96 126
76 96 128
74 95 126
73 93 124
73 93 125
75 96 126
75 96 126
72 93 125
74 95 126
72 93 124
74 94 125
74 95 127
75 95 126
75 96 128
74 95 126
74 96 128
71 93 126
75 96 128
74 94 125
73 94 124
75 96 127
73 93 123
75 95 126
75 95 126
74 95 126
73 94 125
75 96 127
74 95 126
76 96 126
74 95 125
75 96 127
75 95 125
75 95 126
73 94 126
73 93 123
73 93 124
75 96 128
74 94 125
73 94 126
74 95 125
75 95 126
74 95 126
74 95 126
75 95 126
73 94 125
74 94 125
74 94 126
73 94 126
74 94 125
74 94 125
75 95 127
74 95 127
75 96 128
74 95 126
73 94 126
73 94 126
74 95 126
74 95 125
74 95 126
75 95 126
75 96 127
75 95 124
75 96 128
76 97 128
73 94 126
75 94 124
72 93 124
75 96 127
73 94 125
73 95 127
74 95 126
75 95 126
74 95 126
75 96 127
74 94 125
73 94 125
74 95 127
75 95 126
72 93 123
74 94 125
73 94 126
73 93 121
75 95 126
75 95 127
74 95 126
72 93 125
73 93 125
74 95 126
75 95 126
73 94 126
72 93 124
75 96 127
74 95 126
74 95 126
75 96 127
74 95 126
77 97 128
73 94 125
73 95 126
76 96 127
74 95 127
73 94 124
74 95 126
74 94 125
74 95 126
75 96 126
74 95 126
73 94 125
74 95 126
74 95 126
76 96 127
74 95 126
75 96 128
75 95 126
74 95 125
74 94 125
74 95 126
74 95 125
72 93 125
74 95 126
74 95 126
74 94 126
75 96 127
73 94 125
74 95 126
72 93 124
75 95 125
74 94 124
73 94 125
74 95 126
74 95 126
74 95 127
75 95 126
75 95 125
73 93 123
74 95 126
74 95 126
74 95 127
73 94 126
75 96 126
74 95 126
73 94 126
75 96 128
75 96 127
74 95 126
74 94 125
73 95 127
75 95 126
74 95 127
75 96 127
76 96 127
74 95 127
74 95 126
75 96 127
75 96 127
74 95 127
74 95 126
73 94 124
76 97 127
74 95 128
76 96 128
76 96 127
73 94 126
75 95 126
73 94 126
75 96 128
74 95 126
73 94 126
75 96 127
77 97 128
73 93 123
75 96 127
75 95 126
74 95 126
74 94 125
72 93 123
74 95 126
76 96 127
75 96 127
75 95 126
74 95 126
74 95 126
74 94 125
75 96 128
74 95 126
74 94 125
74 95 126
74 94 124
75 95 126
72 93 125
74 95 127
74 95 126
74 95 126
73 94 127
74 95 126
74 95 128
74 95 126
75 95 125
76 96 127
74 95 126
74 95 125
75 96 127
74 95 126
74 95 127
74 95 126
75 95 126
74 94 126
73 94 125
75 96 126
75 95 125
75 96 128
74 95 127
74 95 126
73 94 126
74 94 124
74 95 127
74 95 125
76 97 128
74 95 126
76 96 127
75 96 127
73 94 125
74 95 126
75 95 126
75 96 128
75 96 128
75 96 127
72 93 124
76 96 127
73 94 126
73 93 124
73 94 126
72 93 124
73 94 125
75 95 126
74 95 126
75 95 126
73 95 126
74 94 126
75 96 128
74 95 127
75 96 127
75 96 126
76 96 127
75 96 126
75 95 126
76 96 127
74 95 126
73 94 125
73 94 126
75 96 126
74 94 125
74 95 127
73 93 124
75 96 126
76 96 127
73 95 127
74 95 127
73 94 125
75 95 126
74 95 128
74 95 126
74 95 127
73 94 126
76 96 126
75 95 126
74 95 126
75 96 127
73 93 124
73 95 127
75 96 127
74 94 126
75 95 126
74 94 125
75 96 127
74 95 126
75 96 127
76 96 126
73 94 126
75 96 127
76 96 127
73 94 125
75 95 126
74 95 125
73 94 126
74 95 126
71 92 124
75 96 127
75 96 128
74 95 126
74 94 125
73 94 126
73 95 127
74 95 127
74 95 126
74 94 125
75 96 127
73 93 124
74 95 125
76 96 125
73 95 127
74 95 126
73 94 125
74 94 126
73 95 127
74 94 124
74 94 126
75 95 127
74 94 126
73 94 125
75 95 125
75 95 125
73 94 126
75 95 126
75 96 127
73 94 126
74 95 127
74 95 127
74 95 128
73 93 123
75 95 126
74 95 127
76 96 127
75 95 126
72 93 124
73 95 126
74 95 126
75 96 127
74 95 128
75 95 126
73 94 126
73 94 125
74 95 126
76 96 126
74 95 126
71 92 124
74 95 127
75 96 128
73 94 126
73 94 125
73 94 126
73 94 125
75 96 126
74 95 126
75 96 127
74 95 127
73 94 126
75 95 126
73 94 126
75 96 127
73 94 126
74 95 127
73 94 126
74 95 125
75 95 126
75 95 126
74 95 127
75 95 126
74 95 126
75 96 128
75 95 126
74 94 125
74 94 125
74 94 126
73 95 127
75 95 126
74 95 127
74 95 126
74 95 126
75 95 126
75 96 128
75 96 128
74 95 126
74 95 126
74 94 125
74 94 126
73 95 127
72 93 125
74 95 126
75 96 128
74 95 125
73 94 126
73 93 124
72 93 123
74 94 124
74 95 127
74 95 127
74 94 125
73 94 125
76 95 125
75 95 125
74 94 125
74 95 126
74 95 125
75 95 126
73 94 126
73 94 124
75 95 126
74 95 126
74 94 125
73 94 124
76 96 128
74 95 125
75 95 125
74 95 126
73 95 126
75 95 126
74 95 126
75 96 127
75 95 126
74 95 126
75 95 127
73 95 128
74 95 125
74 94 124
74 95 127
75 96 126
74 95 126
75 95 126
73 94 126
75 95 126
75 95 126
75 96 128
74 95 127
74 94 125
74 95 126
72 93 124
74 95 125
74 94 125
74 95 126
75 96 127
74 95 126
74 95 126
74 95 126
74 95 126
74 95 126
75 95 126
74 94 124
75 95 126
76 96 126
74 94 125
74 95 127
75 95 126
74 95 127
74 95 127
74 95 126
74 94 126
74 94 126
74 95 126
74 95 126
73 94 126
72 93 124
74 95 125
73 93 123
77 97 127
73 94 125
75 96 127
73 94 125
74 95 126
74 94 126
77 97 126
72 93 124
73 95 127
75 96 126
74 94 125
75 96 126
73 94 126
75 95 127
74 94 125
75 96 127
75 96 127
75 96 127
73 94 125
76 96 126
75 96 128
74 95 126
75 95 126
72 92 122
74 94 124
75 95 126
76 96 128
73 93 124
74 94 124
73 94 125
73 94 125
75 96 127
75 96 127
74 94 125
74 95 126
76 96 126
74 95 125
74 95 127
75 95 126
74 95 126
76 96 128
74 95 126
75 96 127
74 94 126
74 95 127
74 94 126
73 94 124
74 95 126
75 95 126
75 95 126
73 94 124
74 95 127
75 95 126
73 94 124
73 95 128
75 95 126
74 95 126
75 95 126
74 95 126
74 95 127
74 94 126
75 96 126
74 95 126
73 94 125
72 93 124
75 95 124
76 96 126
73 93 124
73 94 126
73 94 126
75 95 126
73 94 125
74 95 127
73 93 125
73 93 124
77 97 128
74 95 126
74 94 126
73 93 124
76 96 126
75 96 126
75 96 127
76 96 127
74 95 126
74 94 125
75 96 126
75 95 126
73 95 127
72 93 125
75 95 126
74 95 126
75 96 127
74 95 127
74 94 125
74 94 125
74 94 126
74 95 127
75 96 127
74 94 124
74 94 125
74 95 126
72 92 122
75 96 128
74 95 128
74 95 125
76 97 127
75 95 125
72 93 124
73 94 125
74 95 126
73 93 125
74 95 126
72 93 125
75 96 126
72 92 123
74 95 126
73 94 126
74 95 126
75 96 126
72 93 125
74 96 128
74 95 125
75 95 126
76 96 127
74 96 128
74 95 127
74 95 126
74 95 127
75 95 126
74 95 127
75 96 126
74 94 125
74 95 126
75 96 126
75 95 126
76 96 127
74 95 127
75 95 126
74 95 128
75 96 127
75 96 128
76 96 127
75 95 126
76 96 127
75 95 127
75 96 126
73 94 127
75 96 127
73 94 126
74 95 126
73 94 125
75 96 127
74 96 128
73 95 127
74 94 125
76 96 127
77 97 128
74 95 127
73 93 123
74 95 126
75 96 126
74 95 126
74 95 126
75 95 126
74 95 127
76 96 126
74 95 126
74 95 126
74 95 126
75 96 127
74 94 125
75 96 127
75 95 126
75 96 126
75 95 127
73 94 126
73 94 125
74 94 126
73 95 127
75 96 127
75 96 128
74 94 125
75 95 126
76 96 128
76 96 127
74 95 126
76 96 128
74 95 127
76 96 126
73 93 124
74 95 127
73 94 125
73 94 126
74 95 125
74 95 126
73 93 124
75 96 127
75 95 125
75 96 128
74 95 126
74 94 126
77 97 127
75 96 126
75 95 125
73 94 126
75 95 125
75 96 127
73 94 126
74 95 127
74 95 128
73 95 128
77 97 127
75 95 126
74 94 124
75 95 126
74 94 124
76 96 126
74 94 125
77 97 127
74 95 127
75 96 127
77 97 128
72 93 124
74 95 127
74 95 126
74 95 126
74 94 125
73 95 128
74 95 126
72 93 125
76 96 127
76 96 128
74 95 127
74 94 124
74 95 126
75 96 128
75 96 126
76 96 126
75 96 128
74 94 125
74 95 126
74 95 127
74 95 126
73 95 128
75 96 126
76 96 127
74 95 127
75 95 126
74 95 126
73 94 125
73 94 126
74 95 126
73 94 126
73 94 127
75 96 127
75 96 128
75 96 127
73 94 126
73 94 125
75 95 126
75 95 126
74 95 127
75 95 127
74 94 125
73 94 125
72 93 124
75 96 127
73 94 126
74 95 126
75 96 128
73 94 126
73 94 126
74 95 126
73 94 126
74 94 124
75 96 127
74 95 126
75 96 127
75 96 127
73 94 126
73 94 126
74 95 127
73 93 124
74 95 127
74 94 125
73 94 124
73 94 125
75 96 127
75 96 127
77 97 127
74 96 128
76 96 127
74 94 125
74 95 125
74 95 125
73 93 124
74 95 126
74 95 126
74 94 125
76 96 128
74 95 127
73 94 125
73 94 125
74 95 127
73 93 124
74 94 126
74 94 125
73 95 127
72 93 125
74 95 126
74 95 127
74 95 127
74 95 126
73 94 124
74 94 125
74 95 128
75 96 127
75 95 127
74 95 127
74 95 126
73 95 127
76 96 126
73 95 127
76 96 127
74 94 125
73 94 125
74 94 125
76 96 126
75 96 127
75 96 127
73 94 126
74 95 127
74 95 126
74 94 125
75 96 127
73 94 126
73 95 127
73 94 125
74 94 124
73 94 125
73 94 126
73 94 126
75 95 126
74 95 126
74 94 124
73 94 126
73 94 125
76 97 128
74 94 124
74 95 125
76 96 126
74 94 126
74 95 125
73 93 123
74 95 126
76 97 128
73 94 126
73 93 122
73 94 124
72 92 124
74 94 124
73 94 125
74 95 126
72 94 126
74 95 126
73 94 126
75 96 127
76 96 126
74 94 124
74 95 126
73 93 123
72 93 125
74 94 126
73 94 126
74 95 127
74 95 126
74 95 126
75 95 126
73 94 125
75 95 125
73 94 125
75 96 127
74 95 126
74 96 128
75 96 127
74 95 127
73 95 127
74 95 126
75 95 127
74 95 126
76 95 124
74 95 127
75 96 127
73 94 126
72 93 124
74 94 125
74 95 127
74 94 125
76 96 128
75 95 126
73 94 125
75 96 127
73 94 125
73 94 125
74 95 126
75 96 127
72 93 125
73 94 126
72 94 126
75 95 125
75 95 127
74 95 125
74 96 128
74 95 126
75 95 126
76 95 125
75 96 127
74 95 127
74 95 127
74 95 126
74 95 128
73 94 126
74 95 126
75 96 127
74 95 126
73 94 126
71 92 123
74 94 125
74 95 126
75 95 126
75 96 126
74 95 127
76 96 125
74 95 127
74 95 127
72 93 125
73 94 124
72 93 124
75 95 126
73 95 127
75 95 126
73 94 126
73 93 124
76 96 127
73 94 125
72 92 122
75 95 125
74 94 125
74 94 126
74 95 126
74 94 124
74 94 125
75 95 126
76 96 127
75 96 127
75 95 127
74 95 126
74 95 126
74 95 126
75 95 127
75 96 127
73 94 125
75 96 128
74 93 123
74 95 126
75 96 127
71 92 122
72 93 124
73 94 125
73 95 127
74 95 127
75 95 126
75 96 126
75 96 127
75 96 128
75 95 127
76 96 126
74 94 126
75 95 126
74 95 126
74 95 126
75 96 128
76 96 127
74 95 126
73 94 126
73 94 125
76 96 127
75 95 126
74 94 124
75 96 127
74 95 125
74 95 126
75 96 126
74 95 126
74 95 126
73 94 125
74 95 126
76 97 128
73 94 126
73 93 122
73 94 126
73 94 126
73 94 124
74 94 125
72 93 124
73 94 126
74 95 126
74 94 125
74 95 127
75 95 126
75 95 126
74 95 126
75 95 125
75 96 127
74 94 124
71 92 124
74 94 125
72 93 124
74 95 126
74 95 126
75 95 125
74 95 126
72 93 125
75 95 126
76 96 126
75 96 128
74 94 124
74 95 126
74 95 126
74 94 125
75 95 127
73 94 126
74 95 128
74 94 126
71 92 123
73 94 125
76 96 126
74 94 125
73 94 125
74 94 124
72 93 124
75 95 126
77 97 127
70 92 123
75 95 126
74 95 127
74 95 127
74 95 126
73 94 126
73 94 125
76 96 128
73 94 125
73 95 127
73 94 125
75 96 127
74 95 126
73 93 125
74 95 127
74 95 126
76 96 128
73 94 124
75 95 127
76 96 126
73 94 125
74 95 126
73 94 125
75 95 126
74 95 127
73 95 128
73 93 123
74 94 126
73 94 125
75 95 126
74 95 125
73 94 127
74 95 125
75 96 128
73 95 127
73 94 125
75 96 127
74 95 128
76 96 128
74 95 126
74 95 126
76 97 127
75 96 127
73 94 125
73 95 128
76 96 127
75 96 127
75 96 126
74 95 127
72 93 125
75 95 126
73 94 126
75 96 127
74 94 125
74 95 126
74 95 126
76 96 127
75 96 127
74 95 127
75 96 127
75 95 127
73 95 127
75 95 126
76 96 127
77 97 128
76 96 126
74 95 126
73 94 126
75 96 126
74 94 126
73 94 124
74 95 128
73 94 126
74 94 125
74 96 128
73 94 125
74 95 126
74 95 127
75 95 126
75 96 127
73 94 125
73 93 124
74 95 126
75 96 127
76 96 127
73 93 124
76 97 128
75 95 126
74 96 128
75 95 125
73 94 125
74 95 126
75 96 128
74 95 126
75 96 128
75 96 126
74 95 127
75 96 126
74 95 126
74 94 126
74 95 127
75 95 125
75 95 125
74 95 127
74 95 127
75 95 125
75 95 126
75 95 126
74 95 127
72 94 127
76 97 127
74 95 127
74 94 123
76 96 127
74 95 127
75 96 127
72 93 125
75 95 126
76 96 127
74 94 124
76 96 127
73 94 125
75 96 127
74 95 126
75 95 125
77 97 126
75 95 126
73 94 124
74 95 126
75 96 128
75 96 128
75 96 127
74 95 126
74 95 126
71 92 124
74 95 126
74 95 126
72 93 124
74 96 128
74 95 126
74 95 126
73 94 126
74 95 127
75 95 125
74 94 125
74 95 126
74 95 126
73 93 124
75 95 126
74 94 124
74 95 127
74 94 125
74 95 126
72 93 124
72 93 124
75 96 128
75 95 125
74 95 127
75 96 127
74 94 126
74 95 127
75 95 126
75 94 123
73 94 125
74 95 127
73 95 126
74 95 126
75 96 128
75 96 128
75 96 127
75 96 128
74 95 125
73 94 125
72 93 125
73 94 125
75 96 127
74 95 126
73 94 124
75 95 126
76 96 128
73 94 125
73 94 126
73 94 127
73 94 126
75 95 126
74 95 127
75 96 127
74 95 126
74 94 126
75 95 126
74 95 126
75 96 128
74 95 126
73 94 125
74 95 126
74 95 126
74 95 127
74 94 125
74 95 128
73 93 123
75 95 126
75 95 126
76 96 128
75 95 125
72 93 124
74 95 125
75 95 126
74 95 126
72 93 125
73 93 124
76 96 128
74 94 126
73 94 124
73 93 125
74 95 127
74 94 126
73 94 126
74 95 127
75 96 128
73 94 126
73 94 126
73 94 125
75 96 128
74 95 125
74 95 127
75 95 126
74 95 127
73 94 126
74 95 125
74 94 125
77 97 128
73 94 125
73 94 126
74 93 123
76 96 126
74 94 125
73 94 125
75 96 128
76 96 126
72 94 126
73 94 126
74 95 127
73 94 126
73 93 123
75 96 128
74 95 127
74 95 126
74 95 126
73 95 127
75 95 127
73 95 127
74 95 126
75 95 126
73 94 126
73 94 127
75 96 127
72 93 125
71 92 124
75 95 125
75 95 125
74 95 127
74 95 126
75 96 127
73 94 125
76 97 128
75 96 128
75 95 126
72 94 127
74 95 127
72 93 125
74 94 125
75 96 128
75 96 127
73 94 125
74 94 125
73 94 127
74 95 126
74 94 125
73 94 125
74 95 127
75 95 125
75 95 127
75 96 127
72 94 126
73 93 123
74 94 125
73 94 126
73 94 125
74 94 123
74 94 126
75 95 126
75 96 127
74 95 127
76 96 126
74 95 126
74 95 127
74 95 126
76 96 127
74 95 127
75 95 126
75 96 128
73 94 126
72 93 125
73 93 124
75 96 127
76 96 125
74 95 125
76 97 128
74 95 127
75 95 126
74 94 124
74 95 126
72 93 125
75 95 126
74 95 126
74 94 125
73 93 123
74 95 127
74 95 126
72 93 125
74 95 127
74 95 126
73 95 127
73 94 126
75 95 126
75 96 126
74 95 126
74 95 126
75 96 128
72 93 124
74 95 126
73 94 126
74 95 126
74 95 126
75 96 127
74 95 127
76 97 128
74 95 125
75 96 127
74 95 127
74 95 127
74 95 126
74 95 128
76 96 128
75 96 126
72 93 125
74 95 126
74 94 125
74 95 127
75 95 125
75 95 126
76 96 127
74 95 126
73 94 126
74 95 126
75 96 127
75 96 126
75 95 127
74 95 126
73 94 124
75 94 124
75 95 126
72 93 123
72 93 125
73 94 126
73 95 127
72 93 125
74 95 126
74 94 125
74 95 127
75 95 125
75 95 126
74 95 127
75 96 128
73 94 125
74 95 127
75 96 127
75 95 125
73 93 124
74 95 126
75 96 128
72 94 126
75 95 126
72 93 124
75 96 126
74 95 127
73 94 125
74 95 127
73 94 125
75 96 128
75 96 128
74 95 127
72 93 125
74 95 126
74 95 127
75 96 127
73 95 127
76 96 126
75 95 126
77 96 126
74 94 125
74 94 125
74 94 125
73 94 125
73 95 127
75 95 124
76 97 128
73 95 126
73 94 126
73 95 126
76 96 126
74 95 125
75 95 126
75 96 128
75 95 126
76 95 125
74 95 126
75 96 128
74 94 126
73 95 126
74 95 128
73 95 126
75 96 128
75 95 126
74 95 126
76 96 127
72 93 125
74 95 128
72 94 126
75 96 127
74 95 126
74 95 128
75 95 126
75 95 126
75 94 124
73 93 124
72 93 125
74 95 126
75 95 125
74 95 126
76 97 127
75 95 126
75 95 125
73 94 125
75 95 125
75 96 128
75 96 128
74 95 125
73 94 125
74 95 128
75 96 127
73 94 126
74 95 126
74 94 125
74 95 127
75 96 127
75 96 127
76 96 126
74 94 124
73 94 126
74 95 126
76 97 128
75 96 128
74 95 126
74 95 126
74 95 126
75 95 126
74 95 127
76 96 126
73 94 125
74 95 127
74 95 126
75 96 127
77 97 128
72 93 126
77 97 127
75 96 128
74 94 124
75 95 127
74 95 126
73 94 124
74 95 128
73 94 125
74 96 128
75 95 126
75 96 126
75 96 128
73 95 127
72 92 123
73 94 126
74 94 124
74 94 125
74 95 126
75 96 128
74 95 126
75 95 126
76 96 127
74 93 123
75 96 128
73 95 127
74 94 125
74 95 126
74 94 124
74 95 126
74 95 127
74 94 125
76 96 127
74 95 126
74 95 127
73 94 126
75 96 126
74 95 125
73 95 126
75 96 127
75 94 124
74 94 125
75 96 127
74 95 126
73 94 126
74 94 124
71 92 124
74 95 127
74 94 125
73 94 125
76 97 128
74 95 126
74 95 127
75 95 126
74 94 126
74 95 125
73 94 126
74 95 126
75 96 127
74 94 125
73 93 124
74 95 126
72 93 124
73 93 123
74 94 125
75 95 126
75 96 127
74 94 126
73 94 126
74 96 128
75 96 128
73 94 126
75 96 127
73 94 126
73 95 126
75 96 128
74 95 127
74 95 127
75 96 127
76 96 128
73 94 127
73 94 125
76 96 126
74 95 127
75 95 126
74 95 126
74 96 128
74 95 127
75 96 126
72 93 125
74 95 128
74 95 126
73 94 125
76 96 126
74 95 127
74 95 126
73 94 126
72 93 124
74 95 126
74 94 125
73 94 126
75 95 127
74 94 125
74 95 126
73 94 126
73 93 124
74 95 126
73 95 127
75 96 126
75 96 127
75 96 127
74 95 126
75 96 128
74 95 126
72 92 123
75 96 128
75 95 126
74 95 126
73 93 124
74 95 126
74 94 124
75 96 127
76 96 127
74 94 125
73 93 122
73 94 126
75 95 126
75 95 126
74 95 126
75 95 126
73 93 124
74 95 126
75 96 127
76 96 128
75 95 126
72 93 124
76 96 127
74 95 126
75 95 126
73 94 125
73 93 123
72 94 126
73 94 126
73 94 124
73 93 124
75 95 126
73 95 127
73 93 124
75 96 128
73 94 126
74 95 126
73 92 121
75 96 127
73 93 125
75 95 126
73 94 126
73 94 125
75 96 126
74 95 126
73 94 125
73 94 126
75 96 128
74 94 126
74 94 125
76 96 128
74 95 125
74 94 124
74 95 126
74 94 126
73 94 126
74 95 126
72 92 123
75 96 126
74 95 127
74 94 125
74 95 127
74 95 127
74 95 126
76 97 128
73 94 126
73 94 126
74 94 124
73 94 125
75 96 127
74 94 126
74 95 127
74 94 125
75 95 125
75 95 126
74 94 124
74 94 125
73 94 125
73 94 126
75 95 124
76 96 128
74 95 125
74 95 127
74 95 126
74 94 125
75 96 127
73 94 126
74 95 126
74 95 126
75 96 127
74 94 124
74 95 126
74 94 125
75 96 128
73 94 124
73 94 126
75 95 127
74 94 125
75 96 128
74 94 126
75 96 126
74 96 128
75 96 128
73 94 124
74 95 126
75 95 126
74 95 126
75 96 128
74 94 125
73 95 128
74 95 126
75 95 126
76 97 128
75 95 126
73 94 126
73 94 125
75 96 127
74 95 127
74 95 126
73 95 127
73 94 126
72 93 124
74 94 124
73 94 125
72 93 124
72 93 124
73 93 124
74 95 126
74 94 124
75 96 126
74 95 127
73 93 123
74 95 125
74 95 126
75 95 126
72 93 123
72 93 124
76 96 127
75 96 128
74 95 126
75 96 128
74 96 128
73 94 126
73 94 125
73 94 126
73 94 124
74 95 126
73 94 126
74 95 127
75 95 125
74 94 124
75 95 127
75 95 126
76 96 127
75 96 128
76 96 127
76 96 126
74 95 125
75 96 126
74 95 128
73 94 126
73 94 126
75 96 128
75 96 127
75 96 128
75 95 126
73 94 126
73 95 127
75 96 127
74 94 126
75 95 126
74 95 127
74 94 125
73 94 126
76 97 127
74 95 128
74 95 127
77 97 127
74 95 126
72 92 123
75 95 125
74 95 126
75 95 126
76 96 127
73 94 126
74 95 126
74 94 125
75 95 126
74 95 126
76 96 127
74 95 126
75 95 126
75 95 126
73 94 125
74 95 127
74 95 126
75 95 125
74 95 125
73 93 124
74 95 127
74 94 124
75 96 128
73 94 125
72 93 125
73 94 126
74 95 127
75 95 126
76 96 126
76 96 126
77 97 127
73 94 126
73 94 126
75 95 126
72 93 125
75 95 126
74 96 128
72 94 126
75 95 125
73 94 125
75 95 126
73 93 124
76 96 126
73 94 126
75 95 126
73 94 126
75 96 128
76 97 128
75 95 125
75 95 126
74 94 125
74 95 126
75 95 126
74 95 126
75 96 127
74 95 127
75 95 126
74 95 127
74 95 126
74 95 126
74 95 126
75 96 127
75 95 126
75 95 126
74 95 126
75 95 126
73 94 126
75 95 126
75 96 128
75 96 127
74 95 127
76 96 125
75 95 125
77 97 127
74 95 126
75 95 126
74 95 126
76 97 128
75 96 128
74 94 125
76 96 128
73 94 126
74 94 125
76 96 127
74 95 126
75 96 127
76 96 127
74 95 127
74 95 126
73 94 125
76 95 125
74 95 127
74 95 127
74 95 127
72 93 125
76 95 125
73 95 126
74 95 126
76 96 126
76 96 126
74 94 126
74 96 128
72 93 125
74 95 126
74 95 126
76 97 128
75 96 128
76 96 126
76 96 127
74 95 127
74 95 127
73 93 123
73 94 126
74 95 127
75 95 127
75 95 126
74 95 127
74 94 125
73 94 126
74 95 126
74 95 126
74 95 125
73 93 124
75 95 126
74 95 126
75 96 127
74 95 126
75 95 126
75 96 126
75 95 126
74 95 127
74 95 126
74 95 126
73 93 124
74 94 125
76 97 128
74 95 126
74 95 127
74 95 126
74 94 126
72 93 125
74 95 126
74 95 126
74 95 127
74 94 125
74 94 123
71 93 126
75 95 126
74 95 126
75 96 127
73 94 127
75 96 126
74 95 126
74 94 123
75 96 127
73 94 126
76 96 126
73 94 126
75 96 126
74 95 126
75 95 125
75 95 125
76 96 127
74 95 128
75 96 126
76 96 127
74 95 126
75 95 126
74 95 127
75 96 127
74 95 126
74 95 125
73 94 125
75 95 125
74 95 128
74 95 126
76 97 128
75 95 126
74 95 126
75 96 127
74 96 128
76 96 128
72 93 124
74 95 126
75 96 127
75 96 128
75 96 127
74 95 126
74 94 125
75 96 128
75 95 125
75 95 125
72 94 125
75 95 126
76 96 128
74 96 128
74 95 126
74 95 128
73 94 125
73 94 125
73 94 126
76 96 126
75 95 127
73 94 126
75 96 127
74 95 127
76 96 126
73 94 126
73 94 125
74 95 127
73 94 125
74 94 124
76 97 127
74 94 125
75 95 126
74 95 126
75 95 125
74 94 124
74 94 126
73 94 126
75 95 126
75 96 127
75 96 128
75 96 128
75 96 128
76 96 126
73 94 126
73 93 124
74 94 125
74 95 126
76 96 128
76 97 128
73 94 125
74 95 127
75 95 126
74 96 128
75 96 127
72 93 125
74 94 125
73 94 125
74 95 126
75 96 127
75 96 128
75 94 124
73 94 126
75 96 127
74 95 126
74 95 125
71 92 125
74 95 127
75 95 125
75 95 125
77 97 127
75 96 128
76 96 126
74 95 126
74 95 127
75 96 127
73 94 126
76 96 126
74 95 127
73 94 125
73 93 124
73 93 122
73 95 127
74 95 126
73 94 126
75 95 126
73 95 126
74 94 125
72 93 124
75 96 127
76 96 128
76 96 128
73 93 124
74 95 127
72 93 125
76 96 125
74 94 125
74 95 127
75 96 128
74 95 127
75 95 127
73 94 126
73 94 125
74 95 126
73 94 127
75 96 127
74 95 126
74 94 124
73 94 126
75 95 126
73 94 125
74 94 124
74 95 126
75 96 128
73 94 125
75 96 126
75 95 126
75 95 125
74 95 126
75 96 128
74 94 124
74 95 127
74 95 126
74 95 125
74 95 127
74 94 125
76 97 128
74 95 126
76 96 126
74 95 126
74 94 125
72 93 125
73 94 126
73 94 126
74 95 126
74 95 126
74 95 126
74 95 126
76 96 126
72 93 124
73 94 126
76 96 127
74 95 126
74 94 126
75 95 126
75 96 128
75 95 126
74 95 127
75 96 128
74 95 126
73 93 124
75 96 127
75 95 127
74 95 126
76 97 127
74 95 126
75 96 127
75 95 127
74 94 125
73 93 124
72 94 125
75 95 126
75 96 127
74 95 128
74 94 124
75 95 126
73 94 126
74 94 125
74 95 126
74 95 126
75 95 126
72 94 126
73 93 125
74 95 127
74 94 124
73 93 124
72 93 125
76 96 128
75 96 128
73 94 126
77 97 127
75 95 126
75 95 127
74 94 124
74 95 128
75 96 128
73 94 125
73 94 125
75 95 126
74 95 126
75 96 126
73 94 125
73 95 128
74 95 126
74 95 126
74 94 126
74 95 126
74 95 125
76 97 128
73 93 123
74 95 126
74 95 127
75 96 128
74 95 126
74 95 126
74 95 126
74 95 126
75 96 128
75 95 126
74 95 125
75 95 126
75 95 125
73 95 128
74 95 126
74 95 126
73 94 126
72 93 125
73 94 126
75 95 126
74 94 125
73 94 125
75 95 126
75 95 125
73 94 126
76 96 126
75 96 127
74 94 124
74 95 127
75 95 125
74 95 126
73 94 125
75 96 127
75 95 126
75 96 128
74 95 128
74 95 126
73 95 127
74 95 126
73 94 125
76 96 127
74 95 126
76 96 126
74 95 125
75 96 127
73 94 126
74 95 126
74 94 125
74 95 127
74 95 127
76 96 127
73 95 127
75 96 128
73 94 125
76 96 126
74 95 126
73 94 126
74 94 125
75 96 128
73 94 126
76 96 127
73 94 125
74 95 126
76 96 127
76 96 126
74 94 124
75 95 126
73 94 126
76 96 127
74 94 125
75 95 126
73 93 124
75 95 126
74 95 126
75 95 126
73 94 125
74 95 128
75 95 126
76 96 128
75 96 127
73 94 126
75 96 128
73 94 126
74 94 125
73 94 127
73 94 127
74 94 126
74 95 126
75 96 127
74 95 125
76 96 127
74 94 125
75 96 126
75 96 127
75 95 126
74 95 126
74 95 127
76 97 127
75 96 127
75 96 128
72 93 125
74 95 127
76 96 127
73 94 125
74 95 127
74 95 126
74 95 126
76 97 128
73 95 126
73 94 126
74 95 127
75 95 126
75 96 127
74 95 126
74 94 124
73 94 125
75 96 126
74 95 127
73 94 125
73 94 124
76 96 126
73 94 126
72 93 125
75 96 128
73 95 127
73 94 126
73 93 124
74 95 126
74 94 125
74 94 126
72 93 124
73 94 126
75 95 124
75 96 126
74 94 125
76 96 126
75 95 126
74 95 127
74 95 128
75 95 126
73 94 126
74 95 127
74 94 125
73 94 125
73 94 126
74 95 126
73 94 126
74 94 126
75 96 127
76 96 126
75 95 127
73 94 125
76 96 127
75 95 126
75 95 126
74 95 127
76 96 127
76 96 127
73 93 122
75 96 128
73 95 126
74 95 127
74 94 124
74 94 126
75 96 126
74 95 127
75 95 125
75 96 127
75 96 127
75 96 127
75 96 127
72 93 124
75 96 126
73 94 126
74 93 122
74 95 127
75 96 127
76 97 127
74 95 126
73 94 126
74 94 125
76 96 127
73 93 124
72 94 126
74 95 127
73 93 124
74 95 126
74 95 126
74 94 125
73 94 125
76 96 127
73 94 125
74 95 126
73 93 124
76 96 127
75 95 126
75 95 126
76 97 127
74 95 126
73 94 124
74 95 126
75 95 125
76 96 128
73 94 126
77 97 128
75 96 126
75 95 126
74 95 127
74 95 126
76 96 126
73 94 126
75 96 127
75 95 125
75 94 124
73 94 125
74 95 127
75 96 127
75 96 128
75 95 125
74 95 126
76 96 126
74 95 126
73 93 124
73 94 125
76 97 128
74 95 127
73 94 126
75 96 128
73 94 124
74 94 125
75 95 126
73 93 124
74 94 125
76 96 127
72 92 124
75 95 126
75 95 125
74 95 125
73 94 126
75 96 128
74 95 126
75 96 126
73 94 125
75 95 126
73 93 125
73 94 125
74 95 125
75 95 126
75 96 127
74 94 126
74 94 126
72 92 123
72 93 123
72 94 126
74 95 126
73 93 124
75 96 127
75 96 127
75 96 127
75 95 126
72 94 126
76 95 125
75 96 127
74 94 124
75 96 128
75 96 126
74 95 125
74 94 125
75 96 128
74 95 126
74 95 128
75 95 126
73 94 126
73 94 126
75 95 126
73 94 126
75 96 128
73 95 128
74 95 126
73 95 126
73 94 126
76 96 127
74 94 125
74 94 126
74 95 126
73 94 126
75 96 128
74 95 127
75 95 127
73 95 127
74 94 125
74 94 125
73 94 124
74 95 126
73 94 124
73 93 124
75 95 126
75 95 126
74 94 125
75 95 126
76 96 128
74 94 125
73 94 126
74 95 126
71 93 124
75 96 128
72 93 124
74 95 126
74 95 126
72 93 124
76 96 127
74 94 126
75 96 127
75 95 125
72 93 125
74 95 127
73 94 126
74 94 125
73 94 126
75 96 127
76 96 127
73 94 125
73 95 127
75 96 128
73 93 122
74 95 126
75 96 127
75 96 127
75 95 125
74 95 127
73 94 126
75 95 126
73 93 124
76 96 127
74 95 126
74 95 126
74 95 126
74 94 125
74 95 125
73 94 125
74 94 124
76 96 127
72 94 126
74 95 126
74 95 126
76 96 128
73 94 125
75 96 127
74 94 124
74 95 126
74 94 125
75 95 126
73 95 127
75 95 127
74 95 125
74 95 127
74 95 128
72 93 125
74 95 126
74 95 126
74 95 126
74 95 126
73 94 125
71 92 123
74 95 126
73 94 125
73 95 127
74 95 126
74 95 126
73 93 124
73 94 125
74 94 124
74 95 128
73 94 126
74 94 126
75 96 128
73 94 126
74 95 127
74 94 125
75 96 126
75 95 126
75 95 125
75 95 126
75 96 127
74 94 126
75 95 125
75 96 128
75 96 127
74 94 125
74 95 127
77 97 127
74 95 126
74 94 125
73 93 123
76 96 126
73 94 126
76 96 128
73 94 126
74 94 124
73 95 126
75 95 125
75 96 127
76 97 128
72 94 126
75 95 126
76 97 128
75 95 126
73 94 125
71 93 125
75 96 128
72 93 125
73 95 128
74 93 122
74 94 125
72 93 126
73 94 126
73 95 126
76 96 128
75 95 126
74 95 126
74 95 126
74 94 126
74 96 128
75 95 125
75 96 127
75 95 126
73 94 126
74 95 127
73 94 124
75 96 127
74 94 126
73 94 126
74 95 126
74 95 127
73 94 126
74 95 126
75 95 126
76 96 127
74 95 126
74 94 126
75 96 127
74 95 126
73 93 124
75 96 128
73 95 126
74 96 128
74 95 126
74 94 125
73 94 126
75 95 126
75 95 125
73 94 125
74 95 126
73 94 126
73 93 124
73 93 124
75 96 127
75 96 127
75 95 126
76 96 127
75 96 127
74 94 125
76 97 128
74 95 127
74 94 125
76 96 126
74 95 126
75 96 128
73 94 125
73 94 126
73 94 126
72 94 126
75 96 127
74 96 128
76 96 127
75 95 126
74 95 127
74 95 128
74 95 127
76 97 127
73 94 125
74 95 126
74 95 126
74 94 126
74 94 123
73 95 127
74 94 125
74 95 126
74 95 127
74 95 127
74 95 126
75 96 127
74 95 126
74 95 126
75 95 126
75 95 126
73 93 124
74 95 127
74 95 127
74 95 127
74 95 127
75 96 127
75 96 128
75 96 128
74 95 126
75 96 127
75 96 127
74 95 127
74 95 125
75 95 126
72 93 124
74 95 127
75 96 126
75 96 126
74 95 126
75 95 126
75 96 126
75 96 126
75 96 127
73 95 126
74 95 127
74 95 126
74 94 124
74 95 125
75 96 128
75 95 125
74 94 125
75 96 127
76 97 128
75 96 127
74 95 126
74 95 126
74 95 126
74 95 126
74 94 125
74 96 128
73 94 126
75 95 127
73 94 126
74 95 127
74 94 126
73 93 124
73 94 124
75 95 125
74 95 126
74 95 126
76 95 125
76 97 127
76 96 127
75 95 126
75 96 127
74 95 126
74 96 128
74 94 125
75 95 126
73 94 125
74 95 126
74 95 126
73 93 124
72 93 124
74 94 125
75 96 127
73 95 127
75 96 128
72 92 123
73 94 126
75 96 128
75 95 126
73 94 125
73 94 126
73 94 126
76 96 126
72 94 126
73 93 125
74 95 125
73 94 127
74 95 126
76 96 126
74 95 126
73 94 126
73 94 126
73 94 126
74 95 125
77 97 127
74 95 126
75 95 126
74 95 126
75 95 126
73 94 126
74 95 126
74 95 126
75 96 127
74 93 123
74 95 126
74 95 126
75 96 126
76 97 128
75 95 125
73 94 125
75 96 126
72 93 124
73 94 125
73 94 126
74 95 126
74 94 125
73 93 123
72 94 126
76 96 126
74 95 128
75 96 126
76 96 127
75 95 127
73 94 126
72 93 125
73 94 126
75 96 126
75 95 126
74 95 126
75 96 127
74 95 127
73 93 122
75 95 125
74 95 127
74 95 127
74 95 126
75 96 127
72 93 125
73 94 125
75 96 128
74 94 126
74 95 127
75 95 126
74 95 127
75 96 128
75 95 125
73 95 127
74 95 126
74 95 126
73 94 125
75 95 126
75 96 128
74 95 126
75 96 128
75 96 128
75 96 127
75 95 125
73 93 124
75 96 126
74 95 127
74 94 125
72 93 124
75 95 125
73 94 126
73 94 125
74 94 125
74 95 126
74 95 126
73 95 128
74 94 125
74 95 127
73 93 124
74 95 126
74 95 126
76 97 128
74 95 126
74 95 127
73 94 125
76 96 127
72 93 124
74 95 126
74 95 125
73 94 124
74 95 126
75 95 126
71 93 125
74 95 125
76 96 127
74 95 128
74 95 125
75 95 125
74 95 127
73 94 125
74 94 126
75 96 126
75 95 127
75 95 126
76 96 126
75 96 128
73 94 125
75 95 126
74 95 126
73 93 124
76 96 126
75 96 127
75 95 126
75 95 126
74 95 127
75 95 126
75 96 127
75 95 125
75 95 126
74 95 126
73 94 126
75 95 127
75 96 127
72 93 124
75 96 128
75 96 126
74 95 128
72 94 126
74 94 126
74 94 125
72 94 126
75 95 125
73 94 125
73 94 126
74 95 125
76 96 127
73 94 125
75 96 127
74 95 126
74 94 124
75 96 127
75 95 126
73 95 127
74 95 127
74 95 126
74 95 126
76 96 127
75 95 126
76 97 128
76 96 126
72 93 124
75 96 127
75 96 127
74 95 125
74 95 127
71 93 126
76 96 126
73 93 124
74 95 126
73 94 127
75 95 126
72 93 125
74 95 126
75 95 125
72 93 124
74 95 125
74 96 128
73 93 124
74 95 126
74 94 125
73 95 128
75 95 126
75 95 126
75 96 127
76 96 126
75 95 126
74 94 125
71 93 126
72 93 124
75 95 126
75 96 126
75 96 126
75 96 126
73 94 125
75 96 127
75 96 128
74 94 125
74 95 127
76 96 127
74 94 125
75 96 127
74 94 125
73 93 124
74 95 126
75 95 126
75 95 126
75 95 125
74 95 127
75 96 126
73 94 125
75 95 126
74 94 125
74 95 126
74 95 126
74 95 126
76 97 127
74 95 127
74 95 128
75 95 126
76 96 128
75 96 126
72 93 125
76 97 128
72 93 124
73 94 126
75 96 128
74 95 127
75 96 126
75 95 126
74 94 125
73 94 126
74 95 127
74 95 125
74 95 126
75 96 128
73 93 123
74 95 126
74 94 124
72 92 124
74 94 126
73 94 125
73 94 125
75 96 128
73 94 127
76 96 128
74 95 126
74 94 124
76 97 128
74 94 125
74 95 126
76 96 126
75 95 126
75 96 126
74 95 125
75 96 128
75 96 126
73 95 127
75 95 126
74 96 128
74 94 125
72 93 124
76 96 127
75 95 126
74 95 127
75 95 126
75 95 127
74 95 127
75 96 126
74 95 127
73 95 127
74 94 125
74 95 128
73 93 122
76 97 128
75 95 126
74 95 126
75 96 127
73 94 126
75 96 127
75 96 127
73 94 124
74 95 126
74 95 126
75 96 127
76 96 127
73 94 126
74 94 126
74 95 126
74 95 125
75 95 126
75 95 126
72 94 126
74 94 125
76 96 128
74 95 126
76 97 128
74 95 127
72 93 124
72 93 124
76 96 126
74 95 125
74 95 125
74 95 127
74 94 124
74 95 127
76 96 126
74 95 126
73 94 127
74 95 127
75 95 125
75 95 126
73 94 126
74 94 124
75 96 128
73 94 124
72 93 124
75 96 127
75 95 126
74 95 126
75 96 127
74 96 128
74 95 128
73 93 124
74 95 127
75 96 127
75 95 124
75 96 127
76 96 127
75 96 126
73 94 126
74 95 127
74 95 126
73 94 126
75 95 126
74 95 125
75 96 127
74 94 125
74 95 126
75 96 128
73 94 126
75 95 127
74 95 126
75 95 126
74 95 125
74 94 124
75 95 126
75 96 127
75 95 126
76 96 128
75 95 126
75 95 126
75 95 127
75 96 128
74 95 125
75 95 126
76 97 128
76 97 127
74 94 124
73 94 126
73 94 125
72 94 127
74 95 126
74 95 126
75 96 128
73 93 124
74 95 126
72 94 126
74 95 127
74 94 125
77 97 126
74 95 126
73 94 125
74 95 127
73 95 126
74 95 126
74 95 126
75 96 126
76 96 126
73 94 125
73 94 125
74 95 127
73 94 126
74 95 126
74 95 127
75 95 126
72 93 125
74 95 125
75 95 127
74 95 126
72 93 124
75 95 126
73 94 124
75 95 126
75 95 126
75 96 127
73 94 125
74 95 127
75 95 126
73 94 126
74 95 126
74 94 126
74 94 126
75 95 126
75 95 126
74 94 126
76 96 126
76 96 128
72 93 125
75 95 125
73 95 127
75 96 127
73 95 127
76 96 126
74 95 126
75 95 126
74 95 126
75 96 126
73 93 124
75 95 126
74 95 127
74 94 124
75 95 125
77 97 127
74 95 126
75 95 127
74 95 125
76 96 126
74 96 128
74 96 128
73 94 127
72 93 125
74 95 126
74 94 125
75 96 128
74 94 125
73 95 127
74 95 125
72 93 124
74 95 126
74 95 126
74 95 125
74 95 127
73 94 125
73 94 126
73 94 124
74 95 126
75 96 128
74 95 125
74 96 128
72 93 124
73 94 126
73 94 126
75 96 128
74 95 127
74 94 125
75 96 127
72 94 126
74 95 126
74 94 125
76 96 128
73 94 124
75 96 127
73 95 126
73 93 124
74 95 127
74 94 124
74 95 126
75 95 126
76 96 127
74 94 124
75 95 126
74 94 125
74 95 126
72 93 125
72 94 126
72 92 123
73 93 124
72 94 126
74 95 126
75 96 126
74 94 125
73 94 127
75 96 127
74 95 127
72 93 124
74 95 126
74 95 127
73 94 124
74 95 126
76 96 127
75 95 126
74 95 126
76 97 128
75 96 127
73 93 125
74 95 127
73 93 124
75 96 127
73 94 126
74 95 127
72 93 124
76 97 128
75 95 125
75 95 127
75 96 127
74 93 123
76 96 126
73 93 125
75 96 128
73 94 126
74 95 126
75 95 126
75 96 126
75 96 127
73 94 126
74 95 127
72 93 125
74 95 126
74 95 126
73 93 123
76 96 126
75 96 126
74 95 127
73 95 126
73 93 124
72 92 122
74 94 125
73 94 125
75 96 127
74 95 126
74 95 126
75 96 127
73 94 125
73 94 124
74 95 127
75 95 127
74 95 127
75 95 126
75 96 127
76 96 127
76 96 127
74 94 126
74 95 128
75 95 126
73 94 126
73 94 126
74 95 127
75 96 128
74 95 126
75 96 128
73 95 127
74 94 125
73 94 126
75 96 127
74 95 126
76 96 126
75 95 126
74 95 128
73 94 126
73 94 125
74 94 125
76 96 127
76 95 125
76 96 127
74 94 125
73 94 126
75 95 126
74 95 127
73 94 126
73 94 125
74 95 126
75 96 128
74 95 126
75 96 128
74 95 126
74 95 125
73 95 126
74 95 127
74 94 124
74 95 126
75 94 124
74 95 127
74 95 127
74 95 127
73 94 126
74 95 127
75 96 126
73 94 126
73 94 125
74 95 126
73 94 125
74 94 125
74 95 128
75 95 126
75 96 126
74 94 125
76 97 128
74 95 125
74 95 127
73 94 125
72 93 124
73 94 126
73 94 125
75 95 126
73 94 126
75 96 128
74 95 128
75 95 127
72 93 123
73 95 127
75 95 126
74 95 126
75 95 126
74 94 125
73 94 125
74 95 125
75 95 126
74 94 125
75 95 127
74 95 126
75 95 125
74 94 125
74 94 125
75 96 126
76 96 127
73 94 126
75 95 125
76 96 127
75 96 127
74 94 125
74 95 126
74 95 126
74 94 126
76 96 127
75 96 128
73 94 127
73 93 123
74 95 126
74 95 126
75 96 127
75 96 127
72 93 125
74 95 126
74 95 126
74 94 124
73 94 126
74 95 128
72 93 124
74 95 128
75 96 127
75 96 128
76 96 127
75 95 126
76 97 128
74 95 126
74 95 126
73 94 126
74 94 125
74 95 127
72 92 122
75 95 126
73 94 125
74 95 126
73 93 124
72 93 125
74 95 126
74 95 126
74 95 127
74 95 126
73 95 127
74 95 127
75 94 124
76 96 127
75 95 126
73 94 124
76 96 127
74 95 126
75 96 128
74 95 127
74 95 126
76 96 127
74 95 127
73 93 124
74 95 127
75 95 126
74 94 125
73 94 125
74 94 125
74 95 126
74 95 126
73 94 126
74 95 127
74 94 123
75 95 126
74 95 126
74 95 126
75 95 126
75 96 128
74 95 128
74 94 125
75 96 127
74 95 126
74 95 125
76 96 127
73 94 126
73 95 127
74 95 126
71 93 126
75 95 125
73 94 126
73 94 125
73 94 126
74 95 127
74 94 124
75 95 125
75 96 128
76 96 127
74 95 127
74 94 125
74 94 124
76 96 126
74 94 126
73 95 127
75 96 127
75 96 126
77 97 128
75 95 125
74 94 123
74 95 127
73 95 127
73 94 126
74 95 127
72 93 124
76 96 127
75 96 126
75 95 124
75 95 126
74 95 128
75 96 127
74 95 126
74 95 126
77 96 126
73 95 128
75 96 128
72 93 126
74 95 126
76 96 126
75 95 125
73 94 125
75 96 128
74 96 128
75 96 127
73 94 125
76 96 125
74 95 126
75 95 125
74 96 128
73 94 125
74 95 126
72 93 124
72 94 126
77 97 127
75 96 127
72 94 126
74 95 126
74 95 126
74 95 128
75 96 127
74 95 127
73 94 126
76 96 127
74 95 126
76 96 127
75 96 128
74 95 127
76 96 127
72 93 123
74 94 124
74 94 125
74 95 127
74 95 126
73 94 126
73 94 126
75 96 126
74 95 127
73 95 127
73 93 124
75 95 126
74 95 126
74 95 127
74 95 125
76 97 128
75 96 127
74 95 126
76 96 126
76 96 127
75 96 128
76 97 128
74 94 124
74 95 127
74 95 126
74 95 127
75 96 128
75 95 126
74 95 126
76 97 128
75 95 126
75 96 127
74 95 127
74 95 126
74 95 126
72 93 123
74 95 126
74 95 126
74 95 127
72 94 126
75 95 126
73 94 126
74 95 126
75 96 127
77 97 128
74 94 125
74 95 126
76 97 128
74 94 125
73 94 126
74 94 125
75 96 128
76 96 127
73 94 126
73 94 125
74 95 126
73 94 126
75 95 126
74 94 125
74 95 127
75 96 126
72 93 125
75 96 128
73 93 124
74 94 125
71 93 124
75 95 126
75 96 127
76 96 127
74 94 125
73 94 126
75 95 126
75 95 126
75 96 128
74 94 125
73 93 124
75 96 127
75 96 127
73 93 124
74 95 126
73 93 124
75 95 126
74 95 125
74 95 126
75 95 126
74 95 127
73 94 126
75 95 126
74 95 126
73 94 126
74 95 126
73 94 125
74 95 126
76 96 127
74 94 125
74 95 126
73 94 126
77 96 126
76 97 127
74 95 126
74 94 124
76 97 128
75 95 126
74 95 127
73 94 126
73 94 126
74 95 126
72 93 124
74 95 128
73 94 125
74 95 126
75 95 126
75 96 127
74 94 125
75 96 128
74 95 126
75 96 127
74 95 127
74 94 126
72 94 126
73 94 125
74 95 126
74 95 126
76 96 126
74 95 126
75 96 128
73 94 126
74 94 125
75 96 127
73 94 125
74 95 125
74 95 125
74 95 126
73 94 125
75 95 125
74 95 126
75 96 127
73 94 126
73 94 126
73 93 123
74 95 126
73 94 126
74 95 127
74 95 126
75 95 125
75 96 126
74 94 125
72 94 126
76 96 127
74 95 127
73 94 125
76 97 128
74 95 126
74 94 126
74 95 127
73 93 123
75 95 126
75 95 125
73 94 124
75 96 127
75 95 126
73 94 126
73 93 124
76 96 127
76 96 126
75 95 126
74 95 126
72 92 122
75 96 128
71 93 125
74 94 125
74 94 124
73 94 126
74 94 125
73 94 126
73 94 127
74 94 125
73 93 123
73 94 126
73 94 126
76 97 127
74 95 127
73 94 125
74 95 127
74 95 127
76 96 126
73 95 127
75 95 126
72 93 124
75 96 126
75 96 127
75 95 126
72 93 124
76 96 128
74 94 126
76 97 128
74 95 126
73 94 126
76 97 127
74 95 125
74 95 126
73 94 126
76 96 127
73 93 124
74 95 126
74 94 125
75 96 128
73 94 125
74 95 126
73 94 125
75 95 126
75 96 127
75 96 128
75 95 125
74 95 127
76 96 127
76 97 128
75 95 126
73 95 126
75 96 128
74 94 124
75 95 126
75 96 127
74 94 125
74 94 125
73 94 125
73 94 127
74 95 127
72 92 122
76 96 126
74 95 126
73 94 124
73 94 125
72 93 125
76 96 127
74 94 124
74 94 125
75 95 126
73 94 124
73 94 125
74 95 126
76 96 126
75 95 124
73 94 126
74 95 127
75 96 127
73 93 124
75 96 128
75 96 127
74 95 126
73 94 126
75 96 128
73 94 127
73 94 126
75 95 126
75 95 126
74 95 126
74 95 126
76 96 128
74 95 125
74 95 127
75 96 127
74 95 127
75 95 126
75 96 126
73 94 125
75 96 127
76 96 127
73 94 126
76 96 127
75 96 126
74 95 126
74 95 126
75 95 127
74 95 127
75 96 127
74 95 127
74 95 127
75 96 126
73 93 123
74 95 127
74 94 125
74 95 126
75 95 126
74 95 126
75 95 125
74 95 127
75 96 126
74 94 124
74 95 128
74 95 126
74 95 126
74 93 122
76 96 127
74 94 125
74 95 126
73 94 126
75 96 127
73 95 128
77 97 127
74 95 125
75 96 128
75 95 126
74 95 128
76 96 126
75 95 126
75 95 126
73 94 125
74 95 126
73 94 125
74 95 127
76 96 127
74 96 128
76 96 127
75 96 128
74 96 128
74 95 125
74 95 127
74 95 126
74 95 127
75 96 127
74 94 125
74 94 124
75 95 126
75 95 127
74 94 125
73 94 126
76 97 128
74 96 128
74 95 126
74 94 126
75 95 127
74 95 127
75 96 127
75 95 126
73 94 125
75 96 127
74 95 125
74 95 126
76 96 126
74 95 128
75 96 128
75 95 126
75 95 125
76 96 127
73 93 124
75 96 127
74 95 126
73 94 127
73 94 126
74 94 124
75 96 127
72 93 124
75 95 126
74 95 127
74 95 126
74 95 127
75 96 127
74 95 126
75 96 128
74 95 127
74 95 128
74 95 127
74 94 125
74 95 127
74 95 126
75 95 126
75 96 128
74 95 126
74 94 126
74 95 127
72 93 126
75 95 126
75 95 126
74 95 127
75 96 128
72 94 126
73 94 125
74 95 126
74 95 126
76 96 127
74 94 126
74 94 124
74 94 126
73 94 126
75 96 128
74 95 127
74 95 126
74 95 126
73 94 126
74 95 127
75 95 126
74 95 126
76 96 126
76 97 127
74 95 126
74 95 127
75 95 126
74 95 126
76 97 127
74 95 127
73 94 126
74 95 127
76 96 128
73 93 124
76 96 127
76 96 127
74 95 128
74 95 127
76 97 127
74 94 125
74 95 126
75 95 127
75 95 126
76 96 126
76 96 127
75 96 127
74 95 126
74 95 127
74 95 127
74 95 127
74 95 126
75 95 126
75 95 126
75 95 126
74 94 125
75 95 126
74 95 126
76 96 126
74 95 125
73 95 126
75 96 128
75 96 127
74 95 126
75 95 125
75 95 126
75 96 127
74 95 127
75 95 126
73 95 127
75 96 126
76 96 127
74 94 125
75 95 126
75 95 126
76 96 126
73 94 124
74 95 127
74 95 127
75 95 126
75 95 126
75 95 126
73 94 126
75 96 127
73 94 125
73 94 126
74 94 125
74 95 126
73 94 126
74 96 128
74 95 126
73 94 125
76 96 128
74 95 126
76 95 125
75 95 126
73 94 124
73 94 125
74 94 126
73 94 125
72 93 125
75 95 126
73 94 125
76 97 127
73 93 124
75 95 125
74 95 126
74 95 126
74 95 127
72 93 125
73 95 126
75 96 128
75 96 126
75 96 126
73 94 126
75 95 126
76 97 127
75 96 127
76 96 127
75 96 127
75 95 125
73 94 126
73 94 126
74 95 127
73 94 125
74 94 124
76 96 126
75 96 127
75 95 126
76 96 126
73 94 126
74 95 127
77 97 128
74 95 126
74 95 126
71 92 124
75 96 127
74 95 125
74 94 124
73 94 126
74 95 126
75 96 127
74 95 127
73 94 125
76 97 128
75 96 126
75 96 126
74 95 126
73 94 126
74 94 124
75 96 126
74 94 124
75 95 126
74 95 126
76 97 128
75 95 126
75 95 126
74 95 126
72 93 125
74 95 126
74 95 126
76 96 127
73 93 124
74 95 127
73 94 126
76 96 127
73 94 126
74 95 126
76 96 127
73 94 126
75 96 127
75 96 127
75 95 125
76 96 126
74 95 126
74 95 126
76 96 127
76 96 127
74 95 127
73 94 125
75 96 127
73 94 126
73 94 126
74 95 126
74 94 125
74 94 125
74 94 124
73 93 123
75 96 128
75 95 126
74 94 124
75 95 126
76 96 126
75 96 128
74 95 126
73 94 126
74 95 126
73 94 126
74 95 126
73 93 124
76 96 126
75 95 125
74 95 127
76 96 126
76 96 127
72 93 125
73 94 125
75 95 126
75 95 126
73 94 125
74 94 125
72 92 122
73 94 126
73 94 125
73 94 126
74 95 126
76 96 128
75 95 126
74 95 126
74 95 125
73 94 126
74 95 125
75 95 126
72 93 124
74 95 126
73 95 127
74 95 126
75 95 126
75 95 126
74 95 125
76 96 127
74 94 125
74 95 127
75 95 126
75 95 125
74 95 126
74 94 125
74 95 126
73 94 126
75 95 126
74 95 127
73 94 126
75 95 125
76 96 125
74 95 127
74 95 126
75 96 127
75 96 127
75 96 127
75 96 127
74 95 125
73 94 126
73 94 124
75 95 126
73 93 124
75 95 125
74 95 126
74 95 126
72 94 126
72 93 124
74 96 128
76 96 127
74 95 126
75 96 128
76 96 126
73 94 126
74 94 124
75 95 126
74 95 126
74 94 125
74 95 125
75 96 127
73 94 125
73 93 123
74 95 127
74 95 126
76 96 127
75 95 126
74 95 126
76 96 127
75 96 128
73 93 125
74 95 126
73 94 126
74 94 125
75 95 126
75 96 128
75 96 126
74 95 126
74 95 126
75 96 128
74 95 126
75 95 126
74 95 126
74 95 126
74 95 126
71 92 122
76 96 126
74 95 126
75 95 126
75 96 127
75 96 127
73 95 127
75 95 126
74 95 127
73 95 127
75 96 128
73 95 127
75 96 128
73 95 126
74 94 125
75 95 126
74 96 128
75 95 125
75 96 128
73 94 125
74 95 128
75 94 124
73 94 125
75 96 127
76 96 127
74 95 126
73 93 124
74 95 127
74 95 126
75 95 126
73 94 125
73 94 126
75 95 127
73 93 124
72 93 124
75 96 126
74 95 126
74 95 127
75 95 126
75 95 124
76 97 127
74 95 126
76 96 126
73 94 125
74 95 127
75 96 128
74 94 125
73 94 126
76 96 127
74 95 126
74 95 126
74 95 126
72 93 125
75 95 124
73 95 127
75 95 125
73 94 126
74 95 126
75 95 126
75 95 126
73 94 126
74 94 125
74 95 126
73 94 127
73 94 126
76 96 126
74 95 126
73 93 123
73 94 126
74 95 126
74 95 127
75 95 125
74 95 125
74 95 126
73 94 126
75 95 126
73 94 126
74 95 126
74 95 127
74 95 128
76 96 126
73 94 126
74 95 126
74 95 126
74 94 126
73 94 126
75 96 126
75 96 128
73 94 125
74 95 126
75 95 126
75 95 126
76 96 127
74 95 126
75 96 128
75 96 128
76 96 128
75 96 127
72 93 124
73 94 126
73 94 126
75 95 126
76 96 126
74 95 126
73 94 126
74 94 125
76 96 126
73 93 123
73 95 128
74 94 126
75 95 126
74 95 127
75 96 128
74 95 126
74 94 125
75 95 126
73 94 126
73 95 127
74 94 125
76 96 127
74 94 125
75 95 126
75 95 127
74 95 126
73 95 127
73 94 125
73 94 126
74 95 127
73 93 124
76 96 127
73 92 121
73 95 127
73 93 124
75 96 126
76 96 127
74 95 126
76 96 126
75 96 128
76 96 127
75 96 127
73 94 125
75 96 128
74 94 125
75 96 126
75 96 126
75 96 126
74 94 126
75 96 127
74 95 126
74 95 127
74 95 126
74 94 124
74 95 126
75 96 127
73 94 126
74 95 126
75 96 128
74 95 126
75 95 126
74 95 126
74 95 127
74 95 126
74 94 124
74 95 126
76 97 127
74 95 125
75 95 126
75 96 126
74 95 126
76 96 125
72 93 125
73 94 126
73 95 126
73 94 125
75 95 127
76 96 127
73 94 125
73 94 126
74 94 125
73 94 126
75 96 126
75 95 126
76 96 128
76 97 128
76 96 126
74 95 126
72 93 125
74 95 126
73 94 126
73 94 125
74 95 126
74 94 124
73 94 125
73 94 126
75 95 126
77 97 127
75 96 127
76 97 127
75 96 126
75 95 126
75 96 126
74 95 126
74 95 126
75 95 127
74 94 124
75 96 126
76 95 125
75 95 126
71 93 125
77 97 128
73 94 125
74 95 126
75 95 126
75 96 127
72 93 123
74 94 124
74 95 128
75 96 126
74 95 127
73 94 125
74 95 125
76 96 128
74 95 126
73 94 124
75 96 128
74 95 126
72 93 125
74 95 127
75 96 128
75 95 126
74 95 127
74 94 126
75 96 127
73 93 124
73 94 126
73 94 126
74 95 127
74 95 127
74 95 126
75 96 127
75 96 127
76 96 125
74 95 127
75 96 128
73 94 126
74 95 126
74 94 125
75 96 127
74 95 127
75 96 126
75 96 128
73 94 126
74 95 127
76 96 128
75 96 126
76 96 126
75 95 126
75 96 127
74 94 125
74 95 126
73 93 124
77 97 127
72 93 125
73 95 127
75 95 127
73 93 124
74 95 127
74 94 124
73 94 125
73 94 125
73 94 126
74 95 127
75 95 126
75 95 126
75 96 128
74 95 126
73 93 123
73 94 125
75 96 128
74 95 126
74 95 125
75 95 126
74 95 126
75 95 126
74 95 126
75 95 126
74 95 126
77 97 127
75 96 128
75 96 126
74 94 123
73 93 124
74 95 126
78 98 128
73 94 125
75 95 126
74 95 127
73 95 127
74 94 124
72 94 126
73 93 123
76 96 128
76 96 127
75 96 128
76 96 127
75 96 126
76 96 126
74 95 127
74 94 124
75 96 126
72 93 124
75 96 127
73 95 127
75 95 126
73 94 126
75 95 126
74 95 127
73 94 125
73 94 125
74 94 125
74 95 126
74 95 126
73 94 126
75 95 126
73 93 123
74 94 125
73 95 128
74 94 126
75 96 127
74 95 126
74 94 126
76 96 127
76 97 128
75 95 125
74 94 125
74 95 126
75 95 125
75 96 127
73 94 124
74 95 127
73 95 126
74 95 127
74 95 126
74 95 125
75 96 128
76 96 126
74 94 125
75 95 126
76 96 127
75 96 127
73 94 125
75 95 127
76 96 126
74 94 125
75 95 126
72 93 125
73 93 123
73 94 126
75 96 127
74 94 125
72 93 123
72 93 124
74 96 128
75 95 126
74 94 125
75 96 127
75 95 124
73 94 126
74 94 125
74 94 124
73 95 127
75 95 126
74 95 127
74 94 125
75 96 126
75 95 125
74 95 128
74 94 124
73 95 127
75 95 127
73 94 125
73 94 126
75 95 126
75 95 126
75 96 128
75 96 128
75 96 127
73 94 124
74 94 124
75 96 128
75 96 128
75 95 126
73 93 124
74 95 126
75 96 127
75 96 126
75 95 126
74 95 126
75 96 127
74 94 126
72 94 127
73 94 126
75 96 128
75 96 126
76 96 128
74 95 127
75 96 127
75 95 126
76 96 127
75 96 128
74 95 127
74 95 126
74 94 125
74 95 127
75 96 127
75 96 127
74 94 124
76 96 126
74 95 127
73 94 126
75 96 128
74 94 125
74 94 124
74 95 127
73 94 126
75 96 126
73 93 125
74 95 127
75 96 126
76 96 128
74 95 126
75 96 128
74 95 126
74 95 126
75 96 128
75 95 126
74 95 127
75 95 126
73 94 125
76 96 127
73 94 125
74 95 126
76 96 128
75 95 126
74 95 126
73 94 125
74 95 127
74 95 127
75 95 126
74 94 124
74 95 126
74 95 127
75 96 127
74 95 126
74 95 126
73 94 125
75 96 126
73 94 125
74 95 126
75 95 126
74 95 127
73 94 126
75 95 126
73 94 125
77 97 127
75 96 127
72 93 125
74 95 126
75 96 126
73 95 127
75 95 126
74 95 127
73 93 123
75 96 127
74 95 126
72 94 126
74 95 126
73 94 125
75 96 127
74 95 126
76 95 125
74 95 126
72 93 125
73 94 126
73 93 124
73 93 124
73 94 125
74 96 128
73 93 124
74 95 128
72 92 122
74 95 128
76 97 128
75 95 126
74 94 125
73 94 125
75 96 127
75 96 126
75 96 127
75 96 127
75 96 127
74 95 127
73 94 126
75 96 128
75 96 127
76 96 126
75 95 127
74 94 125
74 95 127
73 94 125
75 96 128
74 95 127
75 96 127
75 95 126
74 94 125
73 95 127
73 94 126
74 95 125
76 97 127
75 95 126
74 95 127
74 95 127
74 95 125
73 95 127
72 94 126
75 96 127
75 96 128
75 95 127
75 95 125
75 96 126
75 95 126
75 95 126
72 93 124
74 95 126
73 93 125
75 96 127
73 94 126
74 95 126
73 94 124
75 95 126
77 97 128
73 94 126
73 94 126
76 96 128
72 92 123
74 96 128
72 94 127
75 95 126
74 95 126
72 93 125
73 94 126
76 96 128
75 96 126
75 96 126
75 95 126
73 95 126
73 94 126
74 95 126
75 95 126
73 94 125
73 94 125
74 95 126
71 91 121
73 94 125
75 96 127
75 95 126
75 96 128
74 95 126
74 95 126
74 95 126
75 95 126
76 96 126
74 94 125
74 95 126
74 95 126
76 96 126
74 95 126
74 95 126
74 95 126
73 94 125
74 95 128
75 95 126
74 94 124
74 95 125
75 95 125
73 94 126
75 96 127
74 96 128
74 95 127
75 95 125
74 94 124
74 94 125
75 95 125
73 94 127
74 95 127
74 94 125
74 95 126
72 93 125
75 95 126
73 94 125
74 95 127
73 93 124
73 94 124
74 95 126
73 94 125
75 95 126
75 95 126
74 94 125
73 94 126
73 93 124
73 94 126
74 95 126
75 95 127
76 97 128
73 95 127
74 95 126
75 95 127
76 96 126
75 96 127
76 97 128
74 95 126
74 95 125
76 96 128
75 95 127
75 96 127
75 95 126
74 95 126
75 96 127
74 94 124
73 94 126
75 96 127
74 95 126
72 93 125
75 95 126
74 94 126
73 94 125
74 94 126
75 96 126
73 93 124
73 94 125
75 95 126
74 95 126
75 95 126
74 95 126
74 95 126
73 94 126
76 96 127
74 94 124
74 95 126
73 94 125
74 95 125
73 94 125
73 94 125
75 96 127
74 95 126
74 95 126
74 95 127
74 95 126
75 95 126
74 94 125
75 95 126
74 96 128
74 94 126
74 94 125
74 95 126
74 95 127
75 96 127
75 95 126
72 93 125
73 93 124
72 93 124
75 96 128
76 97 128
75 96 127
73 94 126
74 96 128
73 95 128
74 95 127
74 95 126
76 97 128
75 96 128
73 94 125
75 96 127
74 95 127
75 96 127
74 95 126
74 95 126
73 93 123
75 96 126
74 95 126
70 92 124
76 96 127
74 94 125
74 95 126
73 94 124
72 94 126
73 94 125
74 95 126
73 94 124
74 95 128
75 95 126
73 93 124
77 97 127
73 94 126
73 93 122
72 94 126
76 96 127
72 93 124
75 96 128
75 95 126
75 95 125
74 95 126
74 94 124
74 96 128
76 96 128
75 95 126
74 94 126
73 94 126
77 96 126
75 95 126
74 94 125
77 97 128
75 96 127
73 95 127
74 94 124
75 96 127
73 94 126
74 95 126
75 96 128
75 96 128
74 95 126
73 94 125
73 94 126
71 92 124
75 96 127
74 95 126
73 94 125
73 93 123
75 96 128
73 94 124
74 94 124
74 94 124
75 95 127
74 95 126
76 96 127
74 95 126
75 96 126
74 94 125
75 95 124
74 95 126
75 96 128
75 95 126
73 94 124
74 95 126
70 90 120
74 95 126
73 95 126
73 94 125
77 97 128
75 95 126
74 95 127
76 96 127
73 94 125
74 95 127
74 95 126
75 95 127
73 95 128
76 96 126
74 94 125
74 95 127
75 95 127
75 96 127
73 94 125
73 94 126
73 94 126
73 94 125
73 94 125
75 96 128
74 95 127
73 94 126
75 96 127
72 93 125
75 95 126
74 94 125
75 95 126
75 96 127
74 95 126
75 95 126
74 96 128
75 95 125
75 95 126
73 93 125
74 95 126
73 94 124
75 96 127
74 95 127
73 93 124
74 95 126
75 96 128
75 95 126
76 96 126
74 95 127
74 95 126
75 95 126
75 96 127
75 96 126
74 95 127
76 96 126
74 94 125
73 94 125
76 96 126
75 95 125
76 97 128
75 95 125
75 96 128
74 95 126
75 96 127
76 96 126
75 95 126
74 95 128
74 95 127
75 95 126
75 95 126
74 95 126
73 94 125
73 95 127
76 96 126
74 94 124
75 95 126
74 94 125
73 94 126
76 96 126
74 95 128
75 96 126
75 96 127
75 95 127
76 97 128
75 95 126
74 95 126
75 95 126
74 95 127
74 95 126
76 96 128
74 95 126
74 95 126
75 96 128
74 95 127
73 94 126
75 96 127
75 95 125
72 92 124
76 96 127
73 94 125
74 95 127
74 95 127
75 96 127
76 97 128
74 95 126
74 95 127
75 95 126
76 96 127
75 95 126
75 95 125
76 96 126
74 95 126
74 94 125
74 95 126
74 95 126
74 95 128
75 96 127
73 94 125
75 96 128
74 95 126
75 96 126
73 94 126
74 95 126
74 95 126
76 96 127
73 94 126
76 96 126
75 96 127
74 95 126
74 95 127
76 97 128
74 95 126
76 97 128
75 95 126
74 95 126
74 95 126
75 96 127
74 95 127
74 95 127
74 95 125
74 95 127
75 95 124
76 96 128
75 95 126
75 96 127
74 94 125
74 94 125
75 95 125
73 94 126
74 95 126
73 93 124
74 95 128
76 96 127
73 94 126
74 95 126
73 94 126
75 96 128
72 93 124
74 95 127
75 96 126
75 95 126
74 95 126
73 94 125
74 95 127
75 96 126
75 95 126
76 96 127
74 95 128
75 96 127
73 94 125
74 94 124
74 95 127
74 95 126
74 95 127
74 95 126
74 95 126
75 96 127
76 97 128
74 95 128
75 96 127
75 95 126
74 94 123
73 94 125
74 95 126
75 96 127
74 95 127
74 94 125
76 96 127
75 96 127
75 96 127
75 96 127
72 93 125
73 95 128
74 95 126
74 95 126
75 96 128
74 95 126
74 95 126
74 95 127
73 94 125
74 95 127
75 95 126
74 94 126
73 94 125
75 96 127
75 95 126
75 95 125
74 95 126
74 94 125
74 95 125
73 94 126
76 96 127
74 95 126
73 94 125
74 95 126
77 97 127
75 95 126
75 95 126
74 95 125
75 96 126
75 96 126
74 95 126
75 95 126
76 97 128
73 94 124
76 97 128
74 95 128
76 96 126
73 94 124
73 93 122
74 94 126
74 94 124
71 93 125
74 95 126
74 95 126
75 96 127
74 95 126
73 94 126
74 95 126
74 94 125
74 95 127
75 95 125
74 95 127
76 97 128
73 93 124
75 95 126
75 95 126
75 95 127
73 95 128
72 93 125
73 95 127
72 93 124
74 95 126
75 95 127
74 95 127
76 96 127
73 94 126
75 95 125
75 95 125
74 95 126
75 96 127
75 95 127
73 93 123
73 94 126
73 94 125
74 94 125
76 96 128
72 94 126
73 94 124
73 94 126
73 95 127
75 95 126
73 94 126
75 96 127
75 95 126
74 95 128
76 96 126
75 95 127
72 93 125
74 95 127
76 96 127
75 96 127
74 95 127
75 95 126
75 95 126
72 93 125
76 96 126
73 94 125
72 93 125
75 96 126
75 96 128
73 95 126
72 94 126
73 94 125
75 95 127
75 95 125
72 93 124
75 96 128
76 95 124
72 93 124
75 96 126
74 94 124
73 94 126
73 94 125
73 94 125
76 97 128
76 96 127
73 94 125
74 95 126
75 95 126
74 94 124
76 97 128
74 95 127
75 96 127
74 95 126
73 94 126
73 94 125
74 95 126
74 95 126
72 94 126
75 96 128
75 96 128
73 95 126
73 94 125
74 95 127
75 96 127
73 94 126
76 96 128
76 97 128
73 94 126
73 94 125
74 95 127
73 94 126
71 92 124
75 95 126
75 96 128
75 95 125
73 93 124
74 95 127
77 97 127
75 96 127
75 96 128
73 94 125
74 95 127
75 96 127
72 93 124
74 95 125
75 96 126
74 95 127
73 94 126
74 95 126
74 95 126
75 96 127
73 94 126
75 95 125
75 95 126
75 96 127
74 95 125
74 95 126
74 94 124
75 96 127
73 95 127
75 96 126
74 95 126
76 96 126
74 94 125
75 96 126
73 95 127
74 96 128
74 95 126
75 95 126
75 96 128
73 93 124
74 95 126
74 95 126
75 95 125
75 95 125
75 95 127
73 94 125
74 94 125
74 95 126
70 91 123
75 96 128
75 96 126
73 94 126
71 92 124
75 96 128
73 94 125
75 95 126
73 94 125
74 94 125
74 94 125
73 95 126
73 93 124
75 96 128
72 93 124
75 96 127
73 94 126
74 95 126
74 96 128
76 96 127
74 95 126
72 93 125
75 95 126
73 94 126
73 93 123
74 95 125
74 95 127
74 94 126
75 95 125
74 95 126
75 95 125
74 95 127
73 94 125
75 96 127
76 96 127
75 96 127
75 95 127
73 94 125
74 95 126
74 95 126
74 95 126
76 96 127
74 94 125
75 96 126
75 95 126
75 95 127
73 94 125
76 96 128
72 93 124
74 94 124
76 96 127
74 95 127
75 95 125
76 96 126
72 93 125
76 96 126
72 94 127
74 95 126
74 95 126
73 94 126
73 94 125
74 94 125
72 93 124
73 94 126
75 96 127
74 95 127
76 96 127
75 95 125
75 96 128
75 95 126
72 94 126
76 96 128
76 96 126
74 95 126
74 95 125
76 96 126
73 94 126
73 94 125
74 95 125
75 96 128
76 96 127
74 95 126
75 96 127
76 96 128
76 96 127
73 94 126
74 95 126
75 95 125
77 97 127
73 94 126
74 95 126
75 96 126
74 95 126
75 95 126
74 95 126
75 95 126
73 94 126
72 93 124
73 95 128
75 96 126
76 96 127
75 95 126
74 94 125
74 95 126
75 96 128
75 96 127
74 95 126
75 96 127
76 95 125
73 94 126
72 93 125
75 96 127
74 95 126
75 95 126
76 96 126
73 94 125
76 96 127
75 95 125
75 96 128
75 96 127
74 94 125
73 94 126
74 95 127
75 95 126
75 95 126
74 94 126
75 96 128
75 96 127
74 95 127
75 95 126
74 95 127
74 94 124
74 95 125
73 94 126
75 96 127
75 96 128
75 96 127
74 95 128
74 95 126
75 95 126
74 94 125
75 95 126
75 95 126
73 94 125
73 94 126
75 95 126
74 94 125
74 95 126
73 94 125
74 95 126
75 95 127
75 96 128
73 94 126
75 95 126
75 96 128
75 96 128
75 95 126
74 96 128
74 95 127
76 96 128
74 95 125
73 93 124
73 94 126
76 96 126
77 97 127
72 93 124
73 94 125
75 96 128
76 96 127
74 95 128
73 94 126
74 95 126
74 95 126
75 96 126
75 96 128
75 96 126
73 94 125
73 94 126
75 95 126
76 96 127
74 94 125
73 94 125
75 95 127
75 96 128
73 94 126
75 95 126
75 96 126
75 95 126
74 95 126
73 94 126
74 94 124
75 95 126
72 93 125
73 95 128
75 96 127
76 96 126
74 95 127
75 96 127
76 96 127
76 97 128
74 95 127
75 96 126
74 96 128
74 95 127
74 95 127
76 97 128
73 94 126
73 93 124
74 95 127
72 93 124
73 95 126
72 93 125
74 94 125
74 95 126
73 93 123
74 95 127
74 95 126
75 96 127
73 93 125
75 95 127
74 95 127
74 95 126
74 95 127
75 96 127
75 95 126
76 96 126
75 95 125
73 94 126
73 95 127
75 95 125
76 96 128
74 95 127
74 94 125
74 94 124
74 94 125
74 95 126
76 96 127
74 95 126
74 95 126
74 94 125
74 95 126
73 94 125
75 96 126
73 94 126
76 96 127
75 96 127
73 94 126
74 95 126
73 94 126
76 96 125
72 93 125
76 96 127
75 95 126
73 93 124
74 95 127
73 95 126
75 95 126
75 95 126
73 94 126
74 95 127
74 96 128
75 95 126
76 96 127
75 96 127
75 95 126
75 96 128
75 96 127
73 94 125
75 95 125
75 95 125
73 95 127
74 95 128
75 95 126
74 95 127
75 95 126
74 95 126
75 96 127
76 96 127
74 95 128
74 95 126
76 96 126
74 95 126
75 95 126
74 95 127
74 94 125
74 95 126
73 95 126
73 94 126
73 94 125
73 94 125
73 94 125
73 94 126
74 94 126
75 96 127
74 94 124
76 97 128
73 94 126
76 96 128
75 95 125
77 97 127
73 94 125
73 94 124
73 94 126
74 95 126
72 93 123
72 93 123
76 96 126
74 94 125
75 96 128
75 95 127
74 95 126
74 96 128
73 94 126
75 96 128
73 94 126
73 93 123
74 95 127
75 95 125
74 95 127
73 94 125
73 94 125
75 96 127
74 95 127
74 95 126
75 95 126
74 95 126
74 95 128
74 95 127
73 94 127
74 95 127
72 93 124
75 96 127
75 96 128
74 95 126
74 94 126
75 96 127
74 95 125
75 96 127
75 96 128
73 93 124
73 94 125
73 95 127
74 95 127
75 95 126
73 94 126
74 94 125
73 94 125
73 93 123
73 94 126
75 96 127
75 96 127
74 95 125
74 95 128
75 96 126
75 96 127
73 94 125
75 95 126
73 94 126
74 95 127
73 94 125
75 96 128
73 94 126
75 96 128
75 96 127
73 94 125
74 95 126
76 96 127
76 96 127
74 94 124
73 94 125
74 95 126
74 95 126
75 96 126
75 96 128
73 93 124
75 96 128
76 96 126
75 96 127
74 95 126
76 96 128
75 96 127
74 95 126
74 95 126
73 94 126
74 95 126
75 95 125
75 95 125
76 96 126
74 95 126
74 95 127
75 95 126
74 95 126
73 95 127
75 95 126
73 95 127
73 94 125
73 94 126
73 94 126
72 92 121
76 96 126
74 94 123
72 93 125
75 95 126
74 95 127
73 95 127
73 94 127
75 96 128
74 94 125
75 96 128
73 94 126
73 95 127
72 93 125
75 96 127
74 94 125
73 93 124
72 93 126
74 94 125
76 96 126
73 94 126
72 93 125
75 95 125
73 94 126
74 95 127
75 96 126
75 95 125
76 96 127
75 96 126
76 96 126
75 95 126
76 96 127
76 96 128
75 95 126
76 97 128
76 96 127
76 96 127
75 96 126
74 95 126
74 95 125
73 94 126
73 93 122
75 96 127
73 94 126
74 95 126
75 96 127
73 95 128
74 95 126
73 93 125
74 94 125
74 94 125
73 93 124
72 92 124
74 95 126
74 95 126
73 94 125
73 94 125
73 94 124
74 95 127
75 96 128
74 95 126
73 93 123
74 94 124
76 97 128
74 94 125
73 94 125
72 93 125
74 95 127
74 95 127
75 95 126
75 96 128
75 96 128
75 96 127
74 95 127
74 94 125
73 94 126
75 95 126
74 95 126
74 95 126
77 97 127
75 95 125
76 96 126
73 94 125
73 94 126
74 95 126
75 95 126
72 93 124
75 95 126
74 94 124
74 95 126
76 96 128
75 96 126
74 95 125
74 95 126
74 93 123
73 94 126
73 94 124
75 96 126
74 94 125
74 95 127
75 96 128
75 96 127
75 96 127
73 95 127
74 95 126
75 95 125
72 93 124
75 96 127
75 96 127
74 94 125
76 96 128
74 95 127
75 96 128
75 96 127
74 95 126
74 95 126
77 97 127
74 94 126
73 94 125
75 96 127
76 96 126
74 95 127
73 94 126
75 96 126
76 97 128
75 96 127
74 95 126
76 96 126
76 96 126
75 96 127
74 95 127
73 94 126
76 97 128
74 95 126
75 95 126
75 96 126
74 95 126
73 94 125
75 96 127
73 94 124
73 94 126
74 95 128
75 95 126
75 96 127
74 94 126
75 96 126
74 95 127
73 94 126
74 95 126
74 95 126
74 95 127
75 96 128
73 93 124
75 95 124
75 96 128
73 94 126
74 94 126
74 95 126
74 95 127
74 96 128
74 95 126
74 95 126
74 94 125
76 96 126
74 95 126
75 95 126
76 96 126
76 96 127
73 95 127
73 94 124
73 94 125
73 94 125
74 95 126
75 96 128
75 96 128
75 95 126
75 96 126
75 95 126
74 95 127
73 94 125
73 94 126
76 96 126
76 96 127
76 96 126
75 96 126
74 95 127
75 96 127
74 96 128
74 95 127
75 96 127
74 95 127
75 96 127
75 96 127
75 95 127
75 95 126
74 96 128
74 95 127
74 95 126
73 94 126
74 95 127
74 94 126
75 95 126
76 97 128
73 95 126
75 96 126
76 96 128
76 97 127
75 95 126
73 93 124
74 96 128
76 96 126
75 95 126
76 96 127
72 93 124
74 95 127
76 96 126
73 94 125
74 95 126
73 94 126
75 95 126
75 96 127
73 94 126
76 96 128
75 96 128
75 95 126
74 95 127
74 94 125
74 95 127
73 94 125
74 96 128
76 96 126
74 94 125
76 96 127
74 94 126
74 96 128
76 97 128
75 95 126
75 96 128
74 95 126
76 96 126
76 96 126
75 96 127
75 96 127
74 95 127
73 94 124
75 96 127
74 95 128
73 94 127
73 94 126
74 95 125
72 93 125
74 95 126
76 96 127
75 95 127
75 94 124
74 94 126
74 95 127
75 95 125
75 96 127
74 94 125
75 95 126
76 97 128
73 94 126
72 93 124
74 95 127
74 95 127
74 94 125
73 94 126
75 96 126
74 95 127
75 96 127
74 94 125
76 97 128
73 94 126
76 96 128
74 94 125
75 95 126
76 96 127
74 95 127
74 95 127
75 96 127
72 93 125
75 95 126
74 95 127
74 94 123
75 95 125
74 94 125
76 96 126
75 95 126
76 96 127
74 95 127
74 95 126
74 94 125
75 95 125
73 94 126
73 94 126
72 92 123
72 93 125
75 95 126
74 95 126
74 95 126
75 96 127
73 94 126
75 95 125
73 94 125
75 95 126
75 96 128
73 94 125
75 95 126
74 95 126
74 95 127
74 95 126
73 94 124
76 96 126
74 96 128
75 96 127
74 95 127
75 96 127
75 95 126
72 92 124
74 95 126
74 95 126
74 95 127
76 96 126
75 96 128
74 95 127
73 93 123
72 92 123
76 96 127
73 94 125
76 96 125
76 97 128
76 96 126
76 96 127
74 94 125
74 95 126
74 94 125
73 94 126
76 96 127
75 96 127
74 94 125
75 95 126
73 93 124
76 97 128
74 95 126
74 95 127
76 96 126
73 94 125
74 95 126
75 96 128
74 95 126
75 95 126
75 96 128
74 95 127
74 95 127
75 96 126
74 95 126
75 96 127
75 96 126
75 96 128
74 95 126
74 95 128
74 94 124
73 94 126
75 96 127
74 94 125
74 94 125
74 94 125
75 96 128
73 94 126
73 94 125
73 94 126
71 93 125
74 94 125
73 94 125
74 95 127
74 95 127
75 95 127
73 94 124
73 94 126
74 95 126
74 95 127
74 94 124
76 96 127
73 94 124
73 95 127
75 96 127
74 94 125
73 94 125
76 96 126
75 96 127
75 95 125
76 96 127
76 96 127
73 94 124
76 95 125
74 94 126
75 96 128
72 93 123
74 94 126
75 95 126
74 94 125
74 94 126
74 95 127
75 96 127
73 94 126
74 95 127
76 96 127
74 94 126
75 95 124
74 95 126
74 95 127
73 94 125
74 94 124
73 94 126
73 95 127
75 95 125
75 96 126
73 94 126
74 95 126
74 95 126
73 94 126
74 95 126
75 96 128
75 95 126
73 94 125
74 94 125
75 96 126
74 95 126
75 96 128
75 96 128
73 94 125
73 94 124
75 95 125
75 95 126
77 97 127
73 94 125
74 95 127
74 95 125
74 95 126
75 95 126
75 95 125
75 95 126
74 95 126
75 96 126
75 95 126
74 95 127
73 95 127
74 95 126
74 94 126
75 96 128
74 95 126
73 94 125
75 95 126
73 94 125
75 96 126
74 95 127
73 94 126
73 94 125
73 93 124
74 95 127
75 95 126
75 95 127
75 95 126
74 94 125
74 95 125
75 95 125
74 95 126
73 94 125
75 95 126
75 95 126
73 93 122
75 96 127
74 94 125
74 95 126
76 97 128
74 95 126
75 96 126
75 95 125
74 95 128
74 95 126
74 95 126
72 94 126
73 94 125
77 96 126
75 96 127
72 94 126
74 95 126
74 95 127
73 94 125
77 96 126
75 95 127
73 93 124
75 95 124
74 94 125
74 95 125
78 98 128
73 94 125
73 93 124
74 95 125
74 95 127
75 95 126
74 95 126
73 94 125
75 95 126
76 95 125
74 95 126
75 95 125
74 94 125
74 94 125
75 95 127
74 95 127
75 95 127
72 94 126
74 95 127
74 95 126
74 95 127
73 94 126
73 94 126
74 95 126
74 95 126
75 95 126
74 95 126
75 96 128
75 95 126
76 96 127
75 96 127
74 95 126
74 95 126
74 95 126
74 95 127
73 94 126
74 95 126
74 95 126
74 95 126
73 94 126
75 95 126
73 94 125
75 96 127
73 95 126
74 95 127
74 95 126
74 95 126
73 94 125
75 96 127
75 95 126
74 95 126
75 96 127
76 96 127
74 95 126
75 96 126
76 96 128
73 94 125
74 94 124
