P3
400 225
255
204 226 255
204 226 255
204 226 255
204 226 255
204 226 255
204 226 255
204 226 255
204 226 255
204 226 255
204 226 255
204 226 255
204 226 255
204 226 255
204 226 255
204 226 255
203 226 255
203 226 255
203 226 255
203 226 255
203 226 255
203 226 255
203 226 255
203 226 255
203 225 255
203 225 255
203 225 255
203 225 255
203 225 255
203 225 255
203 225 255
203 225 255
203 225 255
202 225 255
202 225 255
202 225 255
202 225 255
202 225 255
202 225 255
202 225 255
202 225 255
202 225 255
202 225 255
202 225 255
202 225 255
202 225 255
202 225 255
202 225 255
202 225 255
201 225 255
201 225 255
201 225 255
201 225 255
201 224 255
201 224 255
201 224 255
201 224 255
201 224 255
201 224 255
201 224 255
201 224 255
201 224 255
201 224 255
201 224 255
200 224 255
200 224 255
200 224 255
200 224 255
200 224 255
200 224 255
200 224 255
200 224 255
200 224 255
200 224 255
200 224 255
200 224 255
200 224 255
200 224 255
200 224 255
199 224 255
199 224 255
199 223 255
199 223 255
199 223 255
199 223 255
199 223 255
199 223 255
199 223 255
199 223 255
199 223 255
199 223 255
199 223 255
199 223 255
198 223 255
198 223 255
198 223 255
198 223 255
198 223 255
198 223 255
198 223 255
198 223 255
198 223 255
198 223 255
198 223 255
198 223 255
198 223 255
198 223 255
197 223 255
197 222 255
197 222 255
197 222 255
197 222 255
197 222 255
197 222 255
197 222 255
197 222 255
197 222 255
197 222 255
197 222 255
197 222 255
197 222 255
197 222 255
196 222 255
196 222 255
196 222 255
196 222 255
196 222 255
196 222 255
196 222 255
196 222 255
196 222 255
196 222 255
196 222 255
196 222 255
196 222 255
196 222 255
196 221 255
196 221 255
195 221 255
195 221 255
195 221 255
195 221 255
195 221 255
195 221 255
195 221 255
195 221 255
195 221 255
195 221 255
195 221 255
195 221 255
195 221 255
195 221 255
195 221 255
195 221 255
195 221 255
195 221 255
194 221 255
194 221 255
194 221 255
194 221 255
194 221 255
194 221 255
194 221 255
194 221 255
194 221 255
194 221 255
194 221 255
194 221 255
194 221 255
194 221 255
194 221 255
194 221 255
194 221 255
194 221 255
194 221 255
194 221 255
194 221 255
194 221 255
194 220 255
194 220 255
194 220 255
194 220 255
194 220 255
194 220 255
194 220 255
194 220 255
194 220 255
193 220 255
193 220 255
193 220 255
193 220 255
193 220 255
193 220 255
193 220 255
193 220 255
193 220 255
193 220 255
193 220 255
193 220 255
193 220 255
193 220 255
193 220 255
193 220 255
193 220 255
193 220 255
193 220 255
193 220 255
193 220 255
193 220 255
193 220 255
193 220 255
193 220 255
193 220 255
193 220 255
193 220 255
194 220 255
194 220 255
194 220 255
194 220 255
194 220 255
194 220 255
194 220 255
194 220 255
194 221 255
194 221 255
194 221 255
194 221 255
194 221 255
194 221 255
194 221 255
194 221 255
194 221 255
194 221 255
194 221 255
194 221 255
194 221 255
194 221 255
194 221 255
194 221 255
194 221 255
194 221 255
194 221 255
194 221 255
194 221 255
194 221 255
194 221 255
195 221 255
195 221 255
195 221 255
195 221 255
195 221 255
195 221 255
195 221 255
195 221 255
195 221 255
195 221 255
195 221 255
195 221 255
195 221 255
195 221 255
195 221 255
195 221 255
195 221 255
195 221 255
196 221 255
196 221 255
196 222 255
196 222 255
196 222 255
196 222 255
196 222 255
196 222 255
196 222 255
196 222 255
196 222 255
196 222 255
196 222 255
196 222 255
196 222 255
196 222 255
197 222 255
197 222 255
197 222 255
197 222 255
197 222 255
197 222 255
197 222 255
197 222 255
197 222 255
197 222 255
197 222 255
197 222 255
197 222 255
197 222 255
197 223 255
198 223 255
198 223 255
198 223 255
198 223 255
198 223 255
198 223 255
198 223 255
198 223 255
198 223 255
198 223 255
198 223 255
198 223 255
198 223 255
198 223 255
199 223 255
199 223 255
199 223 255
199 223 255
199 223 255
199 223 255
199 223 255
199 223 255
199 223 255
199 223 255
199 223 255
199 223 255
199 224 255
199 224 255
199 224 255
200 224 255
200 224 255
200 224 255
200 224 255
200 224 255
200 224 255
200 224 255
200 224 255
200 224 255
200 224 255
200 224 255
200 224 255
200 224 255
200 224 255
201 224 255
201 224 255
201 224 255
201 224 255
201 224 255
201 224 255
201 224 255
201 224 255
201 224 255
201 224 255
201 225 255
201 225 255
201 225 255
201 225 255
201 225 255
202 225 255
202 225 255
202 225 255
202 225 255
202 225 255
202 225 255
202 225 255
202 225 255
202 225 255
202 225 255
202 225 255
202 225 255
202 225 255
202 225 255
202 225 255
202 225 255
203 225 255
203 225 255
203 225 255
203 225 255
203 225 255
203 225 255
203 225 255
203 225 255
203 225 255
203 226 255
203 226 255
203 226 255
203 226 255
203 226 255
203 226 255
203 226 255
203 226 255
204 226 255
204 226 255
204 226 255
204 226 255
204 226 255
204 226 255
204 226 255
204 226 255
204 226 255
204 226 255
204 226 255
204 226 255
204 226 255
204 226 255
204 226 255
204 226 255
204 226 255
204 226 255
204 226 255
204 226 255
204 226 255
204 226 255
204 226 255
204 226 255
204 226 255
204 226 255
204 226 255
204 226 255
204 226 255
204 226 255
204 226 255
204 226 255
204 226 255
203 226 255
203 226 255
203 226 255
203 226 255
203 226 255
203 226 255
203 226 255
203 225 255
203 225 255
203 225 255
203 225 255
203 225 255
203 225 255
203 225 255
203 225 255
203 225 255
202 225 255
202 225 255
202 225 255
202 225 255
202 225 255
202 225 255
202 225 255
202 225 255
202 225 255
202 225 255
202 225 255
202 225 255
202 225 255
202 225 255
202 225 255
202 225 255
201 225 255
201 225 255
201 225 255
201 225 255
201 225 255
201 224 255
201 224 255
201 224 255
201 224 255
201 224 255
201 224 255
201 224 255
201 224 255
201 224 255
201 224 255
200 224 255
200 224 255
200 224 255
200 224 255
200 224 255
200 224 255
200 224 255
200 224 255
200 224 255
200 224 255
200 224 255
200 224 255
200 224 255
200 224 255
200 224 255
199 224 255
199 224 255
199 223 255
199 223 255
199 223 255
199 223 255
199 223 255
199 223 255
199 223 255
199 223 255
199 223 255
199 223 255
199 223 255
199 223 255
198 223 255
198 223 255
198 223 255
198 223 255
198 223 255
198 223 255
198 223 255
198 223 255
198 223 255
198 223 255
198 223 255
198 223 255
198 223 255
198 223 255
197 223 255
197 222 255
197 222 255
197 222 255
197 222 255
197 222 255
197 222 255
197 222 255
197 222 255
197 222 255
197 222 255
197 222 255
197 222 255
197 222 255
197 222 255
196 222 255
196 222 255
196 222 255
196 222 255
196 222 255
196 222 255
196 222 255
196 222 255
196 222 255
196 222 255
196 222 255
196 222 255
196 222 255
196 222 255
196 222 255
196 221 255
195 221 255
195 221 255
195 221 255
195 221 255
195 221 255
195 221 255
195 221 255
195 221 255
195 221 255
195 221 255
195 221 255
195 221 255
195 221 255
195 221 255
195 221 255
195 221 255
195 221 255
195 221 255
195 221 255
194 221 255
194 221 255
194 221 255
194 221 255
194 221 255
194 221 255
194 221 255
194 221 255
194 221 255
194 221 255
194 221 255
194 221 255
194 221 255
194 221 255
194 221 255
194 221 255
194 221 255
194 221 255
194 221 255
194 221 255
194 221 255
194 221 255
194 221 255
194 221 255
194 221 255
194 220 255
194 220 255
194 220 255
194 220 255
194 220 255
194 220 255
194 220 255
194 220 255
194 220 255
194 220 255
194 220 255
194 220 255
194 220 255
194 220 255
194 220 255
194 220 255
194 220 255
194 220 255
194 220 255
194 220 255
194 220 255
194 220 255
194 220 255
194 220 255
194 220 255
194 220 255
194 220 255
194 220 255
194 220 255
194 220 255
194 220 255
194 220 255
194 220 255
194 220 255
194 221 255
194 221 255
194 221 255
194 221 255
194 221 255
194 221 255
194 221 255
194 221 255
194 221 255
194 221 255
194 221 255
194 221 255
194 221 255
194 221 255
194 221 255
194 221 255
194 221 255
194 221 255
194 221 255
194 221 255
194 221 255
194 221 255
194 221 255
194 221 255
195 221 255
195 221 255
195 221 255
195 221 255
195 221 255
195 221 255
195 221 255
195 221 255
195 221 255
195 221 255
195 221 255
195 221 255
195 221 255
195 221 255
195 221 255
195 221 255
195 221 255
195 221 255
195 221 255
195 221 255
196 221 255
196 222 255
196 222 255
196 222 255
196 222 255
196 222 255
196 222 255
196 222 255
196 222 255
196 222 255
196 222 255
196 222 255
196 222 255
196 222 255
196 222 255
196 222 255
197 222 255
197 222 255
197 222 255
197 222 255
197 222 255
197 222 255
197 222 255
197 222 255
197 222 255
197 222 255
197 222 255
197 222 255
197 222 255
197 222 255
197 223 255
198 223 255
198 223 255
198 223 255
198 223 255
198 223 255
198 223 255
198 223 255
198 223 255
198 223 255
198 223 255
198 223 255
198 223 255
198 223 255
198 223 255
199 223 255
199 223 255
199 223 255
199 223 255
199 223 255
199 223 255
199 223 255
199 223 255
199 223 255
199 223 255
199 223 255
199 223 255
199 224 255
199 224 255
199 224 255
200 224 255
200 224 255
200 224 255
200 224 255
200 224 255
200 224 255
200 224 255
200 224 255
200 224 255
200 224 255
200 224 255
200 224 255
200 224 255
200 224 255
201 224 255
201 224 255
201 224 255
201 224 255
201 224 255
201 224 255
201 224 255
201 224 255
201 224 255
201 224 255
201 225 255
201 225 255
201 225 255
201 225 255
201 225 255
202 225 255
202 225 255
202 225 255
202 225 255
202 225 255
202 225 255
202 225 255
202 225 255
202 225 255
202 225 255
202 225 255
202 225 255
202 225 255
202 225 255
202 225 255
202 225 255
203 225 255
203 225 255
203 225 255
203 225 255
203 225 255
203 225 255
203 225 255
203 225 255
203 225 255
203 226 255
203 226 255
203 226 255
203 226 255
203 226 255
203 226 255
203 226 255
204 226 255
204 226 255
204 226 255
204 226 255
204 226 255
204 226 255
204 226 255
204 226 255
204 226 255
204 226 255
204 226 255
204 226 255
204 226 255
204 226 255
204 226 255
204 226 255
204 226 255
204 226 255
205 226 255
205 226 255
204 226 255
204 226 255
204 226 255
204 226 255
204 226 255
204 226 255
204 226 255
204 226 255
204 226 255
204 226 255
204 226 255
204 226 255
204 226 255
204 226 255
204 226 255
204 226 255
204 226 255
204 226 255
203 226 255
203 226 255
203 226 255
203 226 255
203 226 255
203 226 255
203 226 255
203 225 255
203 225 255
203 225 255
203 225 255
203 225 255
203 225 255
203 225 255
203 225 255
203 225 255
202 225 255
202 225 255
202 225 255
202 225 255
202 225 255
202 225 255
202 225 255
202 225 255
202 225 255
202 225 255
202 225 255
202 225 255
202 225 255
202 225 255
202 225 255
202 225 255
201 225 255
201 225 255
201 225 255
201 225 255
201 225 255
201 224 255
201 224 255
201 224 255
201 224 255
201 224 255
201 224 255
201 224 255
201 224 255
201 224 255
201 224 255
200 224 255
200 224 255
200 224 255
200 224 255
200 224 255
200 224 255
200 224 255
200 224 255
200 224 255
200 224 255
200 224 255
200 224 255
200 224 255
200 224 255
200 224 255
199 224 255
199 224 255
199 223 255
199 223 255
199 223 255
199 223 255
199 223 255
199 223 255
199 223 255
199 223 255
199 223 255
199 223 255
199 223 255
199 223 255
198 223 255
198 223 255
198 223 255
198 223 255
198 223 255
198 223 255
198 223 255
198 223 255
198 223 255
198 223 255
198 223 255
198 223 255
198 223 255
198 223 255
197 223 255
197 222 255
197 222 255
197 222 255
197 222 255
197 222 255
197 222 255
197 222 255
197 222 255
197 222 255
197 222 255
197 222 255
197 222 255
197 222 255
197 222 255
196 222 255
196 222 255
196 222 255
196 222 255
196 222 255
196 222 255
196 222 255
196 222 255
196 222 255
196 222 255
196 222 255
196 222 255
196 222 255
196 222 255
196 222 255
196 221 255
195 221 255
195 221 255
195 221 255
195 221 255
195 221 255
195 221 255
195 221 255
195 221 255
195 221 255
195 221 255
195 221 255
195 221 255
195 221 255
195 221 255
195 221 255
195 221 255
195 221 255
195 221 255
195 221 255
195 221 255
194 221 255
194 221 255
194 221 255
194 221 255
194 221 255
194 221 255
194 221 255
194 221 255
194 221 255
194 221 255
194 221 255
194 221 255
194 221 255
194 221 255
194 221 255
194 221 255
194 221 255
194 221 255
194 221 255
194 221 255
194 221 255
194 221 255
194 221 255
194 221 255
194 221 255
194 221 255
194 221 255
194 221 255
194 221 255
194 221 255
194 221 255
194 220 255
194 220 255
194 220 255
194 220 255
194 220 255
194 220 255
194 220 255
194 220 255
194 220 255
194 220 255
194 220 255
194 220 255
194 220 255
194 220 255
194 220 255
194 220 255
194 221 255
194 221 255
194 221 255
194 221 255
194 221 255
194 221 255
194 221 255
194 221 255
194 221 255
194 221 255
194 221 255
194 221 255
194 221 255
194 221 255
194 221 255
194 221 255
194 221 255
194 221 255
194 221 255
194 221 255
194 221 255
194 221 255
194 221 255
194 221 255
194 221 255
194 221 255
194 221 255
194 221 255
194 221 255
194 221 255
195 221 255
195 221 255
195 221 255
195 221 255
195 221 255
195 221 255
195 221 255
195 221 255
195 221 255
195 221 255
195 221 255
195 221 255
195 221 255
195 221 255
195 221 255
195 221 255
195 221 255
195 221 255
195 221 255
195 221 255
196 221 255
196 221 255
196 222 255
196 222 255
196 222 255
196 222 255
196 222 255
196 222 255
196 222 255
196 222 255
196 222 255
196 222 255
196 222 255
196 222 255
196 222 255
196 222 255
196 222 255
197 222 255
197 222 255
197 222 255
197 222 255
197 222 255
197 222 255
197 222 255
197 222 255
197 222 255
197 222 255
197 222 255
197 222 255
197 222 255
197 222 255
197 223 255
198 223 255
198 223 255
198 223 255
198 223 255
198 223 255
198 223 255
198 223 255
198 223 255
198 223 255
198 223 255
198 223 255
198 223 255
198 223 255
198 223 255
199 223 255
199 223 255
199 223 255
199 223 255
199 223 255
199 223 255
199 223 255
199 223 255
199 223 255
199 223 255
199 223 255
199 223 255
199 224 255
199 224 255
200 224 255
200 224 255
200 224 255
200 224 255
200 224 255
200 224 255
200 224 255
200 224 255
200 224 255
200 224 255
200 224 255
200 224 255
200 224 255
200 224 255
200 224 255
201 224 255
201 224 255
201 224 255
201 224 255
201 224 255
201 224 255
201 224 255
201 224 255
201 224 255
201 224 255
201 225 255
201 225 255
201 225 255
201 225 255
201 225 255
202 225 255
202 225 255
202 225 255
202 225 255
202 225 255
202 225 255
202 225 255
202 225 255
202 225 255
202 225 255
202 225 255
202 225 255
202 225 255
202 225 255
202 225 255
203 225 255
203 225 255
203 225 255
203 225 255
203 225 255
203 225 255
203 225 255
203 225 255
203 225 255
203 225 255
203 226 255
203 226 255
203 226 255
203 226 255
203 226 255
203 226 255
203 226 255
204 226 255
204 226 255
204 226 255
204 226 255
204 226 255
204 226 255
204 226 255
204 226 255
204 226 255
204 226 255
204 226 255
204 226 255
204 226 255
204 226 255
204 226 255
204 226 255
204 226 255
204 226 255
205 226 255
205 226 255
205 226 255
205 226 255
205 226 255
205 226 255
204 226 255
204 226 255
204 226 255
204 226 255
204 226 255
204 226 255
204 226 255
204 226 255
204 226 255
204 226 255
204 226 255
204 226 255
204 226 255
204 226 255
204 226 255
204 226 255
204 226 255
204 226 255
203 226 255
203 226 255
203 226 255
203 226 255
203 226 255
203 226 255
203 226 255
203 226 255
203 225 255
203 225 255
203 225 255
203 225 255
203 225 255
203 225 255
203 225 255
203 225 255
203 225 255
202 225 255
202 225 255
202 225 255
202 225 255
202 225 255
202 225 255
202 225 255
202 225 255
202 225 255
202 225 255
202 225 255
202 225 255
202 225 255
202 225 255
202 225 255
201 225 255
201 225 255
201 225 255
201 225 255
201 225 255
201 224 255
201 224 255
201 224 255
201 224 255
201 224 255
201 224 255
201 224 255
201 224 255
201 224 255
201 224 255
200 224 255
200 224 255
200 224 255
200 224 255
200 224 255
200 224 255
200 224 255
200 224 255
200 224 255
200 224 255
200 224 255
200 224 255
200 224 255
200 224 255
200 224 255
199 224 255
199 224 255
199 223 255
199 223 255
199 223 255
199 223 255
199 223 255
199 223 255
199 223 255
199 223 255
199 223 255
199 223 255
199 223 255
199 223 255
198 223 255
198 223 255
198 223 255
198 223 255
198 223 255
198 223 255
198 223 255
198 223 255
198 223 255
198 223 255
198 223 255
198 223 255
198 223 255
198 223 255
197 223 255
197 222 255
197 222 255
197 222 255
197 222 255
197 222 255
197 222 255
197 222 255
197 222 255
197 222 255
197 222 255
197 222 255
197 222 255
197 222 255
197 222 255
196 222 255
196 222 255
196 222 255
196 222 255
196 222 255
196 222 255
196 222 255
196 222 255
196 222 255
196 222 255
196 222 255
196 222 255
196 222 255
196 222 255
196 222 255
196 221 255
196 221 255
195 221 255
195 221 255
195 221 255
195 221 255
195 221 255
195 221 255
195 221 255
195 221 255
195 221 255
195 221 255
195 221 255
195 221 255
195 221 255
195 221 255
195 221 255
195 221 255
195 221 255
195 221 255
195 221 255
195 221 255
195 221 255
194 221 255
194 221 255
194 221 255
194 221 255
194 221 255
194 221 255
194 221 255
194 221 255
194 221 255
194 221 255
194 221 255
194 221 255
194 221 255
194 221 255
194 221 255
194 221 255
194 221 255
194 221 255
194 221 255
194 221 255
194 221 255
194 221 255
194 221 255
194 221 255
194 221 255
194 221 255
194 221 255
194 221 255
194 221 255
194 221 255
194 221 255
194 221 255
194 221 255
194 221 255
194 221 255
194 221 255
194 221 255
194 221 255
194 221 255
194 221 255
194 221 255
194 221 255
194 221 255
194 221 255
194 221 255
194 221 255
194 221 255
194 221 255
194 221 255
194 221 255
194 221 255
194 221 255
194 221 255
194 221 255
194 221 255
194 221 255
194 221 255
194 221 255
194 221 255
194 221 255
194 221 255
194 221 255
194 221 255
194 221 255
194 221 255
194 221 255
194 221 255
194 221 255
194 221 255
194 221 255
195 221 255
195 221 255
195 221 255
195 221 255
195 221 255
195 221 255
195 221 255
195 221 255
195 221 255
195 221 255
195 221 255
195 221 255
195 221 255
195 221 255
195 221 255
195 221 255
195 221 255
195 221 255
195 221 255
195 221 255
195 221 255
196 221 255
196 221 255
196 222 255
196 222 255
196 222 255
196 222 255
196 222 255
196 222 255
196 222 255
196 222 255
196 222 255
196 222 255
196 222 255
196 222 255
196 222 255
196 222 255
196 222 255
197 222 255
197 222 255
197 222 255
197 222 255
197 222 255
197 222 255
197 222 255
197 222 255
197 222 255
197 222 255
197 222 255
197 222 255
197 222 255
197 222 255
197 223 255
198 223 255
198 223 255
198 223 255
198 223 255
198 223 255
198 223 255
198 223 255
198 223 255
198 223 255
198 223 255
198 223 255
198 223 255
198 223 255
198 223 255
199 223 255
199 223 255
199 223 255
199 223 255
199 223 255
199 223 255
199 223 255
199 223 255
199 223 255
199 223 255
199 223 255
199 223 255
199 224 255
199 224 255
200 224 255
200 224 255
200 224 255
200 224 255
200 224 255
200 224 255
200 224 255
200 224 255
200 224 255
200 224 255
200 224 255
200 224 255
200 224 255
200 224 255
200 224 255
201 224 255
201 224 255
201 224 255
201 224 255
201 224 255
201 224 255
201 224 255
201 224 255
201 224 255
201 224 255
201 225 255
201 225 255
201 225 255
201 225 255
201 225 255
202 225 255
202 225 255
202 225 255
202 225 255
202 225 255
202 225 255
202 225 255
202 225 255
202 225 255
202 225 255
202 225 255
202 225 255
202 225 255
202 225 255
202 225 255
203 225 255
203 225 255
203 225 255
203 225 255
203 225 255
203 225 255
203 225 255
203 225 255
203 225 255
203 226 255
203 226 255
203 226 255
203 226 255
203 226 255
203 226 255
203 226 255
203 226 255
204 226 255
204 226 255
204 226 255
204 226 255
204 226 255
204 226 255
204 226 255
204 226 255
204 226 255
204 226 255
204 226 255
204 226 255
204 226 255
204 226 255
204 226 255
204 226 255
204 226 255
204 226 255
205 226 255
205 226 255
205 226 255
205 226 255
205 226 255
205 226 255
205 226 255
205 226 255
205 226 255
205 226 255
205 226 255
204 226 255
204 226 255
204 226 255
204 226 255
204 226 255
204 226 255
204 226 255
204 226 255
204 226 255
204 226 255
204 226 255
204 226 255
204 226 255
204 226 255
204 226 255
204 226 255
204 226 255
204 226 255
203 226 255
203 226 255
203 226 255
203 226 255
203 226 255
203 226 255
203 226 255
203 225 255
203 225 255
203 225 255
203 225 255
203 225 255
203 225 255
203 225 255
203 225 255
203 225 255
202 225 255
202 225 255
202 225 255
202 225 255
202 225 255
202 225 255
202 225 255
202 225 255
202 225 255
202 225 255
202 225 255
202 225 255
202 225 255
202 225 255
202 225 255
201 225 255
201 225 255
201 225 255
201 225 255
201 225 255
201 224 255
201 224 255
201 224 255
201 224 255
201 224 255
201 224 255
201 224 255
201 224 255
201 224 255
201 224 255
200 224 255
200 224 255
200 224 255
200 224 255
200 224 255
200 224 255
200 224 255
200 224 255
200 224 255
200 224 255
200 224 255
200 224 255
200 224 255
200 224 255
200 224 255
199 224 255
199 224 255
199 223 255
199 223 255
199 223 255
199 223 255
199 223 255
199 223 255
199 223 255
199 223 255
199 223 255
199 223 255
199 223 255
199 223 255
198 223 255
198 223 255
198 223 255
198 223 255
198 223 255
198 223 255
198 223 255
198 223 255
198 223 255
198 223 255
198 223 255
198 223 255
198 223 255
198 223 255
197 223 255
197 222 255
197 222 255
197 222 255
197 222 255
197 222 255
197 222 255
197 222 255
197 222 255
197 222 255
197 222 255
197 222 255
197 222 255
197 222 255
197 222 255
197 222 255
196 222 255
196 222 255
196 222 255
196 222 255
196 222 255
196 222 255
196 222 255
196 222 255
196 222 255
196 222 255
196 222 255
196 222 255
196 222 255
196 222 255
196 222 255
196 221 255
196 221 255
195 221 255
195 221 255
195 221 255
195 221 255
195 221 255
195 221 255
195 221 255
195 221 255
195 221 255
195 221 255
195 221 255
195 221 255
195 221 255
195 221 255
195 221 255
195 221 255
195 221 255
195 221 255
195 221 255
195 221 255
195 221 255
195 221 255
194 221 255
194 221 255
194 221 255
194 221 255
194 221 255
194 221 255
194 221 255
194 221 255
194 221 255
194 221 255
194 221 255
194 221 255
194 221 255
194 221 255
194 221 255
194 221 255
194 221 255
194 221 255
194 221 255
194 221 255
194 221 255
194 221 255
194 221 255
194 221 255
194 221 255
194 221 255
194 221 255
194 221 255
194 221 255
194 221 255
194 221 255
194 221 255
194 221 255
194 221 255
194 221 255
194 221 255
194 221 255
194 221 255
194 221 255
194 221 255
194 221 255
194 221 255
194 221 255
194 221 255
194 221 255
194 221 255
194 221 255
194 221 255
194 221 255
194 221 255
194 221 255
194 221 255
194 221 255
194 221 255
194 221 255
194 221 255
194 221 255
194 221 255
194 221 255
194 221 255
194 221 255
194 221 255
195 221 255
195 221 255
195 221 255
195 221 255
195 221 255
195 221 255
195 221 255
195 221 255
195 221 255
195 221 255
195 221 255
195 221 255
195 221 255
195 221 255
195 221 255
195 221 255
195 221 255
195 221 255
195 221 255
195 221 255
195 221 255
195 221 255
196 221 255
196 221 255
196 222 255
196 222 255
196 222 255
196 222 255
196 222 255
196 222 255
196 222 255
196 222 255
196 222 255
196 222 255
196 222 255
196 222 255
196 222 255
196 222 255
196 222 255
197 222 255
197 222 255
197 222 255
197 222 255
197 222 255
197 222 255
197 222 255
197 222 255
197 222 255
197 222 255
197 222 255
197 222 255
197 222 255
197 222 255
197 222 255
198 223 255
198 223 255
198 223 255
198 223 255
198 223 255
198 223 255
198 223 255
198 223 255
198 223 255
198 223 255
198 223 255
198 223 255
198 223 255
198 223 255
198 223 255
199 223 255
199 223 255
199 223 255
199 223 255
199 223 255
199 223 255
199 223 255
199 223 255
199 223 255
199 223 255
199 223 255
199 223 255
199 224 255
199 224 255
200 224 255
200 224 255
200 224 255
200 224 255
200 224 255
200 224 255
200 224 255
200 224 255
200 224 255
200 224 255
200 224 255
200 224 255
200 224 255
200 224 255
200 224 255
201 224 255
201 224 255
201 224 255
201 224 255
201 224 255
201 224 255
201 224 255
201 224 255
201 224 255
201 224 255
201 225 255
201 225 255
201 225 255
201 225 255
201 225 255
202 225 255
202 225 255
202 225 255
202 225 255
202 225 255
202 225 255
202 225 255
202 225 255
202 225 255
202 225 255
202 225 255
202 225 255
202 225 255
202 225 255
202 225 255
203 225 255
203 225 255
203 225 255
203 225 255
203 225 255
203 225 255
203 225 255
203 225 255
203 225 255
203 226 255
203 226 255
203 226 255
203 226 255
203 226 255
203 226 255
203 226 255
203 226 255
204 226 255
204 226 255
204 226 255
204 226 255
204 226 255
204 226 255
204 226 255
204 226 255
204 226 255
204 226 255
204 226 255
204 226 255
204 226 255
204 226 255
204 226 255
204 226 255
204 226 255
205 226 255
205 226 255
205 226 255
205 226 255
205 226 255
205 226 255
205 226 255
205 227 255
205 227 255
205 226 255
205 226 255
205 226 255
205 226 255
205 226 255
205 226 255
205 226 255
204 226 255
204 226 255
204 226 255
204 226 255
204 226 255
204 226 255
204 226 255
204 226 255
204 226 255
204 226 255
204 226 255
204 226 255
204 226 255
204 226 255
204 226 255
204 226 255
204 226 255
204 226 255
203 226 255
203 226 255
203 226 255
203 226 255
203 226 255
203 226 255
203 226 255
203 225 255
203 225 255
203 225 255
203 225 255
203 225 255
203 225 255
203 225 255
203 225 255
203 225 255
202 225 255
202 225 255
202 225 255
202 225 255
202 225 255
202 225 255
202 225 255
202 225 255
202 225 255
202 225 255
202 225 255
202 225 255
202 225 255
202 225 255
202 225 255
201 225 255
201 225 255
201 225 255
201 225 255
201 225 255
201 224 255
201 224 255
201 224 255
201 224 255
201 224 255
201 224 255
201 224 255
201 224 255
201 224 255
201 224 255
200 224 255
200 224 255
200 224 255
200 224 255
200 224 255
200 224 255
200 224 255
200 224 255
200 224 255
200 224 255
200 224 255
200 224 255
200 224 255
200 224 255
200 224 255
199 224 255
199 224 255
199 223 255
199 223 255
199 223 255
199 223 255
199 223 255
199 223 255
199 223 255
199 223 255
199 223 255
199 223 255
199 223 255
199 223 255
198 223 255
198 223 255
198 223 255
198 223 255
198 223 255
198 223 255
198 223 255
198 223 255
198 223 255
198 223 255
198 223 255
198 223 255
198 223 255
198 223 255
198 223 255
197 222 255
197 222 255
197 222 255
197 222 255
197 222 255
197 222 255
197 222 255
197 222 255
197 222 255
197 222 255
197 222 255
197 222 255
197 222 255
197 222 255
197 222 255
196 222 255
196 222 255
196 222 255
196 222 255
196 222 255
196 222 255
196 222 255
196 222 255
196 222 255
196 222 255
196 222 255
196 222 255
196 222 255
196 222 255
196 222 255
196 222 255
196 221 255
195 221 255
195 221 255
195 221 255
195 221 255
195 221 255
195 221 255
195 221 255
195 221 255
195 221 255
195 221 255
195 221 255
195 221 255
195 221 255
195 221 255
195 221 255
195 221 255
195 221 255
195 221 255
195 221 255
195 221 255
195 221 255
195 221 255
195 221 255
195 221 255
194 221 255
194 221 255
194 221 255
194 221 255
194 221 255
194 221 255
194 221 255
194 221 255
194 221 255
194 221 255
194 221 255
194 221 255
194 221 255
194 221 255
194 221 255
194 221 255
194 221 255
194 221 255
194 221 255
194 221 255
194 221 255
194 221 255
194 221 255
194 221 255
194 221 255
194 221 255
194 221 255
194 221 255
194 221 255
194 221 255
194 221 255
194 221 255
194 221 255
194 221 255
194 221 255
194 221 255
194 221 255
194 221 255
194 221 255
194 221 255
194 221 255
194 221 255
194 221 255
194 221 255
194 221 255
194 221 255
194 221 255
194 221 255
194 221 255
194 221 255
194 221 255
194 221 255
194 221 255
194 221 255
195 221 255
195 221 255
195 221 255
195 221 255
195 221 255
195 221 255
195 221 255
195 221 255
195 221 255
195 221 255
195 221 255
195 221 255
195 221 255
195 221 255
195 221 255
195 221 255
195 221 255
195 221 255
195 221 255
195 221 255
195 221 255
195 221 255
195 221 255
196 221 255
196 221 255
196 222 255
196 222 255
196 222 255
196 222 255
196 222 255
196 222 255
196 222 255
196 222 255
196 222 255
196 222 255
196 222 255
196 222 255
196 222 255
196 222 255
196 222 255
196 222 255
197 222 255
197 222 255
197 222 255
197 222 255
197 222 255
197 222 255
197 222 255
197 222 255
197 222 255
197 222 255
197 222 255
197 222 255
197 222 255
197 222 255
197 222 255
198 223 255
198 223 255
198 223 255
198 223 255
198 223 255
198 223 255
198 223 255
198 223 255
198 223 255
198 223 255
198 223 255
198 223 255
198 223 255
198 223 255
198 223 255
199 223 255
199 223 255
199 223 255
199 223 255
199 223 255
199 223 255
199 223 255
199 223 255
199 223 255
199 223 255
199 223 255
199 223 255
199 224 255
199 224 255
200 224 255
200 224 255
200 224 255
200 224 255
200 224 255
200 224 255
200 224 255
200 224 255
200 224 255
200 224 255
200 224 255
200 224 255
200 224 255
200 224 255
201 224 255
201 224 255
201 224 255
201 224 255
201 224 255
201 224 255
201 224 255
201 224 255
201 224 255
201 224 255
201 224 255
201 225 255
201 225 255
201 225 255
201 225 255
202 225 255
202 225 255
202 225 255
202 225 255
202 225 255
202 225 255
202 225 255
202 225 255
202 225 255
202 225 255
202 225 255
202 225 255
202 225 255
202 225 255
202 225 255
202 225 255
203 225 255
203 225 255
203 225 255
203 225 255
203 225 255
203 225 255
203 225 255
203 225 255
203 225 255
203 226 255
203 226 255
203 226 255
203 226 255
203 226 255
203 226 255
203 226 255
204 226 255
204 226 255
204 226 255
204 226 255
204 226 255
204 226 255
204 226 255
204 226 255
204 226 255
204 226 255
204 226 255
204 226 255
204 226 255
204 226 255
204 226 255
204 226 255
204 226 255
204 226 255
205 226 255
205 226 255
205 226 255
205 226 255
205 226 255
205 226 255
205 226 255
205 227 255
205 227 255
205 227 255
205 227 255
205 227 255
205 227 255
205 226 255
205 226 255
205 226 255
205 226 255
205 226 255
205 226 255
205 226 255
205 226 255
204 226 255
204 226 255
204 226 255
204 226 255
204 226 255
204 226 255
204 226 255
204 226 255
204 226 255
204 226 255
204 226 255
204 226 255
204 226 255
204 226 255
204 226 255
204 226 255
204 226 255
203 226 255
203 226 255
203 226 255
203 226 255
203 226 255
203 226 255
203 226 255
203 225 255
203 225 255
203 225 255
203 225 255
203 225 255
203 225 255
203 225 255
203 225 255
203 225 255
202 225 255
202 225 255
202 225 255
202 225 255
202 225 255
202 225 255
202 225 255
202 225 255
202 225 255
202 225 255
202 225 255
202 225 255
202 225 255
202 225 255
202 225 255
202 225 255
201 225 255
201 225 255
201 225 255
201 225 255
201 224 255
201 224 255
201 224 255
201 224 255
201 224 255
201 224 255
201 224 255
201 224 255
201 224 255
201 224 255
201 224 255
200 224 255
200 224 255
200 224 255
200 224 255
200 224 255
200 224 255
200 224 255
200 224 255
200 224 255
200 224 255
200 224 255
200 224 255
200 224 255
200 224 255
199 224 255
199 224 255
199 223 255
199 223 255
199 223 255
199 223 255
199 223 255
199 223 255
199 223 255
199 223 255
199 223 255
199 223 255
199 223 255
199 223 255
198 223 255
198 223 255
198 223 255
198 223 255
198 223 255
198 223 255
198 223 255
198 223 255
198 223 255
198 223 255
198 223 255
198 223 255
198 223 255
198 223 255
198 223 255
197 222 255
197 222 255
197 222 255
197 222 255
197 222 255
197 222 255
197 222 255
197 222 255
197 222 255
197 222 255
197 222 255
197 222 255
197 222 255
197 222 255
197 222 255
196 222 255
196 222 255
196 222 255
196 222 255
196 222 255
196 222 255
196 222 255
196 222 255
196 222 255
196 222 255
196 222 255
196 222 255
196 222 255
196 222 255
196 222 255
196 222 255
196 221 255
196 221 255
195 221 255
195 221 255
195 221 255
195 221 255
195 221 255
195 221 255
195 221 255
195 221 255
195 221 255
195 221 255
195 221 255
195 221 255
195 221 255
195 221 255
195 221 255
195 221 255
195 221 255
195 221 255
195 221 255
195 221 255
195 221 255
195 221 255
195 221 255
195 221 255
195 221 255
195 221 255
194 221 255
194 221 255
194 221 255
194 221 255
194 221 255
194 221 255
194 221 255
194 221 255
194 221 255
194 221 255
194 221 255
194 221 255
194 221 255
194 221 255
194 221 255
194 221 255
194 221 255
194 221 255
194 221 255
194 221 255
194 221 255
194 221 255
194 221 255
194 221 255
194 221 255
194 221 255
194 221 255
194 221 255
194 221 255
194 221 255
194 221 255
194 221 255
194 221 255
194 221 255
194 221 255
194 221 255
194 221 255
194 221 255
194 221 255
194 221 255
194 221 255
194 221 255
194 221 255
194 221 255
195 221 255
195 221 255
195 221 255
195 221 255
195 221 255
195 221 255
195 221 255
195 221 255
195 221 255
195 221 255
195 221 255
195 221 255
195 221 255
195 221 255
195 221 255
195 221 255
195 221 255
195 221 255
195 221 255
195 221 255
195 221 255
195 221 255
195 221 255
195 221 255
195 221 255
195 221 255
196 221 255
196 222 255
196 222 255
196 222 255
196 222 255
196 222 255
196 222 255
196 222 255
196 222 255
196 222 255
196 222 255
196 222 255
196 222 255
196 222 255
196 222 255
196 222 255
196 222 255
196 222 255
197 222 255
197 222 255
197 222 255
197 222 255
197 222 255
197 222 255
197 222 255
197 222 255
197 222 255
197 222 255
197 222 255
197 222 255
197 222 255
197 222 255
197 222 255
198 223 255
198 223 255
198 223 255
198 223 255
198 223 255
198 223 255
198 223 255
198 223 255
198 223 255
198 223 255
198 223 255
198 223 255
198 223 255
198 223 255
198 223 255
199 223 255
199 223 255
199 223 255
199 223 255
199 223 255
199 223 255
199 223 255
199 223 255
199 223 255
199 223 255
199 223 255
199 223 255
199 224 255
199 224 255
200 224 255
200 224 255
200 224 255
200 224 255
200 224 255
200 224 255
200 224 255
200 224 255
200 224 255
200 224 255
200 224 255
200 224 255
200 224 255
200 224 255
200 224 255
201 224 255
201 224 255
201 224 255
201 224 255
201 224 255
201 224 255
201 224 255
201 224 255
201 224 255
201 224 255
201 225 255
201 225 255
201 225 255
201 225 255
202 225 255
202 225 255
202 225 255
202 225 255
202 225 255
202 225 255
202 225 255
202 225 255
202 225 255
202 225 255
202 225 255
202 225 255
202 225 255
202 225 255
202 225 255
202 225 255
203 225 255
203 225 255
203 225 255
203 225 255
203 225 255
203 225 255
203 225 255
203 225 255
203 225 255
203 226 255
203 226 255
203 226 255
203 226 255
203 226 255
203 226 255
203 226 255
204 226 255
204 226 255
204 226 255
204 226 255
204 226 255
204 226 255
204 226 255
204 226 255
204 226 255
204 226 255
204 226 255
204 226 255
204 226 255
204 226 255
204 226 255
204 226 255
204 226 255
205 226 255
205 226 255
205 226 255
205 226 255
205 226 255
205 226 255
205 226 255
205 226 255
205 227 255
205 227 255
205 227 255
205 227 255
205 227 255
205 227 255
205 227 255
205 227 255
205 227 255
205 227 255
205 227 255
205 226 255
205 226 255
205 226 255
205 226 255
205 226 255
205 226 255
205 226 255
204 226 255
204 226 255
204 226 255
204 226 255
204 226 255
204 226 255
204 226 255
204 226 255
204 226 255
204 226 255
204 226 255
204 226 255
204 226 255
204 226 255
204 226 255
204 226 255
204 226 255
203 226 255
203 226 255
203 226 255
203 226 255
203 226 255
203 226 255
203 226 255
203 226 255
203 225 255
203 225 255
203 225 255
203 225 255
203 225 255
203 225 255
203 225 255
203 225 255
203 225 255
202 225 255
202 225 255
202 225 255
202 225 255
202 225 255
202 225 255
202 225 255
202 225 255
202 225 255
202 225 255
202 225 255
202 225 255
202 225 255
202 225 255
202 225 255
201 225 255
201 225 255
201 225 255
201 225 255
201 224 255
201 224 255
201 224 255
201 224 255
201 224 255
201 224 255
201 224 255
201 224 255
201 224 255
201 224 255
201 224 255
200 224 255
200 224 255
200 224 255
200 224 255
200 224 255
200 224 255
200 224 255
200 224 255
200 224 255
200 224 255
200 224 255
200 224 255
200 224 255
200 224 255
199 224 255
199 224 255
199 223 255
199 223 255
199 223 255
199 223 255
199 223 255
199 223 255
199 223 255
199 223 255
199 223 255
199 223 255
199 223 255
199 223 255
199 223 255
198 223 255
198 223 255
198 223 255
198 223 255
198 223 255
198 223 255
198 223 255
198 223 255
198 223 255
198 223 255
198 223 255
198 223 255
198 223 255
198 223 255
197 223 255
197 222 255
197 222 255
197 222 255
197 222 255
197 222 255
197 222 255
197 222 255
197 222 255
197 222 255
197 222 255
197 222 255
197 222 255
197 222 255
197 222 255
197 222 255
196 222 255
196 222 255
196 222 255
196 222 255
196 222 255
196 222 255
196 222 255
196 222 255
196 222 255
196 222 255
196 222 255
196 222 255
196 222 255
196 222 255
196 222 255
196 222 255
196 222 255
196 221 255
195 221 255
195 221 255
195 221 255
195 221 255
195 221 255
195 221 255
195 221 255
195 221 255
195 221 255
195 221 255
195 221 255
195 221 255
195 221 255
195 221 255
195 221 255
195 221 255
195 221 255
195 221 255
195 221 255
195 221 255
195 221 255
195 221 255
195 221 255
195 221 255
195 221 255
195 221 255
195 221 255
195 221 255
195 221 255
195 221 255
194 221 255
194 221 255
194 221 255
194 221 255
194 221 255
194 221 255
194 221 255
194 221 255
194 221 255
194 221 255
194 221 255
194 221 255
194 221 255
194 221 255
194 221 255
194 221 255
194 221 255
194 221 255
194 221 255
194 221 255
194 221 255
194 221 255
194 221 255
194 221 255
194 221 255
194 221 255
194 221 255
194 221 255
194 221 255
194 221 255
195 221 255
195 221 255
195 221 255
195 221 255
195 221 255
195 221 255
195 221 255
195 221 255
195 221 255
195 221 255
195 221 255
195 221 255
195 221 255
195 221 255
195 221 255
195 221 255
195 221 255
195 221 255
195 221 255
195 221 255
195 221 255
195 221 255
195 221 255
195 221 255
195 221 255
195 221 255
195 221 255
195 221 255
195 221 255
195 221 255
196 221 255
196 222 255
196 222 255
196 222 255
196 222 255
196 222 255
196 222 255
196 222 255
196 222 255
196 222 255
196 222 255
196 222 255
196 222 255
196 222 255
196 222 255
196 222 255
196 222 255
196 222 255
197 222 255
197 222 255
197 222 255
197 222 255
197 222 255
197 222 255
197 222 255
197 222 255
197 222 255
197 222 255
197 222 255
197 222 255
197 222 255
197 222 255
197 222 255
197 222 255
198 223 255
198 223 255
198 223 255
198 223 255
198 223 255
198 223 255
198 223 255
198 223 255
198 223 255
198 223 255
198 223 255
198 223 255
198 223 255
198 223 255
198 223 255
199 223 255
199 223 255
199 223 255
199 223 255
199 223 255
199 223 255
199 223 255
199 223 255
199 223 255
199 223 255
199 223 255
199 223 255
199 224 255
199 224 255
200 224 255
200 224 255
200 224 255
200 224 255
200 224 255
200 224 255
200 224 255
200 224 255
200 224 255
200 224 255
200 224 255
200 224 255
200 224 255
200 224 255
201 224 255
201 224 255
201 224 255
201 224 255
201 224 255
201 224 255
201 224 255
201 224 255
201 224 255
201 224 255
201 224 255
201 225 255
201 225 255
201 225 255
201 225 255
202 225 255
202 225 255
202 225 255
202 225 255
202 225 255
202 225 255
202 225 255
202 225 255
202 225 255
202 225 255
202 225 255
202 225 255
202 225 255
202 225 255
202 225 255
203 225 255
203 225 255
203 225 255
203 225 255
203 225 255
203 225 255
203 225 255
203 225 255
203 225 255
203 226 255
203 226 255
203 226 255
203 226 255
203 226 255
203 226 255
203 226 255
203 226 255
204 226 255
204 226 255
204 226 255
204 226 255
204 226 255
204 226 255
204 226 255
204 226 255
204 226 255
204 226 255
204 226 255
204 226 255
204 226 255
204 226 255
204 226 255
204 226 255
204 226 255
205 226 255
205 226 255
205 226 255
205 226 255
205 226 255
205 226 255
205 226 255
205 227 255
205 227 255
205 227 255
205 227 255
205 227 255
205 227 255
205 227 255
205 227 255
205 227 255
205 227 255
205 227 255
205 227 255
205 227 255
205 227 255
205 227 255
205 227 255
205 226 255
205 226 255
205 226 255
205 226 255
205 226 255
205 226 255
205 226 255
204 226 255
204 226 255
204 226 255
204 226 255
204 226 255
204 226 255
204 226 255
204 226 255
204 226 255
204 226 255
204 226 255
204 226 255
204 226 255
204 226 255
204 226 255
204 226 255
204 226 255
204 226 255
203 226 255
203 226 255
203 226 255
203 226 255
203 226 255
203 226 255
203 226 255
203 225 255
203 225 255
203 225 255
203 225 255
203 225 255
203 225 255
203 225 255
203 225 255
203 225 255
202 225 255
202 225 255
202 225 255
202 225 255
202 225 255
202 225 255
202 225 255
202 225 255
202 225 255
202 225 255
202 225 255
202 225 255
202 225 255
202 225 255
202 225 255
201 225 255
201 225 255
201 225 255
201 225 255
201 225 255
201 224 255
201 224 255
201 224 255
201 224 255
201 224 255
201 224 255
201 224 255
201 224 255
201 224 255
201 224 255
200 224 255
200 224 255
200 224 255
200 224 255
200 224 255
200 224 255
200 224 255
200 224 255
200 224 255
200 224 255
200 224 255
200 224 255
200 224 255
200 224 255
199 224 255
199 224 255
199 224 255
199 223 255
199 223 255
199 223 255
199 223 255
199 223 255
199 223 255
199 223 255
199 223 255
199 223 255
199 223 255
199 223 255
199 223 255
198 223 255
198 223 255
198 223 255
198 223 255
198 223 255
198 223 255
198 223 255
198 223 255
198 223 255
198 223 255
198 223 255
198 223 255
198 223 255
198 223 255
197 223 255
197 222 255
197 222 255
197 222 255
197 222 255
197 222 255
197 222 255
197 222 255
197 222 255
197 222 255
197 222 255
197 222 255
197 222 255
197 222 255
197 222 255
197 222 255
196 222 255
196 222 255
196 222 255
196 222 255
196 222 255
196 222 255
196 222 255
196 222 255
196 222 255
196 222 255
196 222 255
196 222 255
196 222 255
196 222 255
196 222 255
196 222 255
196 222 255
196 222 255
196 221 255
195 221 255
195 221 255
195 221 255
195 221 255
195 221 255
195 221 255
195 221 255
195 221 255
195 221 255
195 221 255
195 221 255
195 221 255
195 221 255
195 221 255
195 221 255
195 221 255
195 221 255
195 221 255
195 221 255
195 221 255
195 221 255
195 221 255
195 221 255
195 221 255
195 221 255
195 221 255
195 221 255
195 221 255
195 221 255
195 221 255
195 221 255
195 221 255
195 221 255
195 221 255
195 221 255
195 221 255
195 221 255
195 221 255
195 221 255
195 221 255
195 221 255
195 221 255
195 221 255
195 221 255
195 221 255
195 221 255
195 221 255
195 221 255
195 221 255
195 221 255
195 221 255
195 221 255
195 221 255
195 221 255
195 221 255
195 221 255
195 221 255
195 221 255
195 221 255
195 221 255
195 221 255
195 221 255
195 221 255
195 221 255
195 221 255
195 221 255
195 221 255
195 221 255
195 221 255
195 221 255
195 221 255
195 221 255
195 221 255
195 221 255
195 221 255
195 221 255
195 221 255
195 221 255
195 221 255
195 221 255
195 221 255
195 221 255
195 221 255
195 221 255
196 221 255
196 222 255
196 222 255
196 222 255
196 222 255
196 222 255
196 222 255
196 222 255
196 222 255
196 222 255
196 222 255
196 222 255
196 222 255
196 222 255
196 222 255
196 222 255
196 222 255
196 222 255
197 222 255
197 222 255
197 222 255
197 222 255
197 222 255
197 222 255
197 222 255
197 222 255
197 222 255
197 222 255
197 222 255
197 222 255
197 222 255
197 222 255
197 222 255
197 222 255
197 223 255
198 223 255
198 223 255
198 223 255
198 223 255
198 223 255
198 223 255
198 223 255
198 223 255
198 223 255
198 223 255
198 223 255
198 223 255
198 223 255
198 223 255
199 223 255
199 223 255
199 223 255
199 223 255
199 223 255
199 223 255
199 223 255
199 223 255
199 223 255
199 223 255
199 223 255
199 223 255
199 224 255
199 224 255
199 224 255
200 224 255
200 224 255
200 224 255
200 224 255
200 224 255
200 224 255
200 224 255
200 224 255
200 224 255
200 224 255
200 224 255
200 224 255
200 224 255
200 224 255
201 224 255
201 224 255
201 224 255
201 224 255
201 224 255
201 224 255
201 224 255
201 224 255
201 224 255
201 224 255
201 225 255
201 225 255
201 225 255
201 225 255
201 225 255
202 225 255
202 225 255
202 225 255
202 225 255
202 225 255
202 225 255
202 225 255
202 225 255
202 225 255
202 225 255
202 225 255
202 225 255
202 225 255
202 225 255
202 225 255
203 225 255
203 225 255
203 225 255
203 225 255
203 225 255
203 225 255
203 225 255
203 225 255
203 225 255
203 226 255
203 226 255
203 226 255
203 226 255
203 226 255
203 226 255
203 226 255
204 226 255
204 226 255
204 226 255
204 226 255
204 226 255
204 226 255
204 226 255
204 226 255
204 226 255
204 226 255
204 226 255
204 226 255
204 226 255
204 226 255
204 226 255
204 226 255
204 226 255
204 226 255
205 226 255
205 226 255
205 226 255
205 226 255
205 226 255
205 226 255
205 226 255
205 227 255
205 227 255
205 227 255
205 227 255
205 227 255
205 227 255
205 227 255
205 227 255
205 227 255
205 227 255
205 227 255
205 227 255
205 227 255
205 227 255
205 227 255
205 227 255
205 227 255
205 227 255
205 227 255
205 227 255
205 227 255
205 226 255
205 226 255
205 226 255
205 226 255
205 226 255
205 226 255
205 226 255
204 226 255
204 226 255
204 226 255
204 226 255
204 226 255
204 226 255
204 226 255
204 226 255
204 226 255
204 226 255
204 226 255
204 226 255
204 226 255
204 226 255
204 226 255
204 226 255
204 226 255
203 226 255
203 226 255
203 226 255
203 226 255
203 226 255
203 226 255
203 226 255
203 225 255
203 225 255
203 225 255
203 225 255
203 225 255
203 225 255
203 225 255
203 225 255
203 225 255
202 225 255
202 225 255
202 225 255
202 225 255
202 225 255
202 225 255
202 225 255
202 225 255
202 225 255
202 225 255
202 225 255
202 225 255
202 225 255
202 225 255
202 225 255
201 225 255
201 225 255
201 225 255
201 225 255
201 225 255
201 224 255
201 224 255
201 224 255
201 224 255
201 224 255
201 224 255
201 224 255
201 224 255
201 224 255
201 224 255
200 224 255
200 224 255
200 224 255
200 224 255
200 224 255
200 224 255
200 224 255
200 224 255
200 224 255
200 224 255
200 224 255
200 224 255
200 224 255
200 224 255
199 224 255
199 224 255
199 224 255
199 223 255
199 223 255
199 223 255
199 223 255
199 223 255
199 223 255
199 223 255
199 223 255
199 223 255
199 223 255
199 223 255
199 223 255
198 223 255
198 223 255
198 223 255
198 223 255
198 223 255
198 223 255
198 223 255
198 223 255
198 223 255
198 223 255
198 223 255
198 223 255
198 223 255
198 223 255
198 223 255
197 222 255
197 222 255
197 222 255
197 222 255
197 222 255
197 222 255
197 222 255
197 222 255
197 222 255
197 222 255
197 222 255
197 222 255
197 222 255
197 222 255
197 222 255
197 222 255
196 222 255
196 222 255
196 222 255
196 222 255
196 222 255
196 222 255
196 222 255
196 222 255
196 222 255
196 222 255
196 222 255
196 222 255
196 222 255
196 222 255
196 222 255
196 222 255
196 222 255
196 222 255
196 221 255
196 221 255
195 221 255
195 221 255
195 221 255
195 221 255
195 221 255
195 221 255
195 221 255
195 221 255
195 221 255
195 221 255
195 221 255
195 221 255
195 221 255
195 221 255
195 221 255
195 221 255
195 221 255
195 221 255
195 221 255
195 221 255
195 221 255
195 221 255
195 221 255
195 221 255
195 221 255
195 221 255
195 221 255
195 221 255
195 221 255
195 221 255
195 221 255
195 221 255
195 221 255
195 221 255
195 221 255
195 221 255
195 221 255
195 221 255
195 221 255
195 221 255
195 221 255
195 221 255
195 221 255
195 221 255
195 221 255
195 221 255
195 221 255
195 221 255
195 221 255
195 221 255
195 221 255
195 221 255
195 221 255
195 221 255
195 221 255
195 221 255
195 221 255
195 221 255
195 221 255
195 221 255
195 221 255
195 221 255
195 221 255
195 221 255
195 221 255
195 221 255
195 221 255
195 221 255
195 221 255
195 221 255
195 221 255
195 221 255
195 221 255
195 221 255
195 221 255
195 221 255
196 221 255
196 221 255
196 222 255
196 222 255
196 222 255
196 222 255
196 222 255
196 222 255
196 222 255
196 222 255
196 222 255
196 222 255
196 222 255
196 222 255
196 222 255
196 222 255
196 222 255
196 222 255
196 222 255
196 222 255
197 222 255
197 222 255
197 222 255
197 222 255
197 222 255
197 222 255
197 222 255
197 222 255
197 222 255
197 222 255
197 222 255
197 222 255
197 222 255
197 222 255
197 222 255
197 222 255
198 223 255
198 223 255
198 223 255
198 223 255
198 223 255
198 223 255
198 223 255
198 223 255
198 223 255
198 223 255
198 223 255
198 223 255
198 223 255
198 223 255
198 223 255
199 223 255
199 223 255
199 223 255
199 223 255
199 223 255
199 223 255
199 223 255
199 223 255
199 223 255
199 223 255
199 223 255
199 223 255
199 224 255
199 224 255
199 224 255
200 224 255
200 224 255
200 224 255
200 224 255
200 224 255
200 224 255
200 224 255
200 224 255
200 224 255
200 224 255
200 224 255
200 224 255
200 224 255
200 224 255
201 224 255
201 224 255
201 224 255
201 224 255
201 224 255
201 224 255
201 224 255
201 224 255
201 224 255
201 224 255
201 225 255
201 225 255
201 225 255
201 225 255
201 225 255
202 225 255
202 225 255
202 225 255
202 225 255
202 225 255
202 225 255
202 225 255
202 225 255
202 225 255
202 225 255
202 225 255
202 225 255
202 225 255
202 225 255
202 225 255
203 225 255
203 225 255
203 225 255
203 225 255
203 225 255
203 225 255
203 225 255
203 225 255
203 225 255
203 226 255
203 226 255
203 226 255
203 226 255
203 226 255
203 226 255
203 226 255
204 226 255
204 226 255
204 226 255
204 226 255
204 226 255
204 226 255
204 226 255
204 226 255
204 226 255
204 226 255
204 226 255
204 226 255
204 226 255
204 226 255
204 226 255
204 226 255
204 226 255
205 226 255
205 226 255
205 226 255
205 226 255
205 226 255
205 226 255
205 226 255
205 227 255
205 227 255
205 227 255
205 227 255
205 227 255
205 227 255
205 227 255
205 227 255
205 227 255
205 227 255
205 227 255
205 227 255
206 227 255
206 227 255
206 227 255
205 227 255
205 227 255
205 227 255
205 227 255
205 227 255
205 227 255
205 227 255
205 227 255
205 227 255
205 227 255
205 227 255
205 226 255
205 226 255
205 226 255
205 226 255
205 226 255
205 226 255
205 226 255
204 226 255
204 226 255
204 226 255
204 226 255
204 226 255
204 226 255
204 226 255
204 226 255
204 226 255
204 226 255
204 226 255
204 226 255
204 226 255
204 226 255
204 226 255
204 226 255
204 226 255
203 226 255
203 226 255
203 226 255
203 226 255
203 226 255
203 226 255
203 226 255
203 226 255
203 225 255
203 225 255
203 225 255
203 225 255
203 225 255
203 225 255
203 225 255
203 225 255
202 225 255
202 225 255
202 225 255
202 225 255
202 225 255
202 225 255
202 225 255
202 225 255
202 225 255
202 225 255
202 225 255
202 225 255
202 225 255
202 225 255
202 225 255
202 225 255
201 225 255
201 225 255
201 225 255
201 225 255
201 224 255
201 224 255
201 224 255
201 224 255
201 224 255
201 224 255
201 224 255
201 224 255
201 224 255
201 224 255
200 224 255
200 224 255
200 224 255
200 224 255
200 224 255
200 224 255
200 224 255
200 224 255
200 224 255
200 224 255
200 224 255
200 224 255
200 224 255
200 224 255
200 224 255
199 224 255
199 224 255
199 223 255
199 223 255
199 223 255
199 223 255
199 223 255
199 223 255
199 223 255
199 223 255
199 223 255
199 223 255
199 223 255
199 223 255
198 223 255
198 223 255
198 223 255
198 223 255
198 223 255
198 223 255
198 223 255
198 223 255
198 223 255
198 223 255
198 223 255
198 223 255
198 223 255
198 223 255
198 223 255
197 223 255
197 222 255
197 222 255
197 222 255
197 222 255
197 222 255
197 222 255
197 222 255
197 222 255
197 222 255
197 222 255
197 222 255
197 222 255
197 222 255
197 222 255
197 222 255
197 222 255
196 222 255
196 222 255
196 222 255
196 222 255
196 222 255
196 222 255
196 222 255
196 222 255
196 222 255
196 222 255
196 222 255
196 222 255
196 222 255
196 222 255
196 222 255
196 222 255
196 222 255
196 222 255
196 221 255
196 221 255
196 221 255
195 221 255
195 221 255
195 221 255
195 221 255
195 221 255
195 221 255
195 221 255
195 221 255
195 221 255
195 221 255
195 221 255
195 221 255
195 221 255
195 221 255
195 221 255
195 221 255
195 221 255
195 221 255
195 221 255
195 221 255
195 221 255
195 221 255
195 221 255
195 221 255
195 221 255
195 221 255
195 221 255
195 221 255
195 221 255
195 221 255
195 221 255
195 221 255
195 221 255
195 221 255
195 221 255
195 221 255
195 221 255
195 221 255
195 221 255
195 221 255
195 221 255
195 221 255
195 221 255
195 221 255
195 221 255
195 221 255
195 221 255
195 221 255
195 221 255
195 221 255
195 221 255
195 221 255
195 221 255
195 221 255
195 221 255
195 221 255
195 221 255
195 221 255
195 221 255
195 221 255
195 221 255
195 221 255
195 221 255
195 221 255
195 221 255
195 221 255
195 221 255
195 221 255
196 221 255
196 221 255
196 221 255
196 222 255
196 222 255
196 222 255
196 222 255
196 222 255
196 222 255
196 222 255
196 222 255
196 222 255
196 222 255
196 222 255
196 222 255
196 222 255
196 222 255
196 222 255
196 222 255
196 222 255
196 222 255
197 222 255
197 222 255
197 222 255
197 222 255
197 222 255
197 222 255
197 222 255
197 222 255
197 222 255
197 222 255
197 222 255
197 222 255
197 222 255
197 222 255
197 222 255
197 222 255
197 223 255
198 223 255
198 223 255
198 223 255
198 223 255
198 223 255
198 223 255
198 223 255
198 223 255
198 223 255
198 223 255
198 223 255
198 223 255
198 223 255
198 223 255
198 223 255
199 223 255
199 223 255
199 223 255
199 223 255
199 223 255
199 223 255
199 223 255
199 223 255
199 223 255
199 223 255
199 223 255
199 223 255
199 224 255
199 224 255
200 224 255
200 224 255
200 224 255
200 224 255
200 224 255
200 224 255
200 224 255
200 224 255
200 224 255
200 224 255
200 224 255
200 224 255
200 224 255
200 224 255
200 224 255
201 224 255
201 224 255
201 224 255
201 224 255
201 224 255
201 224 255
201 224 255
201 224 255
201 224 255
201 224 255
201 225 255
201 225 255
201 225 255
201 225 255
202 225 255
202 225 255
202 225 255
202 225 255
202 225 255
202 225 255
202 225 255
202 225 255
202 225 255
202 225 255
202 225 255
202 225 255
202 225 255
202 225 255
202 225 255
202 225 255
203 225 255
203 225 255
203 225 255
203 225 255
203 225 255
203 225 255
203 225 255
203 225 255
203 226 255
203 226 255
203 226 255
203 226 255
203 226 255
203 226 255
203 226 255
203 226 255
204 226 255
204 226 255
204 226 255
204 226 255
204 226 255
204 226 255
204 226 255
204 226 255
204 226 255
204 226 255
204 226 255
204 226 255
204 226 255
204 226 255
204 226 255
204 226 255
204 226 255
205 226 255
205 226 255
205 226 255
205 226 255
205 226 255
205 226 255
205 226 255
205 227 255
205 227 255
205 227 255
205 227 255
205 227 255
205 227 255
205 227 255
205 227 255
205 227 255
205 227 255
205 227 255
206 227 255
206 227 255
206 227 255
206 227 255
206 227 255
206 227 255
206 227 255
206 227 255
205 227 255
205 227 255
205 227 255
205 227 255
205 227 255
205 227 255
205 227 255
205 227 255
205 227 255
205 227 255
205 227 255
205 226 255
205 226 255
205 226 255
205 226 255
205 226 255
205 226 255
205 226 255
205 226 255
204 226 255
204 226 255
204 226 255
204 226 255
204 226 255
204 226 255
204 226 255
204 226 255
204 226 255
204 226 255
204 226 255
204 226 255
204 226 255
204 226 255
204 226 255
204 226 255
204 226 255
203 226 255
203 226 255
203 226 255
203 226 255
203 226 255
203 226 255
203 226 255
203 225 255
203 225 255
203 225 255
203 225 255
203 225 255
203 225 255
203 225 255
203 225 255
203 225 255
202 225 255
202 225 255
202 225 255
202 225 255
202 225 255
202 225 255
202 225 255
202 225 255
202 225 255
202 225 255
202 225 255
202 225 255
202 225 255
202 225 255
202 225 255
201 225 255
201 225 255
201 225 255
201 225 255
201 224 255
201 224 255
201 224 255
201 224 255
201 224 255
201 224 255
201 224 255
201 224 255
201 224 255
201 224 255
201 224 255
200 224 255
200 224 255
200 224 255
200 224 255
200 224 255
200 224 255
200 224 255
200 224 255
200 224 255
200 224 255
200 224 255
200 224 255
200 224 255
200 224 255
199 224 255
199 224 255
199 223 255
199 223 255
199 223 255
199 223 255
199 223 255
199 223 255
199 223 255
199 223 255
199 223 255
199 223 255
199 223 255
199 223 255
198 223 255
198 223 255
198 223 255
198 223 255
198 223 255
198 223 255
198 223 255
198 223 255
198 223 255
198 223 255
198 223 255
198 223 255
198 223 255
198 223 255
198 223 255
198 223 255
197 222 255
197 222 255
197 222 255
197 222 255
197 222 255
197 222 255
197 222 255
197 222 255
197 222 255
197 222 255
197 222 255
197 222 255
197 222 255
197 222 255
197 222 255
197 222 255
197 222 255
196 222 255
196 222 255
196 222 255
196 222 255
196 222 255
196 222 255
196 222 255
196 222 255
196 222 255
196 222 255
196 222 255
196 222 255
196 222 255
196 222 255
196 222 255
196 222 255
196 222 255
196 222 255
196 222 255
196 222 255
196 221 255
196 221 255
195 221 255
195 221 255
195 221 255
195 221 255
195 221 255
195 221 255
195 221 255
195 221 255
195 221 255
195 221 255
195 221 255
195 221 255
195 221 255
195 221 255
195 221 255
195 221 255
195 221 255
195 221 255
195 221 255
195 221 255
195 221 255
195 221 255
195 221 255
195 221 255
195 221 255
195 221 255
195 221 255
195 221 255
195 221 255
195 221 255
195 221 255
195 221 255
195 221 255
195 221 255
195 221 255
195 221 255
195 221 255
195 221 255
195 221 255
195 221 255
195 221 255
195 221 255
195 221 255
195 221 255
195 221 255
195 221 255
195 221 255
195 221 255
195 221 255
195 221 255
195 221 255
195 221 255
195 221 255
195 221 255
195 221 255
195 221 255
195 221 255
195 221 255
195 221 255
195 221 255
196 221 255
196 221 255
196 222 255
196 222 255
196 222 255
196 222 255
196 222 255
196 222 255
196 222 255
196 222 255
196 222 255
196 222 255
196 222 255
196 222 255
196 222 255
196 222 255
196 222 255
196 222 255
196 222 255
196 222 255
196 222 255
196 222 255
197 222 255
197 222 255
197 222 255
197 222 255
197 222 255
197 222 255
197 222 255
197 222 255
197 222 255
197 222 255
197 222 255
197 222 255
197 222 255
197 222 255
197 222 255
197 222 255
197 222 255
198 223 255
198 223 255
198 223 255
198 223 255
198 223 255
198 223 255
198 223 255
198 223 255
198 223 255
198 223 255
198 223 255
198 223 255
198 223 255
198 223 255
198 223 255
198 223 255
199 223 255
199 223 255
199 223 255
199 223 255
199 223 255
199 223 255
199 223 255
199 223 255
199 223 255
199 223 255
199 223 255
199 223 255
199 224 255
199 224 255
200 224 255
200 224 255
200 224 255
200 224 255
200 224 255
200 224 255
200 224 255
200 224 255
200 224 255
200 224 255
200 224 255
200 224 255
200 224 255
200 224 255
200 224 255
201 224 255
201 224 255
201 224 255
201 224 255
201 224 255
201 224 255
201 224 255
201 224 255
201 224 255
201 224 255
201 225 255
201 225 255
201 225 255
201 225 255
202 225 255
202 225 255
202 225 255
202 225 255
202 225 255
202 225 255
202 225 255
202 225 255
202 225 255
202 225 255
202 225 255
202 225 255
202 225 255
202 225 255
202 225 255
203 225 255
203 225 255
203 225 255
203 225 255
203 225 255
203 225 255
203 225 255
203 225 255
203 225 255
203 226 255
203 226 255
203 226 255
203 226 255
203 226 255
203 226 255
203 226 255
204 226 255
204 226 255
204 226 255
204 226 255
204 226 255
204 226 255
204 226 255
204 226 255
204 226 255
204 226 255
204 226 255
204 226 255
204 226 255
204 226 255
204 226 255
204 226 255
204 226 255
205 226 255
205 226 255
205 226 255
205 226 255
205 226 255
205 226 255
205 226 255
205 227 255
205 227 255
205 227 255
205 227 255
205 227 255
205 227 255
205 227 255
205 227 255
205 227 255
205 227 255
205 227 255
206 227 255
206 227 255
206 227 255
206 227 255
206 227 255
206 227 255
206 227 255
206 227 255
206 227 255
206 227 255
206 227 255
206 227 255
206 227 255
206 227 255
205 227 255
205 227 255
205 227 255
205 227 255
205 227 255
205 227 255
205 227 255
205 227 255
205 227 255
205 227 255
205 227 255
205 226 255
205 226 255
205 226 255
205 226 255
205 226 255
205 226 255
205 226 255
204 226 255
204 226 255
204 226 255
204 226 255
204 226 255
204 226 255
204 226 255
204 226 255
204 226 255
204 226 255
204 226 255
204 226 255
204 226 255
204 226 255
204 226 255
204 226 255
204 226 255
203 226 255
203 226 255
203 226 255
203 226 255
203 226 255
203 226 255
203 226 255
203 225 255
203 225 255
203 225 255
203 225 255
203 225 255
203 225 255
203 225 255
203 225 255
203 225 255
202 225 255
202 225 255
202 225 255
202 225 255
202 225 255
202 225 255
202 225 255
202 225 255
202 225 255
202 225 255
202 225 255
202 225 255
202 225 255
202 225 255
202 225 255
201 225 255
201 225 255
201 225 255
201 225 255
201 224 255
201 224 255
201 224 255
201 224 255
201 224 255
201 224 255
201 224 255
201 224 255
201 224 255
201 224 255
201 224 255
200 224 255
200 224 255
200 224 255
200 224 255
200 224 255
200 224 255
200 224 255
200 224 255
200 224 255
200 224 255
200 224 255
200 224 255
200 224 255
200 224 255
199 224 255
199 224 255
199 223 255
199 223 255
199 223 255
199 223 255
199 223 255
199 223 255
199 223 255
199 223 255
199 223 255
199 223 255
199 223 255
199 223 255
199 223 255
198 223 255
198 223 255
198 223 255
198 223 255
198 223 255
198 223 255
198 223 255
198 223 255
198 223 255
198 223 255
198 223 255
198 223 255
198 223 255
198 223 255
198 223 255
197 223 255
197 222 255
197 222 255
197 222 255
197 222 255
197 222 255
197 222 255
197 222 255
197 222 255
197 222 255
197 222 255
197 222 255
197 222 255
197 222 255
197 222 255
197 222 255
197 222 255
197 222 255
196 222 255
196 222 255
196 222 255
196 222 255
196 222 255
196 222 255
196 222 255
196 222 255
196 222 255
196 222 255
196 222 255
196 222 255
196 222 255
196 222 255
196 222 255
196 222 255
196 222 255
196 222 255
196 222 255
196 222 255
196 222 255
196 221 255
196 221 255
196 221 255
195 221 255
195 221 255
195 221 255
195 221 255
195 221 255
195 221 255
195 221 255
195 221 255
195 221 255
195 221 255
195 221 255
195 221 255
195 221 255
195 221 255
195 221 255
195 221 255
195 221 255
195 221 255
195 221 255
195 221 255
195 221 255
195 221 255
195 221 255
195 221 255
195 221 255
195 221 255
195 221 255
195 221 255
195 221 255
195 221 255
195 221 255
195 221 255
195 221 255
195 221 255
195 221 255
195 221 255
195 221 255
195 221 255
195 221 255
195 221 255
195 221 255
195 221 255
195 221 255
195 221 255
195 221 255
195 221 255
195 221 255
195 221 255
195 221 255
195 221 255
196 221 255
196 221 255
196 221 255
196 222 255
196 222 255
196 222 255
196 222 255
196 222 255
196 222 255
196 222 255
196 222 255
196 222 255
196 222 255
196 222 255
196 222 255
196 222 255
196 222 255
196 222 255
196 222 255
196 222 255
196 222 255
196 222 255
196 222 255
196 222 255
197 222 255
197 222 255
197 222 255
197 222 255
197 222 255
197 222 255
197 222 255
197 222 255
197 222 255
197 222 255
197 222 255
197 222 255
197 222 255
197 222 255
197 222 255
197 222 255
197 222 255
197 223 255
198 223 255
198 223 255
198 223 255
198 223 255
198 223 255
198 223 255
198 223 255
198 223 255
198 223 255
198 223 255
198 223 255
198 223 255
198 223 255
198 223 255
198 223 255
199 223 255
199 223 255
199 223 255
199 223 255
199 223 255
199 223 255
199 223 255
199 223 255
199 223 255
199 223 255
199 223 255
199 223 255
199 223 255
199 224 255
199 224 255
200 224 255
200 224 255
200 224 255
200 224 255
200 224 255
200 224 255
200 224 255
200 224 255
200 224 255
200 224 255
200 224 255
200 224 255
200 224 255
200 224 255
201 224 255
201 224 255
201 224 255
201 224 255
201 224 255
201 224 255
201 224 255
201 224 255
201 224 255
201 224 255
201 224 255
201 225 255
201 225 255
201 225 255
201 225 255
202 225 255
202 225 255
202 225 255
202 225 255
202 225 255
202 225 255
202 225 255
202 225 255
202 225 255
202 225 255
202 225 255
202 225 255
202 225 255
202 225 255
202 225 255
203 225 255
203 225 255
203 225 255
203 225 255
203 225 255
203 225 255
203 225 255
203 225 255
203 225 255
203 226 255
203 226 255
203 226 255
203 226 255
203 226 255
203 226 255
203 226 255
204 226 255
204 226 255
204 226 255
204 226 255
204 226 255
204 226 255
204 226 255
204 226 255
204 226 255
204 226 255
204 226 255
204 226 255
204 226 255
204 226 255
204 226 255
204 226 255
204 226 255
205 226 255
205 226 255
205 226 255
205 226 255
205 226 255
205 226 255
205 226 255
205 227 255
205 227 255
205 227 255
205 227 255
205 227 255
205 227 255
205 227 255
205 227 255
205 227 255
205 227 255
205 227 255
206 227 255
206 227 255
206 227 255
206 227 255
206 227 255
206 227 255
206 227 255
206 227 255
206 227 255
206 227 255
206 227 255
206 227 255
206 227 255
206 227 255
206 227 255
206 227 255
206 227 255
206 227 255
206 227 255
205 227 255
205 227 255
205 227 255
205 227 255
205 227 255
205 227 255
205 227 255
205 227 255
205 227 255
205 227 255
205 227 255
205 226 255
205 226 255
205 226 255
205 226 255
205 226 255
205 226 255
205 226 255
204 226 255
204 226 255
204 226 255
204 226 255
204 226 255
204 226 255
204 226 255
204 226 255
204 226 255
204 226 255
204 226 255
204 226 255
204 226 255
204 226 255
204 226 255
204 226 255
204 226 255
203 226 255
203 226 255
203 226 255
203 226 255
203 226 255
203 226 255
203 226 255
203 225 255
203 225 255
203 225 255
203 225 255
203 225 255
203 225 255
203 225 255
203 225 255
202 225 255
202 225 255
202 225 255
202 225 255
202 225 255
202 225 255
202 225 255
202 225 255
202 225 255
202 225 255
202 225 255
202 225 255
202 225 255
202 225 255
202 225 255
201 225 255
201 225 255
201 225 255
201 225 255
201 225 255
201 224 255
201 224 255
201 224 255
201 224 255
201 224 255
201 224 255
201 224 255
201 224 255
201 224 255
201 224 255
200 224 255
200 224 255
200 224 255
200 224 255
200 224 255
200 224 255
200 224 255
200 224 255
200 224 255
200 224 255
200 224 255
200 224 255
200 224 255
200 224 255
200 224 255
199 224 255
199 224 255
199 223 255
199 223 255
199 223 255
199 223 255
199 223 255
199 223 255
199 223 255
199 223 255
199 223 255
199 223 255
199 223 255
199 223 255
198 223 255
198 223 255
198 223 255
198 223 255
198 223 255
198 223 255
198 223 255
198 223 255
198 223 255
198 223 255
198 223 255
198 223 255
198 223 255
198 223 255
198 223 255
198 223 255
197 222 255
197 222 255
197 222 255
197 222 255
197 222 255
197 222 255
197 222 255
197 222 255
197 222 255
197 222 255
197 222 255
197 222 255
197 222 255
197 222 255
197 222 255
197 222 255
197 222 255
197 222 255
196 222 255
196 222 255
196 222 255
196 222 255
196 222 255
196 222 255
196 222 255
196 222 255
196 222 255
196 222 255
196 222 255
196 222 255
196 222 255
196 222 255
196 222 255
196 222 255
196 222 255
196 222 255
196 222 255
196 222 255
196 222 255
196 222 255
196 222 255
196 221 255
196 221 255
196 221 255
196 221 255
195 221 255
195 221 255
195 221 255
195 221 255
195 221 255
195 221 255
195 221 255
195 221 255
195 221 255
195 221 255
195 221 255
195 221 255
195 221 255
195 221 255
195 221 255
195 221 255
195 221 255
195 221 255
195 221 255
195 221 255
195 221 255
195 221 255
195 221 255
195 221 255
195 221 255
195 221 255
195 221 255
195 221 255
195 221 255
195 221 255
195 221 255
195 221 255
195 221 255
195 221 255
195 221 255
195 221 255
195 221 255
195 221 255
196 221 255
196 221 255
196 221 255
196 222 255
196 222 255
196 222 255
196 222 255
196 222 255
196 222 255
196 222 255
196 222 255
196 222 255
196 222 255
196 222 255
196 222 255
196 222 255
196 222 255
196 222 255
196 222 255
196 222 255
196 222 255
196 222 255
196 222 255
196 222 255
196 222 255
196 222 255
196 222 255
197 222 255
197 222 255
197 222 255
197 222 255
197 222 255
197 222 255
197 222 255
197 222 255
197 222 255
197 222 255
197 222 255
197 222 255
197 222 255
197 222 255
197 222 255
197 222 255
197 222 255
197 222 255
198 223 255
198 223 255
198 223 255
198 223 255
198 223 255
198 223 255
198 223 255
198 223 255
198 223 255
198 223 255
198 223 255
198 223 255
198 223 255
198 223 255
198 223 255
198 223 255
199 223 255
199 223 255
199 223 255
199 223 255
199 223 255
199 223 255
199 223 255
199 223 255
199 223 255
199 223 255
199 223 255
199 223 255
199 224 255
199 224 255
199 224 255
200 224 255
200 224 255
200 224 255
200 224 255
200 224 255
200 224 255
200 224 255
200 224 255
200 224 255
200 224 255
200 224 255
200 224 255
200 224 255
200 224 255
201 224 255
201 224 255
201 224 255
201 224 255
201 224 255
201 224 255
201 224 255
201 224 255
201 224 255
201 224 255
201 225 255
201 225 255
201 225 255
201 225 255
201 225 255
202 225 255
202 225 255
202 225 255
202 225 255
202 225 255
202 225 255
202 225 255
202 225 255
202 225 255
202 225 255
202 225 255
202 225 255
202 225 255
202 225 255
202 225 255
203 225 255
203 225 255
203 225 255
203 225 255
203 225 255
203 225 255
203 225 255
203 225 255
203 226 255
203 226 255
203 226 255
203 226 255
203 226 255
203 226 255
203 226 255
204 226 255
204 226 255
204 226 255
204 226 255
204 226 255
204 226 255
204 226 255
204 226 255
204 226 255
204 226 255
204 226 255
204 226 255
204 226 255
204 226 255
204 226 255
204 226 255
204 226 255
205 226 255
205 226 255
205 226 255
205 226 255
205 226 255
205 226 255
205 226 255
205 227 255
205 227 255
205 227 255
205 227 255
205 227 255
205 227 255
205 227 255
205 227 255
205 227 255
205 227 255
205 227 255
206 227 255
206 227 255
206 227 255
206 227 255
206 227 255
206 227 255
206 227 255
206 227 255
206 227 255
206 227 255
206 227 255
206 227 255
206 227 255
206 227 255
206 227 255
206 227 255
206 227 255
206 227 255
206 227 255
206 227 255
206 227 255
206 227 255
206 227 255
206 227 255
205 227 255
205 227 255
205 227 255
205 227 255
205 227 255
205 227 255
205 227 255
205 227 255
205 227 255
205 227 255
205 227 255
205 226 255
205 226 255
205 226 255
205 226 255
205 226 255
205 226 255
205 226 255
204 226 255
204 226 255
204 226 255
204 226 255
204 226 255
204 226 255
204 226 255
204 226 255
204 226 255
204 226 255
204 226 255
204 226 255
204 226 255
204 226 255
204 226 255
204 226 255
204 226 255
203 226 255
203 226 255
203 226 255
203 226 255
203 226 255
203 226 255
203 226 255
203 225 255
203 225 255
203 225 255
203 225 255
203 225 255
203 225 255
203 225 255
203 225 255
203 225 255
202 225 255
202 225 255
202 225 255
202 225 255
202 225 255
202 225 255
202 225 255
202 225 255
202 225 255
202 225 255
202 225 255
202 225 255
202 225 255
202 225 255
202 225 255
201 225 255
201 225 255
201 225 255
201 225 255
201 224 255
201 224 255
201 224 255
201 224 255
201 224 255
201 224 255
201 224 255
201 224 255
201 224 255
201 224 255
200 224 255
200 224 255
200 224 255
200 224 255
200 224 255
200 224 255
200 224 255
200 224 255
200 224 255
200 224 255
200 224 255
200 224 255
200 224 255
200 224 255
200 224 255
199 224 255
199 224 255
199 223 255
199 223 255
199 223 255
199 223 255
199 223 255
199 223 255
199 223 255
199 223 255
199 223 255
199 223 255
199 223 255
199 223 255
199 223 255
198 223 255
198 223 255
198 223 255
198 223 255
198 223 255
198 223 255
198 223 255
198 223 255
198 223 255
198 223 255
198 223 255
198 223 255
198 223 255
198 223 255
198 223 255
197 223 255
197 222 255
197 222 255
197 222 255
197 222 255
197 222 255
197 222 255
197 222 255
197 222 255
197 222 255
197 222 255
197 222 255
197 222 255
197 222 255
197 222 255
197 222 255
197 222 255
197 222 255
197 222 255
196 222 255
196 222 255
196 222 255
196 222 255
196 222 255
196 222 255
196 222 255
196 222 255
196 222 255
196 222 255
196 222 255
196 222 255
196 222 255
196 222 255
196 222 255
196 222 255
196 222 255
196 222 255
196 222 255
196 222 255
196 222 255
196 222 255
196 222 255
196 222 255
196 222 255
196 222 255
196 222 255
196 221 255
196 221 255
196 221 255
196 221 255
196 221 255
196 221 255
195 221 255
195 221 255
195 221 255
195 221 255
195 221 255
195 221 255
195 221 255
195 221 255
195 221 255
195 221 255
195 221 255
195 221 255
195 221 255
195 221 255
195 221 255
195 221 255
195 221 255
195 221 255
195 221 255
195 221 255
196 221 255
196 221 255
196 221 255
196 221 255
196 221 255
196 221 255
196 222 255
196 222 255
196 222 255
196 222 255
196 222 255
196 222 255
196 222 255
196 222 255
196 222 255
196 222 255
196 222 255
196 222 255
196 222 255
196 222 255
196 222 255
196 222 255
196 222 255
196 222 255
196 222 255
196 222 255
196 222 255
196 222 255
196 222 255
196 222 255
196 222 255
196 222 255
196 222 255
197 222 255
197 222 255
197 222 255
197 222 255
197 222 255
197 222 255
197 222 255
197 222 255
197 222 255
197 222 255
197 222 255
197 222 255
197 222 255
197 222 255
197 222 255
197 222 255
197 222 255
197 222 255
197 223 255
198 223 255
198 223 255
198 223 255
198 223 255
198 223 255
198 223 255
198 223 255
198 223 255
198 223 255
198 223 255
198 223 255
198 223 255
198 223 255
198 223 255
198 223 255
198 223 255
199 223 255
199 223 255
199 223 255
199 223 255
199 223 255
199 223 255
199 223 255
199 223 255
199 223 255
199 223 255
199 223 255
199 223 255
199 224 255
199 224 255
200 224 255
200 224 255
200 224 255
200 224 255
200 224 255
200 224 255
200 224 255
200 224 255
200 224 255
200 224 255
200 224 255
200 224 255
200 224 255
200 224 255
200 224 255
201 224 255
201 224 255
201 224 255
201 224 255
201 224 255
201 224 255
201 224 255
201 224 255
201 224 255
201 224 255
201 225 255
201 225 255
201 225 255
201 225 255
202 225 255
202 225 255
202 225 255
202 225 255
202 225 255
202 225 255
202 225 255
202 225 255
202 225 255
202 225 255
202 225 255
202 225 255
202 225 255
202 225 255
202 225 255
203 225 255
203 225 255
203 225 255
203 225 255
203 225 255
203 225 255
203 225 255
203 225 255
203 225 255
203 226 255
203 226 255
203 226 255
203 226 255
203 226 255
203 226 255
203 226 255
204 226 255
204 226 255
204 226 255
204 226 255
204 226 255
204 226 255
204 226 255
204 226 255
204 226 255
204 226 255
204 226 255
204 226 255
204 226 255
204 226 255
204 226 255
204 226 255
204 226 255
205 226 255
205 226 255
205 226 255
205 226 255
205 226 255
205 226 255
205 226 255
205 227 255
205 227 255
205 227 255
205 227 255
205 227 255
205 227 255
205 227 255
205 227 255
205 227 255
205 227 255
205 227 255
206 227 255
206 227 255
206 227 255
206 227 255
206 227 255
206 227 255
206 227 255
206 227 255
206 227 255
206 227 255
206 227 255
206 227 255
206 227 255
206 227 255
206 227 255
206 227 255
206 227 255
206 227 255
206 227 255
206 227 255
206 227 255
206 227 255
206 227 255
206 227 255
206 227 255
206 227 255
206 227 255
206 227 255
206 227 255
205 227 255
205 227 255
205 227 255
205 227 255
205 227 255
205 227 255
205 227 255
205 227 255
205 227 255
205 227 255
205 227 255
205 226 255
205 226 255
205 226 255
205 226 255
205 226 255
205 226 255
205 226 255
204 226 255
204 226 255
204 226 255
204 226 255
204 226 255
204 226 255
204 226 255
204 226 255
204 226 255
204 226 255
204 226 255
204 226 255
204 226 255
204 226 255
204 226 255
204 226 255
203 226 255
203 226 255
203 226 255
203 226 255
203 226 255
203 226 255
203 226 255
203 225 255
203 225 255
203 225 255
203 225 255
203 225 255
203 225 255
203 225 255
203 225 255
203 225 255
202 225 255
202 225 255
202 225 255
202 225 255
202 225 255
202 225 255
202 225 255
202 225 255
202 225 255
202 225 255
202 225 255
202 225 255
202 225 255
202 225 255
202 225 255
201 225 255
201 225 255
201 225 255
201 225 255
201 224 255
201 224 255
201 224 255
201 224 255
201 224 255
201 224 255
201 224 255
201 224 255
201 224 255
201 224 255
200 224 255
200 224 255
200 224 255
200 224 255
200 224 255
200 224 255
200 224 255
200 224 255
200 224 255
200 224 255
200 224 255
200 224 255
200 224 255
200 224 255
200 224 255
199 224 255
199 224 255
199 223 255
199 223 255
199 223 255
199 223 255
199 223 255
199 223 255
199 223 255
199 223 255
199 223 255
199 223 255
199 223 255
199 223 255
199 223 255
198 223 255
198 223 255
198 223 255
198 223 255
198 223 255
198 223 255
198 223 255
198 223 255
198 223 255
198 223 255
198 223 255
198 223 255
198 223 255
198 223 255
198 223 255
198 223 255
197 223 255
197 222 255
197 222 255
197 222 255
197 222 255
197 222 255
197 222 255
197 222 255
197 222 255
197 222 255
197 222 255
197 222 255
197 222 255
197 222 255
197 222 255
197 222 255
197 222 255
197 222 255
197 222 255
197 222 255
196 222 255
196 222 255
196 222 255
196 222 255
196 222 255
196 222 255
196 222 255
196 222 255
196 222 255
196 222 255
196 222 255
196 222 255
196 222 255
196 222 255
196 222 255
196 222 255
196 222 255
196 222 255
196 222 255
196 222 255
196 222 255
196 222 255
196 222 255
196 222 255
196 222 255
196 222 255
196 222 255
196 222 255
196 222 255
196 222 255
196 222 255
196 222 255
196 222 255
196 222 255
196 222 255
196 222 255
196 222 255
196 222 255
196 222 255
196 222 255
196 222 255
196 222 255
196 222 255
196 222 255
196 222 255
196 222 255
196 222 255
196 222 255
196 222 255
196 222 255
196 222 255
196 222 255
196 222 255
196 222 255
196 222 255
196 222 255
196 222 255
196 222 255
196 222 255
196 222 255
196 222 255
196 222 255
196 222 255
196 222 255
196 222 255
196 222 255
196 222 255
196 222 255
196 222 255
196 222 255
196 222 255
196 222 255
196 222 255
196 222 255
196 222 255
196 222 255
196 222 255
196 222 255
197 222 255
197 222 255
197 222 255
197 222 255
197 222 255
197 222 255
197 222 255
197 222 255
197 222 255
197 222 255
197 222 255
197 222 255
197 222 255
197 222 255
197 222 255
197 222 255
197 222 255
197 222 255
197 222 255
197 223 255
198 223 255
198 223 255
198 223 255
198 223 255
198 223 255
198 223 255
198 223 255
198 223 255
198 223 255
198 223 255
198 223 255
198 223 255
198 223 255
198 223 255
198 223 255
198 223 255
199 223 255
199 223 255
199 223 255
199 223 255
199 223 255
199 223 255
199 223 255
199 223 255
199 223 255
199 223 255
199 223 255
199 223 255
199 224 255
199 224 255
199 224 255
200 224 255
200 224 255
200 224 255
200 224 255
200 224 255
200 224 255
200 224 255
200 224 255
200 224 255
200 224 255
200 224 255
200 224 255
200 224 255
200 224 255
200 224 255
201 224 255
201 224 255
201 224 255
201 224 255
201 224 255
201 224 255
201 224 255
201 224 255
201 224 255
201 224 255
201 225 255
201 225 255
201 225 255
201 225 255
202 225 255
202 225 255
202 225 255
202 225 255
202 225 255
202 225 255
202 225 255
202 225 255
202 225 255
202 225 255
202 225 255
202 225 255
202 225 255
202 225 255
202 225 255
203 225 255
203 225 255
203 225 255
203 225 255
203 225 255
203 225 255
203 225 255
203 225 255
203 225 255
203 226 255
203 226 255
203 226 255
203 226 255
203 226 255
203 226 255
203 226 255
204 226 255
204 226 255
204 226 255
204 226 255
204 226 255
204 226 255
204 226 255
204 226 255
204 226 255
204 226 255
204 226 255
204 226 255
204 226 255
204 226 255
204 226 255
204 226 255
205 226 255
205 226 255
205 226 255
205 226 255
205 226 255
205 226 255
205 226 255
205 227 255
205 227 255
205 227 255
205 227 255
205 227 255
205 227 255
205 227 255
205 227 255
205 227 255
205 227 255
205 227 255
206 227 255
206 227 255
206 227 255
206 227 255
206 227 255
206 227 255
206 227 255
206 227 255
206 227 255
206 227 255
206 227 255
206 227 255
206 227 255
206 227 255
206 227 255
206 227 255
206 227 255
206 227 255
206 227 255
206 227 255
206 227 255
206 227 255
206 227 255
206 227 255
206 227 255
206 227 255
206 227 255
206 227 255
206 227 255
206 227 255
206 227 255
206 227 255
206 227 255
206 227 255
205 227 255
205 227 255
205 227 255
205 227 255
205 227 255
205 227 255
205 227 255
205 227 255
205 227 255
205 227 255
205 227 255
205 226 255
205 226 255
205 226 255
205 226 255
205 226 255
205 226 255
205 226 255
204 226 255
204 226 255
204 226 255
204 226 255
204 226 255
204 226 255
204 226 255
204 226 255
204 226 255
204 226 255
204 226 255
204 226 255
204 226 255
204 226 255
204 226 255
204 226 255
204 226 255
203 226 255
203 226 255
203 226 255
203 226 255
203 226 255
203 226 255
203 226 255
203 225 255
203 225 255
203 225 255
203 225 255
203 225 255
203 225 255
203 225 255
203 225 255
202 225 255
202 225 255
202 225 255
202 225 255
202 225 255
202 225 255
202 225 255
202 225 255
202 225 255
202 225 255
202 225 255
202 225 255
202 225 255
202 225 255
202 225 255
201 225 255
201 225 255
201 225 255
201 225 255
201 225 255
201 224 255
201 224 255
201 224 255
201 224 255
201 224 255
201 224 255
201 224 255
201 224 255
201 224 255
201 224 255
200 224 255
200 224 255
200 224 255
200 224 255
200 224 255
200 224 255
200 224 255
200 224 255
200 224 255
200 224 255
200 224 255
200 224 255
200 224 255
200 224 255
199 224 255
199 224 255
199 224 255
199 223 255
199 223 255
199 223 255
199 223 255
199 223 255
199 223 255
199 223 255
199 223 255
199 223 255
199 223 255
199 223 255
199 223 255
199 223 255
198 223 255
198 223 255
198 223 255
198 223 255
198 223 255
198 223 255
198 223 255
198 223 255
198 223 255
198 223 255
198 223 255
198 223 255
198 223 255
198 223 255
198 223 255
198 223 255
197 223 255
197 222 255
197 222 255
197 222 255
197 222 255
197 222 255
197 222 255
197 222 255
197 222 255
197 222 255
197 222 255
197 222 255
197 222 255
197 222 255
197 222 255
197 222 255
197 222 255
197 222 255
197 222 255
197 222 255
196 222 255
196 222 255
196 222 255
196 222 255
196 222 255
196 222 255
196 222 255
196 222 255
196 222 255
196 222 255
196 222 255
196 222 255
196 222 255
196 222 255
196 222 255
196 222 255
196 222 255
196 222 255
196 222 255
196 222 255
196 222 255
196 222 255
196 222 255
196 222 255
196 222 255
196 222 255
196 222 255
196 222 255
196 222 255
196 222 255
196 222 255
196 222 255
196 222 255
196 222 255
196 222 255
196 222 255
196 222 255
196 222 255
196 222 255
196 222 255
196 222 255
196 222 255
196 222 255
196 222 255
196 222 255
196 222 255
196 222 255
196 222 255
196 222 255
196 222 255
196 222 255
196 222 255
196 222 255
196 222 255
196 222 255
196 222 255
196 222 255
196 222 255
196 222 255
196 222 255
196 222 255
196 222 255
196 222 255
196 222 255
196 222 255
196 222 255
196 222 255
196 222 255
196 222 255
196 222 255
196 222 255
196 222 255
197 222 255
197 222 255
197 222 255
197 222 255
197 222 255
197 222 255
197 222 255
197 222 255
197 222 255
197 222 255
197 222 255
197 222 255
197 222 255
197 222 255
197 222 255
197 222 255
197 222 255
197 222 255
197 222 255
197 223 255
198 223 255
198 223 255
198 223 255
198 223 255
198 223 255
198 223 255
198 223 255
198 223 255
198 223 255
198 223 255
198 223 255
198 223 255
198 223 255
198 223 255
198 223 255
198 223 255
199 223 255
199 223 255
199 223 255
199 223 255
199 223 255
199 223 255
199 223 255
199 223 255
199 223 255
199 223 255
199 223 255
199 223 255
199 223 255
199 224 255
199 224 255
200 224 255
200 224 255
200 224 255
200 224 255
200 224 255
200 224 255
200 224 255
200 224 255
200 224 255
200 224 255
200 224 255
200 224 255
200 224 255
200 224 255
200 224 255
201 224 255
201 224 255
201 224 255
201 224 255
201 224 255
201 224 255
201 224 255
201 224 255
201 224 255
201 224 255
201 225 255
201 225 255
201 225 255
201 225 255
201 225 255
202 225 255
202 225 255
202 225 255
202 225 255
202 225 255
202 225 255
202 225 255
202 225 255
202 225 255
202 225 255
202 225 255
202 225 255
202 225 255
202 225 255
202 225 255
203 225 255
203 225 255
203 225 255
203 225 255
203 225 255
203 225 255
203 225 255
203 225 255
203 226 255
203 226 255
203 226 255
203 226 255
203 226 255
203 226 255
203 226 255
204 226 255
204 226 255
204 226 255
204 226 255
204 226 255
204 226 255
204 226 255
204 226 255
204 226 255
204 226 255
204 226 255
204 226 255
204 226 255
204 226 255
204 226 255
204 226 255
204 226 255
205 226 255
205 226 255
205 226 255
205 226 255
205 226 255
205 226 255
205 226 255
205 227 255
205 227 255
205 227 255
205 227 255
205 227 255
205 227 255
205 227 255
205 227 255
205 227 255
205 227 255
205 227 255
206 227 255
206 227 255
206 227 255
206 227 255
206 227 255
206 227 255
206 227 255
206 227 255
206 227 255
206 227 255
206 227 255
206 227 255
206 227 255
206 227 255
206 227 255
206 227 255
206 227 255
206 227 255
207 227 255
207 227 255
206 227 255
206 227 255
206 227 255
206 227 255
206 227 255
206 227 255
206 227 255
206 227 255
206 227 255
206 227 255
206 227 255
206 227 255
206 227 255
206 227 255
206 227 255
206 227 255
206 227 255
206 227 255
206 227 255
205 227 255
205 227 255
205 227 255
205 227 255
205 227 255
205 227 255
205 227 255
205 227 255
205 227 255
205 227 255
205 227 255
205 226 255
205 226 255
205 226 255
205 226 255
205 226 255
205 226 255
205 226 255
204 226 255
204 226 255
204 226 255
204 226 255
204 226 255
204 226 255
204 226 255
204 226 255
204 226 255
204 226 255
204 226 255
204 226 255
204 226 255
204 226 255
204 226 255
204 226 255
203 226 255
203 226 255
203 226 255
203 226 255
203 226 255
203 226 255
203 226 255
203 225 255
203 225 255
203 225 255
203 225 255
203 225 255
203 225 255
203 225 255
203 225 255
203 225 255
202 225 255
202 225 255
202 225 255
202 225 255
202 225 255
202 225 255
202 225 255
202 225 255
202 225 255
202 225 255
202 225 255
202 225 255
202 225 255
202 225 255
201 225 255
201 225 255
201 225 255
201 225 255
201 225 255
201 224 255
201 224 255
201 224 255
201 224 255
201 224 255
201 224 255
201 224 255
201 224 255
201 224 255
201 224 255
200 224 255
200 224 255
200 224 255
200 224 255
200 224 255
200 224 255
200 224 255
200 224 255
200 224 255
200 224 255
200 224 255
200 224 255
200 224 255
200 224 255
200 224 255
199 224 255
199 224 255
199 223 255
199 223 255
199 223 255
199 223 255
199 223 255
199 223 255
199 223 255
199 223 255
199 223 255
199 223 255
199 223 255
199 223 255
199 223 255
198 223 255
198 223 255
198 223 255
198 223 255
198 223 255
198 223 255
198 223 255
198 223 255
198 223 255
198 223 255
198 223 255
198 223 255
198 223 255
198 223 255
198 223 255
198 223 255
198 223 255
197 223 255
197 222 255
197 222 255
197 222 255
197 222 255
197 222 255
197 222 255
197 222 255
197 222 255
197 222 255
197 222 255
197 222 255
197 222 255
197 222 255
197 222 255
197 222 255
197 222 255
197 222 255
197 222 255
197 222 255
197 222 255
197 222 255
196 222 255
196 222 255
196 222 255
196 222 255
196 222 255
196 222 255
196 222 255
196 222 255
196 222 255
196 222 255
196 222 255
196 222 255
196 222 255
196 222 255
196 222 255
196 222 255
196 222 255
196 222 255
196 222 255
196 222 255
196 222 255
196 222 255
196 222 255
196 222 255
196 222 255
196 222 255
196 222 255
196 222 255
196 222 255
196 222 255
196 222 255
196 222 255
196 222 255
196 222 255
196 222 255
196 222 255
196 222 255
196 222 255
196 222 255
196 222 255
196 222 255
196 222 255
196 222 255
196 222 255
196 222 255
196 222 255
196 222 255
196 222 255
196 222 255
196 222 255
196 222 255
196 222 255
196 222 255
196 222 255
196 222 255
196 222 255
196 222 255
196 222 255
196 222 255
196 222 255
196 222 255
196 222 255
197 222 255
197 222 255
197 222 255
197 222 255
197 222 255
197 222 255
197 222 255
197 222 255
197 222 255
197 222 255
197 222 255
197 222 255
197 222 255
197 222 255
197 222 255
197 222 255
197 222 255
197 222 255
197 222 255
197 222 255
197 222 255
197 223 255
198 223 255
198 223 255
198 223 255
198 223 255
198 223 255
198 223 255
198 223 255
198 223 255
198 223 255
198 223 255
198 223 255
198 223 255
198 223 255
198 223 255
198 223 255
198 223 255
198 223 255
199 223 255
199 223 255
199 223 255
199 223 255
199 223 255
199 223 255
199 223 255
199 223 255
199 223 255
199 223 255
199 223 255
199 223 255
199 223 255
199 224 255
199 224 255
200 224 255
200 224 255
200 224 255
200 224 255
200 224 255
200 224 255
200 224 255
200 224 255
200 224 255
200 224 255
200 224 255
200 224 255
200 224 255
200 224 255
200 224 255
201 224 255
201 224 255
201 224 255
201 224 255
201 224 255
201 224 255
201 224 255
201 224 255
201 224 255
201 224 255
201 225 255
201 225 255
201 225 255
201 225 255
202 225 255
202 225 255
202 225 255
202 225 255
202 225 255
202 225 255
202 225 255
202 225 255
202 225 255
202 225 255
202 225 255
202 225 255
202 225 255
202 225 255
202 225 255
203 225 255
203 225 255
203 225 255
203 225 255
203 225 255
203 225 255
203 225 255
203 225 255
203 225 255
203 226 255
203 226 255
203 226 255
203 226 255
203 226 255
203 226 255
203 226 255
204 226 255
204 226 255
204 226 255
204 226 255
204 226 255
204 226 255
204 226 255
204 226 255
204 226 255
204 226 255
204 226 255
204 226 255
204 226 255
204 226 255
204 226 255
204 226 255
205 226 255
205 226 255
205 226 255
205 226 255
205 226 255
205 226 255
205 226 255
205 227 255
205 227 255
205 227 255
205 227 255
205 227 255
205 227 255
205 227 255
205 227 255
205 227 255
205 227 255
205 227 255
206 227 255
206 227 255
206 227 255
206 227 255
206 227 255
206 227 255
206 227 255
206 227 255
206 227 255
206 227 255
206 227 255
206 227 255
206 227 255
206 227 255
206 227 255
206 227 255
206 227 255
206 227 255
206 227 255
207 227 255
207 227 255
207 227 255
207 227 255
207 227 255
207 227 255
207 227 255
206 227 255
206 227 255
206 227 255
206 227 255
206 227 255
206 227 255
206 227 255
206 227 255
206 227 255
206 227 255
206 227 255
206 227 255
206 227 255
206 227 255
206 227 255
206 227 255
206 227 255
206 227 255
206 227 255
205 227 255
205 227 255
205 227 255
205 227 255
205 227 255
205 227 255
205 227 255
205 227 255
205 227 255
205 227 255
205 226 255
205 226 255
205 226 255
205 226 255
205 226 255
205 226 255
205 226 255
204 226 255
204 226 255
204 226 255
204 226 255
204 226 255
204 226 255
204 226 255
204 226 255
204 226 255
204 226 255
204 226 255
204 226 255
204 226 255
204 226 255
204 226 255
204 226 255
204 226 255
203 226 255
203 226 255
203 226 255
203 226 255
203 226 255
203 226 255
203 225 255
203 225 255
203 225 255
203 225 255
203 225 255
203 225 255
203 225 255
203 225 255
203 225 255
202 225 255
202 225 255
202 225 255
202 225 255
202 225 255
202 225 255
202 225 255
202 225 255
202 225 255
202 225 255
202 225 255
202 225 255
202 225 255
202 225 255
202 225 255
201 225 255
201 225 255
201 225 255
201 225 255
201 224 255
201 224 255
201 224 255
201 224 255
201 224 255
201 224 255
201 224 255
201 224 255
201 224 255
201 224 255
201 224 255
200 224 255
200 224 255
200 224 255
200 224 255
200 224 255
200 224 255
200 224 255
200 224 255
200 224 255
200 224 255
200 224 255
200 224 255
200 224 255
200 224 255
199 224 255
199 224 255
199 224 255
199 223 255
199 223 255
199 223 255
199 223 255
199 223 255
199 223 255
199 223 255
199 223 255
199 223 255
199 223 255
199 223 255
199 223 255
199 223 255
198 223 255
198 223 255
198 223 255
198 223 255
198 223 255
198 223 255
198 223 255
198 223 255
198 223 255
198 223 255
198 223 255
198 223 255
198 223 255
198 223 255
198 223 255
198 223 255
198 223 255
197 223 255
197 222 255
197 222 255
197 222 255
197 222 255
197 222 255
197 222 255
197 222 255
197 222 255
197 222 255
197 222 255
197 222 255
197 222 255
197 222 255
197 222 255
197 222 255
197 222 255
197 222 255
197 222 255
197 222 255
197 222 255
197 222 255
197 222 255
197 222 255
196 222 255
196 222 255
196 222 255
196 222 255
196 222 255
196 222 255
196 222 255
196 222 255
196 222 255
196 222 255
196 222 255
196 222 255
196 222 255
196 222 255
196 222 255
196 222 255
196 222 255
196 222 255
196 222 255
196 222 255
196 222 255
196 222 255
196 222 255
196 222 255
196 222 255
196 222 255
196 222 255
196 222 255
196 222 255
196 222 255
196 222 255
196 222 255
196 222 255
196 222 255
196 222 255
196 222 255
196 222 255
196 222 255
196 222 255
196 222 255
196 222 255
196 222 255
196 222 255
196 222 255
196 222 255
196 222 255
196 222 255
196 222 255
196 222 255
196 222 255
196 222 255
196 222 255
197 222 255
197 222 255
197 222 255
197 222 255
197 222 255
197 222 255
197 222 255
197 222 255
197 222 255
197 222 255
197 222 255
197 222 255
197 222 255
197 222 255
197 222 255
197 222 255
197 222 255
197 222 255
197 222 255
197 222 255
197 222 255
197 222 255
197 222 255
197 223 255
198 223 255
198 223 255
198 223 255
198 223 255
198 223 255
198 223 255
198 223 255
198 223 255
198 223 255
198 223 255
198 223 255
198 223 255
198 223 255
198 223 255
198 223 255
198 223 255
198 223 255
199 223 255
199 223 255
199 223 255
199 223 255
199 223 255
199 223 255
199 223 255
199 223 255
199 223 255
199 223 255
199 223 255
199 223 255
199 223 255
199 224 255
199 224 255
199 224 255
200 224 255
200 224 255
200 224 255
200 224 255
200 224 255
200 224 255
200 224 255
200 224 255
200 224 255
200 224 255
200 224 255
200 224 255
200 224 255
200 224 255
201 224 255
201 224 255
201 224 255
201 224 255
201 224 255
201 224 255
201 224 255
201 224 255
201 224 255
201 224 255
201 224 255
201 225 255
201 225 255
201 225 255
201 225 255
202 225 255
202 225 255
202 225 255
202 225 255
202 225 255
202 225 255
202 225 255
202 225 255
202 225 255
202 225 255
202 225 255
202 225 255
202 225 255
202 225 255
202 225 255
203 225 255
203 225 255
203 225 255
203 225 255
203 225 255
203 225 255
203 225 255
203 225 255
203 225 255
203 226 255
203 226 255
203 226 255
203 226 255
203 226 255
203 226 255
203 226 255
204 226 255
204 226 255
204 226 255
204 226 255
204 226 255
204 226 255
204 226 255
204 226 255
204 226 255
204 226 255
204 226 255
204 226 255
204 226 255
204 226 255
204 226 255
204 226 255
205 226 255
205 226 255
205 226 255
205 226 255
205 226 255
205 226 255
205 226 255
205 227 255
205 227 255
205 227 255
205 227 255
205 227 255
205 227 255
205 227 255
205 227 255
205 227 255
205 227 255
206 227 255
206 227 255
206 227 255
206 227 255
206 227 255
206 227 255
206 227 255
206 227 255
206 227 255
206 227 255
206 227 255
206 227 255
206 227 255
206 227 255
206 227 255
206 227 255
206 227 255
206 227 255
206 227 255
206 227 255
207 227 255
207 227 255
207 227 255
207 227 255
207 228 255
207 228 255
207 227 255
207 227 255
207 227 255
207 227 255
207 227 255
206 227 255
206 227 255
206 227 255
206 227 255
206 227 255
206 227 255
206 227 255
206 227 255
206 227 255
206 227 255
206 227 255
206 227 255
206 227 255
206 227 255
206 227 255
206 227 255
206 227 255
206 227 255
206 227 255
205 227 255
205 227 255
205 227 255
205 227 255
205 227 255
205 227 255
205 227 255
205 227 255
205 227 255
205 227 255
205 227 255
205 226 255
205 226 255
205 226 255
205 226 255
205 226 255
205 226 255
205 226 255
204 226 255
204 226 255
204 226 255
204 226 255
204 226 255
204 226 255
204 226 255
204 226 255
204 226 255
204 226 255
204 226 255
204 226 255
204 226 255
204 226 255
204 226 255
204 226 255
203 226 255
203 226 255
203 226 255
203 226 255
203 226 255
203 226 255
203 226 255
203 225 255
203 225 255
203 225 255
203 225 255
203 225 255
203 225 255
203 225 255
203 225 255
203 225 255
202 225 255
202 225 255
202 225 255
202 225 255
202 225 255
202 225 255
202 225 255
202 225 255
202 225 255
202 225 255
202 225 255
202 225 255
202 225 255
202 225 255
202 225 255
201 225 255
201 225 255
201 225 255
201 225 255
201 224 255
201 224 255
201 224 255
201 224 255
201 224 255
201 224 255
201 224 255
201 224 255
201 224 255
201 224 255
200 224 255
200 224 255
200 224 255
200 224 255
200 224 255
200 224 255
200 224 255
200 224 255
200 224 255
200 224 255
200 224 255
200 224 255
200 224 255
200 224 255
200 224 255
199 224 255
199 224 255
199 223 255
199 223 255
199 223 255
199 223 255
199 223 255
199 223 255
199 223 255
199 223 255
199 223 255
199 223 255
199 223 255
199 223 255
199 223 255
199 223 255
198 223 255
198 223 255
198 223 255
198 223 255
198 223 255
198 223 255
198 223 255
198 223 255
198 223 255
198 223 255
198 223 255
198 223 255
198 223 255
198 223 255
198 223 255
198 223 255
198 223 255
198 223 255
197 222 255
197 222 255
197 222 255
197 222 255
197 222 255
197 222 255
197 222 255
197 222 255
197 222 255
197 222 255
197 222 255
197 222 255
197 222 255
197 222 255
197 222 255
197 222 255
197 222 255
197 222 255
197 222 255
197 222 255
197 222 255
197 222 255
197 222 255
197 222 255
197 222 255
197 222 255
196 222 255
196 222 255
196 222 255
196 222 255
196 222 255
196 222 255
196 222 255
196 222 255
196 222 255
196 222 255
196 222 255
196 222 255
196 222 255
196 222 255
196 222 255
196 222 255
196 222 255
196 222 255
196 222 255
196 222 255
196 222 255
196 222 255
196 222 255
196 222 255
196 222 255
196 222 255
196 222 255
196 222 255
196 222 255
196 222 255
196 222 255
196 222 255
196 222 255
196 222 255
196 222 255
196 222 255
196 222 255
196 222 255
196 222 255
196 222 255
197 222 255
197 222 255
197 222 255
197 222 255
197 222 255
197 222 255
197 222 255
197 222 255
197 222 255
197 222 255
197 222 255
197 222 255
197 222 255
197 222 255
197 222 255
197 222 255
197 222 255
197 222 255
197 222 255
197 222 255
197 222 255
197 222 255
197 222 255
197 222 255
197 222 255
197 222 255
198 223 255
198 223 255
198 223 255
198 223 255
198 223 255
198 223 255
198 223 255
198 223 255
198 223 255
198 223 255
198 223 255
198 223 255
198 223 255
198 223 255
198 223 255
198 223 255
198 223 255
198 223 255
199 223 255
199 223 255
199 223 255
199 223 255
199 223 255
199 223 255
199 223 255
199 223 255
199 223 255
199 223 255
199 223 255
199 223 255
199 223 255
199 223 255
199 224 255
199 224 255
200 224 255
200 224 255
200 224 255
200 224 255
200 224 255
200 224 255
200 224 255
200 224 255
200 224 255
200 224 255
200 224 255
200 224 255
200 224 255
200 224 255
200 224 255
201 224 255
201 224 255
201 224 255
201 224 255
201 224 255
201 224 255
201 224 255
201 224 255
201 224 255
201 224 255
201 225 255
201 225 255
201 225 255
201 225 255
201 225 255
202 225 255
202 225 255
202 225 255
202 225 255
202 225 255
202 225 255
202 225 255
202 225 255
202 225 255
202 225 255
202 225 255
202 225 255
202 225 255
202 225 255
202 225 255
203 225 255
203 225 255
203 225 255
203 225 255
203 225 255
203 225 255
203 225 255
203 225 255
203 226 255
203 226 255
203 226 255
203 226 255
203 226 255
203 226 255
203 226 255
204 226 255
204 226 255
204 226 255
204 226 255
204 226 255
204 226 255
204 226 255
204 226 255
204 226 255
204 226 255
204 226 255
204 226 255
204 226 255
204 226 255
204 226 255
204 226 255
205 226 255
205 226 255
205 226 255
205 226 255
205 226 255
205 226 255
205 226 255
205 227 255
205 227 255
205 227 255
205 227 255
205 227 255
205 227 255
205 227 255
205 227 255
205 227 255
205 227 255
205 227 255
206 227 255
206 227 255
206 227 255
206 227 255
206 227 255
206 227 255
206 227 255
206 227 255
206 227 255
206 227 255
206 227 255
206 227 255
206 227 255
206 227 255
206 227 255
206 227 255
206 227 255
206 227 255
206 227 255
207 227 255
207 227 255
207 227 255
207 227 255
207 228 255
207 228 255
207 228 255
207 228 255
207 228 255
207 228 255
207 228 255
207 228 255
207 227 255
207 227 255
207 227 255
207 227 255
207 227 255
206 227 255
206 227 255
206 227 255
206 227 255
206 227 255
206 227 255
206 227 255
206 227 255
206 227 255
206 227 255
206 227 255
206 227 255
206 227 255
206 227 255
206 227 255
206 227 255
206 227 255
206 227 255
206 227 255
205 227 255
205 227 255
205 227 255
205 227 255
205 227 255
205 227 255
205 227 255
205 227 255
205 227 255
205 227 255
205 227 255
205 226 255
205 226 255
205 226 255
205 226 255
205 226 255
205 226 255
204 226 255
204 226 255
204 226 255
204 226 255
204 226 255
204 226 255
204 226 255
204 226 255
204 226 255
204 226 255
204 226 255
204 226 255
204 226 255
204 226 255
204 226 255
204 226 255
204 226 255
203 226 255
203 226 255
203 226 255
203 226 255
203 226 255
203 226 255
203 226 255
203 225 255
203 225 255
203 225 255
203 225 255
203 225 255
203 225 255
203 225 255
203 225 255
202 225 255
202 225 255
202 225 255
202 225 255
202 225 255
202 225 255
202 225 255
202 225 255
202 225 255
202 225 255
202 225 255
202 225 255
202 225 255
202 225 255
202 225 255
201 225 255
201 225 255
201 225 255
201 225 255
201 224 255
201 224 255
201 224 255
201 224 255
201 224 255
201 224 255
201 224 255
201 224 255
201 224 255
201 224 255
200 224 255
200 224 255
200 224 255
200 224 255
200 224 255
200 224 255
200 224 255
200 224 255
200 224 255
200 224 255
200 224 255
200 224 255
200 224 255
200 224 255
200 224 255
200 224 255
199 224 255
199 224 255
199 223 255
199 223 255
199 223 255
199 223 255
199 223 255
199 223 255
199 223 255
199 223 255
199 223 255
199 223 255
199 223 255
199 223 255
199 223 255
199 223 255
198 223 255
198 223 255
198 223 255
198 223 255
198 223 255
198 223 255
198 223 255
198 223 255
198 223 255
198 223 255
198 223 255
198 223 255
198 223 255
198 223 255
198 223 255
198 223 255
198 223 255
198 223 255
197 223 255
197 222 255
197 222 255
197 222 255
197 222 255
197 222 255
197 222 255
197 222 255
197 222 255
197 222 255
197 222 255
197 222 255
197 222 255
197 222 255
197 222 255
197 222 255
197 222 255
197 222 255
197 222 255
197 222 255
197 222 255
197 222 255
197 222 255
197 222 255
197 222 255
197 222 255
197 222 255
197 222 255
197 222 255
197 222 255
197 222 255
197 222 255
196 222 255
196 222 255
196 222 255
196 222 255
196 222 255
196 222 255
196 222 255
196 222 255
196 222 255
196 222 255
196 222 255
196 222 255
196 222 255
196 222 255
196 222 255
196 222 255
196 222 255
196 222 255
196 222 255
196 222 255
196 222 255
196 222 255
197 222 255
197 222 255
197 222 255
197 222 255
197 222 255
197 222 255
197 222 255
197 222 255
197 222 255
197 222 255
197 222 255
197 222 255
197 222 255
197 222 255
197 222 255
197 222 255
197 222 255
197 222 255
197 222 255
197 222 255
197 222 255
197 222 255
197 222 255
197 222 255
197 222 255
197 222 255
197 222 255
197 222 255
197 222 255
197 222 255
197 222 255
197 223 255
198 223 255
198 223 255
198 223 255
198 223 255
198 223 255
198 223 255
198 223 255
198 223 255
198 223 255
198 223 255
198 223 255
198 223 255
198 223 255
198 223 255
198 223 255
198 223 255
198 223 255
198 223 255
198 223 255
199 223 255
199 223 255
199 223 255
199 223 255
199 223 255
199 223 255
199 223 255
199 223 255
199 223 255
199 223 255
199 223 255
199 223 255
199 223 255
199 224 255
199 224 255
200 224 255
200 224 255
200 224 255
200 224 255
200 224 255
200 224 255
200 224 255
200 224 255
200 224 255
200 224 255
200 224 255
200 224 255
200 224 255
200 224 255
200 224 255
200 224 255
201 224 255
201 224 255
201 224 255
201 224 255
201 224 255
201 224 255
201 224 255
201 224 255
201 224 255
201 224 255
201 225 255
201 225 255
201 225 255
201 225 255
202 225 255
202 225 255
202 225 255
202 225 255
202 225 255
202 225 255
202 225 255
202 225 255
202 225 255
202 225 255
202 225 255
202 225 255
202 225 255
202 225 255
202 225 255
203 225 255
203 225 255
203 225 255
203 225 255
203 225 255
203 225 255
203 225 255
203 225 255
203 226 255
203 226 255
203 226 255
203 226 255
203 226 255
203 226 255
203 226 255
204 226 255
204 226 255
204 226 255
204 226 255
204 226 255
204 226 255
204 226 255
204 226 255
204 226 255
204 226 255
204 226 255
204 226 255
204 226 255
204 226 255
204 226 255
204 226 255
204 226 255
205 226 255
205 226 255
205 226 255
205 226 255
205 226 255
205 226 255
205 227 255
205 227 255
205 227 255
205 227 255
205 227 255
205 227 255
205 227 255
205 227 255
205 227 255
205 227 255
205 227 255
206 227 255
206 227 255
206 227 255
206 227 255
206 227 255
206 227 255
206 227 255
206 227 255
206 227 255
206 227 255
206 227 255
206 227 255
206 227 255
206 227 255
206 227 255
206 227 255
206 227 255
206 227 255
206 227 255
207 227 255
207 227 255
207 227 255
207 227 255
207 227 255
207 228 255
207 228 255
207 228 255
207 228 255
207 228 255
207 228 255
207 228 255
207 228 255
207 228 255
207 228 255
207 228 255
207 228 255
207 228 255
207 227 255
207 227 255
207 227 255
207 227 255
207 227 255
206 227 255
206 227 255
206 227 255
206 227 255
206 227 255
206 227 255
206 227 255
206 227 255
206 227 255
206 227 255
206 227 255
206 227 255
206 227 255
206 227 255
206 227 255
206 227 255
206 227 255
206 227 255
206 227 255
205 227 255
205 227 255
205 227 255
205 227 255
205 227 255
205 227 255
205 227 255
205 227 255
205 227 255
205 227 255
205 226 255
205 226 255
205 226 255
205 226 255
205 226 255
205 226 255
205 226 255
204 226 255
204 226 255
204 226 255
204 226 255
204 226 255
204 226 255
204 226 255
204 226 255
204 226 255
204 226 255
204 226 255
204 226 255
204 226 255
204 226 255
204 226 255
204 226 255
203 226 255
203 226 255
203 226 255
203 226 255
203 226 255
203 226 255
203 226 255
203 225 255
203 225 255
203 225 255
203 225 255
203 225 255
203 225 255
203 225 255
203 225 255
202 225 255
202 225 255
202 225 255
202 225 255
202 225 255
202 225 255
202 225 255
202 225 255
202 225 255
202 225 255
202 225 255
202 225 255
202 225 255
202 225 255
202 225 255
201 225 255
201 225 255
201 225 255
201 225 255
201 225 255
201 224 255
201 224 255
201 224 255
201 224 255
201 224 255
201 224 255
201 224 255
201 224 255
201 224 255
201 224 255
200 224 255
200 224 255
200 224 255
200 224 255
200 224 255
200 224 255
200 224 255
200 224 255
200 224 255
200 224 255
200 224 255
200 224 255
200 224 255
200 224 255
200 224 255
199 224 255
199 224 255
199 224 255
199 223 255
199 223 255
199 223 255
199 223 255
199 223 255
199 223 255
199 223 255
199 223 255
199 223 255
199 223 255
199 223 255
199 223 255
199 223 255
198 223 255
198 223 255
198 223 255
198 223 255
198 223 255
198 223 255
198 223 255
198 223 255
198 223 255
198 223 255
198 223 255
198 223 255
198 223 255
198 223 255
198 223 255
198 223 255
198 223 255
198 223 255
198 223 255
198 223 255
197 223 255
197 222 255
197 222 255
197 222 255
197 222 255
197 222 255
197 222 255
197 222 255
197 222 255
197 222 255
197 222 255
197 222 255
197 222 255
197 222 255
197 222 255
197 222 255
197 222 255
197 222 255
197 222 255
197 222 255
197 222 255
197 222 255
197 222 255
197 222 255
197 222 255
197 222 255
197 222 255
197 222 255
197 222 255
197 222 255
197 222 255
197 222 255
197 222 255
197 222 255
197 222 255
197 222 255
197 222 255
197 222 255
197 222 255
197 222 255
197 222 255
197 222 255
197 222 255
197 222 255
197 222 255
197 222 255
197 222 255
197 222 255
197 222 255
197 222 255
197 222 255
197 222 255
197 222 255
197 222 255
197 222 255
197 222 255
197 222 255
197 222 255
197 222 255
197 222 255
197 222 255
197 222 255
197 222 255
197 222 255
197 222 255
197 222 255
197 222 255
197 222 255
197 222 255
197 222 255
197 222 255
197 222 255
197 222 255
197 222 255
197 222 255
197 222 255
197 222 255
197 223 255
198 223 255
198 223 255
198 223 255
198 223 255
198 223 255
198 223 255
198 223 255
198 223 255
198 223 255
198 223 255
198 223 255
198 223 255
198 223 255
198 223 255
198 223 255
198 223 255
198 223 255
198 223 255
198 223 255
198 223 255
199 223 255
199 223 255
199 223 255
199 223 255
199 223 255
199 223 255
199 223 255
199 223 255
199 223 255
199 223 255
199 223 255
199 223 255
199 223 255
199 224 255
199 224 255
199 224 255
200 224 255
200 224 255
200 224 255
200 224 255
200 224 255
200 224 255
200 224 255
200 224 255
200 224 255
200 224 255
200 224 255
200 224 255
200 224 255
200 224 255
200 224 255
201 224 255
201 224 255
201 224 255
201 224 255
201 224 255
201 224 255
201 224 255
201 224 255
201 224 255
201 224 255
201 225 255
201 225 255
201 225 255
201 225 255
201 225 255
202 225 255
202 225 255
202 225 255
202 225 255
202 225 255
202 225 255
202 225 255
202 225 255
202 225 255
202 225 255
202 225 255
202 225 255
202 225 255
202 225 255
202 225 255
203 225 255
203 225 255
203 225 255
203 225 255
203 225 255
203 225 255
203 225 255
203 225 255
203 226 255
203 226 255
203 226 255
203 226 255
203 226 255
203 226 255
203 226 255
204 226 255
204 226 255
204 226 255
204 226 255
204 226 255
204 226 255
204 226 255
204 226 255
204 226 255
204 226 255
204 226 255
204 226 255
204 226 255
204 226 255
204 226 255
204 226 255
205 226 255
205 226 255
205 226 255
205 226 255
205 226 255
205 226 255
205 226 255
205 227 255
205 227 255
205 227 255
205 227 255
205 227 255
205 227 255
205 227 255
205 227 255
205 227 255
205 227 255
206 227 255
206 227 255
206 227 255
206 227 255
206 227 255
206 227 255
206 227 255
206 227 255
206 227 255
206 227 255
206 227 255
206 227 255
206 227 255
206 227 255
206 227 255
206 227 255
206 227 255
206 227 255
206 227 255
207 227 255
207 227 255
207 227 255
207 227 255
207 227 255
207 228 255
207 228 255
207 228 255
207 228 255
207 228 255
207 228 255
207 228 255
207 228 255
207 228 255
207 228 255
207 228 255
207 228 255
207 228 255
207 228 255
207 228 255
207 228 255
207 228 255
207 228 255
207 228 255
207 227 255
207 227 255
207 227 255
207 227 255
207 227 255
206 227 255
206 227 255
206 227 255
206 227 255
206 227 255
206 227 255
206 227 255
206 227 255
206 227 255
206 227 255
206 227 255
206 227 255
206 227 255
206 227 255
206 227 255
206 227 255
206 227 255
206 227 255
205 227 255
205 227 255
205 227 255
205 227 255
205 227 255
205 227 255
205 227 255
205 227 255
205 227 255
205 227 255
205 227 255
205 226 255
205 226 255
205 226 255
205 226 255
205 226 255
205 226 255
205 226 255
204 226 255
204 226 255
204 226 255
204 226 255
204 226 255
204 226 255
204 226 255
204 226 255
204 226 255
204 226 255
204 226 255
204 226 255
204 226 255
204 226 255
204 226 255
204 226 255
203 226 255
203 226 255
203 226 255
203 226 255
203 226 255
203 226 255
203 225 255
203 225 255
203 225 255
203 225 255
203 225 255
203 225 255
203 225 255
203 225 255
203 225 255
202 225 255
202 225 255
202 225 255
202 225 255
202 225 255
202 225 255
202 225 255
202 225 255
202 225 255
202 225 255
202 225 255
202 225 255
202 225 255
202 225 255
202 225 255
201 225 255
201 225 255
201 225 255
201 225 255
201 224 255
201 224 255
201 224 255
201 224 255
201 224 255
201 224 255
201 224 255
201 224 255
201 224 255
201 224 255
200 224 255
200 224 255
200 224 255
200 224 255
200 224 255
200 224 255
200 224 255
200 224 255
200 224 255
200 224 255
200 224 255
200 224 255
200 224 255
200 224 255
200 224 255
200 224 255
199 224 255
199 224 255
199 223 255
199 223 255
199 223 255
199 223 255
199 223 255
199 223 255
199 223 255
199 223 255
199 223 255
199 223 255
199 223 255
199 223 255
199 223 255
199 223 255
198 223 255
198 223 255
198 223 255
198 223 255
198 223 255
198 223 255
198 223 255
198 223 255
198 223 255
198 223 255
198 223 255
198 223 255
198 223 255
198 223 255
198 223 255
198 223 255
198 223 255
198 223 255
198 223 255
198 223 255
198 223 255
197 223 255
197 222 255
197 222 255
197 222 255
197 222 255
197 222 255
197 222 255
197 222 255
197 222 255
197 222 255
197 222 255
197 222 255
197 222 255
197 222 255
197 222 255
197 222 255
197 222 255
197 222 255
197 222 255
197 222 255
197 222 255
197 222 255
197 222 255
197 222 255
197 222 255
197 222 255
197 222 255
197 222 255
197 222 255
197 222 255
197 222 255
197 222 255
197 222 255
197 222 255
197 222 255
197 222 255
197 222 255
197 222 255
197 222 255
197 222 255
197 222 255
197 222 255
197 222 255
197 222 255
197 222 255
197 222 255
197 222 255
197 222 255
197 222 255
197 222 255
197 222 255
197 222 255
197 222 255
197 222 255
197 222 255
197 222 255
197 222 255
197 222 255
197 222 255
197 222 255
197 222 255
197 222 255
197 222 255
197 222 255
197 222 255
197 222 255
197 222 255
197 222 255
197 222 255
197 223 255
198 223 255
198 223 255
198 223 255
198 223 255
198 223 255
198 223 255
198 223 255
198 223 255
198 223 255
198 223 255
198 223 255
198 223 255
198 223 255
198 223 255
198 223 255
198 223 255
198 223 255
198 223 255
198 223 255
198 223 255
199 223 255
199 223 255
199 223 255
199 223 255
199 223 255
199 223 255
199 223 255
199 223 255
199 223 255
199 223 255
199 223 255
199 223 255
199 223 255
199 223 255
199 223 255
199 224 255
199 224 255
200 224 255
200 224 255
200 224 255
200 224 255
200 224 255
200 224 255
200 224 255
200 224 255
200 224 255
200 224 255
200 224 255
200 224 255
200 224 255
200 224 255
200 224 255
201 224 255
201 224 255
201 224 255
201 224 255
201 224 255
201 224 255
201 224 255
201 224 255
201 224 255
201 224 255
201 224 255
201 225 255
201 225 255
201 225 255
201 225 255
202 225 255
202 225 255
202 225 255
202 225 255
202 225 255
202 225 255
202 225 255
202 225 255
202 225 255
202 225 255
202 225 255
202 225 255
202 225 255
202 225 255
202 225 255
203 225 255
203 225 255
203 225 255
203 225 255
203 225 255
203 225 255
203 225 255
203 225 255
203 225 255
203 226 255
203 226 255
203 226 255
203 226 255
203 226 255
203 226 255
204 226 255
204 226 255
204 226 255
204 226 255
204 226 255
204 226 255
204 226 255
204 226 255
204 226 255
204 226 255
204 226 255
204 226 255
204 226 255
204 226 255
204 226 255
204 226 255
204 226 255
205 226 255
205 226 255
205 226 255
205 226 255
205 226 255
205 226 255
205 227 255
205 227 255
205 227 255
205 227 255
205 227 255
205 227 255
205 227 255
205 227 255
205 227 255
205 227 255
205 227 255
206 227 255
206 227 255
206 227 255
206 227 255
206 227 255
206 227 255
206 227 255
206 227 255
206 227 255
206 227 255
206 227 255
206 227 255
206 227 255
206 227 255
206 227 255
206 227 255
206 227 255
206 227 255
207 227 255
207 227 255
207 227 255
207 227 255
207 227 255
207 228 255
207 228 255
207 228 255
207 228 255
207 228 255
207 228 255
207 228 255
207 228 255
207 228 255
207 228 255
207 228 255
207 228 255
207 228 255
207 228 255
207 228 255
207 228 255
207 228 255
207 228 255
207 228 255
207 228 255
207 228 255
207 228 255
207 228 255
207 228 255
207 228 255
207 227 255
207 227 255
207 227 255
207 227 255
206 227 255
206 227 255
206 227 255
206 227 255
206 227 255
206 227 255
206 227 255
206 227 255
206 227 255
206 227 255
206 227 255
206 227 255
206 227 255
206 227 255
206 227 255
206 227 255
206 227 255
206 227 255
206 227 255
205 227 255
205 227 255
205 227 255
205 227 255
205 227 255
205 227 255
205 227 255
205 227 255
205 227 255
205 227 255
205 226 255
205 226 255
205 226 255
205 226 255
205 226 255
205 226 255
205 226 255
204 226 255
204 226 255
204 226 255
204 226 255
204 226 255
204 226 255
204 226 255
204 226 255
204 226 255
204 226 255
204 226 255
204 226 255
204 226 255
204 226 255
204 226 255
204 226 255
203 226 255
203 226 255
203 226 255
203 226 255
203 226 255
203 226 255
203 226 255
203 225 255
203 225 255
203 225 255
203 225 255
203 225 255
203 225 255
203 225 255
203 225 255
202 225 255
202 225 255
202 225 255
202 225 255
202 225 255
202 225 255
202 225 255
202 225 255
202 225 255
202 225 255
202 225 255
202 225 255
202 225 255
202 225 255
202 225 255
201 225 255
201 225 255
201 225 255
201 225 255
201 225 255
201 224 255
201 224 255
201 224 255
201 224 255
201 224 255
201 224 255
201 224 255
201 224 255
201 224 255
201 224 255
200 224 255
200 224 255
200 224 255
200 224 255
200 224 255
200 224 255
200 224 255
200 224 255
200 224 255
200 224 255
200 224 255
200 224 255
200 224 255
200 224 255
200 224 255
200 224 255
199 224 255
199 224 255
199 223 255
199 223 255
199 223 255
199 223 255
199 223 255
199 223 255
199 223 255
199 223 255
199 223 255
199 223 255
199 223 255
199 223 255
199 223 255
199 223 255
199 223 255
198 223 255
198 223 255
198 223 255
198 223 255
198 223 255
198 223 255
198 223 255
198 223 255
198 223 255
198 223 255
198 223 255
198 223 255
198 223 255
198 223 255
198 223 255
198 223 255
198 223 255
198 223 255
198 223 255
198 223 255
198 223 255
198 223 255
197 223 255
197 222 255
197 222 255
197 222 255
197 222 255
197 222 255
197 222 255
197 222 255
197 222 255
197 222 255
197 222 255
197 222 255
197 222 255
197 222 255
197 222 255
197 222 255
197 222 255
197 222 255
197 222 255
197 222 255
197 222 255
197 222 255
197 222 255
197 222 255
197 222 255
197 222 255
197 222 255
197 222 255
197 222 255
197 222 255
197 222 255
197 222 255
197 222 255
197 222 255
197 222 255
197 222 255
197 222 255
197 222 255
197 222 255
197 222 255
197 222 255
197 222 255
197 222 255
197 222 255
197 222 255
197 222 255
197 222 255
197 222 255
197 222 255
197 222 255
197 222 255
197 222 255
197 222 255
197 222 255
197 222 255
197 222 255
197 222 255
197 222 255
197 222 255
197 223 255
198 223 255
198 223 255
198 223 255
198 223 255
198 223 255
198 223 255
198 223 255
198 223 255
198 223 255
198 223 255
198 223 255
198 223 255
198 223 255
198 223 255
198 223 255
198 223 255
198 223 255
198 223 255
198 223 255
198 223 255
198 223 255
198 223 255
199 223 255
199 223 255
199 223 255
199 223 255
199 223 255
199 223 255
199 223 255
199 223 255
199 223 255
199 223 255
199 223 255
199 223 255
199 223 255
199 223 255
199 223 255
199 224 255
199 224 255
200 224 255
200 224 255
200 224 255
200 224 255
200 224 255
200 224 255
200 224 255
200 224 255
200 224 255
200 224 255
200 224 255
200 224 255
200 224 255
200 224 255
200 224 255
200 224 255
201 224 255
201 224 255
201 224 255
201 224 255
201 224 255
201 224 255
201 224 255
201 224 255
201 224 255
201 224 255
201 225 255
201 225 255
201 225 255
201 225 255
201 225 255
202 225 255
202 225 255
202 225 255
202 225 255
202 225 255
202 225 255
202 225 255
202 225 255
202 225 255
202 225 255
202 225 255
202 225 255
202 225 255
202 225 255
202 225 255
203 225 255
203 225 255
203 225 255
203 225 255
203 225 255
203 225 255
203 225 255
203 225 255
203 226 255
203 226 255
203 226 255
203 226 255
203 226 255
203 226 255
203 226 255
204 226 255
204 226 255
204 226 255
204 226 255
204 226 255
204 226 255
204 226 255
204 226 255
204 226 255
204 226 255
204 226 255
204 226 255
204 226 255
204 226 255
204 226 255
204 226 255
205 226 255
205 226 255
205 226 255
205 226 255
205 226 255
205 226 255
205 226 255
205 227 255
205 227 255
205 227 255
205 227 255
205 227 255
205 227 255
205 227 255
205 227 255
205 227 255
205 227 255
206 227 255
206 227 255
206 227 255
206 227 255
206 227 255
206 227 255
206 227 255
206 227 255
206 227 255
206 227 255
206 227 255
206 227 255
206 227 255
206 227 255
206 227 255
206 227 255
206 227 255
206 227 255
206 227 255
207 227 255
207 227 255
207 227 255
207 227 255
207 228 255
207 228 255
207 228 255
207 228 255
207 228 255
207 228 255
207 228 255
207 228 255
207 228 255
207 228 255
207 228 255
207 228 255
207 228 255
207 228 255
208 228 255
207 228 255
207 228 255
207 228 255
207 228 255
207 228 255
207 228 255
207 228 255
207 228 255
207 228 255
207 228 255
207 228 255
207 228 255
207 228 255
207 228 255
207 228 255
207 228 255
207 227 255
207 227 255
207 227 255
207 227 255
206 227 255
206 227 255
206 227 255
206 227 255
206 227 255
206 227 255
206 227 255
206 227 255
206 227 255
206 227 255
206 227 255
206 227 255
206 227 255
206 227 255
206 227 255
206 227 255
206 227 255
206 227 255
206 227 255
205 227 255
205 227 255
205 227 255
205 227 255
205 227 255
205 227 255
205 227 255
205 227 255
205 227 255
205 227 255
205 226 255
205 226 255
205 226 255
205 226 255
205 226 255
205 226 255
205 226 255
204 226 255
204 226 255
204 226 255
204 226 255
204 226 255
204 226 255
204 226 255
204 226 255
204 226 255
204 226 255
204 226 255
204 226 255
204 226 255
204 226 255
204 226 255
204 226 255
203 226 255
203 226 255
203 226 255
203 226 255
203 226 255
203 226 255
203 226 255
203 225 255
203 225 255
203 225 255
203 225 255
203 225 255
203 225 255
203 225 255
203 225 255
202 225 255
202 225 255
202 225 255
202 225 255
202 225 255
202 225 255
202 225 255
202 225 255
202 225 255
202 225 255
202 225 255
202 225 255
202 225 255
202 225 255
202 225 255
201 225 255
201 225 255
201 225 255
201 225 255
201 224 255
201 224 255
201 224 255
201 224 255
201 224 255
201 224 255
201 224 255
201 224 255
201 224 255
201 224 255
201 224 255
200 224 255
200 224 255
200 224 255
200 224 255
200 224 255
200 224 255
200 224 255
200 224 255
200 224 255
200 224 255
200 224 255
200 224 255
200 224 255
200 224 255
200 224 255
200 224 255
199 224 255
199 224 255
199 223 255
199 223 255
199 223 255
199 223 255
199 223 255
199 223 255
199 223 255
199 223 255
199 223 255
199 223 255
199 223 255
199 223 255
199 223 255
199 223 255
199 223 255
198 223 255
198 223 255
198 223 255
198 223 255
198 223 255
198 223 255
198 223 255
198 223 255
198 223 255
198 223 255
198 223 255
198 223 255
198 223 255
198 223 255
198 223 255
198 223 255
198 223 255
198 223 255
198 223 255
198 223 255
198 223 255
198 223 255
198 223 255
198 223 255
197 223 255
197 222 255
197 222 255
197 222 255
197 222 255
197 222 255
197 222 255
197 222 255
197 222 255
197 222 255
197 222 255
197 222 255
197 222 255
197 222 255
197 222 255
197 222 255
197 222 255
197 222 255
197 222 255
197 222 255
197 222 255
197 222 255
197 222 255
197 222 255
197 222 255
197 222 255
197 222 255
197 222 255
197 222 255
197 222 255
197 222 255
197 222 255
197 222 255
197 222 255
197 222 255
197 222 255
197 222 255
197 222 255
197 222 255
197 222 255
197 222 255
197 222 255
197 222 255
197 222 255
197 222 255
197 222 255
197 222 255
197 222 255
197 222 255
197 223 255
198 223 255
198 223 255
198 223 255
198 223 255
198 223 255
198 223 255
198 223 255
198 223 255
198 223 255
198 223 255
198 223 255
198 223 255
198 223 255
198 223 255
198 223 255
198 223 255
198 223 255
198 223 255
198 223 255
198 223 255
198 223 255
198 223 255
198 223 255
198 223 255
199 223 255
199 223 255
199 223 255
199 223 255
199 223 255
199 223 255
199 223 255
199 223 255
199 223 255
199 223 255
199 223 255
199 223 255
199 223 255
199 223 255
199 223 255
199 224 255
199 224 255
199 224 255
200 224 255
200 224 255
200 224 255
200 224 255
200 224 255
200 224 255
200 224 255
200 224 255
200 224 255
200 224 255
200 224 255
200 224 255
200 224 255
200 224 255
200 224 255
201 224 255
201 224 255
201 224 255
201 224 255
201 224 255
201 224 255
201 224 255
201 224 255
201 224 255
201 224 255
201 224 255
201 225 255
201 225 255
201 225 255
201 225 255
202 225 255
202 225 255
202 225 255
202 225 255
202 225 255
202 225 255
202 225 255
202 225 255
202 225 255
202 225 255
202 225 255
202 225 255
202 225 255
202 225 255
202 225 255
203 225 255
203 225 255
203 225 255
203 225 255
203 225 255
203 225 255
203 225 255
203 225 255
203 226 255
203 226 255
203 226 255
203 226 255
203 226 255
203 226 255
203 226 255
204 226 255
204 226 255
204 226 255
204 226 255
204 226 255
204 226 255
204 226 255
204 226 255
204 226 255
204 226 255
204 226 255
204 226 255
204 226 255
204 226 255
204 226 255
204 226 255
205 226 255
205 226 255
205 226 255
205 226 255
205 226 255
205 226 255
205 226 255
205 227 255
205 227 255
205 227 255
205 227 255
205 227 255
205 227 255
205 227 255
205 227 255
205 227 255
205 227 255
206 227 255
206 227 255
206 227 255
206 227 255
206 227 255
206 227 255
206 227 255
206 227 255
206 227 255
206 227 255
206 227 255
206 227 255
206 227 255
206 227 255
206 227 255
206 227 255
206 227 255
206 227 255
206 227 255
207 227 255
207 227 255
207 227 255
207 227 255
207 227 255
207 228 255
207 228 255
207 228 255
207 228 255
207 228 255
207 228 255
207 228 255
207 228 255
207 228 255
207 228 255
207 228 255
207 228 255
207 228 255
207 228 255
207 228 255
208 228 255
208 228 255
208 228 255
208 228 255
208 228 255
207 228 255
207 228 255
207 228 255
207 228 255
207 228 255
207 228 255
207 228 255
207 228 255
207 228 255
207 228 255
207 228 255
207 228 255
207 228 255
207 228 255
207 228 255
207 227 255
207 227 255
207 227 255
207 227 255
207 227 255
206 227 255
206 227 255
206 227 255
206 227 255
206 227 255
206 227 255
206 227 255
206 227 255
206 227 255
206 227 255
206 227 255
206 227 255
206 227 255
206 227 255
206 227 255
206 227 255
206 227 255
206 227 255
205 227 255
205 227 255
205 227 255
205 227 255
205 227 255
205 227 255
205 227 255
205 227 255
205 227 255
205 227 255
205 227 255
205 226 255
205 226 255
205 226 255
205 226 255
205 226 255
205 226 255
204 226 255
204 226 255
204 226 255
204 226 255
204 226 255
204 226 255
204 226 255
204 226 255
204 226 255
204 226 255
204 226 255
204 226 255
204 226 255
204 226 255
204 226 255
204 226 255
203 226 255
203 226 255
203 226 255
203 226 255
203 226 255
203 226 255
203 226 255
203 225 255
203 225 255
203 225 255
203 225 255
203 225 255
203 225 255
203 225 255
203 225 255
202 225 255
202 225 255
202 225 255
202 225 255
202 225 255
202 225 255
202 225 255
202 225 255
202 225 255
202 225 255
202 225 255
202 225 255
202 225 255
202 225 255
202 225 255
202 225 255
201 225 255
201 225 255
201 225 255
201 225 255
201 224 255
201 224 255
201 224 255
201 224 255
201 224 255
201 224 255
201 224 255
201 224 255
201 224 255
201 224 255
201 224 255
200 224 255
200 224 255
200 224 255
200 224 255
200 224 255
200 224 255
200 224 255
200 224 255
200 224 255
200 224 255
200 224 255
200 224 255
200 224 255
200 224 255
200 224 255
199 224 255
199 224 255
199 224 255
199 223 255
199 223 255
199 223 255
199 223 255
199 223 255
199 223 255
199 223 255
199 223 255
199 223 255
199 223 255
199 223 255
199 223 255
199 223 255
199 223 255
199 223 255
199 223 255
198 223 255
198 223 255
198 223 255
198 223 255
198 223 255
198 223 255
198 223 255
198 223 255
198 223 255
198 223 255
198 223 255
198 223 255
198 223 255
198 223 255
198 223 255
198 223 255
198 223 255
198 223 255
198 223 255
198 223 255
198 223 255
198 223 255
198 223 255
198 223 255
198 223 255
198 223 255
198 223 255
198 223 255
197 223 255
197 222 255
197 222 255
197 222 255
197 222 255
197 222 255
197 222 255
197 222 255
197 222 255
197 222 255
197 222 255
197 222 255
197 222 255
197 222 255
197 222 255
197 222 255
197 222 255
197 222 255
197 222 255
197 222 255
197 222 255
197 222 255
197 222 255
197 222 255
197 222 255
197 222 255
197 222 255
197 222 255
197 222 255
197 222 255
197 222 255
197 222 255
197 222 255
197 223 255
197 223 255
198 223 255
198 223 255
198 223 255
198 223 255
198 223 255
198 223 255
198 223 255
198 223 255
198 223 255
198 223 255
198 223 255
198 223 255
198 223 255
198 223 255
198 223 255
198 223 255
198 223 255
198 223 255
198 223 255
198 223 255
198 223 255
198 223 255
198 223 255
198 223 255
198 223 255
198 223 255
198 223 255
199 223 255
199 223 255
199 223 255
199 223 255
199 223 255
199 223 255
199 223 255
199 223 255
199 223 255
199 223 255
199 223 255
199 223 255
199 223 255
199 223 255
199 223 255
199 223 255
199 224 255
199 224 255
199 224 255
200 224 255
200 224 255
200 224 255
200 224 255
200 224 255
200 224 255
200 224 255
200 224 255
200 224 255
200 224 255
200 224 255
200 224 255
200 224 255
200 224 255
200 224 255
201 224 255
201 224 255
201 224 255
201 224 255
201 224 255
201 224 255
201 224 255
201 224 255
201 224 255
201 224 255
201 224 255
201 225 255
201 225 255
201 225 255
201 225 255
202 225 255
202 225 255
202 225 255
202 225 255
202 225 255
202 225 255
202 225 255
202 225 255
202 225 255
202 225 255
202 225 255
202 225 255
202 225 255
202 225 255
202 225 255
203 225 255
203 225 255
203 225 255
203 225 255
203 225 255
203 225 255
203 225 255
203 225 255
203 225 255
203 226 255
203 226 255
203 226 255
203 226 255
203 226 255
203 226 255
203 226 255
204 226 255
204 226 255
204 226 255
204 226 255
204 226 255
204 226 255
204 226 255
204 226 255
204 226 255
204 226 255
204 226 255
204 226 255
204 226 255
204 226 255
204 226 255
204 226 255
205 226 255
205 226 255
205 226 255
205 226 255
205 226 255
205 226 255
205 227 255
205 227 255
205 227 255
205 227 255
205 227 255
205 227 255
205 227 255
205 227 255
205 227 255
205 227 255
206 227 255
206 227 255
206 227 255
206 227 255
206 227 255
206 227 255
206 227 255
206 227 255
206 227 255
206 227 255
206 227 255
206 227 255
206 227 255
206 227 255
206 227 255
206 227 255
206 227 255
206 227 255
206 227 255
207 227 255
207 227 255
207 227 255
207 227 255
207 227 255
207 228 255
207 228 255
207 228 255
207 228 255
207 228 255
207 228 255
207 228 255
207 228 255
207 228 255
207 228 255
207 228 255
207 228 255
207 228 255
207 228 255
207 228 255
208 228 255
208 228 255
208 228 255
208 228 255
208 228 255
208 228 255
208 228 255
208 228 255
208 228 255
208 228 255
208 228 255
207 228 255
207 228 255
207 228 255
207 228 255
207 228 255
207 228 255
207 228 255
207 228 255
207 228 255
207 228 255
207 228 255
207 228 255
207 228 255
207 228 255
207 228 255
207 228 255
207 227 255
207 227 255
207 227 255
207 227 255
206 227 255
206 227 255
206 227 255
206 227 255
206 227 255
206 227 255
206 227 255
206 227 255
206 227 255
206 227 255
206 227 255
206 227 255
206 227 255
206 227 255
206 227 255
206 227 255
206 227 255
206 227 255
205 227 255
205 227 255
205 227 255
205 227 255
205 227 255
205 227 255
205 227 255
205 227 255
205 227 255
205 227 255
205 226 255
205 226 255
205 226 255
205 226 255
205 226 255
205 226 255
205 226 255
204 226 255
204 226 255
204 226 255
204 226 255
204 226 255
204 226 255
204 226 255
204 226 255
204 226 255
204 226 255
204 226 255
204 226 255
204 226 255
204 226 255
204 226 255
204 226 255
203 226 255
203 226 255
203 226 255
203 226 255
203 226 255
203 226 255
203 226 255
203 225 255
203 225 255
203 225 255
203 225 255
203 225 255
203 225 255
203 225 255
203 225 255
202 225 255
202 225 255
202 225 255
202 225 255
202 225 255
202 225 255
202 225 255
202 225 255
202 225 255
202 225 255
202 225 255
202 225 255
202 225 255
202 225 255
202 225 255
201 225 255
201 225 255
201 225 255
201 225 255
201 225 255
201 224 255
201 224 255
201 224 255
201 224 255
201 224 255
201 224 255
201 224 255
201 224 255
201 224 255
201 224 255
200 224 255
200 224 255
200 224 255
200 224 255
200 224 255
200 224 255
200 224 255
200 224 255
200 224 255
200 224 255
200 224 255
200 224 255
200 224 255
200 224 255
200 224 255
200 224 255
199 224 255
199 224 255
199 224 255
199 223 255
199 223 255
199 223 255
199 223 255
199 223 255
199 223 255
199 223 255
199 223 255
199 223 255
199 223 255
199 223 255
199 223 255
199 223 255
199 223 255
199 223 255
199 223 255
199 223 255
198 223 255
198 223 255
198 223 255
198 223 255
198 223 255
198 223 255
198 223 255
198 223 255
198 223 255
198 223 255
198 223 255
198 223 255
198 223 255
198 223 255
198 223 255
198 223 255
198 223 255
198 223 255
198 223 255
198 223 255
198 223 255
198 223 255
198 223 255
198 223 255
198 223 255
198 223 255
198 223 255
198 223 255
198 223 255
198 223 255
198 223 255
198 223 255
198 223 255
198 223 255
198 223 255
198 223 255
198 223 255
198 223 255
197 223 255
197 223 255
198 223 255
197 223 255
198 223 255
198 223 255
197 223 255
198 223 255
198 223 255
198 223 255
198 223 255
198 223 255
198 223 255
198 223 255
198 223 255
198 223 255
198 223 255
198 223 255
198 223 255
198 223 255
198 223 255
198 223 255
198 223 255
198 223 255
198 223 255
198 223 255
198 223 255
198 223 255
198 223 255
198 223 255
198 223 255
198 223 255
198 223 255
198 223 255
198 223 255
198 223 255
198 223 255
198 223 255
198 223 255
198 223 255
198 223 255
198 223 255
198 223 255
198 223 255
199 223 255
199 223 255
199 223 255
199 223 255
199 223 255
199 223 255
199 223 255
199 223 255
199 223 255
199 223 255
199 223 255
199 223 255
199 223 255
199 223 255
199 223 255
199 223 255
199 223 255
199 224 255
199 224 255
200 224 255
200 224 255
200 224 255
200 224 255
200 224 255
200 224 255
200 224 255
200 224 255
200 224 255
200 224 255
200 224 255
200 224 255
200 224 255
200 224 255
200 224 255
200 224 255
200 224 255
201 224 255
201 224 255
201 224 255
201 224 255
201 224 255
201 224 255
201 224 255
201 224 255
201 224 255
201 224 255
201 225 255
201 225 255
201 225 255
201 225 255
201 225 255
202 225 255
202 225 255
202 225 255
202 225 255
202 225 255
202 225 255
202 225 255
202 225 255
202 225 255
202 225 255
202 225 255
202 225 255
202 225 255
202 225 255
202 225 255
203 225 255
203 225 255
203 225 255
203 225 255
203 225 255
203 225 255
203 225 255
203 225 255
203 226 255
203 226 255
203 226 255
203 226 255
203 226 255
203 226 255
203 226 255
204 226 255
204 226 255
204 226 255
204 226 255
204 226 255
204 226 255
204 226 255
204 226 255
204 226 255
204 226 255
204 226 255
204 226 255
204 226 255
204 226 255
204 226 255
204 226 255
205 226 255
205 226 255
205 226 255
205 226 255
205 226 255
205 226 255
205 226 255
205 227 255
205 227 255
205 227 255
205 227 255
205 227 255
205 227 255
205 227 255
205 227 255
205 227 255
205 227 255
206 227 255
206 227 255
206 227 255
206 227 255
206 227 255
206 227 255
206 227 255
206 227 255
206 227 255
206 227 255
206 227 255
206 227 255
206 227 255
206 227 255
206 227 255
206 227 255
206 227 255
206 227 255
207 227 255
207 227 255
207 227 255
207 227 255
207 227 255
207 228 255
207 228 255
207 228 255
207 228 255
207 228 255
207 228 255
207 228 255
207 228 255
207 228 255
207 228 255
207 228 255
207 228 255
207 228 255
207 228 255
207 228 255
208 228 255
208 228 255
208 228 255
208 228 255
208 228 255
208 228 255
208 228 255
208 228 255
208 228 255
208 228 255
208 228 255
208 228 255
208 228 255
208 228 255
208 228 255
208 228 255
208 228 255
207 228 255
207 228 255
207 228 255
207 228 255
207 228 255
207 228 255
207 228 255
207 228 255
207 228 255
207 228 255
207 228 255
207 228 255
207 228 255
207 228 255
207 228 255
207 227 255
207 227 255
207 227 255
207 227 255
207 227 255
206 227 255
206 227 255
206 227 255
206 227 255
206 227 255
206 227 255
206 227 255
206 227 255
206 227 255
206 227 255
206 227 255
206 227 255
206 227 255
206 227 255
206 227 255
206 227 255
206 227 255
206 227 255
205 227 255
205 227 255
205 227 255
205 227 255
205 227 255
205 227 255
205 227 255
205 227 255
205 227 255
205 227 255
205 226 255
205 226 255
205 226 255
205 226 255
205 226 255
205 226 255
205 226 255
204 226 255
204 226 255
204 226 255
204 226 255
204 226 255
204 226 255
204 226 255
204 226 255
204 226 255
204 226 255
204 226 255
204 226 255
204 226 255
204 226 255
204 226 255
204 226 255
203 226 255
203 226 255
203 226 255
203 226 255
203 226 255
203 226 255
203 225 255
203 225 255
203 225 255
203 225 255
203 225 255
203 225 255
203 225 255
203 225 255
203 225 255
202 225 255
202 225 255
202 225 255
202 225 255
202 225 255
202 225 255
202 225 255
202 225 255
202 225 255
202 225 255
202 225 255
202 225 255
202 225 255
202 225 255
202 225 255
201 225 255
201 225 255
201 225 255
201 225 255
201 224 255
201 224 255
201 224 255
201 224 255
201 224 255
201 224 255
201 224 255
201 224 255
201 224 255
201 224 255
201 224 255
200 224 255
200 224 255
200 224 255
200 224 255
200 224 255
200 224 255
200 224 255
200 224 255
200 224 255
200 224 255
200 224 255
200 224 255
200 224 255
200 224 255
200 224 255
200 224 255
200 224 255
199 224 255
199 224 255
199 224 255
199 223 255
199 223 255
199 223 255
199 223 255
199 223 255
199 223 255
199 223 255
199 223 255
199 223 255
199 223 255
199 223 255
199 223 255
199 223 255
199 223 255
199 223 255
199 223 255
199 223 255
198 223 255
198 223 255
198 223 255
198 223 255
198 223 255
198 223 255
198 223 255
198 223 255
198 223 255
198 223 255
198 223 255
198 223 255
198 223 255
198 223 255
198 223 255
198 223 255
198 223 255
198 223 255
198 223 255
198 223 255
198 223 255
198 223 255
198 223 255
198 223 255
198 223 255
198 223 255
198 223 255
198 223 255
198 223 255
198 223 255
198 223 255
198 223 255
198 223 255
198 223 255
198 223 255
198 223 255
198 223 255
198 223 255
198 223 255
198 223 255
198 223 255
198 223 255
198 223 255
198 223 255
198 223 255
198 223 255
198 223 255
198 223 255
198 223 255
198 223 255
198 223 255
198 223 255
198 223 255
198 223 255
198 223 255
198 223 255
198 223 255
198 223 255
198 223 255
198 223 255
198 223 255
198 223 255
198 223 255
198 223 255
198 223 255
198 223 255
198 223 255
198 223 255
198 223 255
198 223 255
198 223 255
198 223 255
198 223 255
198 223 255
199 223 255
199 223 255
199 223 255
199 223 255
199 223 255
199 223 255
199 223 255
199 223 255
199 223 255
199 223 255
199 223 255
199 223 255
199 223 255
199 223 255
199 223 255
199 223 255
199 223 255
199 224 255
199 224 255
199 224 255
200 224 255
200 224 255
200 224 255
200 224 255
200 224 255
200 224 255
200 224 255
200 224 255
200 224 255
200 224 255
200 224 255
200 224 255
200 224 255
200 224 255
200 224 255
200 224 255
200 224 255
201 224 255
201 224 255
201 224 255
201 224 255
201 224 255
201 224 255
201 224 255
201 224 255
201 224 255
201 224 255
201 224 255
201 225 255
201 225 255
201 225 255
201 225 255
202 225 255
202 225 255
202 225 255
202 225 255
202 225 255
202 225 255
202 225 255
202 225 255
202 225 255
202 225 255
202 225 255
202 225 255
202 225 255
202 225 255
202 225 255
203 225 255
203 225 255
203 225 255
203 225 255
203 225 255
203 225 255
203 225 255
203 225 255
203 225 255
203 226 255
203 226 255
203 226 255
203 226 255
203 226 255
203 226 255
204 226 255
204 226 255
204 226 255
204 226 255
204 226 255
204 226 255
204 226 255
204 226 255
204 226 255
204 226 255
204 226 255
204 226 255
204 226 255
204 226 255
204 226 255
204 226 255
205 226 255
205 226 255
205 226 255
205 226 255
205 226 255
205 226 255
205 226 255
205 227 255
205 227 255
205 227 255
205 227 255
205 227 255
205 227 255
205 227 255
205 227 255
205 227 255
205 227 255
206 227 255
206 227 255
206 227 255
206 227 255
206 227 255
206 227 255
206 227 255
206 227 255
206 227 255
206 227 255
206 227 255
206 227 255
206 227 255
206 227 255
206 227 255
206 227 255
206 227 255
206 227 255
207 227 255
207 227 255
207 227 255
207 227 255
207 227 255
207 228 255
207 228 255
207 228 255
207 228 255
207 228 255
207 228 255
207 228 255
207 228 255
207 228 255
207 228 255
207 228 255
207 228 255
207 228 255
207 228 255
207 228 255
208 228 255
208 228 255
208 228 255
208 228 255
208 228 255
208 228 255
208 228 255
208 228 255
208 228 255
208 228 255
208 228 255
208 228 255
208 228 255
208 228 255
208 228 255
208 228 255
208 228 255
208 228 255
208 228 255
208 228 255
208 228 255
208 228 255
208 228 255
207 228 255
207 228 255
207 228 255
207 228 255
207 228 255
207 228 255
207 228 255
207 228 255
207 228 255
207 228 255
207 228 255
207 228 255
207 228 255
207 228 255
207 228 255
207 227 255
207 227 255
207 227 255
207 227 255
207 227 255
206 227 255
206 227 255
206 227 255
206 227 255
206 227 255
206 227 255
206 227 255
206 227 255
206 227 255
206 227 255
206 227 255
206 227 255
206 227 255
206 227 255
206 227 255
206 227 255
206 227 255
206 227 255
205 227 255
205 227 255
205 227 255
205 227 255
205 227 255
205 227 255
205 227 255
205 227 255
205 227 255
205 227 255
205 226 255
205 226 255
205 226 255
205 226 255
205 226 255
205 226 255
204 226 255
204 226 255
204 226 255
204 226 255
204 226 255
204 226 255
204 226 255
204 226 255
204 226 255
204 226 255
204 226 255
204 226 255
204 226 255
204 226 255
204 226 255
204 226 255
203 226 255
203 226 255
203 226 255
203 226 255
203 226 255
203 226 255
203 226 255
203 225 255
203 225 255
203 225 255
203 225 255
203 225 255
203 225 255
203 225 255
203 225 255
202 225 255
202 225 255
202 225 255
202 225 255
202 225 255
202 225 255
202 225 255
202 225 255
202 225 255
202 225 255
202 225 255
202 225 255
202 225 255
202 225 255
202 225 255
202 225 255
201 225 255
201 225 255
201 225 255
201 225 255
201 224 255
201 224 255
201 224 255
201 224 255
201 224 255
201 224 255
201 224 255
201 224 255
201 224 255
201 224 255
201 224 255
200 224 255
200 224 255
200 224 255
200 224 255
200 224 255
200 224 255
200 224 255
200 224 255
200 224 255
200 224 255
200 224 255
200 224 255
200 224 255
200 224 255
200 224 255
200 224 255
200 224 255
199 224 255
199 224 255
199 224 255
199 223 255
199 223 255
199 223 255
199 223 255
199 223 255
199 223 255
199 223 255
199 223 255
199 223 255
199 223 255
199 223 255
199 223 255
199 223 255
199 223 255
199 223 255
199 223 255
199 223 255
199 223 255
199 223 255
198 223 255
198 223 255
198 223 255
198 223 255
198 223 255
198 223 255
198 223 255
198 223 255
198 223 255
198 223 255
198 223 255
198 223 255
198 223 255
198 223 255
198 223 255
198 223 255
198 223 255
198 223 255
198 223 255
198 223 255
198 223 255
198 223 255
198 223 255
198 223 255
198 223 255
198 223 255
198 223 255
198 223 255
198 223 255
198 223 255
198 223 255
198 223 255
198 223 255
198 223 255
198 223 255
198 223 255
198 223 255
198 223 255
198 223 255
198 223 255
198 223 255
198 223 255
198 223 255
198 223 255
198 223 255
198 223 255
198 223 255
198 223 255
198 223 255
198 223 255
198 223 255
198 223 255
198 223 255
198 223 255
198 223 255
198 223 255
198 223 255
198 223 255
198 223 255
198 223 255
198 223 255
198 223 255
198 223 255
198 223 255
199 223 255
199 223 255
199 223 255
199 223 255
199 223 255
199 223 255
199 223 255
199 223 255
199 223 255
199 223 255
199 223 255
199 223 255
199 223 255
199 223 255
199 223 255
199 223 255
199 223 255
199 223 255
199 223 255
199 224 255
199 224 255
199 224 255
200 224 255
200 224 255
200 224 255
200 224 255
200 224 255
200 224 255
200 224 255
200 224 255
200 224 255
200 224 255
200 224 255
200 224 255
200 224 255
200 224 255
200 224 255
200 224 255
200 224 255
201 224 255
201 224 255
201 224 255
201 224 255
201 224 255
201 224 255
201 224 255
201 224 255
201 224 255
201 224 255
201 224 255
201 225 255
201 225 255
201 225 255
201 225 255
202 225 255
202 225 255
202 225 255
202 225 255
202 225 255
202 225 255
202 225 255
202 225 255
202 225 255
202 225 255
202 225 255
202 225 255
202 225 255
202 225 255
202 225 255
203 225 255
203 225 255
203 225 255
203 225 255
203 225 255
203 225 255
203 225 255
203 225 255
203 225 255
203 226 255
203 226 255
203 226 255
203 226 255
203 226 255
203 226 255
203 226 255
204 226 255
204 226 255
204 226 255
204 226 255
204 226 255
204 226 255
204 226 255
204 226 255
204 226 255
204 226 255
204 226 255
204 226 255
204 226 255
204 226 255
204 226 255
204 226 255
205 226 255
205 226 255
205 226 255
205 226 255
205 226 255
205 226 255
205 227 255
205 227 255
205 227 255
205 227 255
205 227 255
205 227 255
205 227 255
205 227 255
205 227 255
205 227 255
206 227 255
206 227 255
206 227 255
206 227 255
206 227 255
206 227 255
206 227 255
206 227 255
206 227 255
206 227 255
206 227 255
206 227 255
206 227 255
206 227 255
206 227 255
206 227 255
206 227 255
206 227 255
207 227 255
207 227 255
207 227 255
207 227 255
207 227 255
207 228 255
207 228 255
207 228 255
207 228 255
207 228 255
207 228 255
207 228 255
207 228 255
207 228 255
207 228 255
207 228 255
207 228 255
207 228 255
207 228 255
207 228 255
208 228 255
208 228 255
208 228 255
208 228 255
208 228 255
208 228 255
208 228 255
208 228 255
208 228 255
208 228 255
208 228 255
208 228 255
208 228 255
208 228 255
208 228 255
208 228 255
208 228 255
208 228 255
208 228 255
208 228 255
208 228 255
208 228 255
208 228 255
208 228 255
208 228 255
208 228 255
208 228 255
208 228 255
208 228 255
207 228 255
207 228 255
207 228 255
207 228 255
207 228 255
207 228 255
207 228 255
207 228 255
207 228 255
207 228 255
207 228 255
207 228 255
207 228 255
207 228 255
207 228 255
207 227 255
207 227 255
207 227 255
207 227 255
207 227 255
206 227 255
206 227 255
206 227 255
206 227 255
206 227 255
206 227 255
206 227 255
206 227 255
206 227 255
206 227 255
206 227 255
206 227 255
206 227 255
206 227 255
206 227 255
206 227 255
206 227 255
205 227 255
205 227 255
205 227 255
205 227 255
205 227 255
205 227 255
205 227 255
205 227 255
205 227 255
205 227 255
205 227 255
205 226 255
205 226 255
205 226 255
205 226 255
205 226 255
205 226 255
204 226 255
204 226 255
204 226 255
204 226 255
204 226 255
204 226 255
204 226 255
204 226 255
204 226 255
204 226 255
204 226 255
204 226 255
204 226 255
204 226 255
204 226 255
204 226 255
203 226 255
203 226 255
203 226 255
203 226 255
203 226 255
203 226 255
203 226 255
203 225 255
203 225 255
203 225 255
203 225 255
203 225 255
203 225 255
203 225 255
203 225 255
202 225 255
202 225 255
202 225 255
202 225 255
202 225 255
202 225 255
202 225 255
202 225 255
202 225 255
202 225 255
202 225 255
202 225 255
202 225 255
202 225 255
202 225 255
201 225 255
201 225 255
201 225 255
201 225 255
201 225 255
201 224 255
201 224 255
201 224 255
201 224 255
201 224 255
201 224 255
201 224 255
201 224 255
201 224 255
201 224 255
201 224 255
200 224 255
200 224 255
200 224 255
200 224 255
200 224 255
200 224 255
200 224 255
200 224 255
200 224 255
200 224 255
200 224 255
200 224 255
200 224 255
200 224 255
200 224 255
200 224 255
200 224 255
200 224 255
199 224 255
199 224 255
199 224 255
199 223 255
199 223 255
199 223 255
199 223 255
199 223 255
199 223 255
199 223 255
199 223 255
199 223 255
199 223 255
199 223 255
199 223 255
199 223 255
199 223 255
199 223 255
199 223 255
199 223 255
199 223 255
199 223 255
199 223 255
198 223 255
198 223 255
198 223 255
198 223 255
198 223 255
198 223 255
198 223 255
198 223 255
198 223 255
198 223 255
198 223 255
198 223 255
198 223 255
198 223 255
198 223 255
198 223 255
198 223 255
198 223 255
198 223 255
198 223 255
198 223 255
198 223 255
198 223 255
198 223 255
198 223 255
198 223 255
198 223 255
198 223 255
198 223 255
198 223 255
198 223 255
198 223 255
198 223 255
198 223 255
198 223 255
198 223 255
198 223 255
198 223 255
198 223 255
198 223 255
198 223 255
198 223 255
198 223 255
198 223 255
198 223 255
198 223 255
198 223 255
198 223 255
198 223 255
198 223 255
198 223 255
198 223 255
198 223 255
198 223 255
199 223 255
199 223 255
199 223 255
199 223 255
199 223 255
199 223 255
199 223 255
199 223 255
199 223 255
199 223 255
199 223 255
199 223 255
199 223 255
199 223 255
199 223 255
199 223 255
199 223 255
199 223 255
199 223 255
199 223 255
199 224 255
199 224 255
199 224 255
200 224 255
200 224 255
200 224 255
200 224 255
200 224 255
200 224 255
200 224 255
200 224 255
200 224 255
200 224 255
200 224 255
200 224 255
200 224 255
200 224 255
200 224 255
200 224 255
200 224 255
200 224 255
201 224 255
201 224 255
201 224 255
201 224 255
201 224 255
201 224 255
201 224 255
201 224 255
201 224 255
201 224 255
201 224 255
201 225 255
201 225 255
201 225 255
201 225 255
201 225 255
202 225 255
202 225 255
202 225 255
202 225 255
202 225 255
202 225 255
202 225 255
202 225 255
202 225 255
202 225 255
202 225 255
202 225 255
202 225 255
202 225 255
202 225 255
203 225 255
203 225 255
203 225 255
203 225 255
203 225 255
203 225 255
203 225 255
203 225 255
203 226 255
203 226 255
203 226 255
203 226 255
203 226 255
203 226 255
203 226 255
204 226 255
204 226 255
204 226 255
204 226 255
204 226 255
204 226 255
204 226 255
204 226 255
204 226 255
204 226 255
204 226 255
204 226 255
204 226 255
204 226 255
204 226 255
204 226 255
205 226 255
205 226 255
205 226 255
205 226 255
205 226 255
205 226 255
205 227 255
205 227 255
205 227 255
205 227 255
205 227 255
205 227 255
205 227 255
205 227 255
205 227 255
205 227 255
206 227 255
206 227 255
206 227 255
206 227 255
206 227 255
206 227 255
206 227 255
206 227 255
206 227 255
206 227 255
206 227 255
206 227 255
206 227 255
206 227 255
206 227 255
206 227 255
206 227 255
206 227 255
207 227 255
207 227 255
207 227 255
207 227 255
207 227 255
207 228 255
207 228 255
207 228 255
207 228 255
207 228 255
207 228 255
207 228 255
207 228 255
207 228 255
207 228 255
207 228 255
207 228 255
207 228 255
207 228 255
207 228 255
208 228 255
208 228 255
208 228 255
208 228 255
208 228 255
208 228 255
208 228 255
208 228 255
208 228 255
208 228 255
208 228 255
208 228 255
208 228 255
208 228 255
208 228 255
208 228 255
208 228 255
208 228 255
208 228 255
208 228 255
208 228 255
208 228 255
208 228 255
208 228 255
208 228 255
208 228 255
208 228 255
208 228 255
208 228 255
208 228 255
208 228 255
208 228 255
208 228 255
208 228 255
208 228 255
207 228 255
207 228 255
207 228 255
207 228 255
207 228 255
207 228 255
207 228 255
207 228 255
207 228 255
207 228 255
207 228 255
207 228 255
207 228 255
207 228 255
207 228 255
207 227 255
207 227 255
207 227 255
207 227 255
207 227 255
206 227 255
206 227 255
206 227 255
206 227 255
206 227 255
206 227 255
206 227 255
206 227 255
206 227 255
206 227 255
206 227 255
206 227 255
206 227 255
206 227 255
206 227 255
206 227 255
206 227 255
205 227 255
205 227 255
205 227 255
205 227 255
205 227 255
205 227 255
205 227 255
205 227 255
205 227 255
205 227 255
205 226 255
205 226 255
205 226 255
205 226 255
205 226 255
205 226 255
205 226 255
204 226 255
204 226 255
204 226 255
204 226 255
204 226 255
204 226 255
204 226 255
204 226 255
204 226 255
204 226 255
204 226 255
204 226 255
204 226 255
204 226 255
204 226 255
204 226 255
203 226 255
203 226 255
203 226 255
203 226 255
203 226 255
203 226 255
203 225 255
203 225 255
203 225 255
203 225 255
203 225 255
203 225 255
203 225 255
203 225 255
203 225 255
202 225 255
202 225 255
202 225 255
202 225 255
202 225 255
202 225 255
202 225 255
202 225 255
202 225 255
202 225 255
202 225 255
202 225 255
202 225 255
202 225 255
202 225 255
201 225 255
201 225 255
201 225 255
201 225 255
201 225 255
201 224 255
201 224 255
201 224 255
201 224 255
201 224 255
201 224 255
201 224 255
201 224 255
201 224 255
201 224 255
201 224 255
200 224 255
200 224 255
200 224 255
200 224 255
200 224 255
200 224 255
200 224 255
200 224 255
200 224 255
200 224 255
200 224 255
200 224 255
200 224 255
200 224 255
200 224 255
200 224 255
200 224 255
200 224 255
199 224 255
199 224 255
199 224 255
199 224 255
199 223 255
199 223 255
199 223 255
199 223 255
199 223 255
199 223 255
199 223 255
199 223 255
199 223 255
199 223 255
199 223 255
199 223 255
199 223 255
199 223 255
199 223 255
199 223 255
199 223 255
199 223 255
199 223 255
199 223 255
199 223 255
199 223 255
199 223 255
198 223 255
198 223 255
198 223 255
198 223 255
198 223 255
198 223 255
198 223 255
198 223 255
198 223 255
198 223 255
198 223 255
198 223 255
198 223 255
198 223 255
198 223 255
198 223 255
198 223 255
198 223 255
198 223 255
198 223 255
198 223 255
198 223 255
198 223 255
198 223 255
198 223 255
198 223 255
198 223 255
198 223 255
198 223 255
198 223 255
198 223 255
198 223 255
198 223 255
198 223 255
198 223 255
198 223 255
198 223 255
198 223 255
198 223 255
198 223 255
199 223 255
199 223 255
199 223 255
199 223 255
199 223 255
199 223 255
199 223 255
199 223 255
199 223 255
199 223 255
199 223 255
199 223 255
199 223 255
199 223 255
199 223 255
199 223 255
199 223 255
199 223 255
199 223 255
199 223 255
199 223 255
199 223 255
199 223 255
199 224 255
199 224 255
199 224 255
199 224 255
200 224 255
200 224 255
200 224 255
200 224 255
200 224 255
200 224 255
200 224 255
200 224 255
200 224 255
200 224 255
200 224 255
200 224 255
200 224 255
200 224 255
200 224 255
200 224 255
200 224 255
200 224 255
201 224 255
201 224 255
201 224 255
201 224 255
201 224 255
201 224 255
201 224 255
201 224 255
201 224 255
201 224 255
201 224 255
201 225 255
201 225 255
201 225 255
201 225 255
201 225 255
202 225 255
202 225 255
202 225 255
202 225 255
202 225 255
202 225 255
202 225 255
202 225 255
202 225 255
202 225 255
202 225 255
202 225 255
202 225 255
202 225 255
202 225 255
203 225 255
203 225 255
203 225 255
203 225 255
203 225 255
203 225 255
203 225 255
203 225 255
203 225 255
203 226 255
203 226 255
203 226 255
203 226 255
203 226 255
203 226 255
204 226 255
204 226 255
204 226 255
204 226 255
204 226 255
204 226 255
204 226 255
204 226 255
204 226 255
204 226 255
204 226 255
204 226 255
204 226 255
204 226 255
204 226 255
204 226 255
205 226 255
205 226 255
205 226 255
205 226 255
205 226 255
205 226 255
205 226 255
205 227 255
205 227 255
205 227 255
205 227 255
205 227 255
205 227 255
205 227 255
205 227 255
205 227 255
205 227 255
206 227 255
206 227 255
206 227 255
206 227 255
206 227 255
206 227 255
206 227 255
206 227 255
206 227 255
206 227 255
206 227 255
206 227 255
206 227 255
206 227 255
206 227 255
206 227 255
206 227 255
207 227 255
207 227 255
207 227 255
207 227 255
207 227 255
207 228 255
207 228 255
207 228 255
207 228 255
207 228 255
207 228 255
207 228 255
207 228 255
207 228 255
207 228 255
207 228 255
207 228 255
207 228 255
207 228 255
207 228 255
208 228 255
208 228 255
208 228 255
208 228 255
208 228 255
208 228 255
208 228 255
208 228 255
208 228 255
208 228 255
208 228 255
208 228 255
208 228 255
208 228 255
208 228 255
208 228 255
208 228 255
208 228 255
208 228 255
209 228 255
208 228 255
208 228 255
208 228 255
208 228 255
208 228 255
208 228 255
208 228 255
208 228 255
208 228 255
208 228 255
208 228 255
208 228 255
208 228 255
208 228 255
208 228 255
208 228 255
208 228 255
208 228 255
208 228 255
208 228 255
208 228 255
207 228 255
207 228 255
207 228 255
207 228 255
207 228 255
207 228 255
207 228 255
207 228 255
207 228 255
207 228 255
207 228 255
207 228 255
207 228 255
207 228 255
207 228 255
207 227 255
207 227 255
207 227 255
207 227 255
207 227 255
206 227 255
206 227 255
206 227 255
206 227 255
206 227 255
206 227 255
206 227 255
206 227 255
206 227 255
206 227 255
206 227 255
206 227 255
206 227 255
206 227 255
206 227 255
206 227 255
206 227 255
205 227 255
205 227 255
205 227 255
205 227 255
205 227 255
205 227 255
205 227 255
205 227 255
205 227 255
205 227 255
205 226 255
205 226 255
205 226 255
205 226 255
205 226 255
205 226 255
205 226 255
204 226 255
204 226 255
204 226 255
204 226 255
204 226 255
204 226 255
204 226 255
204 226 255
204 226 255
204 226 255
204 226 255
204 226 255
204 226 255
204 226 255
204 226 255
203 226 255
203 226 255
203 226 255
203 226 255
203 226 255
203 226 255
203 226 255
203 225 255
203 225 255
203 225 255
203 225 255
203 225 255
203 225 255
203 225 255
203 225 255
203 225 255
202 225 255
202 225 255
202 225 255
202 225 255
202 225 255
202 225 255
202 225 255
202 225 255
202 225 255
202 225 255
202 225 255
202 225 255
202 225 255
202 225 255
202 225 255
201 225 255
201 225 255
201 225 255
201 225 255
201 225 255
201 224 255
201 224 255
201 224 255
201 224 255
201 224 255
201 224 255
201 224 255
201 224 255
201 224 255
201 224 255
201 224 255
200 224 255
200 224 255
200 224 255
200 224 255
200 224 255
200 224 255
200 224 255
200 224 255
200 224 255
200 224 255
200 224 255
200 224 255
200 224 255
200 224 255
200 224 255
200 224 255
200 224 255
200 224 255
200 224 255
200 224 255
199 224 255
199 224 255
199 224 255
199 223 255
199 223 255
199 223 255
199 223 255
199 223 255
199 223 255
199 223 255
199 223 255
199 223 255
199 223 255
199 223 255
199 223 255
199 223 255
199 223 255
199 223 255
199 223 255
199 223 255
199 223 255
199 223 255
199 223 255
199 223 255
199 223 255
199 223 255
199 223 255
199 223 255
199 223 255
199 223 255
199 223 255
199 223 255
198 223 255
198 223 255
198 223 255
198 223 255
198 223 255
198 223 255
198 223 255
198 223 255
198 223 255
198 223 255
198 223 255
198 223 255
198 223 255
198 223 255
198 223 255
198 223 255
198 223 255
198 223 255
198 223 255
199 223 255
199 223 255
199 223 255
199 223 255
199 223 255
199 223 255
199 223 255
199 223 255
199 223 255
199 223 255
199 223 255
199 223 255
199 223 255
199 223 255
199 223 255
199 223 255
199 223 255
199 223 255
199 223 255
199 223 255
199 223 255
199 223 255
199 223 255
199 223 255
199 223 255
199 223 255
199 223 255
199 223 255
199 223 255
199 223 255
199 224 255
199 224 255
199 224 255
199 224 255
200 224 255
200 224 255
200 224 255
200 224 255
200 224 255
200 224 255
200 224 255
200 224 255
200 224 255
200 224 255
200 224 255
200 224 255
200 224 255
200 224 255
200 224 255
200 224 255
200 224 255
200 224 255
200 224 255
201 224 255
201 224 255
201 224 255
201 224 255
201 224 255
201 224 255
201 224 255
201 224 255
201 224 255
201 224 255
201 224 255
201 225 255
201 225 255
201 225 255
201 225 255
201 225 255
202 225 255
202 225 255
202 225 255
202 225 255
202 225 255
202 225 255
202 225 255
202 225 255
202 225 255
202 225 255
202 225 255
202 225 255
202 225 255
202 225 255
202 225 255
203 225 255
203 225 255
203 225 255
203 225 255
203 225 255
203 225 255
203 225 255
203 225 255
203 225 255
203 226 255
203 226 255
203 226 255
203 226 255
203 226 255
203 226 255
203 226 255
204 226 255
204 226 255
204 226 255
204 226 255
204 226 255
204 226 255
204 226 255
204 226 255
204 226 255
204 226 255
204 226 255
204 226 255
204 226 255
204 226 255
204 226 255
205 226 255
205 226 255
205 226 255
205 226 255
205 226 255
205 226 255
205 226 255
205 227 255
205 227 255
205 227 255
205 227 255
205 227 255
205 227 255
205 227 255
205 227 255
205 227 255
205 227 255
206 227 255
206 227 255
206 227 255
206 227 255
206 227 255
206 227 255
206 227 255
206 227 255
206 227 255
206 227 255
206 227 255
206 227 255
206 227 255
206 227 255
206 227 255
206 227 255
206 227 255
207 227 255
207 227 255
207 227 255
207 227 255
207 227 255
207 228 255
207 228 255
207 228 255
207 228 255
207 228 255
207 228 255
207 228 255
207 228 255
207 228 255
207 228 255
207 228 255
207 228 255
207 228 255
207 228 255
207 228 255
208 228 255
208 228 255
208 228 255
208 228 255
208 228 255
208 228 255
208 228 255
208 228 255
208 228 255
208 228 255
208 228 255
208 228 255
208 228 255
208 228 255
208 228 255
208 228 255
208 228 255
208 228 255
208 228 255
208 228 255
208 228 255
209 228 255
209 229 255
209 229 255
209 228 255
209 228 255
208 228 255
208 228 255
208 228 255
208 228 255
208 228 255
208 228 255
208 228 255
208 228 255
208 228 255
208 228 255
208 228 255
208 228 255
208 228 255
208 228 255
208 228 255
208 228 255
208 228 255
208 228 255
208 228 255
208 228 255
208 228 255
207 228 255
207 228 255
207 228 255
207 228 255
207 228 255
207 228 255
207 228 255
207 228 255
207 228 255
207 228 255
207 228 255
207 228 255
207 228 255
207 228 255
207 228 255
207 227 255
207 227 255
207 227 255
207 227 255
207 227 255
206 227 255
206 227 255
206 227 255
206 227 255
206 227 255
206 227 255
206 227 255
206 227 255
206 227 255
206 227 255
206 227 255
206 227 255
206 227 255
206 227 255
206 227 255
206 227 255
206 227 255
205 227 255
205 227 255
205 227 255
205 227 255
205 227 255
205 227 255
205 227 255
205 227 255
205 227 255
205 227 255
205 226 255
205 226 255
205 226 255
205 226 255
205 226 255
205 226 255
205 226 255
204 226 255
204 226 255
204 226 255
204 226 255
204 226 255
204 226 255
204 226 255
204 226 255
204 226 255
204 226 255
204 226 255
204 226 255
204 226 255
204 226 255
204 226 255
203 226 255
203 226 255
203 226 255
203 226 255
203 226 255
203 226 255
203 226 255
203 225 255
203 225 255
203 225 255
203 225 255
203 225 255
203 225 255
203 225 255
203 225 255
203 225 255
202 225 255
202 225 255
202 225 255
202 225 255
202 225 255
202 225 255
202 225 255
202 225 255
202 225 255
202 225 255
202 225 255
202 225 255
202 225 255
202 225 255
202 225 255
201 225 255
201 225 255
201 225 255
201 225 255
201 225 255
201 224 255
201 224 255
201 224 255
201 224 255
201 224 255
201 224 255
201 224 255
201 224 255
201 224 255
201 224 255
201 224 255
201 224 255
200 224 255
200 224 255
200 224 255
200 224 255
200 224 255
200 224 255
200 224 255
200 224 255
200 224 255
200 224 255
200 224 255
200 224 255
200 224 255
200 224 255
200 224 255
200 224 255
200 224 255
200 224 255
200 224 255
200 224 255
199 224 255
199 224 255
199 224 255
199 224 255
199 223 255
199 223 255
199 223 255
199 223 255
199 223 255
199 223 255
199 223 255
199 223 255
199 223 255
199 223 255
199 223 255
199 223 255
199 223 255
199 223 255
199 223 255
199 223 255
199 223 255
199 223 255
199 223 255
199 223 255
199 223 255
199 223 255
199 223 255
199 223 255
199 223 255
199 223 255
199 223 255
199 223 255
199 223 255
199 223 255
199 223 255
199 223 255
199 223 255
199 223 255
199 223 255
199 223 255
199 223 255
199 223 255
199 223 255
199 223 255
199 223 255
199 223 255
199 223 255
199 223 255
199 223 255
199 223 255
199 223 255
199 223 255
199 223 255
199 223 255
199 223 255
199 223 255
199 223 255
199 223 255
199 223 255
199 223 255
199 223 255
199 223 255
199 223 255
199 223 255
199 223 255
199 223 255
199 223 255
199 223 255
199 223 255
199 223 255
199 223 255
199 223 255
199 224 255
199 224 255
199 224 255
199 224 255
200 224 255
200 224 255
200 224 255
200 224 255
200 224 255
200 224 255
200 224 255
200 224 255
200 224 255
200 224 255
200 224 255
200 224 255
200 224 255
200 224 255
200 224 255
200 224 255
200 224 255
200 224 255
200 224 255
200 224 255
201 224 255
201 224 255
201 224 255
201 224 255
201 224 255
201 224 255
201 224 255
201 224 255
201 224 255
201 224 255
201 224 255
201 224 255
201 225 255
201 225 255
201 225 255
201 225 255
201 225 255
202 225 255
202 225 255
202 225 255
202 225 255
202 225 255
202 225 255
202 225 255
202 225 255
202 225 255
202 225 255
202 225 255
202 225 255
202 225 255
202 225 255
202 225 255
203 225 255
203 225 255
203 225 255
203 225 255
203 225 255
203 225 255
203 225 255
203 225 255
203 225 255
203 226 255
203 226 255
203 226 255
203 226 255
203 226 255
203 226 255
203 226 255
204 226 255
204 226 255
204 226 255
204 226 255
204 226 255
204 226 255
204 226 255
204 226 255
204 226 255
204 226 255
204 226 255
204 226 255
204 226 255
204 226 255
204 226 255
204 226 255
205 226 255
205 226 255
205 226 255
205 226 255
205 226 255
205 226 255
205 227 255
205 227 255
205 227 255
205 227 255
205 227 255
205 227 255
205 227 255
205 227 255
205 227 255
205 227 255
206 227 255
206 227 255
206 227 255
206 227 255
206 227 255
206 227 255
206 227 255
206 227 255
206 227 255
206 227 255
206 227 255
206 227 255
206 227 255
206 227 255
206 227 255
206 227 255
206 227 255
207 227 255
207 227 255
207 227 255
207 227 255
207 227 255
207 228 255
207 228 255
207 228 255
207 228 255
207 228 255
207 228 255
207 228 255
207 228 255
207 228 255
207 228 255
207 228 255
207 228 255
207 228 255
207 228 255
207 228 255
208 228 255
208 228 255
208 228 255
208 228 255
208 228 255
208 228 255
208 228 255
208 228 255
208 228 255
208 228 255
208 228 255
208 228 255
208 228 255
208 228 255
208 228 255
208 228 255
208 228 255
208 228 255
208 228 255
208 228 255
208 228 255
209 228 255
209 228 255
209 229 255
209 229 255
209 229 255
209 229 255
209 229 255
209 229 255
209 229 255
209 229 255
209 228 255
208 228 255
208 228 255
208 228 255
208 228 255
208 228 255
208 228 255
208 228 255
208 228 255
208 228 255
208 228 255
208 228 255
208 228 255
208 228 255
208 228 255
208 228 255
208 228 255
208 228 255
208 228 255
208 228 255
208 228 255
208 228 255
207 228 255
207 228 255
207 228 255
207 228 255
207 228 255
207 228 255
207 228 255
207 228 255
207 228 255
207 228 255
207 228 255
207 228 255
207 228 255
207 228 255
207 228 255
207 227 255
207 227 255
207 227 255
207 227 255
206 227 255
206 227 255
206 227 255
206 227 255
206 227 255
206 227 255
206 227 255
206 227 255
206 227 255
206 227 255
206 227 255
206 227 255
206 227 255
206 227 255
206 227 255
206 227 255
206 227 255
206 227 255
205 227 255
205 227 255
205 227 255
205 227 255
205 227 255
205 227 255
205 227 255
205 227 255
205 227 255
205 227 255
205 226 255
205 226 255
205 226 255
205 226 255
205 226 255
205 226 255
204 226 255
204 226 255
204 226 255
204 226 255
204 226 255
204 226 255
204 226 255
204 226 255
204 226 255
204 226 255
204 226 255
204 226 255
204 226 255
204 226 255
204 226 255
204 226 255
203 226 255
203 226 255
203 226 255
203 226 255
203 226 255
203 226 255
203 226 255
203 225 255
203 225 255
203 225 255
203 225 255
203 225 255
203 225 255
203 225 255
203 225 255
203 225 255
202 225 255
202 225 255
202 225 255
202 225 255
202 225 255
202 225 255
202 225 255
202 225 255
202 225 255
202 225 255
202 225 255
202 225 255
202 225 255
202 225 255
202 225 255
201 225 255
201 225 255
201 225 255
201 225 255
201 225 255
201 224 255
201 224 255
201 224 255
201 224 255
201 224 255
201 224 255
201 224 255
201 224 255
201 224 255
201 224 255
201 224 255
201 224 255
200 224 255
200 224 255
200 224 255
200 224 255
200 224 255
200 224 255
200 224 255
200 224 255
200 224 255
200 224 255
200 224 255
200 224 255
200 224 255
200 224 255
200 224 255
200 224 255
200 224 255
200 224 255
200 224 255
200 224 255
200 224 255
200 224 255
199 224 255
199 224 255
199 224 255
199 224 255
199 223 255
199 223 255
199 223 255
199 223 255
199 223 255
199 223 255
199 223 255
199 223 255
199 223 255
199 223 255
199 223 255
199 223 255
199 223 255
199 223 255
199 223 255
199 223 255
199 223 255
199 223 255
199 223 255
199 223 255
199 223 255
199 223 255
199 223 255
199 223 255
199 223 255
199 223 255
199 223 255
199 223 255
199 223 255
199 223 255
199 223 255
199 223 255
199 223 255
199 223 255
199 223 255
199 223 255
199 223 255
199 223 255
199 223 255
199 223 255
199 223 255
199 223 255
199 223 255
199 223 255
199 223 255
199 223 255
199 223 255
199 223 255
199 223 255
199 223 255
199 223 255
199 223 255
199 223 255
199 223 255
199 223 255
199 223 255
199 223 255
199 223 255
199 224 255
199 224 255
199 224 255
199 224 255
200 224 255
200 224 255
200 224 255
200 224 255
200 224 255
200 224 255
200 224 255
200 224 255
200 224 255
200 224 255
200 224 255
200 224 255
200 224 255
200 224 255
200 224 255
200 224 255
200 224 255
200 224 255
200 224 255
200 224 255
200 224 255
200 224 255
201 224 255
201 224 255
201 224 255
201 224 255
201 224 255
201 224 255
201 224 255
201 224 255
201 224 255
201 224 255
201 224 255
201 224 255
201 225 255
201 225 255
201 225 255
201 225 255
201 225 255
202 225 255
202 225 255
202 225 255
202 225 255
202 225 255
202 225 255
202 225 255
202 225 255
202 225 255
202 225 255
202 225 255
202 225 255
202 225 255
202 225 255
202 225 255
202 225 255
203 225 255
203 225 255
203 225 255
203 225 255
203 225 255
203 225 255
203 225 255
203 225 255
203 226 255
203 226 255
203 226 255
203 226 255
203 226 255
203 226 255
203 226 255
204 226 255
204 226 255
204 226 255
204 226 255
204 226 255
204 226 255
204 226 255
204 226 255
204 226 255
204 226 255
204 226 255
204 226 255
204 226 255
204 226 255
204 226 255
204 226 255
205 226 255
205 226 255
205 226 255
205 226 255
205 226 255
205 226 255
205 227 255
205 227 255
205 227 255
205 227 255
205 227 255
205 227 255
205 227 255
205 227 255
205 227 255
205 227 255
206 227 255
206 227 255
206 227 255
206 227 255
206 227 255
206 227 255
206 227 255
206 227 255
206 227 255
206 227 255
206 227 255
206 227 255
206 227 255
206 227 255
206 227 255
206 227 255
206 227 255
207 227 255
207 227 255
207 227 255
207 227 255
207 227 255
207 228 255
207 228 255
207 228 255
207 228 255
207 228 255
207 228 255
207 228 255
207 228 255
207 228 255
207 228 255
207 228 255
207 228 255
207 228 255
207 228 255
207 228 255
208 228 255
208 228 255
208 228 255
208 228 255
208 228 255
208 228 255
208 228 255
208 228 255
208 228 255
208 228 255
208 228 255
208 228 255
208 228 255
208 228 255
208 228 255
208 228 255
208 228 255
208 228 255
208 228 255
208 228 255
208 228 255
209 228 255
209 229 255
209 229 255
209 229 255
209 229 255
209 229 255
209 229 255
209 229 255
209 229 255
209 229 255
209 229 255
209 229 255
209 229 255
209 229 255
209 229 255
209 229 255
209 228 255
209 228 255
208 228 255
208 228 255
208 228 255
208 228 255
208 228 255
208 228 255
208 228 255
208 228 255
208 228 255
208 228 255
208 228 255
208 228 255
208 228 255
208 228 255
208 228 255
208 228 255
208 228 255
208 228 255
208 228 255
208 228 255
208 228 255
207 228 255
207 228 255
207 228 255
207 228 255
207 228 255
207 228 255
207 228 255
207 228 255
207 228 255
207 228 255
207 228 255
207 228 255
207 228 255
207 228 255
207 227 255
207 227 255
207 227 255
207 227 255
206 227 255
206 227 255
206 227 255
206 227 255
206 227 255
206 227 255
206 227 255
206 227 255
206 227 255
206 227 255
206 227 255
206 227 255
206 227 255
206 227 255
206 227 255
206 227 255
206 227 255
206 227 255
205 227 255
205 227 255
205 227 255
205 227 255
205 227 255
205 227 255
205 227 255
205 227 255
205 227 255
205 227 255
205 226 255
205 226 255
205 226 255
205 226 255
205 226 255
205 226 255
204 226 255
204 226 255
204 226 255
204 226 255
204 226 255
204 226 255
204 226 255
204 226 255
204 226 255
204 226 255
204 226 255
204 226 255
204 226 255
204 226 255
204 226 255
204 226 255
203 226 255
203 226 255
203 226 255
203 226 255
203 226 255
203 226 255
203 226 255
203 225 255
203 225 255
203 225 255
203 225 255
203 225 255
203 225 255
203 225 255
203 225 255
202 225 255
202 225 255
202 225 255
202 225 255
202 225 255
202 225 255
202 225 255
202 225 255
202 225 255
202 225 255
202 225 255
202 225 255
202 225 255
202 225 255
202 225 255
202 225 255
201 225 255
201 225 255
201 225 255
201 225 255
201 225 255
201 224 255
201 224 255
201 224 255
201 224 255
201 224 255
201 224 255
201 224 255
201 224 255
201 224 255
201 224 255
201 224 255
201 224 255
201 224 255
200 224 255
200 224 255
200 224 255
200 224 255
200 224 255
200 224 255
200 224 255
200 224 255
200 224 255
200 224 255
200 224 255
200 224 255
200 224 255
200 224 255
200 224 255
200 224 255
200 224 255
200 224 255
200 224 255
200 224 255
200 224 255
200 224 255
200 224 255
199 224 255
199 224 255
199 224 255
199 224 255
199 224 255
199 224 255
199 223 255
199 223 255
199 223 255
199 223 255
199 223 255
199 223 255
199 223 255
199 223 255
199 223 255
199 223 255
199 223 255
199 223 255
199 223 255
199 223 255
199 223 255
199 223 255
199 223 255
199 223 255
199 223 255
199 223 255
199 223 255
199 223 255
199 223 255
199 223 255
199 223 255
199 223 255
199 223 255
199 223 255
199 223 255
199 223 255
199 223 255
199 223 255
199 223 255
199 223 255
199 223 255
199 223 255
199 223 255
199 223 255
199 223 255
199 223 255
199 223 255
199 223 255
199 223 255
199 223 255
199 224 255
199 224 255
199 224 255
199 224 255
199 224 255
200 224 255
200 224 255
200 224 255
200 224 255
200 224 255
200 224 255
200 224 255
200 224 255
200 224 255
200 224 255
200 224 255
200 224 255
200 224 255
200 224 255
200 224 255
200 224 255
200 224 255
200 224 255
200 224 255
200 224 255
200 224 255
200 224 255
200 224 255
200 224 255
201 224 255
201 224 255
201 224 255
201 224 255
201 224 255
201 224 255
201 224 255
201 224 255
201 224 255
201 224 255
201 224 255
201 224 255
201 225 255
201 225 255
201 225 255
201 225 255
201 225 255
202 225 255
202 225 255
202 225 255
202 225 255
202 225 255
202 225 255
202 225 255
202 225 255
202 225 255
202 225 255
202 225 255
202 225 255
202 225 255
202 225 255
202 225 255
202 225 255
202 225 255
203 225 255
203 225 255
203 225 255
203 225 255
203 225 255
203 225 255
203 225 255
203 225 255
203 226 255
203 226 255
203 226 255
203 226 255
203 226 255
203 226 255
203 226 255
204 226 255
204 226 255
204 226 255
204 226 255
204 226 255
204 226 255
204 226 255
204 226 255
204 226 255
204 226 255
204 226 255
204 226 255
204 226 255
204 226 255
204 226 255
204 226 255
205 226 255
205 226 255
205 226 255
205 226 255
205 226 255
205 226 255
205 227 255
205 227 255
205 227 255
205 227 255
205 227 255
205 227 255
205 227 255
205 227 255
205 227 255
205 227 255
206 227 255
206 227 255
206 227 255
206 227 255
206 227 255
206 227 255
206 227 255
206 227 255
206 227 255
206 227 255
206 227 255
206 227 255
206 227 255
206 227 255
206 227 255
206 227 255
206 227 255
206 227 255
207 227 255
207 227 255
207 227 255
207 227 255
207 228 255
207 228 255
207 228 255
207 228 255
207 228 255
207 228 255
207 228 255
207 228 255
207 228 255
207 228 255
207 228 255
207 228 255
207 228 255
207 228 255
208 228 255
208 228 255
208 228 255
208 228 255
208 228 255
208 228 255
208 228 255
208 228 255
208 228 255
208 228 255
208 228 255
208 228 255
208 228 255
208 228 255
208 228 255
208 228 255
208 228 255
208 228 255
208 228 255
208 228 255
208 228 255
209 228 255
209 228 255
209 229 255
209 229 255
209 229 255
209 229 255
209 229 255
209 229 255
209 229 255
209 229 255
209 229 255
209 229 255
209 229 255
209 229 255
209 229 255
209 229 255
209 229 255
209 229 255
209 229 255
209 229 255
209 229 255
209 229 255
209 229 255
209 228 255
209 228 255
208 228 255
208 228 255
208 228 255
208 228 255
208 228 255
208 228 255
208 228 255
208 228 255
208 228 255
208 228 255
208 228 255
208 228 255
208 228 255
208 228 255
208 228 255
208 228 255
208 228 255
208 228 255
208 228 255
208 228 255
208 228 255
207 228 255
207 228 255
207 228 255
207 228 255
207 228 255
207 228 255
207 228 255
207 228 255
207 228 255
207 228 255
207 228 255
207 228 255
207 228 255
207 228 255
207 227 255
207 227 255
207 227 255
207 227 255
207 227 255
206 227 255
206 227 255
206 227 255
206 227 255
206 227 255
206 227 255
206 227 255
206 227 255
206 227 255
206 227 255
206 227 255
206 227 255
206 227 255
206 227 255
206 227 255
206 227 255
206 227 255
205 227 255
205 227 255
205 227 255
205 227 255
205 227 255
205 227 255
205 227 255
205 227 255
205 227 255
205 227 255
205 226 255
205 226 255
205 226 255
205 226 255
205 226 255
205 226 255
204 226 255
204 226 255
204 226 255
204 226 255
204 226 255
204 226 255
204 226 255
204 226 255
204 226 255
204 226 255
204 226 255
204 226 255
204 226 255
204 226 255
204 226 255
204 226 255
203 226 255
203 226 255
203 226 255
203 226 255
203 226 255
203 226 255
203 226 255
203 225 255
203 225 255
203 225 255
203 225 255
203 225 255
203 225 255
203 225 255
203 225 255
202 225 255
202 225 255
202 225 255
202 225 255
202 225 255
202 225 255
202 225 255
202 225 255
202 225 255
202 225 255
202 225 255
202 225 255
202 225 255
202 225 255
202 225 255
202 225 255
202 225 255
201 225 255
201 225 255
201 225 255
201 225 255
201 225 255
201 224 255
201 224 255
201 224 255
201 224 255
201 224 255
201 224 255
201 224 255
201 224 255
201 224 255
201 224 255
201 224 255
201 224 255
201 224 255
200 224 255
200 224 255
200 224 255
200 224 255
200 224 255
200 224 255
200 224 255
200 224 255
200 224 255
200 224 255
200 224 255
200 224 255
200 224 255
200 224 255
200 224 255
200 224 255
200 224 255
200 224 255
200 224 255
200 224 255
200 224 255
200 224 255
200 224 255
200 224 255
200 224 255
200 224 255
200 224 255
199 224 255
199 224 255
199 224 255
199 224 255
199 224 255
199 224 255
199 224 255
199 224 255
199 223 255
199 223 255
199 223 255
199 223 255
199 223 255
199 223 255
199 223 255
199 223 255
199 223 255
199 223 255
199 223 255
199 223 255
199 223 255
199 223 255
199 223 255
199 223 255
199 223 255
199 223 255
199 223 255
199 223 255
199 223 255
199 223 255
199 223 255
199 223 255
199 224 255
199 224 255
199 224 255
199 224 255
199 224 255
199 224 255
199 224 255
199 224 255
200 224 255
200 224 255
200 224 255
200 224 255
200 224 255
200 224 255
200 224 255
200 224 255
200 224 255
200 224 255
200 224 255
200 224 255
200 224 255
200 224 255
200 224 255
200 224 255
200 224 255
200 224 255
200 224 255
200 224 255
200 224 255
200 224 255
200 224 255
200 224 255
200 224 255
200 224 255
200 224 255
201 224 255
201 224 255
201 224 255
201 224 255
201 224 255
201 224 255
201 224 255
201 224 255
201 224 255
201 224 255
201 224 255
201 224 255
201 224 255
201 225 255
201 225 255
201 225 255
201 225 255
201 225 255
202 225 255
202 225 255
202 225 255
202 225 255
202 225 255
202 225 255
202 225 255
202 225 255
202 225 255
202 225 255
202 225 255
202 225 255
202 225 255
202 225 255
202 225 255
202 225 255
202 225 255
203 225 255
203 225 255
203 225 255
203 225 255
203 225 255
203 225 255
203 225 255
203 225 255
203 226 255
203 226 255
203 226 255
203 226 255
203 226 255
203 226 255
203 226 255
204 226 255
204 226 255
204 226 255
204 226 255
204 226 255
204 226 255
204 226 255
204 226 255
204 226 255
204 226 255
204 226 255
204 226 255
204 226 255
204 226 255
204 226 255
204 226 255
205 226 255
205 226 255
205 226 255
205 226 255
205 226 255
205 226 255
205 227 255
205 227 255
205 227 255
205 227 255
205 227 255
205 227 255
205 227 255
205 227 255
205 227 255
205 227 255
206 227 255
206 227 255
206 227 255
206 227 255
206 227 255
206 227 255
206 227 255
206 227 255
206 227 255
206 227 255
206 227 255
206 227 255
206 227 255
206 227 255
206 227 255
206 227 255
206 227 255
207 227 255
207 227 255
207 227 255
207 227 255
207 227 255
207 228 255
207 228 255
207 228 255
207 228 255
207 228 255
207 228 255
207 228 255
207 228 255
207 228 255
207 228 255
207 228 255
207 228 255
207 228 255
207 228 255
208 228 255
208 228 255
208 228 255
208 228 255
208 228 255
208 228 255
208 228 255
208 228 255
208 228 255
208 228 255
208 228 255
208 228 255
208 228 255
208 228 255
208 228 255
208 228 255
208 228 255
208 228 255
208 228 255
208 228 255
208 228 255
209 228 255
209 228 255
209 229 255
209 229 255
209 229 255
209 229 255
209 229 255
209 229 255
209 229 255
209 229 255
209 229 255
209 229 255
209 229 255
209 229 255
209 229 255
209 229 255
209 229 255
209 229 255
209 229 255
209 229 255
209 229 255
209 229 255
209 229 255
209 229 255
209 229 255
209 229 255
209 229 255
209 229 255
209 229 255
209 229 255
209 228 255
208 228 255
208 228 255
208 228 255
208 228 255
208 228 255
208 228 255
208 228 255
208 228 255
208 228 255
208 228 255
208 228 255
208 228 255
208 228 255
208 228 255
208 228 255
208 228 255
208 228 255
208 228 255
208 228 255
208 228 255
208 228 255
207 228 255
207 228 255
207 228 255
207 228 255
207 228 255
207 228 255
207 228 255
207 228 255
207 228 255
207 228 255
207 228 255
207 228 255
207 228 255
207 228 255
207 227 255
207 227 255
207 227 255
207 227 255
206 227 255
206 227 255
206 227 255
206 227 255
206 227 255
206 227 255
206 227 255
206 227 255
206 227 255
206 227 255
206 227 255
206 227 255
206 227 255
206 227 255
206 227 255
206 227 255
206 227 255
206 227 255
205 227 255
205 227 255
205 227 255
205 227 255
205 227 255
205 227 255
205 227 255
205 227 255
205 227 255
205 227 255
205 226 255
205 226 255
205 226 255
205 226 255
205 226 255
205 226 255
204 226 255
204 226 255
204 226 255
204 226 255
204 226 255
204 226 255
204 226 255
204 226 255
204 226 255
204 226 255
204 226 255
204 226 255
204 226 255
204 226 255
204 226 255
204 226 255
203 226 255
203 226 255
203 226 255
203 226 255
203 226 255
203 226 255
203 226 255
203 225 255
203 225 255
203 225 255
203 225 255
203 225 255
203 225 255
203 225 255
203 225 255
203 225 255
202 225 255
202 225 255
202 225 255
202 225 255
202 225 255
202 225 255
202 225 255
202 225 255
202 225 255
202 225 255
202 225 255
202 225 255
202 225 255
202 225 255
202 225 255
202 225 255
201 225 255
201 225 255
201 225 255
201 225 255
201 225 255
201 225 255
201 224 255
201 224 255
201 224 255
201 224 255
201 224 255
201 224 255
201 224 255
201 224 255
201 224 255
201 224 255
201 224 255
201 224 255
201 224 255
200 224 255
200 224 255
200 224 255
200 224 255
200 224 255
200 224 255
200 224 255
200 224 255
200 224 255
200 224 255
200 224 255
200 224 255
200 224 255
200 224 255
200 224 255
200 224 255
200 224 255
200 224 255
200 224 255
200 224 255
200 224 255
200 224 255
200 224 255
200 224 255
200 224 255
200 224 255
200 224 255
200 224 255
200 224 255
200 224 255
200 224 255
200 224 255
200 224 255
200 224 255
199 224 255
199 224 255
199 224 255
199 224 255
199 224 255
199 224 255
199 224 255
199 224 255
199 224 255
199 224 255
199 224 255
199 224 255
199 224 255
199 224 255
199 224 255
199 224 255
199 224 255
199 224 255
200 224 255
200 224 255
200 224 255
200 224 255
200 224 255
200 224 255
200 224 255
200 224 255
200 224 255
200 224 255
200 224 255
200 224 255
200 224 255
200 224 255
200 224 255
200 224 255
200 224 255
200 224 255
200 224 255
200 224 255
200 224 255
200 224 255
200 224 255
200 224 255
200 224 255
200 224 255
200 224 255
200 224 255
200 224 255
200 224 255
200 224 255
200 224 255
200 224 255
200 224 255
201 224 255
201 224 255
201 224 255
201 224 255
201 224 255
201 224 255
201 224 255
201 224 255
201 224 255
201 224 255
201 224 255
201 224 255
201 224 255
201 224 255
201 225 255
201 225 255
201 225 255
201 225 255
201 225 255
202 225 255
202 225 255
202 225 255
202 225 255
202 225 255
202 225 255
202 225 255
202 225 255
202 225 255
202 225 255
202 225 255
202 225 255
202 225 255
202 225 255
202 225 255
202 225 255
203 225 255
203 225 255
203 225 255
203 225 255
203 225 255
203 225 255
203 225 255
203 225 255
203 225 255
203 226 255
203 226 255
203 226 255
203 226 255
203 226 255
203 226 255
203 226 255
204 226 255
204 226 255
204 226 255
204 226 255
204 226 255
204 226 255
204 226 255
204 226 255
204 226 255
204 226 255
204 226 255
204 226 255
204 226 255
204 226 255
204 226 255
204 226 255
205 226 255
205 226 255
205 226 255
205 226 255
205 226 255
205 226 255
205 227 255
205 227 255
205 227 255
205 227 255
205 227 255
205 227 255
205 227 255
205 227 255
205 227 255
205 227 255
206 227 255
206 227 255
206 227 255
206 227 255
206 227 255
206 227 255
206 227 255
206 227 255
206 227 255
206 227 255
206 227 255
206 227 255
206 227 255
206 227 255
206 227 255
206 227 255
206 227 255
206 227 255
207 227 255
207 227 255
207 227 255
207 227 255
207 228 255
207 228 255
207 228 255
207 228 255
207 228 255
207 228 255
207 228 255
207 228 255
207 228 255
207 228 255
207 228 255
207 228 255
207 228 255
207 228 255
208 228 255
208 228 255
208 228 255
208 228 255
208 228 255
208 228 255
208 228 255
208 228 255
208 228 255
208 228 255
208 228 255
208 228 255
208 228 255
208 228 255
208 228 255
208 228 255
208 228 255
208 228 255
208 228 255
208 228 255
208 228 255
209 228 255
209 229 255
209 229 255
209 229 255
209 229 255
209 229 255
209 229 255
209 229 255
209 229 255
209 229 255
209 229 255
209 229 255
209 229 255
209 229 255
209 229 255
209 229 255
209 229 255
209 229 255
209 229 255
209 229 255
209 229 255
209 229 255
209 229 255
209 229 255
209 229 255
209 229 255
209 229 255
209 229 255
209 229 255
209 229 255
209 229 255
209 229 255
209 229 255
209 229 255
209 229 255
209 229 255
209 228 255
209 228 255
208 228 255
208 228 255
208 228 255
208 228 255
208 228 255
208 228 255
208 228 255
208 228 255
208 228 255
208 228 255
208 228 255
208 228 255
208 228 255
208 228 255
208 228 255
208 228 255
208 228 255
208 228 255
208 228 255
208 228 255
207 228 255
207 228 255
207 228 255
207 228 255
207 228 255
207 228 255
207 228 255
207 228 255
207 228 255
207 228 255
207 228 255
207 228 255
207 228 255
207 228 255
207 227 255
207 227 255
207 227 255
207 227 255
207 227 255
206 227 255
206 227 255
206 227 255
206 227 255
206 227 255
206 227 255
206 227 255
206 227 255
206 227 255
206 227 255
206 227 255
206 227 255
206 227 255
206 227 255
206 227 255
206 227 255
206 227 255
205 227 255
205 227 255
205 227 255
205 227 255
205 227 255
205 227 255
205 227 255
205 227 255
205 227 255
205 227 255
205 226 255
205 226 255
205 226 255
205 226 255
205 226 255
205 226 255
204 226 255
204 226 255
204 226 255
204 226 255
204 226 255
204 226 255
204 226 255
204 226 255
204 226 255
204 226 255
204 226 255
204 226 255
204 226 255
204 226 255
204 226 255
204 226 255
203 226 255
203 226 255
203 226 255
203 226 255
203 226 255
203 226 255
203 226 255
203 225 255
203 225 255
203 225 255
203 225 255
203 225 255
203 225 255
203 225 255
203 225 255
203 225 255
202 225 255
202 225 255
202 225 255
202 225 255
202 225 255
202 225 255
202 225 255
202 225 255
202 225 255
202 225 255
202 225 255
202 225 255
202 225 255
202 225 255
202 225 255
202 225 255
202 225 255
201 225 255
201 225 255
201 225 255
201 225 255
201 225 255
201 224 255
201 224 255
201 224 255
201 224 255
201 224 255
201 224 255
201 224 255
201 224 255
201 224 255
201 224 255
201 224 255
201 224 255
201 224 255
201 224 255
201 224 255
200 224 255
200 224 255
200 224 255
200 224 255
200 224 255
200 224 255
200 224 255
200 224 255
200 224 255
200 224 255
200 224 255
200 224 255
200 224 255
200 224 255
200 224 255
200 224 255
200 224 255
200 224 255
200 224 255
200 224 255
200 224 255
200 224 255
200 224 255
200 224 255
200 224 255
200 224 255
200 224 255
200 224 255
200 224 255
200 224 255
200 224 255
200 224 255
200 224 255
200 224 255
200 224 255
200 224 255
200 224 255
200 224 255
200 224 255
200 224 255
200 224 255
200 224 255
200 224 255
200 224 255
200 224 255
200 224 255
200 224 255
200 224 255
200 224 255
200 224 255
200 224 255
200 224 255
200 224 255
200 224 255
200 224 255
200 224 255
200 224 255
200 224 255
200 224 255
200 224 255
200 224 255
200 224 255
200 224 255
200 224 255
200 224 255
200 224 255
200 224 255
200 224 255
200 224 255
200 224 255
200 224 255
200 224 255
200 224 255
200 224 255
200 224 255
200 224 255
201 224 255
201 224 255
201 224 255
201 224 255
201 224 255
201 224 255
201 224 255
201 224 255
201 224 255
201 224 255
201 224 255
201 224 255
201 224 255
201 224 255
201 224 255
201 225 255
201 225 255
201 225 255
201 225 255
201 225 255
202 225 255
202 225 255
202 225 255
202 225 255
202 225 255
202 225 255
202 225 255
202 225 255
202 225 255
202 225 255
202 225 255
202 225 255
202 225 255
202 225 255
202 225 255
202 225 255
202 225 255
203 225 255
203 225 255
203 225 255
203 225 255
203 225 255
203 225 255
203 225 255
203 225 255
203 225 255
203 226 255
203 226 255
203 226 255
203 226 255
203 226 255
203 226 255
203 226 255
204 226 255
204 226 255
204 226 255
204 226 255
204 226 255
204 226 255
204 226 255
204 226 255
204 226 255
204 226 255
204 226 255
204 226 255
204 226 255
204 226 255
204 226 255
204 226 255
205 226 255
205 226 255
205 226 255
205 226 255
205 226 255
205 226 255
205 226 255
205 227 255
205 227 255
205 227 255
205 227 255
205 227 255
205 227 255
205 227 255
205 227 255
205 227 255
206 227 255
206 227 255
206 227 255
206 227 255
206 227 255
206 227 255
206 227 255
206 227 255
206 227 255
206 227 255
206 227 255
206 227 255
206 227 255
206 227 255
206 227 255
206 227 255
206 227 255
206 227 255
207 227 255
207 227 255
207 227 255
207 227 255
207 228 255
207 228 255
207 228 255
207 228 255
207 228 255
207 228 255
207 228 255
207 228 255
207 228 255
207 228 255
207 228 255
207 228 255
207 228 255
207 228 255
208 228 255
208 228 255
208 228 255
208 228 255
208 228 255
208 228 255
208 228 255
208 228 255
208 228 255
208 228 255
208 228 255
208 228 255
208 228 255
208 228 255
208 228 255
208 228 255
208 228 255
208 228 255
208 228 255
208 228 255
209 228 255
209 228 255
209 229 255
209 229 255
209 229 255
209 229 255
209 229 255
209 229 255
209 229 255
209 229 255
209 229 255
209 229 255
209 229 255
209 229 255
209 229 255
209 229 255
209 229 255
209 229 255
209 229 255
209 229 255
209 229 255
210 229 255
209 229 255
209 229 255
209 229 255
209 229 255
209 229 255
209 229 255
209 229 255
209 229 255
209 229 255
209 229 255
209 229 255
209 229 255
209 229 255
209 229 255
209 229 255
209 229 255
209 229 255
209 229 255
209 229 255
209 229 255
209 229 255
209 229 255
209 228 255
208 228 255
208 228 255
208 228 255
208 228 255
208 228 255
208 228 255
208 228 255
208 228 255
208 228 255
208 228 255
208 228 255
208 228 255
208 228 255
208 228 255
208 228 255
208 228 255
208 228 255
208 228 255
208 228 255
208 228 255
207 228 255
207 228 255
207 228 255
207 228 255
207 228 255
207 228 255
207 228 255
207 228 255
207 228 255
207 228 255
207 228 255
207 228 255
207 228 255
207 228 255
207 227 255
207 227 255
207 227 255
207 227 255
207 227 255
206 227 255
206 227 255
206 227 255
206 227 255
206 227 255
206 227 255
206 227 255
206 227 255
206 227 255
206 227 255
206 227 255
206 227 255
206 227 255
206 227 255
206 227 255
206 227 255
206 227 255
205 227 255
205 227 255
205 227 255
205 227 255
205 227 255
205 227 255
205 227 255
205 227 255
205 227 255
205 227 255
205 226 255
205 226 255
205 226 255
205 226 255
205 226 255
205 226 255
204 226 255
204 226 255
204 226 255
204 226 255
204 226 255
204 226 255
204 226 255
204 226 255
204 226 255
204 226 255
204 226 255
204 226 255
204 226 255
204 226 255
204 226 255
204 226 255
203 226 255
203 226 255
203 226 255
203 226 255
203 226 255
203 226 255
203 226 255
203 225 255
203 225 255
203 225 255
203 225 255
203 225 255
203 225 255
203 225 255
203 225 255
203 225 255
202 225 255
202 225 255
202 225 255
202 225 255
202 225 255
202 225 255
202 225 255
202 225 255
202 225 255
202 225 255
202 225 255
202 225 255
202 225 255
202 225 255
202 225 255
202 225 255
202 225 255
202 225 255
201 225 255
201 225 255
201 225 255
201 225 255
201 225 255
201 224 255
201 224 255
201 224 255
201 224 255
201 224 255
201 224 255
201 224 255
201 224 255
201 224 255
201 224 255
201 224 255
201 224 255
201 224 255
201 224 255
201 224 255
201 224 255
200 224 255
200 224 255
200 224 255
200 224 255
200 224 255
200 224 255
200 224 255
200 224 255
200 224 255
200 224 255
200 224 255
200 224 255
200 224 255
200 224 255
200 224 255
200 224 255
200 224 255
200 224 255
200 224 255
200 224 255
200 224 255
200 224 255
200 224 255
200 224 255
200 224 255
200 224 255
200 224 255
200 224 255
200 224 255
200 224 255
200 224 255
200 224 255
200 224 255
200 224 255
200 224 255
200 224 255
200 224 255
200 224 255
200 224 255
200 224 255
200 224 255
200 224 255
200 224 255
200 224 255
200 224 255
200 224 255
200 224 255
200 224 255
200 224 255
200 224 255
200 224 255
200 224 255
200 224 255
200 224 255
200 224 255
200 224 255
200 224 255
200 224 255
200 224 255
200 224 255
200 224 255
200 224 255
200 224 255
200 224 255
200 224 255
201 224 255
201 224 255
201 224 255
201 224 255
201 224 255
201 224 255
201 224 255
201 224 255
201 224 255
201 224 255
201 224 255
201 224 255
201 224 255
201 224 255
201 224 255
201 224 255
201 224 255
201 225 255
201 225 255
201 225 255
201 225 255
201 225 255
202 225 255
202 225 255
202 225 255
202 225 255
202 225 255
202 225 255
202 225 255
202 225 255
202 225 255
202 225 255
202 225 255
202 225 255
202 225 255
202 225 255
202 225 255
202 225 255
202 225 255
202 225 255
203 225 255
203 225 255
203 225 255
203 225 255
203 225 255
203 225 255
203 225 255
203 225 255
203 225 255
203 226 255
203 226 255
203 226 255
203 226 255
203 226 255
203 226 255
203 226 255
204 226 255
204 226 255
204 226 255
204 226 255
204 226 255
204 226 255
204 226 255
204 226 255
204 226 255
204 226 255
204 226 255
204 226 255
204 226 255
204 226 255
204 226 255
204 226 255
205 226 255
205 226 255
205 226 255
205 226 255
205 226 255
205 226 255
205 227 255
205 227 255
205 227 255
205 227 255
205 227 255
205 227 255
205 227 255
205 227 255
205 227 255
205 227 255
206 227 255
206 227 255
206 227 255
206 227 255
206 227 255
206 227 255
206 227 255
206 227 255
206 227 255
206 227 255
206 227 255
206 227 255
206 227 255
206 227 255
206 227 255
206 227 255
206 227 255
207 227 255
207 227 255
207 227 255
207 227 255
207 227 255
207 228 255
207 228 255
207 228 255
207 228 255
207 228 255
207 228 255
207 228 255
207 228 255
207 228 255
207 228 255
207 228 255
207 228 255
207 228 255
207 228 255
208 228 255
208 228 255
208 228 255
208 228 255
208 228 255
208 228 255
208 228 255
208 228 255
208 228 255
208 228 255
208 228 255
208 228 255
208 228 255
208 228 255
208 228 255
208 228 255
208 228 255
208 228 255
208 228 255
208 228 255
209 228 255
209 228 255
209 229 255
209 229 255
209 229 255
209 229 255
209 229 255
209 229 255
209 229 255
209 229 255
209 229 255
209 229 255
209 229 255
209 229 255
209 229 255
209 229 255
209 229 255
209 229 255
209 229 255
209 229 255
209 229 255
209 229 255
209 229 255
210 229 255
210 229 255
210 229 255
210 229 255
210 229 255
210 229 255
209 229 255
209 229 255
209 229 255
209 229 255
209 229 255
209 229 255
209 229 255
209 229 255
209 229 255
209 229 255
209 229 255
209 229 255
209 229 255
209 229 255
209 229 255
209 229 255
209 229 255
209 229 255
209 229 255
209 229 255
209 229 255
209 228 255
208 228 255
208 228 255
208 228 255
208 228 255
208 228 255
208 228 255
208 228 255
208 228 255
208 228 255
208 228 255
208 228 255
208 228 255
208 228 255
208 228 255
208 228 255
208 228 255
208 228 255
208 228 255
208 228 255
208 228 255
207 228 255
207 228 255
207 228 255
207 228 255
207 228 255
207 228 255
207 228 255
207 228 255
207 228 255
207 228 255
207 228 255
207 228 255
207 228 255
207 228 255
207 227 255
207 227 255
207 227 255
207 227 255
207 227 255
206 227 255
206 227 255
206 227 255
206 227 255
206 227 255
206 227 255
206 227 255
206 227 255
206 227 255
206 227 255
206 227 255
206 227 255
206 227 255
206 227 255
206 227 255
206 227 255
206 227 255
205 227 255
205 227 255
205 227 255
205 227 255
205 227 255
205 227 255
205 227 255
205 227 255
205 227 255
205 227 255
205 226 255
205 226 255
205 226 255
205 226 255
205 226 255
205 226 255
204 226 255
204 226 255
204 226 255
204 226 255
204 226 255
204 226 255
204 226 255
204 226 255
204 226 255
204 226 255
204 226 255
204 226 255
204 226 255
204 226 255
204 226 255
204 226 255
203 226 255
203 226 255
203 226 255
203 226 255
203 226 255
203 226 255
203 226 255
203 225 255
203 225 255
203 225 255
203 225 255
203 225 255
203 225 255
203 225 255
203 225 255
203 225 255
203 225 255
202 225 255
202 225 255
202 225 255
202 225 255
202 225 255
202 225 255
202 225 255
202 225 255
202 225 255
202 225 255
202 225 255
202 225 255
202 225 255
202 225 255
202 225 255
202 225 255
202 225 255
201 225 255
201 225 255
201 225 255
201 225 255
201 225 255
201 225 255
201 225 255
201 224 255
201 224 255
201 224 255
201 224 255
201 224 255
201 224 255
201 224 255
201 224 255
201 224 255
201 224 255
201 224 255
201 224 255
201 224 255
201 224 255
201 224 255
201 224 255
201 224 255
200 224 255
200 224 255
200 224 255
200 224 255
200 224 255
200 224 255
200 224 255
200 224 255
200 224 255
200 224 255
200 224 255
200 224 255
200 224 255
200 224 255
200 224 255
200 224 255
200 224 255
200 224 255
200 224 255
200 224 255
200 224 255
200 224 255
200 224 255
200 224 255
200 224 255
200 224 255
200 224 255
200 224 255
200 224 255
200 224 255
200 224 255
200 224 255
200 224 255
200 224 255
200 224 255
200 224 255
200 224 255
200 224 255
200 224 255
200 224 255
200 224 255
200 224 255
200 224 255
200 224 255
200 224 255
200 224 255
200 224 255
200 224 255
200 224 255
200 224 255
200 224 255
200 224 255
200 224 255
200 224 255
201 224 255
201 224 255
201 224 255
201 224 255
201 224 255
201 224 255
201 224 255
201 224 255
201 224 255
201 224 255
201 224 255
201 224 255
201 224 255
201 224 255
201 224 255
201 224 255
201 224 255
201 225 255
201 225 255
201 225 255
201 225 255
201 225 255
201 225 255
201 225 255
202 225 255
202 225 255
202 225 255
202 225 255
202 225 255
202 225 255
202 225 255
202 225 255
202 225 255
202 225 255
202 225 255
202 225 255
202 225 255
202 225 255
202 225 255
202 225 255
202 225 255
203 225 255
203 225 255
203 225 255
203 225 255
203 225 255
203 225 255
203 225 255
203 225 255
203 225 255
203 225 255
203 226 255
203 226 255
203 226 255
203 226 255
203 226 255
203 226 255
203 226 255
204 226 255
204 226 255
204 226 255
204 226 255
204 226 255
204 226 255
204 226 255
204 226 255
204 226 255
204 226 255
204 226 255
204 226 255
204 226 255
204 226 255
204 226 255
204 226 255
205 226 255
205 226 255
205 226 255
205 226 255
205 226 255
205 226 255
205 227 255
205 227 255
205 227 255
205 227 255
205 227 255
205 227 255
205 227 255
205 227 255
205 227 255
205 227 255
206 227 255
206 227 255
206 227 255
206 227 255
206 227 255
206 227 255
206 227 255
206 227 255
206 227 255
206 227 255
206 227 255
206 227 255
206 227 255
206 227 255
206 227 255
206 227 255
206 227 255
207 227 255
207 227 255
207 227 255
207 227 255
207 228 255
207 228 255
207 228 255
207 228 255
207 228 255
207 228 255
207 228 255
207 228 255
207 228 255
207 228 255
207 228 255
207 228 255
207 228 255
207 228 255
207 228 255
208 228 255
208 228 255
208 228 255
208 228 255
208 228 255
208 228 255
208 228 255
208 228 255
208 228 255
208 228 255
208 228 255
208 228 255
208 228 255
208 228 255
208 228 255
208 228 255
208 228 255
208 228 255
208 228 255
208 228 255
209 228 255
209 229 255
209 229 255
209 229 255
209 229 255
209 229 255
209 229 255
209 229 255
209 229 255
209 229 255
209 229 255
209 229 255
209 229 255
209 229 255
209 229 255
209 229 255
209 229 255
209 229 255
209 229 255
209 229 255
209 229 255
209 229 255
210 229 255
210 229 255
210 229 255
210 229 255
210 229 255
210 229 255
210 229 255
210 229 255
210 229 255
210 229 255
210 229 255
210 229 255
210 229 255
210 229 255
209 229 255
209 229 255
209 229 255
209 229 255
209 229 255
209 229 255
209 229 255
209 229 255
209 229 255
209 229 255
209 229 255
209 229 255
209 229 255
209 229 255
209 229 255
209 229 255
209 229 255
209 229 255
209 229 255
209 229 255
209 228 255
209 228 255
208 228 255
208 228 255
208 228 255
208 228 255
208 228 255
208 228 255
208 228 255
208 228 255
208 228 255
208 228 255
208 228 255
208 228 255
208 228 255
208 228 255
208 228 255
208 228 255
208 228 255
208 228 255
208 228 255
208 228 255
207 228 255
207 228 255
207 228 255
207 228 255
207 228 255
207 228 255
207 228 255
207 228 255
207 228 255
207 228 255
207 228 255
207 228 255
207 228 255
207 228 255
207 227 255
207 227 255
207 227 255
207 227 255
206 227 255
206 227 255
206 227 255
206 227 255
206 227 255
206 227 255
206 227 255
206 227 255
206 227 255
206 227 255
206 227 255
206 227 255
206 227 255
206 227 255
206 227 255
206 227 255
206 227 255
205 227 255
205 227 255
205 227 255
205 227 255
205 227 255
205 227 255
205 227 255
205 227 255
205 227 255
205 227 255
205 226 255
205 226 255
205 226 255
205 226 255
205 226 255
205 226 255
204 226 255
204 226 255
204 226 255
204 226 255
204 226 255
204 226 255
204 226 255
204 226 255
204 226 255
204 226 255
204 226 255
204 226 255
204 226 255
204 226 255
204 226 255
204 226 255
203 226 255
203 226 255
203 226 255
203 226 255
203 226 255
203 226 255
203 226 255
203 226 255
203 225 255
203 225 255
203 225 255
203 225 255
203 225 255
203 225 255
203 225 255
203 225 255
203 225 255
202 225 255
202 225 255
202 225 255
202 225 255
202 225 255
202 225 255
202 225 255
202 225 255
202 225 255
202 225 255
202 225 255
202 225 255
202 225 255
202 225 255
202 225 255
202 225 255
202 225 255
202 225 255
202 225 255
201 225 255
201 225 255
201 225 255
201 225 255
201 225 255
201 225 255
201 224 255
201 224 255
201 224 255
201 224 255
201 224 255
201 224 255
201 224 255
201 224 255
201 224 255
201 224 255
201 224 255
201 224 255
201 224 255
201 224 255
201 224 255
201 224 255
201 224 255
201 224 255
201 224 255
201 224 255
201 224 255
201 224 255
200 224 255
200 224 255
200 224 255
200 224 255
200 224 255
200 224 255
200 224 255
200 224 255
200 224 255
200 224 255
200 224 255
200 224 255
200 224 255
200 224 255
200 224 255
200 224 255
200 224 255
200 224 255
200 224 255
200 224 255
200 224 255
200 224 255
200 224 255
200 224 255
200 224 255
200 224 255
200 224 255
200 224 255
200 224 255
200 224 255
200 224 255
200 224 255
200 224 255
200 224 255
200 224 255
200 224 255
200 224 255
201 224 255
201 224 255
201 224 255
201 224 255
201 224 255
201 224 255
201 224 255
201 224 255
201 224 255
201 224 255
201 224 255
201 224 255
201 224 255
201 224 255
201 224 255
201 224 255
201 224 255
201 224 255
201 224 255
201 224 255
201 224 255
201 225 255
201 225 255
201 225 255
201 225 255
201 225 255
201 225 255
202 225 255
202 225 255
202 225 255
202 225 255
202 225 255
202 225 255
202 225 255
202 225 255
202 225 255
202 225 255
202 225 255
202 225 255
202 225 255
202 225 255
202 225 255
202 225 255
202 225 255
202 225 255
202 225 255
203 225 255
203 225 255
203 225 255
203 225 255
203 225 255
203 225 255
203 225 255
203 225 255
203 225 255
203 226 255
203 226 255
203 226 255
203 226 255
203 226 255
203 226 255
203 226 255
203 226 255
204 226 255
204 226 255
204 226 255
204 226 255
204 226 255
204 226 255
204 226 255
204 226 255
204 226 255
204 226 255
204 226 255
204 226 255
204 226 255
204 226 255
204 226 255
204 226 255
205 226 255
205 226 255
205 226 255
205 226 255
205 226 255
205 226 255
205 227 255
205 227 255
205 227 255
205 227 255
205 227 255
205 227 255
205 227 255
205 227 255
205 227 255
205 227 255
206 227 255
206 227 255
206 227 255
206 227 255
206 227 255
206 227 255
206 227 255
206 227 255
206 227 255
206 227 255
206 227 255
206 227 255
206 227 255
206 227 255
206 227 255
206 227 255
206 227 255
207 227 255
207 227 255
207 227 255
207 227 255
207 228 255
207 228 255
207 228 255
207 228 255
207 228 255
207 228 255
207 228 255
207 228 255
207 228 255
207 228 255
207 228 255
207 228 255
207 228 255
207 228 255
208 228 255
208 228 255
208 228 255
208 228 255
208 228 255
208 228 255
208 228 255
208 228 255
208 228 255
208 228 255
208 228 255
208 228 255
208 228 255
208 228 255
208 228 255
208 228 255
208 228 255
208 228 255
208 228 255
208 228 255
209 228 255
209 228 255
209 229 255
209 229 255
209 229 255
209 229 255
209 229 255
209 229 255
209 229 255
209 229 255
209 229 255
209 229 255
209 229 255
209 229 255
209 229 255
209 229 255
209 229 255
209 229 255
209 229 255
209 229 255
209 229 255
209 229 255
210 229 255
210 229 255
210 229 255
210 229 255
210 229 255
210 229 255
210 229 255
210 229 255
210 229 255
210 229 255
210 229 255
210 229 255
210 229 255
210 229 255
210 229 255
210 229 255
210 229 255
210 229 255
210 229 255
210 229 255
210 229 255
209 229 255
209 229 255
209 229 255
209 229 255
209 229 255
209 229 255
209 229 255
209 229 255
209 229 255
209 229 255
209 229 255
209 229 255
209 229 255
209 229 255
209 229 255
209 229 255
209 229 255
209 229 255
209 229 255
209 229 255
209 229 255
209 228 255
208 228 255
208 228 255
208 228 255
208 228 255
208 228 255
208 228 255
208 228 255
208 228 255
208 228 255
208 228 255
208 228 255
208 228 255
208 228 255
208 228 255
208 228 255
208 228 255
208 228 255
208 228 255
208 228 255
208 228 255
207 228 255
207 228 255
207 228 255
207 228 255
207 228 255
207 228 255
207 228 255
207 228 255
207 228 255
207 228 255
207 228 255
207 228 255
207 228 255
207 228 255
207 227 255
207 227 255
207 227 255
207 227 255
206 227 255
206 227 255
206 227 255
206 227 255
206 227 255
206 227 255
206 227 255
206 227 255
206 227 255
206 227 255
206 227 255
206 227 255
206 227 255
206 227 255
206 227 255
206 227 255
206 227 255
205 227 255
205 227 255
205 227 255
205 227 255
205 227 255
205 227 255
205 227 255
205 227 255
205 227 255
205 227 255
205 226 255
205 226 255
205 226 255
205 226 255
205 226 255
205 226 255
204 226 255
204 226 255
204 226 255
204 226 255
204 226 255
204 226 255
204 226 255
204 226 255
204 226 255
204 226 255
204 226 255
204 226 255
204 226 255
204 226 255
204 226 255
204 226 255
204 226 255
203 226 255
203 226 255
203 226 255
203 226 255
203 226 255
203 226 255
203 226 255
203 225 255
203 225 255
203 225 255
203 225 255
203 225 255
203 225 255
203 225 255
203 225 255
203 225 255
203 225 255
202 225 255
202 225 255
202 225 255
202 225 255
202 225 255
202 225 255
202 225 255
202 225 255
202 225 255
202 225 255
202 225 255
202 225 255
202 225 255
202 225 255
202 225 255
202 225 255
202 225 255
202 225 255
202 225 255
201 225 255
201 225 255
201 225 255
201 225 255
201 225 255
201 225 255
201 225 255
201 225 255
201 224 255
201 224 255
201 224 255
201 224 255
201 224 255
201 224 255
201 224 255
201 224 255
201 224 255
201 224 255
201 224 255
201 224 255
201 224 255
201 224 255
201 224 255
201 224 255
201 224 255
201 224 255
201 224 255
201 224 255
201 224 255
201 224 255
201 224 255
201 224 255
201 224 255
201 224 255
201 224 255
201 224 255
201 224 255
201 224 255
201 224 255
201 224 255
201 224 255
201 224 255
201 224 255
201 224 255
201 224 255
201 224 255
201 224 255
201 224 255
201 224 255
201 224 255
201 224 255
201 224 255
201 224 255
201 224 255
201 224 255
201 224 255
201 224 255
201 224 255
201 224 255
201 224 255
201 224 255
201 224 255
201 224 255
201 224 255
201 224 255
201 224 255
201 224 255
201 224 255
201 224 255
201 224 255
201 224 255
201 224 255
201 224 255
201 224 255
201 224 255
201 224 255
201 225 255
201 225 255
201 225 255
201 225 255
201 225 255
201 225 255
201 225 255
202 225 255
202 225 255
202 225 255
202 225 255
202 225 255
202 225 255
202 225 255
202 225 255
202 225 255
202 225 255
202 225 255
202 225 255
202 225 255
202 225 255
202 225 255
202 225 255
202 225 255
202 225 255
202 225 255
202 225 255
203 225 255
203 225 255
203 225 255
203 225 255
203 225 255
203 225 255
203 225 255
203 225 255
203 225 255
203 225 255
203 226 255
203 226 255
203 226 255
203 226 255
203 226 255
203 226 255
203 226 255
204 226 255
204 226 255
204 226 255
204 226 255
204 226 255
204 226 255
204 226 255
204 226 255
204 226 255
204 226 255
204 226 255
204 226 255
204 226 255
204 226 255
204 226 255
204 226 255
204 226 255
205 226 255
205 226 255
205 226 255
205 226 255
205 226 255
205 226 255
205 227 255
205 227 255
205 227 255
205 227 255
205 227 255
205 227 255
205 227 255
205 227 255
205 227 255
205 227 255
206 227 255
206 227 255
206 227 255
206 227 255
206 227 255
206 227 255
206 227 255
206 227 255
206 227 255
206 227 255
206 227 255
206 227 255
206 227 255
206 227 255
206 227 255
206 227 255
206 227 255
207 227 255
207 227 255
207 227 255
207 227 255
207 228 255
207 228 255
207 228 255
207 228 255
207 228 255
207 228 255
207 228 255
207 228 255
207 228 255
207 228 255
207 228 255
207 228 255
207 228 255
207 228 255
208 228 255
208 228 255
208 228 255
208 228 255
208 228 255
208 228 255
208 228 255
208 228 255
208 228 255
208 228 255
208 228 255
208 228 255
208 228 255
208 228 255
208 228 255
208 228 255
208 228 255
208 228 255
208 228 255
208 228 255
209 228 255
209 229 255
209 229 255
209 229 255
209 229 255
209 229 255
209 229 255
209 229 255
209 229 255
209 229 255
209 229 255
209 229 255
209 229 255
209 229 255
209 229 255
209 229 255
209 229 255
209 229 255
209 229 255
209 229 255
209 229 255
209 229 255
210 229 255
210 229 255
210 229 255
210 229 255
210 229 255
210 229 255
210 229 255
210 229 255
210 229 255
210 229 255
210 229 255
210 229 255
210 229 255
210 229 255
210 229 255
210 229 255
210 229 255
210 229 255
210 229 255
210 229 255
210 229 255
210 229 255
210 229 255
210 229 255
210 229 255
210 229 255
210 229 255
210 229 255
209 229 255
209 229 255
209 229 255
209 229 255
209 229 255
209 229 255
209 229 255
209 229 255
209 229 255
209 229 255
209 229 255
209 229 255
209 229 255
209 229 255
209 229 255
209 229 255
209 229 255
209 229 255
209 229 255
209 229 255
209 228 255
209 228 255
208 228 255
208 228 255
208 228 255
208 228 255
208 228 255
208 228 255
208 228 255
208 228 255
208 228 255
208 228 255
208 228 255
208 228 255
208 228 255
208 228 255
208 228 255
208 228 255
208 228 255
208 228 255
208 228 255
207 228 255
207 228 255
207 228 255
207 228 255
207 228 255
207 228 255
207 228 255
207 228 255
207 228 255
207 228 255
207 228 255
207 228 255
207 228 255
207 228 255
207 227 255
207 227 255
207 227 255
207 227 255
206 227 255
206 227 255
206 227 255
206 227 255
206 227 255
206 227 255
206 227 255
206 227 255
206 227 255
206 227 255
206 227 255
206 227 255
206 227 255
206 227 255
206 227 255
206 227 255
206 227 255
205 227 255
205 227 255
205 227 255
205 227 255
205 227 255
205 227 255
205 227 255
205 227 255
205 227 255
205 227 255
205 226 255
205 226 255
205 226 255
205 226 255
205 226 255
205 226 255
205 226 255
204 226 255
204 226 255
204 226 255
204 226 255
204 226 255
204 226 255
204 226 255
204 226 255
204 226 255
204 226 255
204 226 255
204 226 255
204 226 255
204 226 255
204 226 255
204 226 255
203 226 255
203 226 255
203 226 255
203 226 255
203 226 255
203 226 255
203 226 255
203 226 255
203 225 255
203 225 255
203 225 255
203 225 255
203 225 255
203 225 255
203 225 255
203 225 255
203 225 255
203 225 255
202 225 255
202 225 255
202 225 255
202 225 255
202 225 255
202 225 255
202 225 255
202 225 255
202 225 255
202 225 255
202 225 255
202 225 255
202 225 255
202 225 255
202 225 255
202 225 255
202 225 255
202 225 255
202 225 255
202 225 255
202 225 255
201 225 255
201 225 255
201 225 255
201 225 255
201 225 255
201 225 255
201 225 255
201 225 255
201 224 255
201 224 255
201 224 255
201 224 255
201 224 255
201 224 255
201 224 255
201 224 255
201 224 255
201 224 255
201 224 255
201 224 255
201 224 255
201 224 255
201 224 255
201 224 255
201 224 255
201 224 255
201 224 255
201 224 255
201 224 255
201 224 255
201 224 255
201 224 255
201 224 255
201 224 255
201 224 255
201 224 255
201 224 255
201 224 255
201 224 255
201 224 255
201 224 255
201 224 255
201 224 255
201 224 255
201 224 255
201 224 255
201 224 255
201 224 255
201 224 255
201 224 255
201 224 255
201 224 255
201 224 255
201 224 255
201 224 255
201 224 255
201 224 255
201 224 255
201 224 255
201 224 255
201 224 255
201 224 255
201 224 255
201 224 255
201 225 255
201 225 255
201 225 255
201 225 255
201 225 255
201 225 255
201 225 255
201 225 255
201 225 255
202 225 255
202 225 255
202 225 255
202 225 255
202 225 255
202 225 255
202 225 255
202 225 255
202 225 255
202 225 255
202 225 255
202 225 255
202 225 255
202 225 255
202 225 255
202 225 255
202 225 255
202 225 255
202 225 255
202 225 255
203 225 255
203 225 255
203 225 255
203 225 255
203 225 255
203 225 255
203 225 255
203 225 255
203 225 255
203 225 255
203 226 255
203 226 255
203 226 255
203 226 255
203 226 255
203 226 255
203 226 255
203 226 255
204 226 255
204 226 255
204 226 255
204 226 255
204 226 255
204 226 255
204 226 255
204 226 255
204 226 255
204 226 255
204 226 255
204 226 255
204 226 255
204 226 255
204 226 255
204 226 255
205 226 255
205 226 255
205 226 255
205 226 255
205 226 255
205 226 255
205 226 255
205 227 255
205 227 255
205 227 255
205 227 255
205 227 255
205 227 255
205 227 255
205 227 255
205 227 255
206 227 255
206 227 255
206 227 255
206 227 255
206 227 255
206 227 255
206 227 255
206 227 255
206 227 255
206 227 255
206 227 255
206 227 255
206 227 255
206 227 255
206 227 255
206 227 255
206 227 255
206 227 255
207 227 255
207 227 255
207 227 255
207 227 255
207 228 255
207 228 255
207 228 255
207 228 255
207 228 255
207 228 255
207 228 255
207 228 255
207 228 255
207 228 255
207 228 255
207 228 255
207 228 255
207 228 255
208 228 255
208 228 255
208 228 255
208 228 255
208 228 255
208 228 255
208 228 255
208 228 255
208 228 255
208 228 255
208 228 255
208 228 255
208 228 255
208 228 255
208 228 255
208 228 255
208 228 255
208 228 255
208 228 255
209 228 255
209 228 255
209 229 255
209 229 255
209 229 255
209 229 255
209 229 255
209 229 255
209 229 255
209 229 255
209 229 255
209 229 255
209 229 255
209 229 255
209 229 255
209 229 255
209 229 255
209 229 255
209 229 255
209 229 255
209 229 255
209 229 255
210 229 255
210 229 255
210 229 255
210 229 255
210 229 255
210 229 255
210 229 255
210 229 255
210 229 255
210 229 255
210 229 255
210 229 255
210 229 255
210 229 255
210 229 255
210 229 255
210 229 255
210 229 255
210 229 255
210 229 255
210 229 255
210 229 255
210 229 255
210 229 255
210 229 255
210 229 255
210 229 255
210 229 255
210 229 255
210 229 255
210 229 255
210 229 255
210 229 255
210 229 255
210 229 255
209 229 255
209 229 255
209 229 255
209 229 255
209 229 255
209 229 255
209 229 255
209 229 255
209 229 255
209 229 255
209 229 255
209 229 255
209 229 255
209 229 255
209 229 255
209 229 255
209 229 255
209 229 255
209 229 255
209 229 255
209 229 255
209 228 255
208 228 255
208 228 255
208 228 255
208 228 255
208 228 255
208 228 255
208 228 255
208 228 255
208 228 255
208 228 255
208 228 255
208 228 255
208 228 255
208 228 255
208 228 255
208 228 255
208 228 255
208 228 255
208 228 255
208 228 255
207 228 255
207 228 255
207 228 255
207 228 255
207 228 255
207 228 255
207 228 255
207 228 255
207 228 255
207 228 255
207 228 255
207 228 255
207 228 255
207 227 255
207 227 255
207 227 255
207 227 255
207 227 255
206 227 255
206 227 255
206 227 255
206 227 255
206 227 255
206 227 255
206 227 255
206 227 255
206 227 255
206 227 255
206 227 255
206 227 255
206 227 255
206 227 255
206 227 255
206 227 255
206 227 255
205 227 255
205 227 255
205 227 255
205 227 255
205 227 255
205 227 255
205 227 255
205 227 255
205 227 255
205 226 255
205 226 255
205 226 255
205 226 255
205 226 255
205 226 255
205 226 255
204 226 255
204 226 255
204 226 255
204 226 255
204 226 255
204 226 255
204 226 255
204 226 255
204 226 255
204 226 255
204 226 255
204 226 255
204 226 255
204 226 255
204 226 255
204 226 255
204 226 255
203 226 255
203 226 255
203 226 255
203 226 255
203 226 255
203 226 255
203 226 255
203 225 255
203 225 255
203 225 255
203 225 255
203 225 255
203 225 255
203 225 255
203 225 255
203 225 255
203 225 255
203 225 255
202 225 255
202 225 255
202 225 255
202 225 255
202 225 255
202 225 255
202 225 255
202 225 255
202 225 255
202 225 255
202 225 255
202 225 255
202 225 255
202 225 255
202 225 255
202 225 255
202 225 255
202 225 255
202 225 255
202 225 255
202 225 255
202 225 255
202 225 255
201 225 255
201 225 255
201 225 255
201 225 255
201 225 255
201 225 255
201 225 255
201 225 255
201 225 255
201 225 255
201 224 255
201 224 255
201 224 255
201 224 255
201 224 255
201 224 255
201 224 255
201 224 255
201 224 255
201 224 255
201 224 255
201 224 255
201 224 255
201 224 255
201 224 255
201 224 255
201 224 255
201 224 255
201 224 255
201 224 255
201 224 255
201 224 255
201 224 255
201 224 255
201 224 255
201 224 255
201 224 255
201 224 255
201 224 255
201 224 255
201 224 255
201 224 255
201 224 255
201 224 255
201 224 255
201 224 255
201 224 255
201 224 255
201 224 255
201 224 255
201 225 255
201 225 255
201 225 255
201 225 255
201 225 255
201 225 255
201 225 255
201 225 255
201 225 255
201 225 255
202 225 255
202 225 255
202 225 255
202 225 255
202 225 255
202 225 255
202 225 255
202 225 255
202 225 255
202 225 255
202 225 255
202 225 255
202 225 255
202 225 255
202 225 255
202 225 255
202 225 255
202 225 255
202 225 255
202 225 255
202 225 255
202 225 255
202 225 255
203 225 255
203 225 255
203 225 255
203 225 255
203 225 255
203 225 255
203 225 255
203 225 255
203 225 255
203 225 255
203 226 255
203 226 255
203 226 255
203 226 255
203 226 255
203 226 255
203 226 255
203 226 255
204 226 255
204 226 255
204 226 255
204 226 255
204 226 255
204 226 255
204 226 255
204 226 255
204 226 255
204 226 255
204 226 255
204 226 255
204 226 255
204 226 255
204 226 255
204 226 255
204 226 255
205 226 255
205 226 255
205 226 255
205 226 255
205 226 255
205 226 255
205 226 255
205 227 255
205 227 255
205 227 255
205 227 255
205 227 255
205 227 255
205 227 255
205 227 255
205 227 255
206 227 255
206 227 255
206 227 255
206 227 255
206 227 255
206 227 255
206 227 255
206 227 255
206 227 255
206 227 255
206 227 255
206 227 255
206 227 255
206 227 255
206 227 255
206 227 255
206 227 255
207 227 255
207 227 255
207 227 255
207 227 255
207 227 255
207 228 255
207 228 255
207 228 255
207 228 255
207 228 255
207 228 255
207 228 255
207 228 255
207 228 255
207 228 255
207 228 255
207 228 255
207 228 255
208 228 255
208 228 255
208 228 255
208 228 255
208 228 255
208 228 255
208 228 255
208 228 255
208 228 255
208 228 255
208 228 255
208 228 255
208 228 255
208 228 255
208 228 255
208 228 255
208 228 255
208 228 255
208 228 255
208 228 255
209 228 255
209 229 255
209 229 255
209 229 255
209 229 255
209 229 255
209 229 255
209 229 255
209 229 255
209 229 255
209 229 255
209 229 255
209 229 255
209 229 255
209 229 255
209 229 255
209 229 255
209 229 255
209 229 255
209 229 255
209 229 255
209 229 255
210 229 255
210 229 255
210 229 255
210 229 255
210 229 255
210 229 255
210 229 255
210 229 255
210 229 255
210 229 255
210 229 255
210 229 255
210 229 255
210 229 255
210 229 255
210 229 255
210 229 255
210 229 255
210 229 255
210 230 255
210 229 255
210 229 255
210 229 255
210 229 255
210 229 255
210 229 255
210 229 255
210 229 255
210 229 255
210 229 255
210 229 255
210 229 255
210 229 255
210 229 255
210 229 255
210 229 255
210 229 255
210 229 255
210 229 255
210 229 255
210 229 255
210 229 255
209 229 255
209 229 255
209 229 255
209 229 255
209 229 255
209 229 255
209 229 255
209 229 255
209 229 255
209 229 255
209 229 255
209 229 255
209 229 255
209 229 255
209 229 255
209 229 255
209 229 255
209 229 255
209 229 255
209 229 255
209 228 255
209 228 255
208 228 255
208 228 255
208 228 255
208 228 255
208 228 255
208 228 255
208 228 255
208 228 255
208 228 255
208 228 255
208 228 255
208 228 255
208 228 255
208 228 255
208 228 255
208 228 255
208 228 255
208 228 255
208 228 255
207 228 255
207 228 255
207 228 255
207 228 255
207 228 255
207 228 255
207 228 255
207 228 255
207 228 255
207 228 255
207 228 255
207 228 255
207 228 255
207 228 255
207 227 255
207 227 255
207 227 255
207 227 255
206 227 255
206 227 255
206 227 255
206 227 255
206 227 255
206 227 255
206 227 255
206 227 255
206 227 255
206 227 255
206 227 255
206 227 255
206 227 255
206 227 255
206 227 255
206 227 255
206 227 255
205 227 255
205 227 255
205 227 255
205 227 255
205 227 255
205 227 255
205 227 255
205 227 255
205 227 255
205 227 255
205 226 255
205 226 255
205 226 255
205 226 255
205 226 255
205 226 255
204 226 255
204 226 255
204 226 255
204 226 255
204 226 255
204 226 255
204 226 255
204 226 255
204 226 255
204 226 255
204 226 255
204 226 255
204 226 255
204 226 255
204 226 255
204 226 255
204 226 255
203 226 255
203 226 255
203 226 255
203 226 255
203 226 255
203 226 255
203 226 255
203 226 255
203 225 255
203 225 255
203 225 255
203 225 255
203 225 255
203 225 255
203 225 255
203 225 255
203 225 255
203 225 255
203 225 255
202 225 255
202 225 255
202 225 255
202 225 255
202 225 255
202 225 255
202 225 255
202 225 255
202 225 255
202 225 255
202 225 255
202 225 255
202 225 255
202 225 255
202 225 255
202 225 255
202 225 255
202 225 255
202 225 255
202 225 255
202 225 255
202 225 255
202 225 255
202 225 255
202 225 255
202 225 255
201 225 255
201 225 255
201 225 255
201 225 255
201 225 255
201 225 255
201 225 255
201 225 255
201 225 255
201 225 255
201 225 255
201 225 255
201 225 255
201 225 255
201 225 255
201 225 255
201 225 255
201 224 255
201 224 255
201 224 255
201 224 255
201 224 255
201 224 255
201 224 255
201 224 255
201 224 255
201 224 255
201 224 255
201 224 255
201 225 255
201 225 255
201 225 255
201 225 255
201 225 255
201 225 255
201 225 255
201 225 255
201 225 255
201 225 255
201 225 255
201 225 255
201 225 255
201 225 255
201 225 255
201 225 255
201 225 255
202 225 255
202 225 255
202 225 255
202 225 255
202 225 255
202 225 255
202 225 255
202 225 255
202 225 255
202 225 255
202 225 255
202 225 255
202 225 255
202 225 255
202 225 255
202 225 255
202 225 255
202 225 255
202 225 255
202 225 255
202 225 255
202 225 255
202 225 255
202 225 255
202 225 255
202 225 255
203 225 255
203 225 255
203 225 255
203 225 255
203 225 255
203 225 255
203 225 255
203 225 255
203 225 255
203 225 255
203 225 255
203 226 255
203 226 255
203 226 255
203 226 255
203 226 255
203 226 255
203 226 255
203 226 255
204 226 255
204 226 255
204 226 255
204 226 255
204 226 255
204 226 255
204 226 255
204 226 255
204 226 255
204 226 255
204 226 255
204 226 255
204 226 255
204 226 255
204 226 255
204 226 255
204 226 255
205 226 255
205 226 255
205 226 255
205 226 255
205 226 255
205 226 255
205 227 255
205 227 255
205 227 255
205 227 255
205 227 255
205 227 255
205 227 255
205 227 255
205 227 255
205 227 255
206 227 255
206 227 255
206 227 255
206 227 255
206 227 255
206 227 255
206 227 255
206 227 255
206 227 255
206 227 255
206 227 255
206 227 255
206 227 255
206 227 255
206 227 255
206 227 255
206 227 255
207 227 255
207 227 255
207 227 255
207 227 255
207 228 255
207 228 255
207 228 255
207 228 255
207 228 255
207 228 255
207 228 255
207 228 255
207 228 255
207 228 255
207 228 255
207 228 255
207 228 255
207 228 255
208 228 255
208 228 255
208 228 255
208 228 255
208 228 255
208 228 255
208 228 255
208 228 255
208 228 255
208 228 255
208 228 255
208 228 255
208 228 255
208 228 255
208 228 255
208 228 255
208 228 255
208 228 255
208 228 255
208 228 255
209 228 255
209 229 255
209 229 255
209 229 255
209 229 255
209 229 255
209 229 255
209 229 255
209 229 255
209 229 255
209 229 255
209 229 255
209 229 255
209 229 255
209 229 255
209 229 255
209 229 255
209 229 255
209 229 255
209 229 255
209 229 255
210 229 255
210 229 255
210 229 255
210 229 255
210 229 255
210 229 255
210 229 255
210 229 255
210 229 255
210 229 255
210 229 255
210 229 255
210 229 255
210 229 255
210 229 255
210 229 255
210 229 255
210 229 255
210 229 255
210 229 255
210 229 255
210 229 255
210 230 255
211 230 255
211 230 255
210 230 255
210 230 255
210 230 255
210 229 255
210 229 255
210 229 255
210 229 255
210 229 255
210 229 255
210 229 255
210 229 255
210 229 255
210 229 255
210 229 255
210 229 255
210 229 255
210 229 255
210 229 255
210 229 255
210 229 255
210 229 255
210 229 255
210 229 255
210 229 255
210 229 255
209 229 255
209 229 255
209 229 255
209 229 255
209 229 255
209 229 255
209 229 255
209 229 255
209 229 255
209 229 255
209 229 255
209 229 255
209 229 255
209 229 255
209 229 255
209 229 255
209 229 255
209 229 255
209 229 255
209 229 255
209 228 255
208 228 255
208 228 255
208 228 255
208 228 255
208 228 255
208 228 255
208 228 255
208 228 255
208 228 255
208 228 255
208 228 255
208 228 255
208 228 255
208 228 255
208 228 255
208 228 255
208 228 255
208 228 255
208 228 255
207 228 255
207 228 255
207 228 255
207 228 255
207 228 255
207 228 255
207 228 255
207 228 255
207 228 255
207 228 255
207 228 255
207 228 255
207 228 255
207 228 255
207 227 255
207 227 255
207 227 255
207 227 255
206 227 255
206 227 255
206 227 255
206 227 255
206 227 255
206 227 255
206 227 255
206 227 255
206 227 255
206 227 255
206 227 255
206 227 255
206 227 255
206 227 255
206 227 255
206 227 255
206 227 255
205 227 255
205 227 255
205 227 255
205 227 255
205 227 255
205 227 255
205 227 255
205 227 255
205 227 255
205 227 255
205 226 255
205 226 255
205 226 255
205 226 255
205 226 255
205 226 255
205 226 255
204 226 255
204 226 255
204 226 255
204 226 255
204 226 255
204 226 255
204 226 255
204 226 255
204 226 255
204 226 255
204 226 255
204 226 255
204 226 255
204 226 255
204 226 255
204 226 255
204 226 255
203 226 255
203 226 255
203 226 255
203 226 255
203 226 255
203 226 255
203 226 255
203 226 255
203 225 255
203 225 255
203 225 255
203 225 255
203 225 255
203 225 255
203 225 255
203 225 255
203 225 255
203 225 255
203 225 255
203 225 255
202 225 255
202 225 255
202 225 255
202 225 255
202 225 255
202 225 255
202 225 255
202 225 255
202 225 255
202 225 255
202 225 255
202 225 255
202 225 255
202 225 255
202 225 255
202 225 255
202 225 255
202 225 255
202 225 255
202 225 255
202 225 255
202 225 255
202 225 255
202 225 255
202 225 255
202 225 255
202 225 255
202 225 255
202 225 255
202 225 255
202 225 255
201 225 255
201 225 255
201 225 255
201 225 255
201 225 255
201 225 255
201 225 255
201 225 255
201 225 255
201 225 255
201 225 255
201 225 255
201 225 255
201 225 255
201 225 255
201 225 255
201 225 255
201 225 255
201 225 255
201 225 255
201 225 255
201 225 255
201 225 255
201 225 255
201 225 255
201 225 255
202 225 255
202 225 255
202 225 255
202 225 255
202 225 255
202 225 255
202 225 255
202 225 255
202 225 255
202 225 255
202 225 255
202 225 255
202 225 255
202 225 255
202 225 255
202 225 255
202 225 255
202 225 255
202 225 255
202 225 255
202 225 255
202 225 255
202 225 255
202 225 255
202 225 255
202 225 255
202 225 255
202 225 255
202 225 255
202 225 255
202 225 255
203 225 255
203 225 255
203 225 255
203 225 255
203 225 255
203 225 255
203 225 255
203 225 255
203 225 255
203 225 255
203 225 255
203 225 255
203 226 255
203 226 255
203 226 255
203 226 255
203 226 255
203 226 255
203 226 255
203 226 255
204 226 255
204 226 255
204 226 255
204 226 255
204 226 255
204 226 255
204 226 255
204 226 255
204 226 255
204 226 255
204 226 255
204 226 255
204 226 255
204 226 255
204 226 255
204 226 255
204 226 255
205 226 255
205 226 255
205 226 255
205 226 255
205 226 255
205 226 255
205 226 255
205 227 255
205 227 255
205 227 255
205 227 255
205 227 255
205 227 255
205 227 255
205 227 255
205 227 255
205 227 255
206 227 255
206 227 255
206 227 255
206 227 255
206 227 255
206 227 255
206 227 255
206 227 255
206 227 255
206 227 255
206 227 255
206 227 255
206 227 255
206 227 255
206 227 255
206 227 255
206 227 255
207 227 255
207 227 255
207 227 255
207 227 255
207 228 255
207 228 255
207 228 255
207 228 255
207 228 255
207 228 255
207 228 255
207 228 255
207 228 255
207 228 255
207 228 255
207 228 255
207 228 255
207 228 255
208 228 255
208 228 255
208 228 255
208 228 255
208 228 255
208 228 255
208 228 255
208 228 255
208 228 255
208 228 255
208 228 255
208 228 255
208 228 255
208 228 255
208 228 255
208 228 255
208 228 255
208 228 255
208 228 255
209 228 255
209 228 255
209 229 255
209 229 255
209 229 255
209 229 255
209 229 255
209 229 255
209 229 255
209 229 255
209 229 255
209 229 255
209 229 255
209 229 255
209 229 255
209 229 255
209 229 255
209 229 255
209 229 255
209 229 255
209 229 255
210 229 255
210 229 255
210 229 255
210 229 255
210 229 255
210 229 255
210 229 255
210 229 255
210 229 255
210 229 255
210 229 255
210 229 255
210 229 255
210 229 255
210 229 255
210 229 255
210 229 255
210 229 255
210 229 255
210 229 255
210 229 255
210 229 255
210 230 255
210 230 255
210 230 255
211 230 255
211 230 255
211 230 255
211 230 255
211 230 255
211 230 255
211 230 255
211 230 255
210 230 255
210 230 255
210 230 255
210 229 255
210 229 255
210 229 255
210 229 255
210 229 255
210 229 255
210 229 255
210 229 255
210 229 255
210 229 255
210 229 255
210 229 255
210 229 255
210 229 255
210 229 255
210 229 255
210 229 255
210 229 255
210 229 255
210 229 255
210 229 255
209 229 255
209 229 255
209 229 255
209 229 255
209 229 255
209 229 255
209 229 255
209 229 255
209 229 255
209 229 255
209 229 255
209 229 255
209 229 255
209 229 255
209 229 255
209 229 255
209 229 255
209 229 255
209 229 255
209 229 255
209 228 255
209 228 255
208 228 255
208 228 255
208 228 255
208 228 255
208 228 255
208 228 255
208 228 255
208 228 255
208 228 255
208 228 255
208 228 255
208 228 255
208 228 255
208 228 255
208 228 255
208 228 255
208 228 255
208 228 255
208 228 255
207 228 255
207 228 255
207 228 255
207 228 255
207 228 255
207 228 255
207 228 255
207 228 255
207 228 255
207 228 255
207 228 255
207 228 255
207 228 255
207 228 255
207 227 255
207 227 255
207 227 255
207 227 255
206 227 255
206 227 255
206 227 255
206 227 255
206 227 255
206 227 255
206 227 255
206 227 255
206 227 255
206 227 255
206 227 255
206 227 255
206 227 255
206 227 255
206 227 255
206 227 255
206 227 255
205 227 255
205 227 255
205 227 255
205 227 255
205 227 255
205 227 255
205 227 255
205 227 255
205 227 255
205 227 255
205 226 255
205 226 255
205 226 255
205 226 255
205 226 255
205 226 255
205 226 255
204 226 255
204 226 255
204 226 255
204 226 255
204 226 255
204 226 255
204 226 255
204 226 255
204 226 255
204 226 255
204 226 255
204 226 255
204 226 255
204 226 255
204 226 255
204 226 255
204 226 255
203 226 255
203 226 255
203 226 255
203 226 255
203 226 255
203 226 255
203 226 255
203 226 255
203 226 255
203 225 255
203 225 255
203 225 255
203 225 255
203 225 255
203 225 255
203 225 255
203 225 255
203 225 255
203 225 255
203 225 255
203 225 255
202 225 255
202 225 255
202 225 255
202 225 255
202 225 255
202 225 255
202 225 255
202 225 255
202 225 255
202 225 255
202 225 255
202 225 255
202 225 255
202 225 255
202 225 255
202 225 255
202 225 255
202 225 255
202 225 255
202 225 255
202 225 255
202 225 255
202 225 255
202 225 255
202 225 255
202 225 255
202 225 255
202 225 255
202 225 255
202 225 255
202 225 255
202 225 255
202 225 255
202 225 255
202 225 255
202 225 255
202 225 255
202 225 255
202 225 255
202 225 255
202 225 255
202 225 255
202 225 255
202 225 255
202 225 255
202 225 255
202 225 255
202 225 255
202 225 255
202 225 255
202 225 255
202 225 255
202 225 255
202 225 255
202 225 255
202 225 255
202 225 255
202 225 255
202 225 255
202 225 255
202 225 255
202 225 255
202 225 255
202 225 255
202 225 255
202 225 255
202 225 255
202 225 255
202 225 255
202 225 255
202 225 255
202 225 255
202 225 255
202 225 255
202 225 255
202 225 255
202 225 255
202 225 255
203 225 255
203 225 255
203 225 255
203 225 255
203 225 255
203 225 255
203 225 255
203 225 255
203 225 255
203 225 255
203 225 255
203 225 255
203 226 255
203 226 255
203 226 255
203 226 255
203 226 255
203 226 255
203 226 255
203 226 255
203 226 255
204 226 255
204 226 255
204 226 255
204 226 255
204 226 255
204 226 255
204 226 255
204 226 255
204 226 255
204 226 255
204 226 255
204 226 255
204 226 255
204 226 255
204 226 255
204 226 255
204 226 255
205 226 255
205 226 255
205 226 255
205 226 255
205 226 255
205 226 255
205 226 255
205 227 255
205 227 255
205 227 255
205 227 255
205 227 255
205 227 255
205 227 255
205 227 255
205 227 255
205 227 255
206 227 255
206 227 255
206 227 255
206 227 255
206 227 255
206 227 255
206 227 255
206 227 255
206 227 255
206 227 255
206 227 255
206 227 255
206 227 255
206 227 255
206 227 255
206 227 255
206 227 255
207 227 255
207 227 255
207 227 255
207 227 255
207 227 255
207 228 255
207 228 255
207 228 255
207 228 255
207 228 255
207 228 255
207 228 255
207 228 255
207 228 255
207 228 255
207 228 255
207 228 255
207 228 255
208 228 255
208 228 255
208 228 255
208 228 255
208 228 255
208 228 255
208 228 255
208 228 255
208 228 255
208 228 255
208 228 255
208 228 255
208 228 255
208 228 255
208 228 255
208 228 255
208 228 255
208 228 255
208 228 255
208 228 255
209 228 255
209 229 255
209 229 255
209 229 255
209 229 255
209 229 255
209 229 255
209 229 255
209 229 255
209 229 255
209 229 255
209 229 255
209 229 255
209 229 255
209 229 255
209 229 255
209 229 255
209 229 255
209 229 255
209 229 255
209 229 255
210 229 255
210 229 255
210 229 255
210 229 255
210 229 255
210 229 255
210 229 255
210 229 255
210 229 255
210 229 255
210 229 255
210 229 255
210 229 255
210 229 255
210 229 255
210 229 255
210 229 255
210 229 255
210 229 255
210 229 255
210 229 255
210 230 255
210 230 255
210 230 255
211 230 255
211 230 255
211 230 255
211 230 255
211 230 255
211 230 255
211 230 255
211 230 255
211 230 255
211 230 255
211 230 255
211 230 255
211 230 255
211 230 255
211 230 255
211 230 255
210 230 255
210 230 255
210 230 255
210 229 255
210 229 255
210 229 255
210 229 255
210 229 255
210 229 255
210 229 255
210 229 255
210 229 255
210 229 255
210 229 255
210 229 255
210 229 255
210 229 255
210 229 255
210 229 255
210 229 255
210 229 255
210 229 255
210 229 255
210 229 255
209 229 255
209 229 255
209 229 255
209 229 255
209 229 255
209 229 255
209 229 255
209 229 255
209 229 255
209 229 255
209 229 255
209 229 255
209 229 255
209 229 255
209 229 255
209 229 255
209 229 255
209 229 255
209 229 255
209 229 255
209 228 255
208 228 255
208 228 255
208 228 255
208 228 255
208 228 255
208 228 255
208 228 255
208 228 255
208 228 255
208 228 255
208 228 255
208 228 255
208 228 255
208 228 255
208 228 255
208 228 255
208 228 255
208 228 255
208 228 255
207 228 255
207 228 255
207 228 255
207 228 255
207 228 255
207 228 255
207 228 255
207 228 255
207 228 255
207 228 255
207 228 255
207 228 255
207 228 255
207 228 255
207 227 255
207 227 255
207 227 255
207 227 255
206 227 255
206 227 255
206 227 255
206 227 255
206 227 255
206 227 255
206 227 255
206 227 255
206 227 255
206 227 255
206 227 255
206 227 255
206 227 255
206 227 255
206 227 255
206 227 255
206 227 255
205 227 255
205 227 255
205 227 255
205 227 255
205 227 255
205 227 255
205 227 255
205 227 255
205 227 255
205 227 255
205 226 255
205 226 255
205 226 255
205 226 255
205 226 255
205 226 255
205 226 255
204 226 255
204 226 255
204 226 255
204 226 255
204 226 255
204 226 255
204 226 255
204 226 255
204 226 255
204 226 255
204 226 255
204 226 255
204 226 255
204 226 255
204 226 255
204 226 255
204 226 255
204 226 255
203 226 255
203 226 255
203 226 255
203 226 255
203 226 255
203 226 255
203 226 255
203 226 255
203 226 255
203 225 255
203 225 255
203 225 255
203 225 255
203 225 255
203 225 255
203 225 255
203 225 255
203 225 255
203 225 255
203 225 255
203 225 255
203 225 255
203 225 255
202 225 255
202 225 255
202 225 255
202 225 255
202 225 255
202 225 255
202 225 255
202 225 255
202 225 255
202 225 255
202 225 255
202 225 255
202 225 255
202 225 255
202 225 255
202 225 255
202 225 255
202 225 255
202 225 255
202 225 255
202 225 255
202 225 255
202 225 255
202 225 255
202 225 255
199 221 252
188 210 238
175 195 221
175 195 221
163 181 206
154 171 195
145 162 184
159 177 201
147 164 186
144 160 182
163 181 206
174 193 220
168 187 212
176 196 223
192 213 242
196 218 248
202 225 255
202 225 255
202 225 255
202 225 255
202 225 255
202 225 255
202 225 255
202 225 255
202 225 255
202 225 255
202 225 255
202 225 255
202 225 255
202 225 255
202 225 255
202 225 255
202 225 255
202 225 255
202 225 255
202 225 255
202 225 255
202 225 255
202 225 255
202 225 255
202 225 255
203 225 255
203 225 255
203 225 255
203 225 255
203 225 255
203 225 255
203 225 255
203 225 255
203 225 255
203 225 255
203 225 255
203 225 255
203 225 255
203 225 255
203 226 255
203 226 255
203 226 255
203 226 255
203 226 255
203 226 255
203 226 255
203 226 255
203 226 255
204 226 255
204 226 255
204 226 255
204 226 255
204 226 255
204 226 255
204 226 255
204 226 255
204 226 255
204 226 255
204 226 255
204 226 255
204 226 255
204 226 255
204 226 255
204 226 255
204 226 255
204 226 255
205 226 255
205 226 255
205 226 255
205 226 255
205 226 255
205 226 255
205 226 255
205 227 255
205 227 255
205 227 255
205 227 255
205 227 255
205 227 255
205 227 255
205 227 255
205 227 255
205 227 255
206 227 255
206 227 255
206 227 255
206 227 255
206 227 255
206 227 255
206 227 255
206 227 255
206 227 255
206 227 255
206 227 255
206 227 255
206 227 255
206 227 255
206 227 255
206 227 255
206 227 255
207 227 255
207 227 255
207 227 255
207 227 255
207 228 255
207 228 255
207 228 255
207 228 255
207 228 255
207 228 255
207 228 255
207 228 255
207 228 255
207 228 255
207 228 255
207 228 255
207 228 255
207 228 255
208 228 255
208 228 255
208 228 255
208 228 255
208 228 255
208 228 255
208 228 255
208 228 255
208 228 255
208 228 255
208 228 255
208 228 255
208 228 255
208 228 255
208 228 255
208 228 255
208 228 255
208 228 255
208 228 255
209 228 255
209 229 255
209 229 255
209 229 255
209 229 255
209 229 255
209 229 255
209 229 255
209 229 255
209 229 255
209 229 255
209 229 255
209 229 255
209 229 255
209 229 255
209 229 255
209 229 255
209 229 255
209 229 255
209 229 255
209 229 255
210 229 255
210 229 255
210 229 255
210 229 255
210 229 255
210 229 255
210 229 255
210 229 255
210 229 255
210 229 255
210 229 255
210 229 255
210 229 255
210 229 255
210 229 255
210 229 255
210 229 255
210 229 255
210 229 255
210 229 255
210 229 255
210 230 255
210 230 255
210 230 255
211 230 255
211 230 255
211 230 255
211 230 255
211 230 255
211 230 255
211 230 255
211 230 255
211 230 255
211 230 255
211 230 255
211 230 255
211 230 255
211 230 255
211 230 255
211 230 255
211 230 255
211 230 255
211 230 255
211 230 255
211 230 255
211 230 255
211 230 255
211 230 255
210 230 255
210 230 255
210 230 255
210 229 255
210 229 255
210 229 255
210 229 255
210 229 255
210 229 255
210 229 255
210 229 255
210 229 255
210 229 255
210 229 255
210 229 255
210 229 255
210 229 255
210 229 255
210 229 255
210 229 255
210 229 255
210 229 255
210 229 255
210 229 255
209 229 255
209 229 255
209 229 255
209 229 255
209 229 255
209 229 255
209 229 255
209 229 255
209 229 255
209 229 255
209 229 255
209 229 255
209 229 255
209 229 255
209 229 255
209 229 255
209 229 255
209 229 255
209 229 255
209 228 255
209 228 255
208 228 255
208 228 255
208 228 255
208 228 255
208 228 255
208 228 255
208 228 255
208 228 255
208 228 255
208 228 255
208 228 255
208 228 255
208 228 255
208 228 255
208 228 255
208 228 255
208 228 255
208 228 255
208 228 255
207 228 255
207 228 255
207 228 255
207 228 255
207 228 255
207 228 255
207 228 255
207 228 255
207 228 255
207 228 255
207 228 255
207 228 255
207 228 255
207 227 255
207 227 255
207 227 255
207 227 255
206 227 255
206 227 255
206 227 255
206 227 255
206 227 255
206 227 255
206 227 255
206 227 255
206 227 255
206 227 255
206 227 255
206 227 255
206 227 255
206 227 255
206 227 255
206 227 255
206 227 255
206 227 255
205 227 255
205 227 255
205 227 255
205 227 255
205 227 255
205 227 255
205 227 255
205 227 255
205 227 255
205 227 255
205 226 255
205 226 255
205 226 255
205 226 255
205 226 255
205 226 255
205 226 255
204 226 255
204 226 255
204 226 255
204 226 255
204 226 255
204 226 255
204 226 255
204 226 255
204 226 255
204 226 255
204 226 255
204 226 255
204 226 255
204 226 255
204 226 255
204 226 255
204 226 255
204 226 255
204 226 255
203 226 255
203 226 255
203 226 255
203 226 255
203 226 255
203 226 255
203 226 255
203 226 255
203 226 255
203 226 255
203 225 255
203 225 255
203 225 255
203 225 255
203 225 255
203 225 255
203 225 255
203 225 255
203 225 255
203 225 255
203 225 255
203 225 255
203 225 255
203 225 255
203 225 255
202 225 255
202 225 255
202 225 255
202 225 255
202 225 255
202 225 255
202 225 255
202 225 255
202 225 255
202 225 255
202 225 255
202 225 255
196 218 248
181 201 229
151 168 191
128 142 162
103 115 130
61 67 77
6 6 7
6 6 7
6 6 8
6 6 7
6 6 7
6 6 7
6 6 7
5 6 7
6 6 7
6 6 7
6 6 7
6 6 7
6 6 7
6 6 7
6 6 7
35 39 45
83 93 105
90 101 114
137 153 173
155 173 196
168 187 212
197 219 249
202 225 255
202 225 255
202 225 255
202 225 255
202 225 255
202 225 255
202 225 255
202 225 255
202 225 255
202 225 255
202 225 255
202 225 255
203 225 255
203 225 255
203 225 255
203 225 255
203 225 255
203 225 255
203 225 255
203 225 255
203 225 255
203 225 255
203 225 255
203 225 255
203 225 255
203 225 255
203 225 255
203 226 255
203 226 255
203 226 255
203 226 255
203 226 255
203 226 255
203 226 255
203 226 255
203 226 255
203 226 255
204 226 255
204 226 255
204 226 255
204 226 255
204 226 255
204 226 255
204 226 255
204 226 255
204 226 255
204 226 255
204 226 255
204 226 255
204 226 255
204 226 255
204 226 255
204 226 255
204 226 255
204 226 255
204 226 255
205 226 255
205 226 255
205 226 255
205 226 255
205 226 255
205 226 255
205 226 255
205 227 255
205 227 255
205 227 255
205 227 255
205 227 255
205 227 255
205 227 255
205 227 255
205 227 255
205 227 255
206 227 255
206 227 255
206 227 255
206 227 255
206 227 255
206 227 255
206 227 255
206 227 255
206 227 255
206 227 255
206 227 255
206 227 255
206 227 255
206 227 255
206 227 255
206 227 255
206 227 255
206 227 255
207 227 255
207 227 255
207 227 255
207 227 255
207 228 255
207 228 255
207 228 255
207 228 255
207 228 255
207 228 255
207 228 255
207 228 255
207 228 255
207 228 255
207 228 255
207 228 255
207 228 255
208 228 255
208 228 255
208 228 255
208 228 255
208 228 255
208 228 255
208 228 255
208 228 255
208 228 255
208 228 255
208 228 255
208 228 255
208 228 255
208 228 255
208 228 255
208 228 255
208 228 255
208 228 255
208 228 255
209 228 255
209 228 255
209 229 255
209 229 255
209 229 255
209 229 255
209 229 255
209 229 255
209 229 255
209 229 255
209 229 255
209 229 255
209 229 255
209 229 255
209 229 255
209 229 255
209 229 255
209 229 255
209 229 255
209 229 255
209 229 255
210 229 255
210 229 255
210 229 255
210 229 255
210 229 255
210 229 255
210 229 255
210 229 255
210 229 255
210 229 255
210 229 255
210 229 255
210 229 255
210 229 255
210 229 255
210 229 255
210 229 255
210 229 255
210 229 255
210 229 255
210 229 255
210 230 255
210 230 255
210 230 255
211 230 255
211 230 255
211 230 255
211 230 255
211 230 255
211 230 255
211 230 255
211 230 255
211 230 255
211 230 255
211 230 255
211 230 255
211 230 255
211 230 255
211 230 255
211 230 255
211 230 255
211 230 255
211 230 255
211 230 255
211 230 255
211 230 255
211 230 255
211 230 255
211 230 255
211 230 255
211 230 255
211 230 255
211 230 255
211 230 255
211 230 255
211 230 255
210 230 255
210 230 255
210 230 255
210 229 255
210 229 255
210 229 255
210 229 255
210 229 255
210 229 255
210 229 255
210 229 255
210 229 255
210 229 255
210 229 255
210 229 255
210 229 255
210 229 255
210 229 255
210 229 255
210 229 255
210 229 255
210 229 255
210 229 255
209 229 255
209 229 255
209 229 255
209 229 255
209 229 255
209 229 255
209 229 255
209 229 255
209 229 255
209 229 255
209 229 255
209 229 255
209 229 255
209 229 255
209 229 255
209 229 255
209 229 255
209 229 255
209 229 255
209 229 255
209 228 255
208 228 255
208 228 255
208 228 255
208 228 255
208 228 255
208 228 255
208 228 255
208 228 255
208 228 255
208 228 255
208 228 255
208 228 255
208 228 255
208 228 255
208 228 255
208 228 255
208 228 255
208 228 255
208 228 255
207 228 255
207 228 255
207 228 255
207 228 255
207 228 255
207 228 255
207 228 255
207 228 255
207 228 255
207 228 255
207 228 255
207 228 255
207 228 255
207 228 255
207 227 255
207 227 255
207 227 255
207 227 255
206 227 255
206 227 255
206 227 255
206 227 255
206 227 255
206 227 255
206 227 255
206 227 255
206 227 255
206 227 255
206 227 255
206 227 255
206 227 255
206 227 255
206 227 255
206 227 255
206 227 255
206 227 255
205 227 255
205 227 255
205 227 255
205 227 255
205 227 255
205 227 255
205 227 255
205 227 255
205 227 255
205 227 255
205 226 255
205 226 255
205 226 255
205 226 255
205 226 255
205 226 255
205 226 255
204 226 255
204 226 255
204 226 255
204 226 255
204 226 255
204 226 255
204 226 255
204 226 255
204 226 255
204 226 255
204 226 255
204 226 255
204 226 255
204 226 255
204 226 255
204 226 255
204 226 255
204 226 255
204 226 255
204 226 255
203 226 255
203 226 255
203 226 255
203 226 255
203 226 255
203 226 255
203 226 255
203 226 255
203 226 255
203 226 255
203 225 255
203 225 255
203 225 255
203 225 255
203 225 255
203 225 255
203 225 255
203 225 255
203 225 255
203 225 255
203 225 255
203 225 255
203 225 255
203 225 255
203 225 255
203 225 255
203 225 255
203 225 255
198 221 250
162 180 204
128 142 162
93 103 117
29 32 37
6 6 7
6 6 7
6 6 7
6 6 7
6 6 7
5 6 7
6 6 7
6 6 7
6 6 7
6 6 7
5 6 7
6 6 7
6 6 7
6 6 7
6 6 7
6 6 7
6 6 7
6 6 7
6 6 7
5 6 7
6 6 7
6 6 7
6 6 7
6 6 7
6 6 7
6 6 7
21 23 26
88 98 111
133 148 167
163 181 206
197 219 249
203 225 255
203 225 255
203 225 255
203 225 255
203 225 255
203 225 255
203 225 255
203 225 255
203 225 255
203 225 255
203 225 255
203 225 255
203 225 255
203 225 255
203 225 255
203 225 255
203 225 255
203 225 255
203 226 255
203 226 255
203 226 255
203 226 255
203 226 255
203 226 255
203 226 255
203 226 255
203 226 255
203 226 255
204 226 255
204 226 255
204 226 255
204 226 255
204 226 255
204 226 255
204 226 255
204 226 255
204 226 255
204 226 255
204 226 255
204 226 255
204 226 255
204 226 255
204 226 255
204 226 255
204 226 255
204 226 255
204 226 255
204 226 255
205 226 255
205 226 255
205 226 255
205 226 255
205 226 255
205 226 255
205 226 255
205 227 255
205 227 255
205 227 255
205 227 255
205 227 255
205 227 255
205 227 255
205 227 255
205 227 255
205 227 255
205 227 255
206 227 255
206 227 255
206 227 255
206 227 255
206 227 255
206 227 255
206 227 255
206 227 255
206 227 255
206 227 255
206 227 255
206 227 255
206 227 255
206 227 255
206 227 255
206 227 255
206 227 255
207 227 255
207 227 255
207 227 255
207 227 255
207 228 255
207 228 255
207 228 255
207 228 255
207 228 255
207 228 255
207 228 255
207 228 255
207 228 255
207 228 255
207 228 255
207 228 255
207 228 255
207 228 255
208 228 255
208 228 255
208 228 255
208 228 255
208 228 255
208 228 255
208 228 255
208 228 255
208 228 255
208 228 255
208 228 255
208 228 255
208 228 255
208 228 255
208 228 255
208 228 255
208 228 255
208 228 255
208 228 255
209 228 255
209 229 255
209 229 255
209 229 255
209 229 255
209 229 255
209 229 255
209 229 255
209 229 255
209 229 255
209 229 255
209 229 255
209 229 255
209 229 255
209 229 255
209 229 255
209 229 255
209 229 255
209 229 255
209 229 255
210 229 255
210 229 255
210 229 255
210 229 255
210 229 255
210 229 255
210 229 255
210 229 255
210 229 255
210 229 255
210 229 255
210 229 255
210 229 255
210 229 255
210 229 255
210 229 255
210 229 255
210 229 255
210 229 255
210 229 255
210 229 255
210 230 255
210 230 255
210 230 255
211 230 255
211 230 255
211 230 255
211 230 255
211 230 255
211 230 255
211 230 255
211 230 255
211 230 255
211 230 255
211 230 255
211 230 255
211 230 255
211 230 255
211 230 255
211 230 255
211 230 255
211 230 255
211 230 255
211 230 255
211 230 255
211 230 255
211 230 255
211 230 255
211 230 255
211 230 255
211 230 255
211 230 255
211 230 255
211 230 255
211 230 255
211 230 255
211 230 255
211 230 255
211 230 255
211 230 255
211 230 255
211 230 255
211 230 255
211 230 255
210 230 255
210 230 255
210 230 255
210 229 255
210 229 255
210 229 255
210 229 255
210 229 255
210 229 255
210 229 255
210 229 255
210 229 255
210 229 255
210 229 255
210 229 255
210 229 255
210 229 255
210 229 255
210 229 255
210 229 255
210 229 255
210 229 255
210 229 255
209 229 255
209 229 255
209 229 255
209 229 255
209 229 255
209 229 255
209 229 255
209 229 255
209 229 255
209 229 255
209 229 255
209 229 255
209 229 255
209 229 255
209 229 255
209 229 255
209 229 255
209 229 255
209 229 255
209 228 255
209 228 255
208 228 255
208 228 255
208 228 255
208 228 255
208 228 255
208 228 255
208 228 255
208 228 255
208 228 255
208 228 255
208 228 255
208 228 255
208 228 255
208 228 255
208 228 255
208 228 255
208 228 255
208 228 255
208 228 255
207 228 255
207 228 255
207 228 255
207 228 255
207 228 255
207 228 255
207 228 255
207 228 255
207 228 255
207 228 255
207 228 255
207 228 255
207 228 255
207 227 255
207 227 255
207 227 255
207 227 255
207 227 255
206 227 255
206 227 255
206 227 255
206 227 255
206 227 255
206 227 255
206 227 255
206 227 255
206 227 255
206 227 255
206 227 255
206 227 255
206 227 255
206 227 255
206 227 255
206 227 255
206 227 255
205 227 255
205 227 255
205 227 255
205 227 255
205 227 255
205 227 255
205 227 255
205 227 255
205 227 255
205 227 255
205 227 255
205 226 255
205 226 255
205 226 255
205 226 255
205 226 255
205 226 255
205 226 255
204 226 255
204 226 255
204 226 255
204 226 255
204 226 255
204 226 255
204 226 255
204 226 255
204 226 255
204 226 255
204 226 255
204 226 255
204 226 255
204 226 255
204 226 255
204 226 255
204 226 255
204 226 255
204 226 255
204 226 255
204 226 255
203 226 255
203 226 255
203 226 255
203 226 255
203 226 255
203 226 255
203 226 255
203 226 255
203 226 255
203 226 255
203 226 255
203 226 255
203 225 255
203 225 255
203 225 255
203 225 255
203 225 255
203 225 255
203 225 255
203 225 255
191 213 241
140 156 177
109 121 138
29 32 37
6 6 7
6 6 7
6 6 7
6 6 7
6 6 7
6 6 7
6 6 7
6 6 7
6 6 7
6 6 7
6 6 7
5 6 7
6 6 7
6 6 7
5 6 7
5 6 7
6 6 7
6 6 7
6 6 7
6 6 7
5 6 7
6 6 7
5 6 7
6 6 7
6 6 7
6 6 7
6 6 7
6 6 7
6 6 7
5 6 7
6 6 7
5 6 7
5 6 7
6 6 7
29 32 37
86 96 108
142 158 179
187 208 236
203 225 255
203 225 255
203 225 255
203 225 255
203 225 255
203 225 255
203 225 255
203 225 255
203 226 255
203 226 255
203 226 255
203 226 255
203 226 255
203 226 255
203 226 255
203 226 255
203 226 255
203 226 255
203 226 255
203 226 255
204 226 255
204 226 255
204 226 255
204 226 255
204 226 255
204 226 255
204 226 255
204 226 255
204 226 255
204 226 255
204 226 255
204 226 255
204 226 255
204 226 255
204 226 255
204 226 255
204 226 255
204 226 255
204 226 255
204 226 255
204 226 255
205 226 255
205 226 255
205 226 255
205 226 255
205 226 255
205 226 255
205 226 255
205 227 255
205 227 255
205 227 255
205 227 255
205 227 255
205 227 255
205 227 255
205 227 255
205 227 255
205 227 255
205 227 255
206 227 255
206 227 255
206 227 255
206 227 255
206 227 255
206 227 255
206 227 255
206 227 255
206 227 255
206 227 255
206 227 255
206 227 255
206 227 255
206 227 255
206 227 255
206 227 255
206 227 255
207 227 255
207 227 255
207 227 255
207 227 255
207 228 255
207 228 255
207 228 255
207 228 255
207 228 255
207 228 255
207 228 255
207 228 255
207 228 255
207 228 255
207 228 255
207 228 255
207 228 255
207 228 255
208 228 255
208 228 255
208 228 255
208 228 255
208 228 255
208 228 255
208 228 255
208 228 255
208 228 255
208 228 255
208 228 255
208 228 255
208 228 255
208 228 255
208 228 255
208 228 255
208 228 255
208 228 255
208 228 255
209 228 255
209 229 255
209 229 255
209 229 255
209 229 255
209 229 255
209 229 255
209 229 255
209 229 255
209 229 255
209 229 255
209 229 255
209 229 255
209 229 255
209 229 255
209 229 255
209 229 255
209 229 255
209 229 255
209 229 255
209 229 255
210 229 255
210 229 255
210 229 255
210 229 255
210 229 255
210 229 255
210 229 255
210 229 255
210 229 255
210 229 255
210 229 255
210 229 255
210 229 255
210 229 255
210 229 255
210 229 255
210 229 255
210 229 255
210 229 255
210 229 255
210 230 255
210 230 255
210 230 255
211 230 255
211 230 255
211 230 255
211 230 255
211 230 255
211 230 255
211 230 255
211 230 255
211 230 255
211 230 255
211 230 255
211 230 255
211 230 255
211 230 255
211 230 255
211 230 255
211 230 255
211 230 255
211 230 255
211 230 255
211 230 255
211 230 255
211 230 255
211 230 255
211 230 255
211 230 255
211 230 255
211 230 255
211 230 255
211 230 255
211 230 255
211 230 255
211 230 255
211 230 255
211 230 255
211 230 255
211 230 255
211 230 255
211 230 255
211 230 255
211 230 255
211 230 255
211 230 255
211 230 255
211 230 255
211 230 255
211 230 255
211 230 255
210 230 255
210 230 255
210 230 255
210 229 255
210 229 255
210 229 255
210 229 255
210 229 255
210 229 255
210 229 255
210 229 255
210 229 255
210 229 255
210 229 255
210 229 255
210 229 255
210 229 255
210 229 255
210 229 255
210 229 255
210 229 255
210 229 255
210 229 255
209 229 255
209 229 255
209 229 255
209 229 255
209 229 255
209 229 255
209 229 255
209 229 255
209 229 255
209 229 255
209 229 255
209 229 255
209 229 255
209 229 255
209 229 255
209 229 255
209 229 255
209 229 255
209 229 255
209 228 255
209 228 255
208 228 255
208 228 255
208 228 255
208 228 255
208 228 255
208 228 255
208 228 255
208 228 255
208 228 255
208 228 255
208 228 255
208 228 255
208 228 255
208 228 255
208 228 255
208 228 255
208 228 255
208 228 255
207 228 255
207 228 255
207 228 255
207 228 255
207 228 255
207 228 255
207 228 255
207 228 255
207 228 255
207 228 255
207 228 255
207 228 255
207 228 255
207 228 255
207 227 255
207 227 255
207 227 255
207 227 255
206 227 255
206 227 255
206 227 255
206 227 255
206 227 255
206 227 255
206 227 255
206 227 255
206 227 255
206 227 255
206 227 255
206 227 255
206 227 255
206 227 255
206 227 255
206 227 255
206 227 255
206 227 255
205 227 255
205 227 255
205 227 255
205 227 255
205 227 255
205 227 255
205 227 255
205 227 255
205 227 255
205 227 255
205 227 255
205 226 255
205 226 255
205 226 255
205 226 255
205 226 255
205 226 255
205 226 255
205 226 255
204 226 255
204 226 255
204 226 255
204 226 255
204 226 255
204 226 255
204 226 255
204 226 255
204 226 255
204 226 255
204 226 255
204 226 255
204 226 255
204 226 255
204 226 255
204 226 255
204 226 255
204 226 255
204 226 255
204 226 255
204 226 255
204 226 255
203 226 255
203 226 255
203 226 255
203 226 255
203 226 255
203 226 255
203 226 255
203 226 255
203 226 255
203 226 255
203 226 255
195 216 245
146 163 184
101 113 128
6 6 7
6 6 7
6 6 7
6 6 7
6 6 7
6 6 7
6 6 7
6 6 7
5 6 7
5 6 7
5 6 7
6 6 7
6 6 7
6 6 7
6 6 7
5 6 7
5 6 7
6 6 7
6 6 7
5 6 7
5 6 7
6 6 7
6 6 7
6 6 7
6 6 7
6 6 7
5 6 7
5 6 7
6 6 7
5 6 7
6 6 7
6 6 7
6 6 7
6 6 7
5 6 7
5 6 7
6 6 7
6 6 7
5 6 7
6 6 7
6 6 7
21 23 26
84 93 105
148 164 186
195 216 245
203 226 255
203 226 255
203 226 255
203 226 255
203 226 255
203 226 255
203 226 255
203 226 255
203 226 255
203 226 255
203 226 255
204 226 255
204 226 255
204 226 255
204 226 255
204 226 255
204 226 255
204 226 255
204 226 255
204 226 255
204 226 255
204 226 255
204 226 255
204 226 255
204 226 255
204 226 255
204 226 255
204 226 255
204 226 255
204 226 255
204 226 255
204 226 255
204 226 255
205 226 255
205 226 255
205 226 255
205 226 255
205 226 255
205 226 255
205 226 255
205 226 255
205 227 255
205 227 255
205 227 255
205 227 255
205 227 255
205 227 255
205 227 255
205 227 255
205 227 255
205 227 255
205 227 255
206 227 255
206 227 255
206 227 255
206 227 255
206 227 255
206 227 255
206 227 255
206 227 255
206 227 255
206 227 255
206 227 255
206 227 255
206 227 255
206 227 255
206 227 255
206 227 255
206 227 255
206 227 255
207 227 255
207 227 255
207 227 255
207 227 255
207 228 255
207 228 255
207 228 255
207 228 255
207 228 255
207 228 255
207 228 255
207 228 255
207 228 255
207 228 255
207 228 255
207 228 255
207 228 255
207 228 255
208 228 255
208 228 255
208 228 255
208 228 255
208 228 255
208 228 255
208 228 255
208 228 255
208 228 255
208 228 255
208 228 255
208 228 255
208 228 255
208 228 255
208 228 255
208 228 255
208 228 255
208 228 255
209 228 255
209 228 255
209 229 255
209 229 255
209 229 255
209 229 255
209 229 255
209 229 255
209 229 255
209 229 255
209 229 255
209 229 255
209 229 255
209 229 255
209 229 255
209 229 255
209 229 255
209 229 255
209 229 255
209 229 255
209 229 255
210 229 255
210 229 255
210 229 255
210 229 255
210 229 255
210 229 255
210 229 255
210 229 255
210 229 255
210 229 255
210 229 255
210 229 255
210 229 255
210 229 255
210 229 255
210 229 255
210 229 255
210 229 255
210 229 255
210 229 255
210 230 255
210 230 255
210 230 255
211 230 255
211 230 255
211 230 255
211 230 255
211 230 255
211 230 255
211 230 255
211 230 255
211 230 255
211 230 255
211 230 255
211 230 255
211 230 255
211 230 255
211 230 255
211 230 255
211 230 255
211 230 255
211 230 255
211 230 255
211 230 255
211 230 255
211 230 255
211 230 255
211 230 255
211 230 255
212 230 255
212 230 255
212 230 255
212 230 255
211 230 255
211 230 255
211 230 255
211 230 255
211 230 255
211 230 255
211 230 255
211 230 255
211 230 255
211 230 255
211 230 255
211 230 255
211 230 255
211 230 255
211 230 255
211 230 255
211 230 255
211 230 255
211 230 255
211 230 255
211 230 255
211 230 255
211 230 255
211 230 255
211 230 255
211 230 255
210 230 255
210 230 255
210 230 255
210 229 255
210 229 255
210 229 255
210 229 255
210 229 255
210 229 255
210 229 255
210 229 255
210 229 255
210 229 255
210 229 255
210 229 255
210 229 255
210 229 255
210 229 255
210 229 255
210 229 255
210 229 255
210 229 255
210 229 255
209 229 255
209 229 255
209 229 255
209 229 255
209 229 255
209 229 255
209 229 255
209 229 255
209 229 255
209 229 255
209 229 255
209 229 255
209 229 255
209 229 255
209 229 255
209 229 255
209 229 255
209 229 255
209 229 255
209 228 255
208 228 255
208 228 255
208 228 255
208 228 255
208 228 255
208 228 255
208 228 255
208 228 255
208 228 255
208 228 255
208 228 255
208 228 255
208 228 255
208 228 255
208 228 255
208 228 255
208 228 255
208 228 255
208 228 255
207 228 255
207 228 255
207 228 255
207 228 255
207 228 255
207 228 255
207 228 255
207 228 255
207 228 255
207 228 255
207 228 255
207 228 255
207 228 255
207 228 255
207 227 255
207 227 255
207 227 255
207 227 255
206 227 255
206 227 255
206 227 255
206 227 255
206 227 255
206 227 255
206 227 255
206 227 255
206 227 255
206 227 255
206 227 255
206 227 255
206 227 255
206 227 255
206 227 255
206 227 255
206 227 255
206 227 255
205 227 255
205 227 255
205 227 255
205 227 255
205 227 255
205 227 255
205 227 255
205 227 255
205 227 255
205 227 255
205 227 255
205 226 255
205 226 255
205 226 255
205 226 255
205 226 255
205 226 255
205 226 255
205 226 255
204 226 255
204 226 255
204 226 255
204 226 255
204 226 255
204 226 255
204 226 255
204 226 255
204 226 255
204 226 255
204 226 255
204 226 255
204 226 255
204 226 255
204 226 255
204 226 255
204 226 255
204 226 255
204 226 255
204 226 255
204 226 255
204 226 255
204 226 255
204 226 255
204 226 255
203 226 255
202 225 254
178 198 224
115 128 144
29 32 37
5 6 7
5 6 7
6 6 7
6 6 7
6 6 7
6 6 7
6 6 7
6 6 7
5 6 7
6 6 7
6 6 7
5 6 7
6 6 7
6 6 7
6 6 7
5 6 7
6 6 7
6 6 7
5 6 7
5 6 7
6 6 7
6 6 7
6 6 7
5 6 7
5 6 7
5 6 7
6 6 7
6 6 7
6 6 7
5 6 7
6 6 7
5 6 7
6 6 7
5 6 7
6 6 7
5 6 7
6 6 7
5 6 7
5 6 7
6 6 7
6 6 7
6 6 7
6 6 7
6 6 7
5 6 7
6 6 7
35 39 45
124 137 155
181 201 227
203 226 255
204 226 255
204 226 255
204 226 255
204 226 255
204 226 255
204 226 255
204 226 255
204 226 255
204 226 255
204 226 255
204 226 255
204 226 255
204 226 255
204 226 255
204 226 255
204 226 255
204 226 255
204 226 255
204 226 255
204 226 255
204 226 255
204 226 255
204 226 255
204 226 255
204 226 255
204 226 255
205 226 255
205 226 255
205 226 255
205 226 255
205 226 255
205 226 255
205 226 255
205 226 255
205 227 255
205 227 255
205 227 255
205 227 255
205 227 255
205 227 255
205 227 255
205 227 255
205 227 255
205 227 255
205 227 255
206 227 255
206 227 255
206 227 255
206 227 255
206 227 255
206 227 255
206 227 255
206 227 255
206 227 255
206 227 255
206 227 255
206 227 255
206 227 255
206 227 255
206 227 255
206 227 255
206 227 255
206 227 255
207 227 255
207 227 255
207 227 255
207 227 255
207 228 255
207 228 255
207 228 255
207 228 255
207 228 255
207 228 255
207 228 255
207 228 255
207 228 255
207 228 255
207 228 255
207 228 255
207 228 255
207 228 255
208 228 255
208 228 255
208 228 255
208 228 255
208 228 255
208 228 255
208 228 255
208 228 255
208 228 255
208 228 255
208 228 255
208 228 255
208 228 255
208 228 255
208 228 255
208 228 255
208 228 255
208 228 255
208 228 255
209 228 255
209 229 255
209 229 255
209 229 255
209 229 255
209 229 255
209 229 255
209 229 255
209 229 255
209 229 255
209 229 255
209 229 255
209 229 255
209 229 255
209 229 255
209 229 255
209 229 255
209 229 255
209 229 255
209 229 255
210 229 255
210 229 255
210 229 255
210 229 255
210 229 255
210 229 255
210 229 255
210 229 255
210 229 255
210 229 255
210 229 255
210 229 255
210 229 255
210 229 255
210 229 255
210 229 255
210 229 255
210 229 255
210 229 255
210 229 255
210 230 255
210 230 255
210 230 255
211 230 255
211 230 255
211 230 255
211 230 255
211 230 255
211 230 255
211 230 255
211 230 255
211 230 255
211 230 255
211 230 255
211 230 255
211 230 255
211 230 255
211 230 255
211 230 255
211 230 255
211 230 255
211 230 255
211 230 255
211 230 255
211 230 255
211 230 255
211 230 255
211 230 255
211 230 255
212 230 255
212 230 255
212 230 255
212 230 255
212 230 255
212 230 255
212 230 255
212 230 255
212 230 255
212 230 255
212 230 255
212 230 255
211 230 255
211 230 255
211 230 255
211 230 255
211 230 255
211 230 255
211 230 255
211 230 255
211 230 255
211 230 255
211 230 255
211 230 255
211 230 255
211 230 255
211 230 255
211 230 255
211 230 255
211 230 255
211 230 255
211 230 255
211 230 255
211 230 255
211 230 255
211 230 255
211 230 255
211 230 255
210 230 255
210 230 255
210 230 255
210 229 255
210 229 255
210 229 255
210 229 255
210 229 255
210 229 255
210 229 255
210 229 255
210 229 255
210 229 255
210 229 255
210 229 255
210 229 255
210 229 255
210 229 255
210 229 255
210 229 255
210 229 255
210 229 255
210 229 255
209 229 255
209 229 255
209 229 255
209 229 255
209 229 255
209 229 255
209 229 255
209 229 255
209 229 255
209 229 255
209 229 255
209 229 255
209 229 255
209 229 255
209 229 255
209 229 255
209 229 255
209 229 255
209 229 255
209 228 255
208 228 255
208 228 255
208 228 255
208 228 255
208 228 255
208 228 255
208 228 255
208 228 255
208 228 255
208 228 255
208 228 255
208 228 255
208 228 255
208 228 255
208 228 255
208 228 255
208 228 255
208 228 255
208 228 255
207 228 255
207 228 255
207 228 255
207 228 255
207 228 255
207 228 255
207 228 255
207 228 255
207 228 255
207 228 255
207 228 255
207 228 255
207 228 255
207 228 255
207 227 255
207 227 255
207 227 255
207 227 255
206 227 255
206 227 255
206 227 255
206 227 255
206 227 255
206 227 255
206 227 255
206 227 255
206 227 255
206 227 255
206 227 255
206 227 255
206 227 255
206 227 255
206 227 255
206 227 255
206 227 255
206 227 255
205 227 255
205 227 255
205 227 255
205 227 255
205 227 255
205 227 255
205 227 255
205 227 255
205 227 255
205 227 255
205 227 255
205 227 255
205 226 255
205 226 255
205 226 255
205 226 255
205 226 255
205 226 255
205 226 255
205 226 255
204 226 255
204 226 255
204 226 255
204 226 255
204 226 255
204 226 255
204 226 255
204 226 255
204 226 255
204 226 255
204 226 255
204 226 255
204 226 255
204 226 255
204 226 255
204 226 255
204 226 255
204 226 255
204 226 255
202 224 253
154 170 193
102 113 128
6 6 7
6 6 7
5 6 7
6 6 7
5 6 7
6 6 7
5 6 7
6 6 7
6 6 7
6 6 7
6 6 7
5 6 7
5 6 7
6 6 7
5 6 7
5 6 7
5 6 7
5 6 7
5 6 7
6 6 7
5 6 7
5 6 7
6 6 7
6 6 7
6 6 7
5 6 7
5 6 7
5 6 7
5 6 7
5 6 7
5 6 7
5 6 7
5 6 7
6 6 7
6 6 7
5 6 7
5 6 7
5 6 7
6 6 7
5 6 7
6 6 7
6 6 7
5 6 7
5 6 7
6 6 7
5 6 7
5 6 7
6 6 7
5 6 7
6 6 7
6 6 7
6 6 7
106 117 133
169 188 212
204 226 255
204 226 255
204 226 255
204 226 255
204 226 255
204 226 255
204 226 255
204 226 255
204 226 255
204 226 255
204 226 255
204 226 255
204 226 255
204 226 255
204 226 255
204 226 255
204 226 255
204 226 255
204 226 255
204 226 255
205 226 255
205 226 255
205 226 255
205 226 255
205 226 255
205 226 255
205 226 255
205 226 255
205 227 255
205 227 255
205 227 255
205 227 255
205 227 255
205 227 255
205 227 255
205 227 255
205 227 255
205 227 255
205 227 255
205 227 255
206 227 255
206 227 255
206 227 255
206 227 255
206 227 255
206 227 255
206 227 255
206 227 255
206 227 255
206 227 255
206 227 255
206 227 255
206 227 255
206 227 255
206 227 255
206 227 255
206 227 255
206 227 255
207 227 255
207 227 255
207 227 255
207 227 255
207 228 255
207 228 255
207 228 255
207 228 255
207 228 255
207 228 255
207 228 255
207 228 255
207 228 255
207 228 255
207 228 255
207 228 255
207 228 255
207 228 255
208 228 255
208 228 255
208 228 255
208 228 255
208 228 255
208 228 255
208 228 255
208 228 255
208 228 255
208 228 255
208 228 255
208 228 255
208 228 255
208 228 255
208 228 255
208 228 255
208 228 255
208 228 255
208 228 255
209 228 255
209 229 255
209 229 255
209 229 255
209 229 255
209 229 255
209 229 255
209 229 255
209 229 255
209 229 255
209 229 255
209 229 255
209 229 255
209 229 255
209 229 255
209 229 255
209 229 255
209 229 255
209 229 255
209 229 255
210 229 255
210 229 255
210 229 255
210 229 255
210 229 255
210 229 255
210 229 255
210 229 255
210 229 255
210 229 255
210 229 255
210 229 255
210 229 255
210 229 255
210 229 255
210 229 255
210 229 255
210 229 255
210 229 255
210 229 255
210 230 255
210 230 255
210 230 255
211 230 255
211 230 255
211 230 255
211 230 255
211 230 255
211 230 255
211 230 255
211 230 255
211 230 255
211 230 255
211 230 255
211 230 255
211 230 255
211 230 255
211 230 255
211 230 255
211 230 255
211 230 255
211 230 255
211 230 255
211 230 255
211 230 255
211 230 255
211 230 255
211 230 255
212 230 255
212 230 255
212 230 255
212 230 255
212 230 255
212 230 255
212 230 255
212 230 255
212 230 255
212 230 255
212 230 255
212 230 255
212 230 255
212 230 255
212 230 255
212 230 255
212 230 255
212 230 255
212 230 255
212 230 255
212 230 255
212 230 255
211 230 255
211 230 255
211 230 255
211 230 255
211 230 255
211 230 255
211 230 255
211 230 255
211 230 255
211 230 255
211 230 255
211 230 255
211 230 255
211 230 255
211 230 255
211 230 255
211 230 255
211 230 255
211 230 255
211 230 255
211 230 255
211 230 255
211 230 255
211 230 255
211 230 255
210 230 255
210 230 255
210 230 255
210 229 255
210 229 255
210 229 255
210 229 255
210 229 255
210 229 255
210 229 255
210 229 255
210 229 255
210 229 255
210 229 255
210 229 255
210 229 255
210 229 255
210 229 255
210 229 255
210 229 255
210 229 255
210 229 255
210 229 255
209 229 255
209 229 255
209 229 255
209 229 255
209 229 255
209 229 255
209 229 255
209 229 255
209 229 255
209 229 255
209 229 255
209 229 255
209 229 255
209 229 255
209 229 255
209 229 255
209 229 255
209 229 255
209 229 255
209 228 255
208 228 255
208 228 255
208 228 255
208 228 255
208 228 255
208 228 255
208 228 255
208 228 255
208 228 255
208 228 255
208 228 255
208 228 255
208 228 255
208 228 255
208 228 255
208 228 255
208 228 255
208 228 255
208 228 255
207 228 255
207 228 255
207 228 255
207 228 255
207 228 255
207 228 255
207 228 255
207 228 255
207 228 255
207 228 255
207 228 255
207 228 255
207 228 255
207 228 255
207 227 255
207 227 255
207 227 255
207 227 255
206 227 255
206 227 255
206 227 255
206 227 255
206 227 255
206 227 255
206 227 255
206 227 255
206 227 255
206 227 255
206 227 255
206 227 255
206 227 255
206 227 255
206 227 255
206 227 255
206 227 255
206 227 255
206 227 255
205 227 255
205 227 255
205 227 255
205 227 255
205 227 255
205 227 255
205 227 255
205 227 255
205 227 255
205 227 255
205 227 255
205 227 255
205 226 255
205 226 255
205 226 255
205 226 255
205 226 255
205 226 255
205 226 255
205 226 255
205 226 255
204 226 255
204 226 255
204 226 255
204 226 255
204 226 255
204 226 255
204 226 255
204 226 255
204 226 255
204 226 255
204 226 255
202 224 253
153 169 191
76 84 96
6 6 7
5 6 7
6 6 7
5 6 7
6 6 7
5 6 7
5 6 7
6 6 7
6 6 7
5 6 7
6 6 7
5 6 7
5 6 7
6 6 7
6 6 7
6 6 7
5 6 7
6 6 7
5 6 7
5 6 7
5 6 7
5 6 7
5 6 7
5 6 7
5 6 7
6 6 7
5 6 7
6 6 7
5 6 7
5 6 7
6 6 7
5 6 7
5 6 7
5 6 7
5 6 7
5 6 7
5 6 7
6 6 7
5 6 7
6 6 7
5 6 7
6 6 7
6 6 7
6 6 7
6 6 7
5 6 7
6 6 7
5 6 7
5 6 7
5 6 7
6 6 7
6 6 7
6 6 7
6 6 7
5 6 7
5 6 7
81 90 102
161 178 201
203 225 254
204 226 255
204 226 255
204 226 255
204 226 255
204 226 255
204 226 255
204 226 255
204 226 255
204 226 255
204 226 255
204 226 255
205 226 255
205 226 255
205 226 255
205 226 255
205 226 255
205 226 255
205 226 255
205 226 255
205 226 255
205 227 255
205 227 255
205 227 255
205 227 255
205 227 255
205 227 255
205 227 255
205 227 255
205 227 255
205 227 255
205 227 255
205 227 255
206 227 255
206 227 255
206 227 255
206 227 255
206 227 255
206 227 255
206 227 255
206 227 255
206 227 255
206 227 255
206 227 255
206 227 255
206 227 255
206 227 255
206 227 255
206 227 255
206 227 255
206 227 255
206 227 255
207 227 255
207 227 255
207 227 255
207 227 255
207 227 255
207 228 255
207 228 255
207 228 255
207 228 255
207 228 255
207 228 255
207 228 255
207 228 255
207 228 255
207 228 255
207 228 255
207 228 255
207 228 255
208 228 255
208 228 255
208 228 255
208 228 255
208 228 255
208 228 255
208 228 255
208 228 255
208 228 255
208 228 255
208 228 255
208 228 255
208 228 255
208 228 255
208 228 255
208 228 255
208 228 255
208 228 255
208 228 255
209 228 255
209 229 255
209 229 255
209 229 255
209 229 255
209 229 255
209 229 255
209 229 255
209 229 255
209 229 255
209 229 255
209 229 255
209 229 255
209 229 255
209 229 255
209 229 255
209 229 255
209 229 255
209 229 255
209 229 255
210 229 255
210 229 255
210 229 255
210 229 255
210 229 255
210 229 255
210 229 255
210 229 255
210 229 255
210 229 255
210 229 255
210 229 255
210 229 255
210 229 255
210 229 255
210 229 255
210 229 255
210 229 255
210 229 255
210 229 255
210 230 255
210 230 255
211 230 255
211 230 255
211 230 255
211 230 255
211 230 255
211 230 255
211 230 255
211 230 255
211 230 255
211 230 255
211 230 255
211 230 255
211 230 255
211 230 255
211 230 255
211 230 255
211 230 255
211 230 255
211 230 255
211 230 255
211 230 255
211 230 255
211 230 255
211 230 255
211 230 255
211 230 255
212 230 255
212 230 255
212 230 255
212 230 255
212 230 255
212 230 255
212 230 255
212 230 255
212 230 255
212 230 255
212 230 255
212 230 255
212 230 255
212 230 255
212 230 255
212 230 255
212 230 255
212 230 255
212 230 255
212 230 255
212 230 255
212 230 255
212 230 255
212 230 255
212 230 255
212 230 255
212 230 255
212 230 255
212 230 255
212 230 255
211 230 255
211 230 255
211 230 255
211 230 255
211 230 255
211 230 255
211 230 255
211 230 255
211 230 255
211 230 255
211 230 255
211 230 255
211 230 255
211 230 255
211 230 255
211 230 255
211 230 255
211 230 255
211 230 255
211 230 255
211 230 255
211 230 255
211 230 255
211 230 255
211 230 255
211 230 255
210 230 255
210 230 255
210 229 255
210 229 255
210 229 255
210 229 255
210 229 255
210 229 255
210 229 255
210 229 255
210 229 255
210 229 255
210 229 255
210 229 255
210 229 255
210 229 255
210 229 255
210 229 255
210 229 255
210 229 255
210 229 255
210 229 255
209 229 255
209 229 255
209 229 255
209 229 255
209 229 255
209 229 255
209 229 255
209 229 255
209 229 255
209 229 255
209 229 255
209 229 255
209 229 255
209 229 255
209 229 255
209 229 255
209 229 255
209 229 255
209 228 255
209 228 255
208 228 255
208 228 255
208 228 255
208 228 255
208 228 255
208 228 255
208 228 255
208 228 255
208 228 255
208 228 255
208 228 255
208 228 255
208 228 255
208 228 255
208 228 255
208 228 255
208 228 255
208 228 255
208 228 255
207 228 255
207 228 255
207 228 255
207 228 255
207 228 255
207 228 255
207 228 255
207 228 255
207 228 255
207 228 255
207 228 255
207 228 255
207 228 255
207 228 255
207 227 255
207 227 255
207 227 255
207 227 255
206 227 255
206 227 255
206 227 255
206 227 255
206 227 255
206 227 255
206 227 255
206 227 255
206 227 255
206 227 255
206 227 255
206 227 255
206 227 255
206 227 255
206 227 255
206 227 255
206 227 255
206 227 255
206 227 255
205 227 255
205 227 255
205 227 255
205 227 255
205 227 255
205 227 255
205 227 255
205 227 255
205 227 255
205 227 255
205 227 255
205 227 255
205 227 255
205 226 255
205 226 255
205 226 255
205 226 255
205 226 255
205 226 255
205 226 255
205 226 255
205 226 255
205 226 255
205 226 255
204 226 255
204 226 255
204 226 255
172 191 215
89 98 111
5 6 7
6 6 7
6 6 7
5 6 7
5 6 7
5 6 7
5 6 7
6 6 7
5 6 7
6 6 7
5 6 7
6 6 7
5 6 7
5 6 7
6 6 7
5 6 7
5 6 7
5 6 7
6 6 7
5 6 7
6 6 7
6 6 7
5 6 7
5 6 7
6 6 7
5 6 7
5 6 7
5 6 7
6 6 7
5 6 7
5 6 7
5 6 7
5 6 7
5 6 7
5 6 7
6 6 7
6 6 7
6 6 7
5 6 7
6 6 7
6 6 7
6 6 7
5 6 7
5 6 7
5 6 7
6 6 7
5 6 7
6 6 7
6 6 7
5 6 7
5 6 7
6 6 7
5 6 7
6 6 7
5 6 7
6 6 7
5 6 7
6 6 7
6 6 7
6 6 7
100 111 125
168 186 211
204 226 255
204 226 255
204 226 255
205 226 255
205 226 255
205 226 255
205 226 255
205 226 255
205 226 255
205 226 255
205 226 255
205 226 255
205 226 255
205 226 255
205 227 255
205 227 255
205 227 255
205 227 255
205 227 255
205 227 255
205 227 255
205 227 255
205 227 255
205 227 255
205 227 255
205 227 255
205 227 255
206 227 255
206 227 255
206 227 255
206 227 255
206 227 255
206 227 255
206 227 255
206 227 255
206 227 255
206 227 255
206 227 255
206 227 255
206 227 255
206 227 255
206 227 255
206 227 255
206 227 255
206 227 255
206 227 255
207 227 255
207 227 255
207 227 255
207 227 255
207 228 255
207 228 255
207 228 255
207 228 255
207 228 255
207 228 255
207 228 255
207 228 255
207 228 255
207 228 255
207 228 255
207 228 255
207 228 255
207 228 255
208 228 255
208 228 255
208 228 255
208 228 255
208 228 255
208 228 255
208 228 255
208 228 255
208 228 255
208 228 255
208 228 255
208 228 255
208 228 255
208 228 255
208 228 255
208 228 255
208 228 255
208 228 255
208 228 255
209 228 255
209 229 255
209 229 255
209 229 255
209 229 255
209 229 255
209 229 255
209 229 255
209 229 255
209 229 255
209 229 255
209 229 255
209 229 255
209 229 255
209 229 255
209 229 255
209 229 255
209 229 255
209 229 255
209 229 255
210 229 255
210 229 255
210 229 255
210 229 255
210 229 255
210 229 255
210 229 255
210 229 255
210 229 255
210 229 255
210 229 255
210 229 255
210 229 255
210 229 255
210 229 255
210 229 255
210 229 255
210 229 255
210 229 255
210 229 255
210 230 255
210 230 255
210 230 255
211 230 255
211 230 255
211 230 255
211 230 255
211 230 255
211 230 255
211 230 255
211 230 255
211 230 255
211 230 255
211 230 255
211 230 255
211 230 255
211 230 255
211 230 255
211 230 255
211 230 255
211 230 255
211 230 255
211 230 255
211 230 255
211 230 255
211 230 255
211 230 255
211 230 255
212 230 255
212 230 255
212 230 255
212 230 255
212 230 255
212 230 255
212 230 255
212 230 255
212 230 255
212 230 255
212 230 255
212 230 255
212 230 255
212 230 255
212 230 255
212 230 255
212 230 255
212 231 255
212 230 255
212 230 255
212 230 255
212 230 255
212 230 255
212 230 255
212 230 255
212 230 255
212 230 255
212 230 255
212 230 255
212 230 255
212 230 255
212 230 255
212 230 255
212 230 255
212 230 255
212 230 255
212 230 255
212 230 255
212 230 255
211 230 255
211 230 255
211 230 255
211 230 255
211 230 255
211 230 255
211 230 255
211 230 255
211 230 255
211 230 255
211 230 255
211 230 255
211 230 255
211 230 255
211 230 255
211 230 255
211 230 255
211 230 255
211 230 255
211 230 255
211 230 255
211 230 255
211 230 255
211 230 255
211 230 255
210 230 255
210 230 255
210 229 255
210 229 255
210 229 255
210 229 255
210 229 255
210 229 255
210 229 255
210 229 255
210 229 255
210 229 255
210 229 255
210 229 255
210 229 255
210 229 255
210 229 255
210 229 255
210 229 255
210 229 255
210 229 255
210 229 255
209 229 255
209 229 255
209 229 255
209 229 255
209 229 255
209 229 255
209 229 255
209 229 255
209 229 255
209 229 255
209 229 255
209 229 255
209 229 255
209 229 255
209 229 255
209 229 255
209 229 255
209 229 255
209 229 255
209 228 255
208 228 255
208 228 255
208 228 255
208 228 255
208 228 255
208 228 255
208 228 255
208 228 255
208 228 255
208 228 255
208 228 255
208 228 255
208 228 255
208 228 255
208 228 255
208 228 255
208 228 255
208 228 255
208 228 255
207 228 255
207 228 255
207 228 255
207 228 255
207 228 255
207 228 255
207 228 255
207 228 255
207 228 255
207 228 255
207 228 255
207 228 255
207 228 255
207 228 255
207 227 255
207 227 255
207 227 255
207 227 255
207 227 255
206 227 255
206 227 255
206 227 255
206 227 255
206 227 255
206 227 255
206 227 255
206 227 255
206 227 255
206 227 255
206 227 255
206 227 255
206 227 255
206 227 255
206 227 255
206 227 255
206 227 255
206 227 255
206 227 255
205 227 255
205 227 255
205 227 255
205 227 255
205 227 255
205 227 255
205 227 255
205 227 255
205 227 255
205 227 255
205 227 255
205 227 255
205 227 255
205 227 255
205 226 255
205 226 255
205 226 255
205 226 255
205 226 255
205 226 255
184 204 230
108 120 135
6 7 8
5 6 7
5 6 7
5 6 7
5 6 7
6 6 7
5 6 7
6 6 7
6 6 7
6 6 7
6 6 7
5 6 7
5 6 7
5 6 7
6 6 7
6 6 7
5 6 7
6 6 7
5 6 7
5 6 7
5 6 7
5 6 7
5 6 7
6 6 7
5 6 7
5 6 7
6 6 7
6 6 7
5 6 7
5 6 7
6 6 7
5 6 7
6 6 7
5 6 7
5 6 7
5 6 7
5 6 7
5 6 7
6 6 7
5 6 7
5 6 7
5 6 7
5 6 7
5 6 7
5 6 7
6 6 7
6 6 7
5 6 7
5 6 7
6 6 7
5 6 7
5 6 7
5 6 7
5 6 7
6 6 7
5 6 7
6 6 7
5 6 7
5 6 7
5 6 7
5 6 7
6 6 7
6 6 7
6 6 7
89 99 111
190 210 237
205 226 255
205 226 255
205 226 255
205 226 255
205 226 255
205 226 255
205 227 255
205 227 255
205 227 255
205 227 255
205 227 255
205 227 255
205 227 255
205 227 255
205 227 255
205 227 255
205 227 255
205 227 255
205 227 255
205 227 255
206 227 255
206 227 255
206 227 255
206 227 255
206 227 255
206 227 255
206 227 255
206 227 255
206 227 255
206 227 255
206 227 255
206 227 255
206 227 255
206 227 255
206 227 255
206 227 255
206 227 255
206 227 255
206 227 255
207 227 255
207 227 255
207 227 255
207 227 255
207 227 255
207 228 255
207 228 255
207 228 255
207 228 255
207 228 255
207 228 255
207 228 255
207 228 255
207 228 255
207 228 255
207 228 255
207 228 255
207 228 255
207 228 255
208 228 255
208 228 255
208 228 255
208 228 255
208 228 255
208 228 255
208 228 255
208 228 255
208 228 255
208 228 255
208 228 255
208 228 255
208 228 255
208 228 255
208 228 255
208 228 255
208 228 255
208 228 255
208 228 255
209 228 255
209 229 255
209 229 255
209 229 255
209 229 255
209 229 255
209 229 255
209 229 255
209 229 255
209 229 255
209 229 255
209 229 255
209 229 255
209 229 255
209 229 255
209 229 255
209 229 255
209 229 255
209 229 255
209 229 255
210 229 255
210 229 255
210 229 255
210 229 255
210 229 255
210 229 255
210 229 255
210 229 255
210 229 255
210 229 255
210 229 255
210 229 255
210 229 255
210 229 255
210 229 255
210 229 255
210 229 255
210 229 255
210 229 255
210 229 255
210 230 255
210 230 255
211 230 255
211 230 255
211 230 255
211 230 255
211 230 255
211 230 255
211 230 255
211 230 255
211 230 255
211 230 255
211 230 255
211 230 255
211 230 255
211 230 255
211 230 255
211 230 255
211 230 255
211 230 255
211 230 255
211 230 255
211 230 255
211 230 255
211 230 255
211 230 255
211 230 255
212 230 255
212 230 255
212 230 255
212 230 255
212 230 255
212 230 255
212 230 255
212 230 255
212 230 255
212 230 255
212 230 255
212 230 255
212 230 255
212 230 255
212 230 255
212 230 255
212 230 255
212 230 255
212 230 255
212 230 255
212 231 255
212 231 255
212 231 255
212 231 255
212 231 255
212 231 255
212 231 255
212 231 255
212 230 255
212 230 255
212 230 255
212 230 255
212 230 255
212 230 255
212 230 255
212 230 255
212 230 255
212 230 255
212 230 255
212 230 255
212 230 255
212 230 255
212 230 255
212 230 255
212 230 255
212 230 255
212 230 255
212 230 255
211 230 255
211 230 255
211 230 255
211 230 255
211 230 255
211 230 255
211 230 255
211 230 255
211 230 255
211 230 255
211 230 255
211 230 255
211 230 255
211 230 255
211 230 255
211 230 255
211 230 255
211 230 255
211 230 255
211 230 255
211 230 255
211 230 255
211 230 255
211 230 255
211 230 255
210 230 255
210 230 255
210 229 255
210 229 255
210 229 255
210 229 255
210 229 255
210 229 255
210 229 255
210 229 255
210 229 255
210 229 255
210 229 255
210 229 255
210 229 255
210 229 255
210 229 255
210 229 255
210 229 255
210 229 255
210 229 255
210 229 255
209 229 255
209 229 255
209 229 255
209 229 255
209 229 255
209 229 255
209 229 255
209 229 255
209 229 255
209 229 255
209 229 255
209 229 255
209 229 255
209 229 255
209 229 255
209 229 255
209 229 255
209 229 255
209 229 255
209 228 255
208 228 255
208 228 255
208 228 255
208 228 255
208 228 255
208 228 255
208 228 255
208 228 255
208 228 255
208 228 255
208 228 255
208 228 255
208 228 255
208 228 255
208 228 255
208 228 255
208 228 255
208 228 255
208 228 255
207 228 255
207 228 255
207 228 255
207 228 255
207 228 255
207 228 255
207 228 255
207 228 255
207 228 255
207 228 255
207 228 255
207 228 255
207 228 255
207 228 255
207 227 255
207 227 255
207 227 255
207 227 255
207 227 255
206 227 255
206 227 255
206 227 255
206 227 255
206 227 255
206 227 255
206 227 255
206 227 255
206 227 255
206 227 255
206 227 255
206 227 255
206 227 255
206 227 255
206 227 255
206 227 255
206 227 255
206 227 255
206 227 255
206 227 255
206 227 255
205 227 255
205 227 255
205 227 255
205 227 255
205 227 255
205 227 255
205 227 255
205 227 255
205 227 255
205 227 255
205 227 255
205 227 255
202 223 252
146 162 182
41 45 51
5 6 7
6 6 7
5 6 7
6 6 7
5 6 7
6 6 7
5 6 7
5 6 7
5 6 7
5 6 7
6 6 7
6 6 7
5 6 7
6 6 7
5 6 7
6 6 7
6 6 7
5 6 7
6 6 7
5 6 7
5 6 7
5 6 7
5 6 7
5 6 7
5 6 7
5 6 7
5 6 7
6 6 7
5 6 7
5 6 7
5 6 7
6 6 7
5 6 7
5 6 7
5 6 7
5 6 7
5 6 7
5 6 7
5 6 7
5 6 7
5 6 7
6 6 7
5 6 7
6 6 7
5 6 7
5 6 7
5 6 7
5 6 7
6 6 7
5 6 7
6 6 7
5 6 7
5 6 7
5 6 7
5 6 7
6 6 7
5 6 7
5 6 7
5 6 7
6 6 7
5 6 7
5 6 7
5 6 7
6 6 7
5 6 7
6 6 7
29 32 36
131 145 164
202 223 252
205 227 255
205 227 255
205 227 255
205 227 255
205 227 255
205 227 255
205 227 255
205 227 255
205 227 255
205 227 255
205 227 255
205 227 255
206 227 255
206 227 255
206 227 255
206 227 255
206 227 255
206 227 255
206 227 255
206 227 255
206 227 255
206 227 255
206 227 255
206 227 255
206 227 255
206 227 255
206 227 255
206 227 255
206 227 255
206 227 255
206 227 255
206 227 255
206 227 255
207 227 255
207 227 255
207 227 255
207 227 255
207 227 255
207 228 255
207 228 255
207 228 255
207 228 255
207 228 255
207 228 255
207 228 255
207 228 255
207 228 255
207 228 255
207 228 255
207 228 255
207 228 255
207 228 255
208 228 255
208 228 255
208 228 255
208 228 255
208 228 255
208 228 255
208 228 255
208 228 255
208 228 255
208 228 255
208 228 255
208 228 255
208 228 255
208 228 255
208 228 255
208 228 255
208 228 255
208 228 255
208 228 255
209 228 255
209 228 255
209 229 255
209 229 255
209 229 255
209 229 255
209 229 255
209 229 255
209 229 255
209 229 255
209 229 255
209 229 255
209 229 255
209 229 255
209 229 255
209 229 255
209 229 255
209 229 255
209 229 255
209 229 255
210 229 255
210 229 255
210 229 255
210 229 255
210 229 255
210 229 255
210 229 255
210 229 255
210 229 255
210 229 255
210 229 255
210 229 255
210 229 255
210 229 255
210 229 255
210 229 255
210 229 255
210 229 255
210 229 255
210 229 255
210 230 255
210 230 255
211 230 255
211 230 255
211 230 255
211 230 255
211 230 255
211 230 255
211 230 255
211 230 255
211 230 255
211 230 255
211 230 255
211 230 255
211 230 255
211 230 255
211 230 255
211 230 255
211 230 255
211 230 255
211 230 255
211 230 255
211 230 255
211 230 255
211 230 255
211 230 255
211 230 255
212 230 255
212 230 255
212 230 255
212 230 255
212 230 255
212 230 255
212 230 255
212 230 255
212 230 255
212 230 255
212 230 255
212 230 255
212 230 255
212 230 255
212 230 255
212 230 255
212 230 255
212 230 255
212 230 255
212 230 255
212 231 255
212 231 255
212 231 255
212 231 255
212 231 255
212 231 255
213 231 255
213 231 255
212 231 255
212 231 255
212 231 255
212 231 255
212 231 255
212 231 255
212 231 255
212 231 255
212 231 255
212 230 255
212 230 255
212 230 255
212 230 255
212 230 255
212 230 255
212 230 255
212 230 255
212 230 255
212 230 255
212 230 255
212 230 255
212 230 255
212 230 255
212 230 255
212 230 255
212 230 255
212 230 255
212 230 255
212 230 255
211 230 255
211 230 255
211 230 255
211 230 255
211 230 255
211 230 255
211 230 255
211 230 255
211 230 255
211 230 255
211 230 255
211 230 255
211 230 255
211 230 255
211 230 255
211 230 255
211 230 255
211 230 255
211 230 255
211 230 255
211 230 255
211 230 255
211 230 255
211 230 255
210 230 255
210 230 255
210 230 255
210 229 255
210 229 255
210 229 255
210 229 255
210 229 255
210 229 255
210 229 255
210 229 255
210 229 255
210 229 255
210 229 255
210 229 255
210 229 255
210 229 255
210 229 255
210 229 255
210 229 255
210 229 255
210 229 255
209 229 255
209 229 255
209 229 255
209 229 255
209 229 255
209 229 255
209 229 255
209 229 255
209 229 255
209 229 255
209 229 255
209 229 255
209 229 255
209 229 255
209 229 255
209 229 255
209 229 255
209 229 255
209 229 255
209 228 255
208 228 255
208 228 255
208 228 255
208 228 255
208 228 255
208 228 255
208 228 255
208 228 255
208 228 255
208 228 255
208 228 255
208 228 255
208 228 255
208 228 255
208 228 255
208 228 255
208 228 255
208 228 255
208 228 255
207 228 255
207 228 255
207 228 255
207 228 255
207 228 255
207 228 255
207 228 255
207 228 255
207 228 255
207 228 255
207 228 255
207 228 255
207 228 255
207 228 255
207 228 255
207 227 255
207 227 255
207 227 255
207 227 255
207 227 255
206 227 255
206 227 255
206 227 255
206 227 255
206 227 255
206 227 255
206 227 255
206 227 255
206 227 255
206 227 255
206 227 255
206 227 255
206 227 255
206 227 255
206 227 255
206 227 255
206 227 255
206 227 255
206 227 255
206 227 255
206 227 255
206 227 255
205 227 255
205 227 255
205 227 255
205 227 255
205 227 255
188 208 234
92 101 114
6 6 7
6 6 7
6 6 7
5 6 7
5 6 7
5 6 7
5 6 7
5 6 7
5 6 7
6 6 7
5 6 7
6 6 7
5 6 7
5 6 7
6 6 7
5 6 7
5 6 7
5 6 7
5 6 7
5 6 7
5 6 7
5 6 7
5 6 7
5 6 7
6 6 7
5 6 7
5 6 7
5 6 7
5 6 7
5 6 7
5 6 7
5 6 7
5 6 7
5 6 7
5 6 7
5 6 7
6 6 7
5 6 7
5 6 7
6 6 7
5 6 7
6 6 7
5 6 7
6 6 7
5 6 7
5 6 7
5 6 7
5 6 7
5 6 7
5 6 7
6 6 7
5 6 7
5 6 7
6 6 7
5 6 7
5 6 7
5 6 7
5 6 7
5 6 7
5 6 7
6 6 7
5 6 7
5 6 7
5 6 7
6 6 7
5 6 7
5 6 7
5 6 7
5 6 7
6 6 7
61 68 77
172 190 214
205 227 255
205 227 255
205 227 255
205 227 255
205 227 255
206 227 255
206 227 255
206 227 255
206 227 255
206 227 255
206 227 255
206 227 255
206 227 255
206 227 255
206 227 255
206 227 255
206 227 255
206 227 255
206 227 255
206 227 255
206 227 255
206 227 255
206 227 255
206 227 255
206 227 255
206 227 255
206 227 255
207 227 255
207 227 255
207 227 255
207 227 255
207 227 255
207 228 255
207 228 255
207 228 255
207 228 255
207 228 255
207 228 255
207 228 255
207 228 255
207 228 255
207 228 255
207 228 255
207 228 255
207 228 255
207 228 255
207 228 255
208 228 255
208 228 255
208 228 255
208 228 255
208 228 255
208 228 255
208 228 255
208 228 255
208 228 255
208 228 255
208 228 255
208 228 255
208 228 255
208 228 255
208 228 255
208 228 255
208 228 255
208 228 255
208 228 255
209 228 255
209 229 255
209 229 255
209 229 255
209 229 255
209 229 255
209 229 255
209 229 255
209 229 255
209 229 255
209 229 255
209 229 255
209 229 255
209 229 255
209 229 255
209 229 255
209 229 255
209 229 255
209 229 255
209 229 255
210 229 255
210 229 255
210 229 255
210 229 255
210 229 255
210 229 255
210 229 255
210 229 255
210 229 255
210 229 255
210 229 255
210 229 255
210 229 255
210 229 255
210 229 255
210 229 255
210 229 255
210 229 255
210 229 255
210 230 255
210 230 255
210 230 255
211 230 255
211 230 255
211 230 255
211 230 255
211 230 255
211 230 255
211 230 255
211 230 255
211 230 255
211 230 255
211 230 255
211 230 255
211 230 255
211 230 255
211 230 255
211 230 255
211 230 255
211 230 255
211 230 255
211 230 255
211 230 255
211 230 255
211 230 255
211 230 255
212 230 255
212 230 255
212 230 255
212 230 255
212 230 255
212 230 255
212 230 255
212 230 255
212 230 255
212 230 255
212 230 255
212 230 255
212 230 255
212 230 255
212 230 255
212 230 255
212 230 255
212 230 255
212 230 255
212 230 255
212 231 255
212 231 255
212 231 255
212 231 255
212 231 255
212 231 255
212 231 255
212 231 255
212 231 255
213 231 255
213 231 255
213 231 255
213 231 255
213 231 255
213 231 255
213 231 255
213 231 255
213 231 255
212 231 255
212 231 255
212 231 255
212 231 255
212 231 255
212 231 255
212 231 255
212 231 255
212 231 255
212 230 255
212 230 255
212 230 255
212 230 255
212 230 255
212 230 255
212 230 255
212 230 255
212 230 255
212 230 255
212 230 255
212 230 255
212 230 255
212 230 255
212 230 255
212 230 255
212 230 255
212 230 255
212 230 255
211 230 255
211 230 255
211 230 255
211 230 255
211 230 255
211 230 255
211 230 255
211 230 255
211 230 255
211 230 255
211 230 255
211 230 255
211 230 255
211 230 255
211 230 255
211 230 255
211 230 255
211 230 255
211 230 255
211 230 255
211 230 255
211 230 255
211 230 255
211 230 255
211 230 255
210 230 255
210 230 255
210 229 255
210 229 255
210 229 255
210 229 255
210 229 255
210 229 255
210 229 255
210 229 255
210 229 255
210 229 255
210 229 255
210 229 255
210 229 255
210 229 255
210 229 255
210 229 255
210 229 255
210 229 255
210 229 255
209 229 255
209 229 255
209 229 255
209 229 255
209 229 255
209 229 255
209 229 255
209 229 255
209 229 255
209 229 255
209 229 255
209 229 255
209 229 255
209 229 255
209 229 255
209 229 255
209 229 255
209 229 255
209 229 255
209 228 255
208 228 255
208 228 255
208 228 255
208 228 255
208 228 255
208 228 255
208 228 255
208 228 255
208 228 255
208 228 255
208 228 255
208 228 255
208 228 255
208 228 255
208 228 255
208 228 255
208 228 255
208 228 255
208 228 255
208 228 255
207 228 255
207 228 255
207 228 255
207 228 255
207 228 255
207 228 255
207 228 255
207 228 255
207 228 255
207 228 255
207 228 255
207 228 255
207 228 255
207 228 255
207 228 255
207 227 255
207 227 255
207 227 255
207 227 255
207 227 255
206 227 255
206 227 255
206 227 255
206 227 255
206 227 255
206 227 255
206 227 255
206 227 255
206 227 255
206 227 255
206 227 255
206 227 255
206 227 255
206 227 255
206 227 255
206 227 255
206 227 255
206 227 255
206 227 255
206 227 255
204 225 253
152 168 189
21 23 26
6 6 7
5 6 7
5 6 7
5 6 7
6 6 7
6 6 7
5 6 7
5 6 7
5 6 7
5 6 7
5 6 7
5 6 7
5 6 7
5 6 7
6 6 7
5 6 7
5 6 7
5 6 7
5 6 7
6 6 7
5 6 7
5 6 7
6 6 7
5 6 7
5 6 7
5 6 7
5 6 7
5 6 7
5 6 7
5 6 7
6 6 7
6 6 7
5 6 7
5 6 7
5 6 7
5 6 7
5 6 7
5 6 7
5 6 7
6 6 7
5 6 7
5 6 7
5 6 7
5 6 7
5 6 7
5 6 7
5 6 7
5 6 7
5 6 7
5 6 7
5 6 7
5 6 7
5 6 7
5 6 7
5 6 7
5 6 7
6 6 7
5 6 7
6 6 7
5 6 7
5 6 7
5 6 7
5 6 7
5 6 7
5 6 7
5 6 7
5 6 7
5 6 7
5 6 7
5 6 7
6 6 7
5 6 7
5 6 7
139 154 173
202 223 252
206 227 255
206 227 255
206 227 255
206 227 255
206 227 255
206 227 255
206 227 255
206 227 255
206 227 255
206 227 255
206 227 255
206 227 255
206 227 255
206 227 255
206 227 255
206 227 255
206 227 255
206 227 255
206 227 255
206 227 255
206 227 255
207 227 255
207 227 255
207 227 255
207 227 255
207 228 255
207 228 255
207 228 255
207 228 255
207 228 255
207 228 255
207 228 255
207 228 255
207 228 255
207 228 255
207 228 255
207 228 255
207 228 255
207 228 255
207 228 255
208 228 255
208 228 255
208 228 255
208 228 255
208 228 255
208 228 255
208 228 255
208 228 255
208 228 255
208 228 255
208 228 255
208 228 255
208 228 255
208 228 255
208 228 255
208 228 255
208 228 255
208 228 255
208 228 255
208 228 255
209 228 255
209 229 255
209 229 255
209 229 255
209 229 255
209 229 255
209 229 255
209 229 255
209 229 255
209 229 255
209 229 255
209 229 255
209 229 255
209 229 255
209 229 255
209 229 255
209 229 255
209 229 255
209 229 255
209 229 255
210 229 255
210 229 255
210 229 255
210 229 255
210 229 255
210 229 255
210 229 255
210 229 255
210 229 255
210 229 255
210 229 255
210 229 255
210 229 255
210 229 255
210 229 255
210 229 255
210 229 255
210 229 255
210 229 255
210 230 255
210 230 255
211 230 255
211 230 255
211 230 255
211 230 255
211 230 255
211 230 255
211 230 255
211 230 255
211 230 255
211 230 255
211 230 255
211 230 255
211 230 255
211 230 255
211 230 255
211 230 255
211 230 255
211 230 255
211 230 255
211 230 255
211 230 255
211 230 255
211 230 255
211 230 255
211 230 255
212 230 255
212 230 255
212 230 255
212 230 255
212 230 255
212 230 255
212 230 255
212 230 255
212 230 255
212 230 255
212 230 255
212 230 255
212 230 255
212 230 255
212 230 255
212 230 255
212 230 255
212 230 255
212 230 255
212 231 255
212 231 255
212 231 255
212 231 255
212 231 255
212 231 255
212 231 255
212 231 255
212 231 255
213 231 255
213 231 255
213 231 255
213 231 255
213 231 255
213 231 255
213 231 255
213 231 255
213 231 255
213 231 255
213 231 255
213 231 255
213 231 255
213 231 255
213 231 255
213 231 255
213 231 255
213 231 255
213 231 255
212 231 255
212 231 255
212 231 255
212 231 255
212 231 255
212 231 255
212 231 255
212 231 255
212 230 255
212 230 255
212 230 255
212 230 255
212 230 255
212 230 255
212 230 255
212 230 255
212 230 255
212 230 255
212 230 255
212 230 255
212 230 255
212 230 255
212 230 255
212 230 255
212 230 255
212 230 255
212 230 255
212 230 255
211 230 255
211 230 255
211 230 255
211 230 255
211 230 255
211 230 255
211 230 255
211 230 255
211 230 255
211 230 255
211 230 255
211 230 255
211 230 255
211 230 255
211 230 255
211 230 255
211 230 255
211 230 255
211 230 255
211 230 255
211 230 255
211 230 255
211 230 255
211 230 255
210 230 255
210 230 255
210 229 255
210 229 255
210 229 255
210 229 255
210 229 255
210 229 255
210 229 255
210 229 255
210 229 255
210 229 255
210 229 255
210 229 255
210 229 255
210 229 255
210 229 255
210 229 255
210 229 255
210 229 255
210 229 255
209 229 255
209 229 255
209 229 255
209 229 255
209 229 255
209 229 255
209 229 255
209 229 255
209 229 255
209 229 255
209 229 255
209 229 255
209 229 255
209 229 255
209 229 255
209 229 255
209 229 255
209 229 255
209 229 255
209 228 255
209 228 255
208 228 255
208 228 255
208 228 255
208 228 255
208 228 255
208 228 255
208 228 255
208 228 255
208 228 255
208 228 255
208 228 255
208 228 255
208 228 255
208 228 255
208 228 255
208 228 255
208 228 255
208 228 255
208 228 255
207 228 255
207 228 255
207 228 255
207 228 255
207 228 255
207 228 255
207 228 255
207 228 255
207 228 255
207 228 255
207 228 255
207 228 255
207 228 255
207 228 255
207 228 255
207 228 255
207 227 255
207 227 255
207 227 255
207 227 255
207 227 255
206 227 255
206 227 255
206 227 255
206 227 255
206 227 255
206 227 255
206 227 255
206 227 255
206 227 255
206 227 255
206 227 255
206 227 255
206 227 255
206 227 255
192 212 238
92 101 114
5 6 7
5 6 7
5 6 7
5 6 7
6 6 7
5 6 7
5 6 7
5 6 7
5 6 7
5 6 7
5 6 7
5 6 7
5 6 7
5 6 7
5 6 7
5 6 7
6 6 7
5 6 7
6 6 7
5 6 7
5 6 7
5 6 7
5 6 7
5 6 7
5 6 7
5 6 7
5 6 7
5 6 7
5 6 7
5 6 7
6 6 7
6 6 7
5 6 7
5 6 7
5 6 7
5 6 7
5 6 7
5 6 7
5 6 6
5 6 7
5 6 7
5 6 7
5 6 7
5 6 7
5 6 7
5 6 7
5 6 7
5 6 7
5 6 7
5 6 7
5 6 7
5 6 7
5 6 7
5 6 7
5 6 7
5 6 7
5 6 7
5 6 7
5 6 7
5 6 7
5 6 7
5 6 7
5 6 7
5 6 7
5 6 7
5 6 7
5 6 7
5 6 7
6 6 7
5 6 7
5 6 7
5 6 7
5 6 7
5 6 7
6 6 7
5 6 7
87 96 108
190 209 236
206 227 255
206 227 255
206 227 255
206 227 255
206 227 255
206 227 255
206 227 255
206 227 255
206 227 255
206 227 255
206 227 255
206 227 255
206 227 255
206 227 255
207 227 255
207 227 255
207 227 255
207 227 255
207 227 255
207 228 255
207 228 255
207 228 255
207 228 255
207 228 255
207 228 255
207 228 255
207 228 255
207 228 255
207 228 255
207 228 255
207 228 255
207 228 255
207 228 255
207 228 255
208 228 255
208 228 255
208 228 255
208 228 255
208 228 255
208 228 255
208 228 255
208 228 255
208 228 255
208 228 255
208 228 255
208 228 255
208 228 255
208 228 255
208 228 255
208 228 255
208 228 255
208 228 255
208 228 255
208 228 255
209 228 255
209 228 255
209 229 255
209 229 255
209 229 255
209 229 255
209 229 255
209 229 255
209 229 255
209 229 255
209 229 255
209 229 255
209 229 255
209 229 255
209 229 255
209 229 255
209 229 255
209 229 255
209 229 255
209 229 255
210 229 255
210 229 255
210 229 255
210 229 255
210 229 255
210 229 255
210 229 255
210 229 255
210 229 255
210 229 255
210 229 255
210 229 255
210 229 255
210 229 255
210 229 255
210 229 255
210 229 255
210 229 255
210 229 255
210 230 255
210 230 255
210 230 255
211 230 255
211 230 255
211 230 255
211 230 255
211 230 255
211 230 255
211 230 255
211 230 255
211 230 255
211 230 255
211 230 255
211 230 255
211 230 255
211 230 255
211 230 255
211 230 255
211 230 255
211 230 255
211 230 255
211 230 255
211 230 255
211 230 255
211 230 255
211 230 255
212 230 255
212 230 255
212 230 255
212 230 255
212 230 255
212 230 255
212 230 255
212 230 255
212 230 255
212 230 255
212 230 255
212 230 255
212 230 255
212 230 255
212 230 255
212 230 255
212 230 255
212 230 255
212 230 255
212 231 255
212 231 255
212 231 255
212 231 255
212 231 255
212 231 255
212 231 255
212 231 255
212 231 255
213 231 255
213 231 255
213 231 255
213 231 255
213 231 255
213 231 255
213 231 255
213 231 255
213 231 255
213 231 255
213 231 255
213 231 255
213 231 255
213 231 255
213 231 255
213 231 255
213 231 255
213 231 255
213 231 255
213 231 255
213 231 255
213 231 255
213 231 255
213 231 255
213 231 255
213 231 255
213 231 255
213 231 255
213 231 255
212 231 255
212 231 255
212 231 255
212 231 255
212 231 255
212 231 255
212 231 255
212 231 255
212 231 255
212 230 255
212 230 255
212 230 255
212 230 255
212 230 255
212 230 255
212 230 255
212 230 255
212 230 255
212 230 255
212 230 255
212 230 255
212 230 255
212 230 255
212 230 255
212 230 255
212 230 255
212 230 255
211 230 255
211 230 255
211 230 255
211 230 255
211 230 255
211 230 255
211 230 255
211 230 255
211 230 255
211 230 255
211 230 255
211 230 255
211 230 255
211 230 255
211 230 255
211 230 255
211 230 255
211 230 255
211 230 255
211 230 255
211 230 255
211 230 255
211 230 255
211 230 255
210 230 255
210 230 255
210 230 255
210 229 255
210 229 255
210 229 255
210 229 255
210 229 255
210 229 255
210 229 255
210 229 255
210 229 255
210 229 255
210 229 255
210 229 255
210 229 255
210 229 255
210 229 255
210 229 255
210 229 255
210 229 255
210 229 255
209 229 255
209 229 255
209 229 255
209 229 255
209 229 255
209 229 255
209 229 255
209 229 255
209 229 255
209 229 255
209 229 255
209 229 255
209 229 255
209 229 255
209 229 255
209 229 255
209 229 255
209 229 255
209 229 255
209 228 255
208 228 255
208 228 255
208 228 255
208 228 255
208 228 255
208 228 255
208 228 255
208 228 255
208 228 255
208 228 255
208 228 255
208 228 255
208 228 255
208 228 255
208 228 255
208 228 255
208 228 255
208 228 255
208 228 255
208 228 255
207 228 255
207 228 255
207 228 255
207 228 255
207 228 255
207 228 255
207 228 255
207 228 255
207 228 255
207 228 255
207 228 255
207 228 255
207 228 255
207 228 255
207 228 255
207 228 255
207 227 255
207 227 255
207 227 255
207 227 255
207 227 255
206 227 255
206 227 255
206 227 255
206 227 255
206 227 255
206 227 255
206 227 255
206 227 255
182 201 226
29 32 36
6 6 7
5 6 7
5 6 7
5 6 7
5 6 7
5 6 7
6 6 7
5 6 7
6 6 7
5 6 7
5 6 7
5 6 7
5 6 7
5 6 7
5 6 7
5 6 7
5 6 7
5 6 7
5 6 7
5 6 7
5 6 7
5 6 7
5 6 7
5 6 7
5 6 7
5 6 7
5 6 7
5 6 7
5 6 7
5 6 7
5 6 7
5 6 7
5 6 7
5 6 7
5 6 7
5 6 7
5 6 7
5 6 7
5 6 7
5 6 7
5 6 7
5 6 7
5 6 7
5 6 7
5 6 7
5 6 7
6 6 7
5 6 7
6 6 7
5 6 7
5 6 7
5 6 7
5 6 7
5 6 7
5 6 7
5 6 7
5 6 7
5 6 7
5 6 7
5 6 7
5 6 7
5 6 7
5 6 7
6 6 7
5 6 7
5 6 7
5 6 7
6 6 7
5 6 7
5 6 7
5 6 7
5 6 7
5 6 7
5 6 7
6 6 7
5 6 7
5 6 7
6 6 7
65 72 81
171 189 212
206 227 255
206 227 255
206 227 255
206 227 255
206 227 255
206 227 255
206 227 255
207 227 255
207 227 255
207 227 255
207 227 255
207 227 255
207 227 255
207 228 255
207 228 255
207 228 255
207 228 255
207 228 255
207 228 255
207 228 255
207 228 255
207 228 255
207 228 255
207 228 255
207 228 255
207 228 255
207 228 255
207 228 255
207 228 255
208 228 255
208 228 255
208 228 255
208 228 255
208 228 255
208 228 255
208 228 255
208 228 255
208 228 255
208 228 255
208 228 255
208 228 255
208 228 255
208 228 255
208 228 255
208 228 255
208 228 255
208 228 255
208 228 255
208 228 255
209 228 255
209 229 255
209 229 255
209 229 255
209 229 255
209 229 255
209 229 255
209 229 255
209 229 255
209 229 255
209 229 255
209 229 255
209 229 255
209 229 255
209 229 255
209 229 255
209 229 255
209 229 255
209 229 255
209 229 255
210 229 255
210 229 255
210 229 255
210 229 255
210 229 255
210 229 255
210 229 255
210 229 255
210 229 255
210 229 255
210 229 255
210 229 255
210 229 255
210 229 255
210 229 255
210 229 255
210 229 255
210 229 255
210 229 255
210 230 255
210 230 255
211 230 255
211 230 255
211 230 255
211 230 255
211 230 255
211 230 255
211 230 255
211 230 255
211 230 255
211 230 255
211 230 255
211 230 255
211 230 255
211 230 255
211 230 255
211 230 255
211 230 255
211 230 255
211 230 255
211 230 255
211 230 255
211 230 255
211 230 255
211 230 255
212 230 255
212 230 255
212 230 255
212 230 255
212 230 255
212 230 255
212 230 255
212 230 255
212 230 255
212 230 255
212 230 255
212 230 255
212 230 255
212 230 255
212 230 255
212 230 255
212 230 255
212 230 255
212 230 255
212 230 255
212 231 255
212 231 255
212 231 255
212 231 255
212 231 255
212 231 255
212 231 255
212 231 255
213 231 255
213 231 255
213 231 255
213 231 255
213 231 255
213 231 255
213 231 255
213 231 255
213 231 255
213 231 255
213 231 255
213 231 255
213 231 255
213 231 255
213 231 255
213 231 255
213 231 255
213 231 255
213 231 255
213 231 255
213 231 255
213 231 255
213 231 255
213 231 255
213 231 255
213 231 255
213 231 255
213 231 255
213 231 255
213 231 255
213 231 255
213 231 255
213 231 255
213 231 255
213 231 255
213 231 255
213 231 255
213 231 255
213 231 255
212 231 255
212 231 255
212 231 255
212 231 255
212 231 255
212 231 255
212 231 255
212 231 255
212 230 255
212 230 255
212 230 255
212 230 255
212 230 255
212 230 255
212 230 255
212 230 255
212 230 255
212 230 255
212 230 255
212 230 255
212 230 255
212 230 255
212 230 255
212 230 255
212 230 255
212 230 255
212 230 255
211 230 255
211 230 255
211 230 255
211 230 255
211 230 255
211 230 255
211 230 255
211 230 255
211 230 255
211 230 255
211 230 255
211 230 255
211 230 255
211 230 255
211 230 255
211 230 255
211 230 255
211 230 255
211 230 255
211 230 255
211 230 255
211 230 255
211 230 255
211 230 255
210 230 255
210 230 255
210 229 255
210 229 255
210 229 255
210 229 255
210 229 255
210 229 255
210 229 255
210 229 255
210 229 255
210 229 255
210 229 255
210 229 255
210 229 255
210 229 255
210 229 255
210 229 255
210 229 255
210 229 255
210 229 255
209 229 255
209 229 255
209 229 255
209 229 255
209 229 255
209 229 255
209 229 255
209 229 255
209 229 255
209 229 255
209 229 255
209 229 255
209 229 255
209 229 255
209 229 255
209 229 255
209 229 255
209 229 255
209 229 255
209 228 255
209 228 255
208 228 255
208 228 255
208 228 255
208 228 255
208 228 255
208 228 255
208 228 255
208 228 255
208 228 255
208 228 255
208 228 255
208 228 255
208 228 255
208 228 255
208 228 255
208 228 255
208 228 255
208 228 255
208 228 255
208 228 255
207 228 255
207 228 255
207 228 255
207 228 255
207 228 255
207 228 255
207 228 255
207 228 255
207 228 255
207 228 255
207 228 255
207 228 255
207 228 255
207 228 255
207 228 255
207 228 255
207 228 255
207 227 255
207 227 255
207 227 255
207 227 255
207 227 255
207 227 255
144 159 179
21 23 26
5 6 7
5 6 7
5 6 7
5 6 7
6 6 7
6 6 7
5 6 7
5 6 7
5 6 7
5 6 7
5 6 7
5 6 7
6 6 7
5 6 7
6 6 7
6 6 7
6 6 7
5 6 7
5 6 7
5 6 7
5 6 7
5 6 7
5 6 7
5 6 7
5 6 7
5 6 7
5 6 7
5 6 7
5 6 7
5 6 7
5 6 7
5 6 7
5 6 7
5 6 7
5 6 7
5 6 7
5 6 7
5 6 7
5 6 7
6 6 7
5 6 7
5 6 6
5 6 7
5 6 7
5 6 7
5 6 7
6 6 7
5 6 7
5 6 7
5 6 7
5 6 7
5 6 7
5 6 6
5 6 7
5 6 7
5 6 7
5 6 7
5 6 7
5 6 7
5 6 7
5 6 7
5 6 7
5 6 7
5 6 7
6 6 7
5 6 7
5 6 7
5 6 7
5 6 7
5 6 7
6 6 7
5 6 7
6 6 7
6 6 7
6 6 7
5 6 7
5 6 7
5 6 7
5 6 7
5 6 7
21 23 26
157 173 195
207 227 255
207 227 255
207 227 255
207 227 255
207 227 255
207 227 255
207 228 255
207 228 255
207 228 255
207 228 255
207 228 255
207 228 255
207 228 255
207 228 255
207 228 255
207 228 255
207 228 255
207 228 255
207 228 255
207 228 255
207 228 255
207 228 255
207 228 255
208 228 255
208 228 255
208 228 255
208 228 255
208 228 255
208 228 255
208 228 255
208 228 255
208 228 255
208 228 255
208 228 255
208 228 255
208 228 255
208 228 255
208 228 255
208 228 255
208 228 255
208 228 255
208 228 255
208 228 255
209 228 255
209 228 255
209 229 255
209 229 255
209 229 255
209 229 255
209 229 255
209 229 255
209 229 255
209 229 255
209 229 255
209 229 255
209 229 255
209 229 255
209 229 255
209 229 255
209 229 255
209 229 255
209 229 255
209 229 255
209 229 255
210 229 255
210 229 255
210 229 255
210 229 255
210 229 255
210 229 255
210 229 255
210 229 255
210 229 255
210 229 255
210 229 255
210 229 255
210 229 255
210 229 255
210 229 255
210 229 255
210 229 255
210 229 255
210 229 255
210 230 255
210 230 255
211 230 255
211 230 255
211 230 255
211 230 255
211 230 255
211 230 255
211 230 255
211 230 255
211 230 255
211 230 255
211 230 255
211 230 255
211 230 255
211 230 255
211 230 255
211 230 255
211 230 255
211 230 255
211 230 255
211 230 255
211 230 255
211 230 255
211 230 255
211 230 255
212 230 255
212 230 255
212 230 255
212 230 255
212 230 255
212 230 255
212 230 255
212 230 255
212 230 255
212 230 255
212 230 255
212 230 255
212 230 255
212 230 255
212 230 255
212 230 255
212 230 255
212 230 255
212 230 255
212 231 255
212 231 255
212 231 255
212 231 255
212 231 255
212 231 255
212 231 255
212 231 255
213 231 255
213 231 255
213 231 255
213 231 255
213 231 255
213 231 255
213 231 255
213 231 255
213 231 255
213 231 255
213 231 255
213 231 255
213 231 255
213 231 255
213 231 255
213 231 255
213 231 255
213 231 255
213 231 255
213 231 255
213 231 255
213 231 255
213 231 255
213 231 255
213 231 255
213 231 255
213 231 255
213 231 255
213 231 255
213 231 255
213 231 255
213 231 255
213 231 255
213 231 255
213 231 255
213 231 255
213 231 255
213 231 255
213 231 255
213 231 255
213 231 255
213 231 255
213 231 255
213 231 255
213 231 255
213 231 255
213 231 255
213 231 255
213 231 255
212 231 255
212 231 255
212 231 255
212 231 255
212 231 255
212 231 255
212 231 255
212 231 255
212 231 255
212 230 255
212 230 255
212 230 255
212 230 255
212 230 255
212 230 255
212 230 255
212 230 255
212 230 255
212 230 255
212 230 255
212 230 255
212 230 255
212 230 255
212 230 255
212 230 255
212 230 255
212 230 255
211 230 255
211 230 255
211 230 255
211 230 255
211 230 255
211 230 255
211 230 255
211 230 255
211 230 255
211 230 255
211 230 255
211 230 255
211 230 255
211 230 255
211 230 255
211 230 255
211 230 255
211 230 255
211 230 255
211 230 255
211 230 255
211 230 255
211 230 255
211 230 255
210 230 255
210 230 255
210 229 255
210 229 255
210 229 255
210 229 255
210 229 255
210 229 255
210 229 255
210 229 255
210 229 255
210 229 255
210 229 255
210 229 255
210 229 255
210 229 255
210 229 255
210 229 255
210 229 255
210 229 255
210 229 255
209 229 255
209 229 255
209 229 255
209 229 255
209 229 255
209 229 255
209 229 255
209 229 255
209 229 255
209 229 255
209 229 255
209 229 255
209 229 255
209 229 255
209 229 255
209 229 255
209 229 255
209 229 255
209 229 255
209 228 255
209 228 255
208 228 255
208 228 255
208 228 255
208 228 255
208 228 255
208 228 255
208 228 255
208 228 255
208 228 255
208 228 255
208 228 255
208 228 255
208 228 255
208 228 255
208 228 255
208 228 255
208 228 255
208 228 255
208 228 255
208 228 255
208 228 255
207 228 255
207 228 255
207 228 255
207 228 255
207 228 255
207 228 255
207 228 255
207 228 255
207 228 255
207 228 255
207 228 255
207 228 255
207 228 255
207 228 255
207 228 255
206 226 254
120 133 149
5 6 7
5 6 7
5 6 7
5 6 7
5 6 7
5 6 7
5 6 7
5 6 7
5 6 7
5 6 7
6 6 7
5 6 7
5 6 7
5 6 7
5 6 7
5 6 7
5 6 7
5 6 7
5 6 7
6 6 7
5 6 7
5 6 7
6 6 7
5 6 7
6 6 7
5 6 7
5 6 7
5 6 7
5 6 7
5 6 7
5 6 7
5 6 7
6 6 7
5 6 7
5 6 7
5 6 7
5 6 7
5 6 7
5 6 7
5 6 7
5 6 7
5 6 7
5 6 7
5 6 7
5 6 7
5 6 7
5 6 7
5 6 7
5 6 7
5 6 7
5 6 7
5 6 7
6 6 7
5 6 7
5 6 7
5 6 7
5 6 7
5 6 7
5 6 7
5 6 7
5 6 7
5 6 7
5 6 7
5 6 7
5 6 7
5 6 7
5 6 7
5 6 7
5 6 7
5 6 7
5 6 7
5 6 7
5 6 7
5 6 7
5 6 7
5 6 7
5 6 7
5 6 7
6 6 7
5 6 7
5 6 7
5 6 7
5 6 7
5 6 7
127 140 157
205 225 253
207 228 255
207 228 255
207 228 255
207 228 255
207 228 255
207 228 255
207 228 255
207 228 255
207 228 255
207 228 255
207 228 255
207 228 255
207 228 255
207 228 255
207 228 255
207 228 255
208 228 255
208 228 255
208 228 255
208 228 255
208 228 255
208 228 255
208 228 255
208 228 255
208 228 255
208 228 255
208 228 255
208 228 255
208 228 255
208 228 255
208 228 255
208 228 255
208 228 255
208 228 255
208 228 255
208 228 255
209 228 255
209 228 255
209 229 255
209 229 255
209 229 255
209 229 255
209 229 255
209 229 255
209 229 255
209 229 255
209 229 255
209 229 255
209 229 255
209 229 255
209 229 255
209 229 255
209 229 255
209 229 255
209 229 255
209 229 255
209 229 255
210 229 255
210 229 255
210 229 255
210 229 255
210 229 255
210 229 255
210 229 255
210 229 255
210 229 255
210 229 255
210 229 255
210 229 255
210 229 255
210 229 255
210 229 255
210 229 255
210 229 255
210 229 255
210 229 255
210 230 255
210 230 255
211 230 255
211 230 255
211 230 255
211 230 255
211 230 255
211 230 255
211 230 255
211 230 255
211 230 255
211 230 255
211 230 255
211 230 255
211 230 255
211 230 255
211 230 255
211 230 255
211 230 255
211 230 255
211 230 255
211 230 255
211 230 255
211 230 255
211 230 255
211 230 255
212 230 255
212 230 255
212 230 255
212 230 255
212 230 255
212 230 255
212 230 255
212 230 255
212 230 255
212 230 255
212 230 255
212 230 255
212 230 255
212 230 255
212 230 255
212 230 255
212 230 255
212 230 255
212 230 255
212 231 255
212 231 255
212 231 255
212 231 255
212 231 255
212 231 255
212 231 255
212 231 255
213 231 255
213 231 255
213 231 255
213 231 255
213 231 255
213 231 255
213 231 255
213 231 255
213 231 255
213 231 255
213 231 255
213 231 255
213 231 255
213 231 255
213 231 255
213 231 255
213 231 255
213 231 255
213 231 255
213 231 255
213 231 255
213 231 255
213 231 255
213 231 255
213 231 255
213 231 255
213 231 255
213 231 255
213 231 255
213 231 255
213 231 255
213 231 255
213 231 255
213 231 255
213 231 255
213 231 255
213 231 255
213 231 255
213 231 255
213 231 255
213 231 255
213 231 255
213 231 255
213 231 255
213 231 255
213 231 255
213 231 255
213 231 255
213 231 255
213 231 255
213 231 255
213 231 255
213 231 255
213 231 255
213 231 255
213 231 255
213 231 255
213 231 255
213 231 255
212 231 255
212 231 255
212 231 255
212 231 255
212 231 255
212 231 255
212 231 255
212 231 255
212 230 255
212 230 255
212 230 255
212 230 255
212 230 255
212 230 255
212 230 255
212 230 255
212 230 255
212 230 255
212 230 255
212 230 255
212 230 255
212 230 255
212 230 255
212 230 255
212 230 255
212 230 255
212 230 255
211 230 255
211 230 255
211 230 255
211 230 255
211 230 255
211 230 255
211 230 255
211 230 255
211 230 255
211 230 255
211 230 255
211 230 255
211 230 255
211 230 255
211 230 255
211 230 255
211 230 255
211 230 255
211 230 255
211 230 255
211 230 255
211 230 255
211 230 255
210 230 255
210 230 255
210 230 255
210 229 255
210 229 255
210 229 255
210 229 255
210 229 255
210 229 255
210 229 255
210 229 255
210 229 255
210 229 255
210 229 255
210 229 255
210 229 255
210 229 255
210 229 255
210 229 255
210 229 255
210 229 255
210 229 255
209 229 255
209 229 255
209 229 255
209 229 255
209 229 255
209 229 255
209 229 255
209 229 255
209 229 255
209 229 255
209 229 255
209 229 255
209 229 255
209 229 255
209 229 255
209 229 255
209 229 255
209 229 255
209 229 255
209 228 255
208 228 255
208 228 255
208 228 255
208 228 255
208 228 255
208 228 255
208 228 255
208 228 255
208 228 255
208 228 255
208 228 255
208 228 255
208 228 255
208 228 255
208 228 255
208 228 255
208 228 255
208 228 255
208 228 255
208 228 255
208 228 255
208 228 255
208 228 255
207 228 255
207 228 255
207 228 255
207 228 255
207 228 255
207 228 255
207 228 255
207 228 255
204 224 252
107 118 133
6 6 7
5 6 7
5 6 7
5 6 7
5 6 7
6 6 7
5 6 7
5 6 7
5 6 7
5 6 7
5 6 7
5 6 6
6 6 7
5 6 7
5 6 7
5 6 7
5 6 7
5 6 7
5 6 7
5 6 7
6 6 7
5 6 7
5 5 6
5 6 7
5 6 6
5 6 7
5 6 7
6 6 7
5 6 7
5 6 7
5 6 7
6 6 7
5 6 7
5 6 7
5 6 7
5 6 7
5 6 6
5 6 7
6 6 7
5 6 7
5 6 7
5 6 7
5 6 7
5 6 7
6 6 7
5 6 7
5 6 7
5 6 7
5 6 7
5 6 7
5 6 7
5 6 7
5 6 7
5 6 7
5 6 7
6 6 7
5 6 7
5 6 7
5 6 7
5 6 7
5 6 7
5 6 7
5 6 7
5 6 7
5 6 7
5 6 7
5 6 7
5 6 7
5 6 7
5 6 7
5 6 7
5 6 7
5 6 7
5 6 7
5 6 7
6 6 7
5 6 7
5 6 7
5 6 7
5 6 7
5 6 7
6 6 7
5 6 7
5 6 7
5 6 7
5 6 7
101 111 125
202 222 249
207 228 255
207 228 255
207 228 255
207 228 255
207 228 255
207 228 255
207 228 255
207 228 255
207 228 255
208 228 255
208 228 255
208 228 255
208 228 255
208 228 255
208 228 255
208 228 255
208 228 255
208 228 255
208 228 255
208 228 255
208 228 255
208 228 255
208 228 255
208 228 255
208 228 255
208 228 255
208 228 255
208 228 255
208 228 255
208 228 255
209 228 255
209 228 255
209 229 255
209 229 255
209 229 255
209 229 255
209 229 255
209 229 255
209 229 255
209 229 255
209 229 255
209 229 255
209 229 255
209 229 255
209 229 255
209 229 255
209 229 255
209 229 255
209 229 255
209 229 255
209 229 255
210 229 255
210 229 255
210 229 255
210 229 255
210 229 255
210 229 255
210 229 255
210 229 255
210 229 255
210 229 255
210 229 255
210 229 255
210 229 255
210 229 255
210 229 255
210 229 255
210 229 255
210 229 255
210 229 255
210 230 255
210 230 255
210 230 255
211 230 255
211 230 255
211 230 255
211 230 255
211 230 255
211 230 255
211 230 255
211 230 255
211 230 255
211 230 255
211 230 255
211 230 255
211 230 255
211 230 255
211 230 255
211 230 255
211 230 255
211 230 255
211 230 255
211 230 255
211 230 255
211 230 255
211 230 255
212 230 255
212 230 255
212 230 255
212 230 255
212 230 255
212 230 255
212 230 255
212 230 255
212 230 255
212 230 255
212 230 255
212 230 255
212 230 255
212 230 255
212 230 255
212 230 255
212 230 255
212 230 255
212 231 255
212 231 255
212 231 255
212 231 255
212 231 255
212 231 255
212 231 255
212 231 255
212 231 255
213 231 255
213 231 255
213 231 255
213 231 255
213 231 255
213 231 255
213 231 255
213 231 255
213 231 255
213 231 255
213 231 255
213 231 255
213 231 255
213 231 255
213 231 255
213 231 255
213 231 255
213 231 255
213 231 255
213 231 255
213 231 255
213 231 255
213 231 255
213 231 255
213 231 255
213 231 255
213 231 255
213 231 255
213 231 255
213 231 255
213 231 255
213 231 255
214 231 255
214 231 255
214 231 255
214 231 255
214 231 255
214 231 255
213 231 255
213 231 255
213 231 255
213 231 255
213 231 255
213 231 255
213 231 255
213 231 255
213 231 255
213 231 255
213 231 255
213 231 255
213 231 255
213 231 255
213 231 255
213 231 255
213 231 255
213 231 255
213 231 255
213 231 255
213 231 255
213 231 255
213 231 255
213 231 255
213 231 255
213 231 255
213 231 255
213 231 255
213 231 255
213 231 255
213 231 255
212 231 255
212 231 255
212 231 255
212 231 255
212 231 255
212 231 255
212 231 255
212 231 255
212 230 255
212 230 255
212 230 255
212 230 255
212 230 255
212 230 255
212 230 255
212 230 255
212 230 255
212 230 255
212 230 255
212 230 255
212 230 255
212 230 255
212 230 255
212 230 255
212 230 255
212 230 255
212 230 255
211 230 255
211 230 255
211 230 255
211 230 255
211 230 255
211 230 255
211 230 255
211 230 255
211 230 255
211 230 255
211 230 255
211 230 255
211 230 255
211 230 255
211 230 255
211 230 255
211 230 255
211 230 255
211 230 255
211 230 255
211 230 255
211 230 255
211 230 255
210 230 255
210 230 255
210 229 255
210 229 255
210 229 255
210 229 255
210 229 255
210 229 255
210 229 255
210 229 255
210 229 255
210 229 255
210 229 255
210 229 255
210 229 255
210 229 255
210 229 255
210 229 255
210 229 255
210 229 255
210 229 255
209 229 255
209 229 255
209 229 255
209 229 255
209 229 255
209 229 255
209 229 255
209 229 255
209 229 255
209 229 255
209 229 255
209 229 255
209 229 255
209 229 255
209 229 255
209 229 255
209 229 255
209 229 255
209 229 255
209 229 255
209 228 255
209 228 255
208 228 255
208 228 255
208 228 255
208 228 255
208 228 255
208 228 255
208 228 255
208 228 255
208 228 255
208 228 255
208 228 255
208 228 255
208 228 255
208 228 255
208 228 255
208 228 255
208 228 255
208 228 255
208 228 255
208 228 255
208 228 255
208 228 255
208 228 255
207 228 255
198 217 244
106 116 130
5 6 7
5 6 7
5 6 7
5 6 7
5 6 7
5 6 7
5 6 7
5 6 7
5 6 7
5 6 7
5 6 7
5 6 7
5 6 7
5 6 7
5 6 7
5 6 7
5 6 7
5 6 7
5 6 7
5 6 7
5 6 7
5 6 7
5 6 7
5 6 7
5 6 7
5 6 7
5 6 7
5 6 7
5 6 7
5 6 7
5 6 7
5 6 7
5 6 7
5 6 7
5 6 7
5 6 6
5 6 7
5 6 7
5 6 7
5 6 7
5 6 7
5 6 7
5 6 7
5 6 6
5 6 7
5 6 7
5 6 7
5 6 7
5 6 7
5 6 6
5 6 7
5 6 7
5 6 7
5 6 7
5 6 7
5 6 7
5 6 7
5 6 7
5 6 7
5 6 7
5 6 7
5 6 7
5 6 7
5 6 7
5 6 7
5 6 7
5 6 7
5 6 7
5 6 7
5 6 7
5 6 7
5 6 7
5 6 7
5 6 7
5 6 7
5 6 7
5 6 7
5 6 7
5 6 7
5 6 7
5 6 7
6 6 7
5 6 7
5 6 7
5 6 7
5 6 7
5 6 7
5 6 7
95 104 117
202 222 249
207 228 255
208 228 255
208 228 255
208 228 255
208 228 255
208 228 255
208 228 255
208 228 255
208 228 255
208 228 255
208 228 255
208 228 255
208 228 255
208 228 255
208 228 255
208 228 255
208 228 255
208 228 255
208 228 255
208 228 255
208 228 255
208 228 255
208 228 255
208 228 255
209 228 255
209 228 255
209 229 255
209 229 255
209 229 255
209 229 255
209 229 255
209 229 255
209 229 255
209 229 255
209 229 255
209 229 255
209 229 255
209 229 255
209 229 255
209 229 255
209 229 255
209 229 255
209 229 255
209 229 255
209 229 255
210 229 255
210 229 255
210 229 255
210 229 255
210 229 255
210 229 255
210 229 255
210 229 255
210 229 255
210 229 255
210 229 255
210 229 255
210 229 255
210 229 255
210 229 255
210 229 255
210 229 255
210 229 255
210 229 255
210 229 255
210 230 255
210 230 255
211 230 255
211 230 255
211 230 255
211 230 255
211 230 255
211 230 255
211 230 255
211 230 255
211 230 255
211 230 255
211 230 255
211 230 255
211 230 255
211 230 255
211 230 255
211 230 255
211 230 255
211 230 255
211 230 255
211 230 255
211 230 255
211 230 255
211 230 255
211 230 255
212 230 255
212 230 255
212 230 255
212 230 255
212 230 255
212 230 255
212 230 255
212 230 255
212 230 255
212 230 255
212 230 255
212 230 255
212 230 255
212 230 255
212 230 255
212 230 255
212 230 255
212 230 255
212 231 255
212 231 255
212 231 255
212 231 255
212 231 255
212 231 255
212 231 255
212 231 255
213 231 255
213 231 255
213 231 255
213 231 255
213 231 255
213 231 255
213 231 255
213 231 255
213 231 255
213 231 255
213 231 255
213 231 255
213 231 255
213 231 255
213 231 255
213 231 255
213 231 255
213 231 255
213 231 255
213 231 255
213 231 255
213 231 255
213 231 255
213 231 255
213 231 255
213 231 255
213 231 255
213 231 255
213 231 255
213 231 255
213 231 255
214 231 255
214 231 255
214 231 255
214 231 255
214 231 255
214 231 255
214 231 255
214 231 255
214 231 255
214 231 255
214 231 255
214 231 255
214 231 255
214 231 255
214 231 255
214 231 255
214 231 255
213 231 255
213 231 255
213 231 255
213 231 255
213 231 255
213 231 255
213 231 255
213 231 255
213 231 255
213 231 255
213 231 255
213 231 255
213 231 255
213 231 255
213 231 255
213 231 255
213 231 255
213 231 255
213 231 255
213 231 255
213 231 255
213 231 255
213 231 255
213 231 255
213 231 255
213 231 255
213 231 255
213 231 255
213 231 255
213 231 255
213 231 255
212 231 255
212 231 255
212 231 255
212 231 255
212 231 255
212 231 255
212 231 255
212 231 255
212 230 255
212 230 255
212 230 255
212 230 255
212 230 255
212 230 255
212 230 255
212 230 255
212 230 255
212 230 255
212 230 255
212 230 255
212 230 255
212 230 255
212 230 255
212 230 255
212 230 255
212 230 255
211 230 255
211 230 255
211 230 255
211 230 255
211 230 255
211 230 255
211 230 255
211 230 255
211 230 255
211 230 255
211 230 255
211 230 255
211 230 255
211 230 255
211 230 255
211 230 255
211 230 255
211 230 255
211 230 255
211 230 255
211 230 255
211 230 255
211 230 255
211 230 255
210 230 255
210 230 255
210 229 255
210 229 255
210 229 255
210 229 255
210 229 255
210 229 255
210 229 255
210 229 255
210 229 255
210 229 255
210 229 255
210 229 255
210 229 255
210 229 255
210 229 255
210 229 255
210 229 255
210 229 255
210 229 255
209 229 255
209 229 255
209 229 255
209 229 255
209 229 255
209 229 255
209 229 255
209 229 255
209 229 255
209 229 255
209 229 255
209 229 255
209 229 255
209 229 255
209 229 255
209 229 255
209 229 255
209 229 255
209 229 255
209 229 255
209 228 255
209 228 255
208 228 255
208 228 255
208 228 255
208 228 255
208 228 255
208 228 255
208 228 255
208 228 255
208 228 255
208 228 255
208 228 255
208 228 255
208 228 255
208 228 255
208 228 255
208 228 255
208 228 255
208 228 255
202 222 249
72 79 88
5 6 7
5 6 7
6 6 7
5 6 7
5 6 7
5 6 7
5 6 7
5 6 7
5 6 7
5 6 7
5 6 7
5 6 7
5 6 7
5 6 7
5 6 7
5 6 7
5 6 7
5 6 7
5 6 7
5 6 7
5 6 7
5 6 7
5 6 7
5 6 7
5 6 6
5 6 7
5 6 7
5 6 7
5 6 7
5 6 7
5 6 7
5 6 7
5 6 7
5 6 7
5 6 7
5 6 7
5 6 7
5 6 7
5 6 7
5 6 7
5 6 7
5 6 7
5 5 6
5 6 7
5 6 7
5 6 7
5 6 7
5 6 7
5 6 7
5 6 7
5 6 6
5 6 7
5 6 7
5 6 7
5 6 7
5 6 7
5 6 7
5 6 7
5 5 6
5 6 7
5 6 7
5 6 7
5 6 7
5 6 7
5 6 6
5 6 7
5 6 7
5 6 7
5 6 7
5 6 7
5 6 7
5 6 7
5 6 7
5 6 7
5 6 7
5 6 7
5 6 7
5 6 6
6 6 7
5 6 7
5 6 7
5 6 7
5 6 7
5 6 7
5 6 7
5 6 7
5 6 7
5 6 7
5 6 7
5 6 7
97 107 120
199 219 245
208 228 255
208 228 255
208 228 255
208 228 255
208 228 255
208 228 255
208 228 255
208 228 255
208 228 255
208 228 255
208 228 255
208 228 255
208 228 255
208 228 255
208 228 255
208 228 255
208 228 255
208 228 255
209 228 255
209 228 255
209 229 255
209 229 255
209 229 255
209 229 255
209 229 255
209 229 255
209 229 255
209 229 255
209 229 255
209 229 255
209 229 255
209 229 255
209 229 255
209 229 255
209 229 255
209 229 255
209 229 255
209 229 255
209 229 255
209 229 255
210 229 255
210 229 255
210 229 255
210 229 255
210 229 255
210 229 255
210 229 255
210 229 255
210 229 255
210 229 255
210 229 255
210 229 255
210 229 255
210 229 255
210 229 255
210 229 255
210 229 255
210 229 255
210 229 255
210 230 255
210 230 255
211 230 255
211 230 255
211 230 255
211 230 255
211 230 255
211 230 255
211 230 255
211 230 255
211 230 255
211 230 255
211 230 255
211 230 255
211 230 255
211 230 255
211 230 255
211 230 255
211 230 255
211 230 255
211 230 255
211 230 255
211 230 255
211 230 255
211 230 255
212 230 255
212 230 255
212 230 255
212 230 255
212 230 255
212 230 255
212 230 255
212 230 255
212 230 255
212 230 255
212 230 255
212 230 255
212 230 255
212 230 255
212 230 255
212 230 255
212 230 255
212 230 255
212 231 255
212 231 255
212 231 255
212 231 255
212 231 255
212 231 255
212 231 255
212 231 255
212 231 255
213 231 255
213 231 255
213 231 255
213 231 255
213 231 255
213 231 255
213 231 255
213 231 255
213 231 255
213 231 255
213 231 255
213 231 255
213 231 255
213 231 255
213 231 255
213 231 255
213 231 255
213 231 255
213 231 255
213 231 255
213 231 255
213 231 255
213 231 255
213 231 255
213 231 255
213 231 255
213 231 255
213 231 255
213 231 255
213 231 255
213 231 255
214 231 255
214 231 255
214 231 255
214 231 255
214 231 255
214 231 255
214 231 255
214 231 255
214 231 255
214 231 255
214 231 255
214 231 255
214 231 255
214 231 255
214 231 255
214 231 255
214 231 255
214 231 255
214 231 255
214 231 255
214 231 255
214 231 255
214 231 255
214 231 255
214 231 255
214 231 255
214 231 255
214 231 255
213 231 255
213 231 255
213 231 255
213 231 255
213 231 255
213 231 255
213 231 255
213 231 255
213 231 255
213 231 255
213 231 255
213 231 255
213 231 255
213 231 255
213 231 255
213 231 255
213 231 255
213 231 255
213 231 255
213 231 255
213 231 255
213 231 255
213 231 255
213 231 255
213 231 255
213 231 255
213 231 255
213 231 255
213 231 255
213 231 255
212 231 255
212 231 255
212 231 255
212 231 255
212 231 255
212 231 255
212 231 255
212 231 255
212 230 255
212 230 255
212 230 255
212 230 255
212 230 255
212 230 255
212 230 255
212 230 255
212 230 255
212 230 255
212 230 255
212 230 255
212 230 255
212 230 255
212 230 255
212 230 255
212 230 255
212 230 255
212 230 255
211 230 255
211 230 255
211 230 255
211 230 255
211 230 255
211 230 255
211 230 255
211 230 255
211 230 255
211 230 255
211 230 255
211 230 255
211 230 255
211 230 255
211 230 255
211 230 255
211 230 255
211 230 255
211 230 255
211 230 255
211 230 255
211 230 255
211 230 255
210 230 255
210 230 255
210 229 255
210 229 255
210 229 255
210 229 255
210 229 255
210 229 255
210 229 255
210 229 255
210 229 255
210 229 255
210 229 255
210 229 255
210 229 255
210 229 255
210 229 255
210 229 255
210 229 255
210 229 255
210 229 255
210 229 255
209 229 255
209 229 255
209 229 255
209 229 255
209 229 255
209 229 255
209 229 255
209 229 255
209 229 255
209 229 255
209 229 255
209 229 255
209 229 255
209 229 255
209 229 255
209 229 255
209 229 255
209 229 255
209 229 255
209 229 255
209 228 255
209 228 255
208 228 255
208 228 255
208 228 255
208 228 255
208 228 255
208 228 255
208 228 255
208 228 255
208 228 255
208 228 255
208 228 255
200 219 245
93 102 114
5 6 7
5 6 7
5 6 7
5 6 7
5 6 7
5 6 7
5 6 7
5 6 7
5 6 7
5 6 7
5 6 7
5 6 7
5 6 7
5 6 7
5 6 7
5 6 7
5 6 7
5 6 7
5 6 7
5 6 6
5 6 7
5 6 6
5 6 7
5 6 7
5 6 7
5 6 7
5 6 7
5 6 7
5 6 6
5 6 7
5 6 7
6 6 7
5 6 7
5 6 7
5 6 7
5 6 7
5 6 7
5 6 7
5 6 7
5 6 7
5 6 7
5 6 7
5 6 7
5 6 7
5 6 7
5 6 6
5 6 7
5 6 7
5 6 7
5 6 7
5 6 7
5 6 7
5 6 7
5 6 7
5 6 7
5 6 7
5 6 7
5 6 7
5 6 7
5 6 7
5 6 7
5 6 7
5 6 7
5 6 7
5 6 7
5 6 7
5 6 7
5 6 7
5 6 7
5 6 7
5 6 7
5 6 7
6 6 7
5 6 7
5 6 7
5 6 7
5 6 7
5 6 7
5 6 7
5 6 7
5 6 7
5 6 7
5 6 7
5 6 7
5 6 7
5 6 7
5 6 7
6 6 7
5 6 7
5 6 7
5 6 7
5 6 7
90 99 111
202 221 248
208 228 255
208 228 255
208 228 255
208 228 255
208 228 255
208 228 255
208 228 255
208 228 255
208 228 255
208 228 255
208 228 255
209 228 255
209 228 255
209 229 255
209 229 255
209 229 255
209 229 255
209 229 255
209 229 255
209 229 255
209 229 255
209 229 255
209 229 255
209 229 255
209 229 255
209 229 255
209 229 255
209 229 255
209 229 255
209 229 255
209 229 255
209 229 255
209 229 255
210 229 255
210 229 255
210 229 255
210 229 255
210 229 255
210 229 255
210 229 255
210 229 255
210 229 255
210 229 255
210 229 255
210 229 255
210 229 255
210 229 255
210 229 255
210 229 255
210 229 255
210 229 255
210 229 255
210 230 255
210 230 255
210 230 255
210 230 255
211 230 255
211 230 255
211 230 255
211 230 255
211 230 255
211 230 255
211 230 255
211 230 255
211 230 255
211 230 255
211 230 255
211 230 255
211 230 255
211 230 255
211 230 255
211 230 255
211 230 255
211 230 255
211 230 255
211 230 255
211 230 255
211 230 255
211 230 255
212 230 255
212 230 255
212 230 255
212 230 255
212 230 255
212 230 255
212 230 255
212 230 255
212 230 255
212 230 255
212 230 255
212 230 255
212 230 255
212 230 255
212 230 255
212 230 255
212 230 255
212 230 255
212 231 255
212 231 255
212 231 255
212 231 255
212 231 255
212 231 255
212 231 255
212 231 255
213 231 255
213 231 255
213 231 255
213 231 255
213 231 255
213 231 255
213 231 255
213 231 255
213 231 255
213 231 255
213 231 255
213 231 255
213 231 255
213 231 255
213 231 255
213 231 255
213 231 255
213 231 255
213 231 255
213 231 255
213 231 255
213 231 255
213 231 255
213 231 255
213 231 255
213 231 255
213 231 255
213 231 255
213 231 255
213 231 255
214 231 255
214 231 255
214 231 255
214 231 255
214 231 255
214 231 255
214 231 255
214 231 255
214 231 255
214 231 255
214 231 255
214 231 255
214 231 255
214 231 255
214 231 255
214 231 255
214 231 255
214 232 255
214 232 255
214 232 255
214 232 255
214 231 255
214 231 255
214 231 255
214 231 255
214 231 255
214 231 255
214 231 255
214 231 255
214 231 255
214 231 255
214 231 255
214 231 255
214 231 255
214 231 255
214 231 255
214 231 255
214 231 255
214 231 255
213 231 255
213 231 255
213 231 255
213 231 255
213 231 255
213 231 255
213 231 255
213 231 255
213 231 255
213 231 255
213 231 255
213 231 255
213 231 255
213 231 255
213 231 255
213 231 255
213 231 255
213 231 255
213 231 255
213 231 255
213 231 255
213 231 255
213 231 255
213 231 255
213 231 255
213 231 255
213 231 255
213 231 255
213 231 255
213 231 255
213 231 255
212 231 255
212 231 255
212 231 255
212 231 255
212 231 255
212 231 255
212 231 255
212 230 255
212 230 255
212 230 255
212 230 255
212 230 255
212 230 255
212 230 255
212 230 255
212 230 255
212 230 255
212 230 255
212 230 255
212 230 255
212 230 255
212 230 255
212 230 255
212 230 255
212 230 255
212 230 255
211 230 255
211 230 255
211 230 255
211 230 255
211 230 255
211 230 255
211 230 255
211 230 255
211 230 255
211 230 255
211 230 255
211 230 255
211 230 255
211 230 255
211 230 255
211 230 255
211 230 255
211 230 255
211 230 255
211 230 255
211 230 255
211 230 255
211 230 255
210 230 255
210 230 255
210 229 255
210 229 255
210 229 255
210 229 255
210 229 255
210 229 255
210 229 255
210 229 255
210 229 255
210 229 255
210 229 255
210 229 255
210 229 255
210 229 255
210 229 255
210 229 255
210 229 255
210 229 255
210 229 255
210 229 255
209 229 255
209 229 255
209 229 255
209 229 255
209 229 255
209 229 255
209 229 255
209 229 255
209 229 255
209 229 255
209 229 255
209 229 255
209 229 255
209 229 255
209 229 255
209 229 255
209 229 255
209 229 255
209 229 255
209 229 255
209 229 255
209 229 255
209 228 255
208 228 255
208 228 255
208 228 255
208 228 255
207 227 254
108 119 133
5 6 7
5 6 7
5 6 7
5 6 7
5 6 7
5 6 7
5 6 7
5 6 7
5 6 6
5 6 7
5 6 7
5 6 7
5 6 7
5 6 7
5 6 7
5 6 7
6 6 7
5 6 7
5 6 7
5 6 7
5 6 7
5 6 7
5 6 7
5 6 7
5 6 7
5 6 7
5 6 7
5 6 7
5 6 7
5 6 7
5 6 6
6 6 7
5 6 7
5 6 7
5 6 7
5 6 6
5 6 7
5 6 7
5 6 7
5 6 7
5 6 7
5 6 7
5 6 7
5 6 7
6 6 7
5 6 7
5 6 7
5 6 7
5 6 7
5 5 6
5 6 7
5 6 7
5 6 6
6 6 7
5 6 7
5 6 7
5 6 7
5 6 7
5 6 7
5 6 7
5 6 7
5 6 7
5 6 7
5 6 7
5 6 7
5 6 7
5 6 7
5 6 7
5 6 7
5 6 7
6 6 7
5 6 7
5 6 7
5 6 7
5 6 6
5 6 7
5 6 7
5 6 7
5 6 7
5 6 7
6 6 7
5 6 7
5 6 7
5 6 7
5 6 7
5 6 7
5 6 7
5 6 7
5 6 7
5 6 7
5 6 7
5 6 7
5 6 7
5 6 7
102 112 125
207 227 254
208 228 255
208 228 255
208 228 255
208 228 255
209 228 255
209 229 255
209 229 255
209 229 255
209 229 255
209 229 255
209 229 255
209 229 255
209 229 255
209 229 255
209 229 255
209 229 255
209 229 255
209 229 255
209 229 255
209 229 255
209 229 255
209 229 255
209 229 255
209 229 255
209 229 255
209 229 255
209 229 255
210 229 255
210 229 255
210 229 255
210 229 255
210 229 255
210 229 255
210 229 255
210 229 255
210 229 255
210 229 255
210 229 255
210 229 255
210 229 255
210 229 255
210 229 255
210 229 255
210 229 255
210 229 255
210 229 255
210 229 255
210 230 255
210 230 255
211 230 255
211 230 255
211 230 255
211 230 255
211 230 255
211 230 255
211 230 255
211 230 255
211 230 255
211 230 255
211 230 255
211 230 255
211 230 255
211 230 255
211 230 255
211 230 255
211 230 255
211 230 255
211 230 255
211 230 255
211 230 255
211 230 255
211 230 255
212 230 255
212 230 255
212 230 255
212 230 255
212 230 255
212 230 255
212 230 255
212 230 255
212 230 255
212 230 255
212 230 255
212 230 255
212 230 255
212 230 255
212 230 255
212 230 255
212 230 255
212 230 255
212 230 255
212 231 255
212 231 255
212 231 255
212 231 255
212 231 255
212 231 255
212 231 255
213 231 255
213 231 255
213 231 255
213 231 255
213 231 255
213 231 255
213 231 255
213 231 255
213 231 255
213 231 255
213 231 255
213 231 255
213 231 255
213 231 255
213 231 255
213 231 255
213 231 255
213 231 255
213 231 255
213 231 255
213 231 255
213 231 255
213 231 255
213 231 255
213 231 255
213 231 255
213 231 255
213 231 255
213 231 255
213 231 255
213 231 255
214 231 255
214 231 255
214 231 255
214 231 255
214 231 255
214 231 255
214 231 255
214 231 255
214 231 255
214 231 255
214 231 255
214 231 255
214 231 255
214 231 255
214 231 255
214 231 255
214 231 255
214 231 255
214 232 255
214 232 255
214 232 255
214 232 255
214 232 255
214 232 255
214 232 255
214 232 255
214 232 255
214 232 255
214 232 255
214 232 255
214 232 255
214 232 255
214 232 255
214 231 255
214 231 255
214 231 255
214 231 255
214 231 255
214 231 255
214 231 255
214 231 255
214 231 255
214 231 255
214 231 255
214 231 255
214 231 255
214 231 255
214 231 255
214 231 255
214 231 255
213 231 255
213 231 255
213 231 255
213 231 255
213 231 255
213 231 255
213 231 255
213 231 255
213 231 255
213 231 255
213 231 255
213 231 255
213 231 255
213 231 255
213 231 255
213 231 255
213 231 255
213 231 255
213 231 255
213 231 255
213 231 255
213 231 255
213 231 255
213 231 255
213 231 255
213 231 255
213 231 255
213 231 255
213 231 255
213 231 255
212 231 255
212 231 255
212 231 255
212 231 255
212 231 255
212 231 255
212 231 255
212 231 255
212 230 255
212 230 255
212 230 255
212 230 255
212 230 255
212 230 255
212 230 255
212 230 255
212 230 255
212 230 255
212 230 255
212 230 255
212 230 255
212 230 255
212 230 255
212 230 255
212 230 255
212 230 255
211 230 255
211 230 255
211 230 255
211 230 255
211 230 255
211 230 255
211 230 255
211 230 255
211 230 255
211 230 255
211 230 255
211 230 255
211 230 255
211 230 255
211 230 255
211 230 255
211 230 255
211 230 255
211 230 255
211 230 255
211 230 255
211 230 255
211 230 255
210 230 255
210 230 255
210 229 255
210 229 255
210 229 255
210 229 255
210 229 255
210 229 255
210 229 255
210 229 255
210 229 255
210 229 255
210 229 255
210 229 255
210 229 255
210 229 255
210 229 255
210 229 255
210 229 255
210 229 255
210 229 255
210 229 255
210 229 255
209 229 255
209 229 255
209 229 255
209 229 255
209 229 255
209 229 255
209 229 255
209 229 255
209 229 255
209 229 255
209 229 255
209 229 255
209 229 255
209 229 255
209 229 255
209 229 255
209 229 255
209 229 255
209 229 255
209 229 255
209 229 255
121 133 149
5 6 7
5 6 7
5 6 7
5 6 7
5 6 7
5 6 7
5 6 7
5 6 6
5 6 7
5 6 7
5 6 7
5 6 7
5 6 7
5 6 7
5 6 7
5 6 7
5 6 7
5 6 7
5 6 7
5 6 7
5 6 7
5 6 7
5 6 7
5 6 7
5 6 7
5 5 6
5 6 7
5 6 7
5 6 6
5 6 7
5 6 7
5 6 6
5 6 6
5 6 7
5 6 7
5 6 7
5 6 7
5 6 7
5 6 7
5 6 7
5 6 7
5 6 6
5 6 7
5 6 6
5 6 7
5 5 6
5 6 7
5 6 7
5 6 7
5 6 7
5 6 7
5 6 6
5 6 7
5 6 6
5 6 7
5 6 7
5 6 7
5 6 6
5 6 7
5 6 7
5 6 7
5 6 7
5 6 6
5 6 6
5 6 7
5 6 7
5 6 7
5 6 7
5 6 7
5 6 7
5 6 7
5 6 7
5 6 7
5 6 7
5 6 6
5 6 7
5 6 7
5 6 7
5 6 7
5 6 7
5 6 7
5 6 7
5 6 7
5 6 7
5 6 7
5 6 7
5 6 7
5 6 7
5 6 7
5 6 7
5 6 7
5 6 7
5 6 7
5 6 7
6 6 7
5 6 7
125 137 153
209 229 255
209 229 255
209 229 255
209 229 255
209 229 255
209 229 255
209 229 255
209 229 255
209 229 255
209 229 255
209 229 255
209 229 255
209 229 255
209 229 255
209 229 255
209 229 255
209 229 255
209 229 255
209 229 255
209 229 255
209 229 255
210 229 255
210 229 255
210 229 255
210 229 255
210 229 255
210 229 255
210 229 255
210 229 255
210 229 255
210 229 255
210 229 255
210 229 255
210 229 255
210 229 255
210 229 255
210 229 255
210 229 255
210 229 255
210 229 255
210 229 255
210 229 255
210 230 255
210 230 255
211 230 255
211 230 255
211 230 255
211 230 255
211 230 255
211 230 255
211 230 255
211 230 255
211 230 255
211 230 255
211 230 255
211 230 255
211 230 255
211 230 255
211 230 255
211 230 255
211 230 255
211 230 255
211 230 255
211 230 255
211 230 255
211 230 255
211 230 255
212 230 255
212 230 255
212 230 255
212 230 255
212 230 255
212 230 255
212 230 255
212 230 255
212 230 255
212 230 255
212 230 255
212 230 255
212 230 255
212 230 255
212 230 255
212 230 255
212 230 255
212 230 255
212 231 255
212 231 255
212 231 255
212 231 255
212 231 255
212 231 255
212 231 255
212 231 255
213 231 255
213 231 255
213 231 255
213 231 255
213 231 255
213 231 255
213 231 255
213 231 255
213 231 255
213 231 255
213 231 255
213 231 255
213 231 255
213 231 255
213 231 255
213 231 255
213 231 255
213 231 255
213 231 255
213 231 255
213 231 255
213 231 255
213 231 255
213 231 255
213 231 255
213 231 255
213 231 255
213 231 255
213 231 255
213 231 255
214 231 255
214 231 255
214 231 255
214 231 255
214 231 255
214 231 255
214 231 255
214 231 255
214 231 255
214 231 255
214 231 255
214 231 255
214 231 255
214 231 255
214 231 255
214 231 255
214 231 255
214 231 255
214 232 255
214 232 255
214 232 255
214 232 255
214 232 255
214 232 255
214 232 255
214 232 255
214 232 255
214 232 255
214 232 255
214 232 255
214 232 255
214 232 255
214 232 255
214 232 255
214 232 255
214 232 255
214 232 255
214 232 255
214 232 255
214 232 255
214 232 255
214 232 255
214 232 255
214 232 255
214 232 255
214 231 255
214 231 255
214 231 255
214 231 255
214 231 255
214 231 255
214 231 255
214 231 255
214 231 255
214 231 255
214 231 255
214 231 255
214 231 255
214 231 255
214 231 255
214 231 255
214 231 255
213 231 255
213 231 255
213 231 255
213 231 255
213 231 255
213 231 255
213 231 255
213 231 255
213 231 255
213 231 255
213 231 255
213 231 255
213 231 255
213 231 255
213 231 255
213 231 255
213 231 255
213 231 255
213 231 255
213 231 255
213 231 255
213 231 255
213 231 255
213 231 255
213 231 255
213 231 255
213 231 255
213 231 255
213 231 255
212 231 255
212 231 255
212 231 255
212 231 255
212 231 255
212 231 255
212 231 255
212 231 255
212 230 255
212 230 255
212 230 255
212 230 255
212 230 255
212 230 255
212 230 255
212 230 255
212 230 255
212 230 255
212 230 255
212 230 255
212 230 255
212 230 255
212 230 255
212 230 255
212 230 255
212 230 255
211 230 255
211 230 255
211 230 255
211 230 255
211 230 255
211 230 255
211 230 255
211 230 255
211 230 255
211 230 255
211 230 255
211 230 255
211 230 255
211 230 255
211 230 255
211 230 255
211 230 255
211 230 255
211 230 255
211 230 255
211 230 255
211 230 255
211 230 255
211 230 255
210 230 255
210 230 255
210 229 255
210 229 255
210 229 255
210 229 255
210 229 255
210 229 255
210 229 255
210 229 255
210 229 255
210 229 255
210 229 255
210 229 255
210 229 255
210 229 255
210 229 255
210 229 255
210 229 255
210 229 255
210 229 255
210 229 255
210 229 255
209 229 255
209 229 255
209 229 255
209 229 255
209 229 255
209 229 255
209 229 255
209 229 255
209 229 255
209 229 255
209 229 255
209 229 255
209 229 255
209 229 255
148 162 181
5 6 7
5 6 7
5 6 7
5 6 7
6 6 7
5 6 7
6 6 7
5 6 7
5 6 7
5 6 7
5 6 7
5 6 7
5 6 7
5 6 7
5 6 7
5 6 6
5 6 6
5 6 7
5 6 6
5 6 6
6 6 7
5 6 6
5 5 6
5 6 7
5 6 7
5 6 7
5 6 7
5 6 7
5 6 7
5 6 6
5 6 7
5 5 6
5 6 7
5 6 6
5 6 7
5 6 7
5 6 6
5 6 7
5 6 7
5 6 6
5 6 7
5 6 7
5 6 7
5 6 7
5 6 6
5 6 7
5 6 7
5 6 7
5 6 7
5 6 7
5 6 7
5 6 7
5 6 7
5 6 6
5 6 6
5 5 6
5 6 7
5 6 6
5 6 7
6 6 7
5 6 7
5 5 6
5 6 7
5 6 7
5 6 7
5 6 6
5 6 7
5 6 7
5 6 7
5 6 7
5 6 6
5 6 7
5 6 6
5 6 7
5 6 7
5 6 7
5 6 7
5 6 6
5 6 7
5 6 6
5 6 7
5 6 7
5 6 7
5 6 7
5 6 7
5 6 7
5 6 7
5 6 7
5 6 6
5 6 7
5 6 7
5 6 7
5 6 7
5 6 7
5 6 7
5 6 7
5 6 7
5 6 7
146 160 179
209 229 255
209 229 255
209 229 255
209 229 255
209 229 255
209 229 255
209 229 255
209 229 255
209 229 255
209 229 255
209 229 255
209 229 255
209 229 255
209 229 255
210 229 255
210 229 255
210 229 255
210 229 255
210 229 255
210 229 255
210 229 255
210 229 255
210 229 255
210 229 255
210 229 255
210 229 255
210 229 255
210 229 255
210 229 255
210 229 255
210 229 255
210 229 255
210 229 255
210 229 255
210 229 255
210 230 255
210 230 255
210 230 255
211 230 255
211 230 255
211 230 255
211 230 255
211 230 255
211 230 255
211 230 255
211 230 255
211 230 255
211 230 255
211 230 255
211 230 255
211 230 255
211 230 255
211 230 255
211 230 255
211 230 255
211 230 255
211 230 255
211 230 255
211 230 255
211 230 255
211 230 255
212 230 255
212 230 255
212 230 255
212 230 255
212 230 255
212 230 255
212 230 255
212 230 255
212 230 255
212 230 255
212 230 255
212 230 255
212 230 255
212 230 255
212 230 255
212 230 255
212 230 255
212 230 255
212 231 255
212 231 255
212 231 255
212 231 255
212 231 255
212 231 255
212 231 255
212 231 255
213 231 255
213 231 255
213 231 255
213 231 255
213 231 255
213 231 255
213 231 255
213 231 255
213 231 255
213 231 255
213 231 255
213 231 255
213 231 255
213 231 255
213 231 255
213 231 255
213 231 255
213 231 255
213 231 255
213 231 255
213 231 255
213 231 255
213 231 255
213 231 255
213 231 255
213 231 255
213 231 255
213 231 255
213 231 255
214 231 255
214 231 255
214 231 255
214 231 255
214 231 255
214 231 255
214 231 255
214 231 255
214 231 255
214 231 255
214 231 255
214 231 255
214 231 255
214 231 255
214 231 255
214 231 255
214 231 255
214 231 255
214 232 255
214 232 255
214 232 255
214 232 255
214 232 255
214 232 255
214 232 255
214 232 255
214 232 255
214 232 255
214 232 255
214 232 255
214 232 255
214 232 255
214 232 255
214 232 255
215 232 255
215 232 255
215 232 255
215 232 255
214 232 255
214 232 255
214 232 255
214 232 255
214 232 255
214 232 255
214 232 255
214 232 255
214 232 255
214 232 255
214 232 255
214 232 255
214 232 255
214 232 255
214 232 255
214 232 255
214 232 255
214 232 255
214 231 255
214 231 255
214 231 255
214 231 255
214 231 255
214 231 255
214 231 255
214 231 255
214 231 255
214 231 255
214 231 255
214 231 255
214 231 255
214 231 255
214 231 255
214 231 255
214 231 255
214 231 255
213 231 255
213 231 255
213 231 255
213 231 255
213 231 255
213 231 255
213 231 255
213 231 255
213 231 255
213 231 255
213 231 255
213 231 255
213 231 255
213 231 255
213 231 255
213 231 255
213 231 255
213 231 255
213 231 255
213 231 255
213 231 255
213 231 255
213 231 255
213 231 255
213 231 255
213 231 255
213 231 255
213 231 255
213 231 255
212 231 255
212 231 255
212 231 255
212 231 255
212 231 255
212 231 255
212 231 255
212 230 255
212 230 255
212 230 255
212 230 255
212 230 255
212 230 255
212 230 255
212 230 255
212 230 255
212 230 255
212 230 255
212 230 255
212 230 255
212 230 255
212 230 255
212 230 255
212 230 255
212 230 255
211 230 255
211 230 255
211 230 255
211 230 255
211 230 255
211 230 255
211 230 255
211 230 255
211 230 255
211 230 255
211 230 255
211 230 255
211 230 255
211 230 255
211 230 255
211 230 255
211 230 255
211 230 255
211 230 255
211 230 255
211 230 255
211 230 255
211 230 255
211 230 255
210 230 255
210 230 255
210 230 255
210 229 255
210 229 255
210 229 255
210 229 255
210 229 255
210 229 255
210 229 255
210 229 255
210 229 255
210 229 255
210 229 255
210 229 255
210 229 255
210 229 255
210 229 255
210 229 255
210 229 255
210 229 255
210 229 255
210 229 255
210 229 255
209 229 255
209 229 255
209 229 255
209 229 255
209 229 255
209 229 255
209 229 255
167 183 204
5 6 7
5 6 7
5 6 7
5 6 6
5 6 7
5 6 7
5 6 7
5 6 6
5 6 7
5 6 7
5 6 7
5 6 7
5 6 7
5 6 7
5 6 6
5 6 7
5 6 7
5 6 7
5 6 7
5 6 7
5 5 6
5 6 7
5 6 6
5 6 7
5 6 6
6 6 7
5 6 6
5 6 6
5 6 7
5 6 7
5 6 7
5 6 7
5 6 6
5 6 7
5 6 7
5 5 6
5 6 6
5 5 6
5 6 7
5 6 7
5 6 7
5 6 6
5 6 7
5 6 7
5 6 7
5 6 6
6 6 7
5 5 6
5 6 7
5 6 6
5 6 7
5 6 6
5 6 7
5 5 6
5 6 7
5 6 7
5 6 7
5 6 6
5 6 7
5 6 7
5 6 7
5 6 7
5 6 7
5 5 6
5 6 7
5 6 7
5 6 7
5 6 6
5 6 6
5 6 7
5 6 7
5 6 7
5 6 7
5 6 6
5 6 7
5 6 6
5 6 6
5 6 7
5 6 6
5 6 7
5 6 7
5 6 7
5 5 6
5 6 7
5 5 6
5 6 6
5 6 7
5 6 7
6 6 7
5 5 6
5 6 7
5 6 6
5 6 7
5 6 7
5 6 6
5 6 7
5 6 7
5 6 7
5 6 7
5 6 7
171 187 209
209 229 255
209 229 255
209 229 255
209 229 255
209 229 255
209 229 255
209 229 255
210 229 255
210 229 255
210 229 255
210 229 255
210 229 255
210 229 255
210 229 255
210 229 255
210 229 255
210 229 255
210 229 255
210 229 255
210 229 255
210 229 255
210 229 255
210 229 255
210 229 255
210 229 255
210 229 255
210 229 255
210 229 255
210 230 255
210 230 255
210 230 255
211 230 255
211 230 255
211 230 255
211 230 255
211 230 255
211 230 255
211 230 255
211 230 255
211 230 255
211 230 255
211 230 255
211 230 255
211 230 255
211 230 255
211 230 255
211 230 255
211 230 255
211 230 255
211 230 255
211 230 255
211 230 255
211 230 255
211 230 255
212 230 255
212 230 255
212 230 255
212 230 255
212 230 255
212 230 255
212 230 255
212 230 255
212 230 255
212 230 255
212 230 255
212 230 255
212 230 255
212 230 255
212 230 255
212 230 255
212 230 255
212 230 255
212 231 255
212 231 255
212 231 255
212 231 255
212 231 255
212 231 255
212 231 255
212 231 255
213 231 255
213 231 255
213 231 255
213 231 255
213 231 255
213 231 255
213 231 255
213 231 255
213 231 255
213 231 255
213 231 255
213 231 255
213 231 255
213 231 255
213 231 255
213 231 255
213 231 255
213 231 255
213 231 255
213 231 255
213 231 255
213 231 255
213 231 255
213 231 255
213 231 255
213 231 255
213 231 255
213 231 255
213 231 255
214 231 255
214 231 255
214 231 255
214 231 255
214 231 255
214 231 255
214 231 255
214 231 255
214 231 255
214 231 255
214 231 255
214 231 255
214 231 255
214 231 255
214 231 255
214 231 255
214 231 255
214 231 255
214 232 255
214 232 255
214 232 255
214 232 255
214 232 255
214 232 255
214 232 255
214 232 255
214 232 255
214 232 255
214 232 255
214 232 255
214 232 255
214 232 255
214 232 255
214 232 255
214 232 255
214 232 255
215 232 255
215 232 255
215 232 255
215 232 255
215 232 255
215 232 255
215 232 255
215 232 255
215 232 255
215 232 255
215 232 255
215 232 255
215 232 255
215 232 255
214 232 255
214 232 255
214 232 255
214 232 255
214 232 255
214 232 255
214 232 255
214 232 255
214 232 255
214 232 255
214 232 255
214 232 255
214 232 255
214 232 255
214 232 255
214 232 255
214 232 255
214 232 255
214 232 255
214 231 255
214 231 255
214 231 255
214 231 255
214 231 255
214 231 255
214 231 255
214 231 255
214 231 255
214 231 255
214 231 255
214 231 255
214 231 255
214 231 255
214 231 255
214 231 255
214 231 255
213 231 255
213 231 255
213 231 255
213 231 255
213 231 255
213 231 255
213 231 255
213 231 255
213 231 255
213 231 255
213 231 255
213 231 255
213 231 255
213 231 255
213 231 255
213 231 255
213 231 255
213 231 255
213 231 255
213 231 255
213 231 255
213 231 255
213 231 255
213 231 255
213 231 255
213 231 255
213 231 255
213 231 255
213 231 255
212 231 255
212 231 255
212 231 255
212 231 255
212 231 255
212 231 255
212 231 255
212 230 255
212 230 255
212 230 255
212 230 255
212 230 255
212 230 255
212 230 255
212 230 255
212 230 255
212 230 255
212 230 255
212 230 255
212 230 255
212 230 255
212 230 255
212 230 255
212 230 255
212 230 255
211 230 255
211 230 255
211 230 255
211 230 255
211 230 255
211 230 255
211 230 255
211 230 255
211 230 255
211 230 255
211 230 255
211 230 255
211 230 255
211 230 255
211 230 255
211 230 255
211 230 255
211 230 255
211 230 255
211 230 255
211 230 255
211 230 255
211 230 255
211 230 255
210 230 255
210 230 255
210 230 255
210 229 255
210 229 255
210 229 255
210 229 255
210 229 255
210 229 255
210 229 255
210 229 255
210 229 255
210 229 255
210 229 255
210 229 255
210 229 255
210 229 255
210 229 255
210 229 255
210 229 255
210 229 255
210 229 255
210 229 255
210 229 255
176 193 215
55 61 68
5 6 7
5 6 7
5 6 7
5 6 7
5 6 7
5 6 7
5 6 7
5 6 7
5 6 7
5 6 7
5 6 7
5 6 7
5 6 6
5 6 7
5 6 7
5 6 7
5 6 7
5 6 7
5 6 7
5 5 6
5 6 7
5 6 6
5 6 6
5 6 7
5 6 7
5 6 7
5 6 7
5 5 6
5 6 6
5 6 6
5 6 7
5 6 6
5 6 7
5 5 6
5 6 7
5 6 7
5 5 6
5 6 7
5 6 6
5 6 6
5 6 7
5 6 7
5 6 6
5 6 7
5 6 7
5 6 6
5 6 7
5 6 6
5 6 7
5 6 6
5 6 7
5 6 7
5 6 7
5 6 6
5 5 6
5 6 7
5 6 6
5 6 7
5 6 7
5 6 6
5 6 7
5 6 7
5 6 7
5 6 6
5 6 7
5 6 6
5 6 6
5 6 6
5 6 6
5 6 7
5 6 7
5 6 7
5 6 7
5 6 7
5 6 7
5 6 7
5 6 7
5 6 7
5 5 6
5 6 7
5 6 7
5 6 7
5 5 6
5 6 6
5 6 7
5 6 6
5 6 7
5 6 7
5 6 7
5 6 6
5 6 6
5 6 7
5 6 6
5 5 6
5 6 6
5 6 7
5 6 7
5 6 7
5 6 6
5 6 7
21 23 26
191 209 233
210 229 255
210 229 255
210 229 255
210 229 255
210 229 255
210 229 255
210 229 255
210 229 255
210 229 255
210 229 255
210 229 255
210 229 255
210 229 255
210 229 255
210 229 255
210 229 255
210 229 255
210 229 255
210 229 255
210 229 255
210 229 255
210 230 255
210 230 255
210 230 255
211 230 255
211 230 255
211 230 255
211 230 255
211 230 255
211 230 255
211 230 255
211 230 255
211 230 255
211 230 255
211 230 255
211 230 255
211 230 255
211 230 255
211 230 255
211 230 255
211 230 255
211 230 255
211 230 255
211 230 255
211 230 255
211 230 255
211 230 255
211 230 255
212 230 255
212 230 255
212 230 255
212 230 255
212 230 255
212 230 255
212 230 255
212 230 255
212 230 255
212 230 255
212 230 255
212 230 255
212 230 255
212 230 255
212 230 255
212 230 255
212 230 255
212 230 255
212 231 255
212 231 255
212 231 255
212 231 255
212 231 255
212 231 255
212 231 255
213 231 255
213 231 255
213 231 255
213 231 255
213 231 255
213 231 255
213 231 255
213 231 255
213 231 255
213 231 255
213 231 255
213 231 255
213 231 255
213 231 255
213 231 255
213 231 255
213 231 255
213 231 255
213 231 255
213 231 255
213 231 255
213 231 255
213 231 255
213 231 255
213 231 255
213 231 255
213 231 255
213 231 255
213 231 255
213 231 255
214 231 255
214 231 255
214 231 255
214 231 255
214 231 255
214 231 255
214 231 255
214 231 255
214 231 255
214 231 255
214 231 255
214 231 255
214 231 255
214 231 255
214 231 255
214 231 255
214 231 255
214 232 255
214 232 255
214 232 255
214 232 255
214 232 255
214 232 255
214 232 255
214 232 255
214 232 255
214 232 255
214 232 255
214 232 255
214 232 255
214 232 255
214 232 255
214 232 255
214 232 255
214 232 255
215 232 255
215 232 255
215 232 255
215 232 255
215 232 255
215 232 255
215 232 255
215 232 255
215 232 255
215 232 255
215 232 255
215 232 255
215 232 255
215 232 255
215 232 255
215 232 255
215 232 255
215 232 255
215 232 255
215 232 255
215 232 255
215 232 255
215 232 255
215 232 255
215 232 255
215 232 255
215 232 255
214 232 255
214 232 255
214 232 255
214 232 255
214 232 255
214 232 255
214 232 255
214 232 255
214 232 255
214 232 255
214 232 255
214 232 255
214 232 255
214 232 255
214 232 255
214 232 255
214 232 255
214 232 255
214 231 255
214 231 255
214 231 255
214 231 255
214 231 255
214 231 255
214 231 255
214 231 255
214 231 255
214 231 255
214 231 255
214 231 255
214 231 255
214 231 255
214 231 255
214 231 255
213 231 255
213 231 255
213 231 255
213 231 255
213 231 255
213 231 255
213 231 255
213 231 255
213 231 255
213 231 255
213 231 255
213 231 255
213 231 255
213 231 255
213 231 255
213 231 255
213 231 255
213 231 255
213 231 255
213 231 255
213 231 255
213 231 255
213 231 255
213 231 255
213 231 255
213 231 255
213 231 255
213 231 255
213 231 255
212 231 255
212 231 255
212 231 255
212 231 255
212 231 255
212 231 255
212 231 255
212 231 255
212 230 255
212 230 255
212 230 255
212 230 255
212 230 255
212 230 255
212 230 255
212 230 255
212 230 255
212 230 255
212 230 255
212 230 255
212 230 255
212 230 255
212 230 255
212 230 255
212 230 255
212 230 255
211 230 255
211 230 255
211 230 255
211 230 255
211 230 255
211 230 255
211 230 255
211 230 255
211 230 255
211 230 255
211 230 255
211 230 255
211 230 255
211 230 255
211 230 255
211 230 255
211 230 255
211 230 255
211 230 255
211 230 255
211 230 255
211 230 255
211 230 255
211 230 255
210 230 255
210 230 255
210 230 255
210 229 255
210 229 255
210 229 255
210 229 255
210 229 255
210 229 255
210 229 255
210 229 255
210 229 255
210 229 255
210 229 255
210 229 255
210 229 255
210 229 255
202 221 246
63 69 77
5 6 7
5 6 7
5 6 7
5 6 7
5 6 6
5 6 7
5 6 7
5 6 7
5 6 7
5 6 7
5 6 7
6 6 7
5 5 6
5 6 7
5 6 7
5 6 6
5 6 7
5 6 7
5 6 6
5 6 7
5 6 7
5 6 7
5 5 6
5 5 6
5 6 7
5 6 6
5 6 7
5 6 6
5 6 7
5 6 7
5 6 6
5 6 7
5 5 6
5 6 6
5 6 7
5 6 7
5 5 6
5 6 6
5 6 7
5 6 7
5 6 7
5 6 7
5 6 7
5 6 7
5 5 6
5 6 7
5 6 7
5 6 7
5 6 6
5 6 7
5 6 6
5 6 7
5 6 6
5 6 7
5 6 6
5 6 7
5 5 6
5 6 7
5 6 7
5 6 7
5 6 6
5 6 6
5 6 7
5 6 7
5 6 7
5 6 7
5 6 6
5 6 7
5 6 7
5 6 7
5 6 7
5 6 7
5 6 6
5 6 7
5 6 7
5 6 6
5 5 6
5 6 7
5 6 7
5 6 7
5 6 6
5 6 7
5 6 7
5 6 7
5 6 6
5 6 6
5 6 7
5 6 7
6 6 7
5 6 7
5 6 7
5 6 7
5 6 7
5 6 7
5 6 7
5 6 7
5 6 6
5 6 6
5 5 6
5 6 7
5 6 7
5 6 7
84 92 102
204 223 249
210 229 255
210 229 255
210 229 255
210 229 255
210 229 255
210 229 255
210 229 255
210 229 255
210 229 255
210 229 255
210 229 255
210 229 255
210 229 255
210 229 255
210 230 255
210 230 255
210 230 255
211 230 255
211 230 255
211 230 255
211 230 255
211 230 255
211 230 255
211 230 255
211 230 255
211 230 255
211 230 255
211 230 255
211 230 255
211 230 255
211 230 255
211 230 255
211 230 255
211 230 255
211 230 255
211 230 255
211 230 255
211 230 255
211 230 255
211 230 255
211 230 255
212 230 255
212 230 255
212 230 255
212 230 255
212 230 255
212 230 255
212 230 255
212 230 255
212 230 255
212 230 255
212 230 255
212 230 255
212 230 255
212 230 255
212 230 255
212 230 255
212 230 255
212 230 255
212 231 255
212 231 255
212 231 255
212 231 255
212 231 255
212 231 255
212 231 255
212 231 255
213 231 255
213 231 255
213 231 255
213 231 255
213 231 255
213 231 255
213 231 255
213 231 255
213 231 255
213 231 255
213 231 255
213 231 255
213 231 255
213 231 255
213 231 255
213 231 255
213 231 255
213 231 255
213 231 255
213 231 255
213 231 255
213 231 255
213 231 255
213 231 255
213 231 255
213 231 255
213 231 255
213 231 255
214 231 255
214 231 255
214 231 255
214 231 255
214 231 255
214 231 255
214 231 255
214 231 255
214 231 255
214 231 255
214 231 255
214 231 255
214 231 255
214 231 255
214 231 255
214 231 255
214 231 255
214 232 255
214 232 255
214 232 255
214 232 255
214 232 255
214 232 255
214 232 255
214 232 255
214 232 255
214 232 255
214 232 255
214 232 255
214 232 255
214 232 255
214 232 255
214 232 255
214 232 255
214 232 255
215 232 255
215 232 255
215 232 255
215 232 255
215 232 255
215 232 255
215 232 255
215 232 255
215 232 255
215 232 255
215 232 255
215 232 255
215 232 255
215 232 255
215 232 255
215 232 255
215 232 255
215 232 255
215 232 255
215 232 255
215 232 255
215 232 255
215 232 255
215 232 255
215 232 255
215 232 255
215 232 255
215 232 255
215 232 255
215 232 255
215 232 255
215 232 255
215 232 255
215 232 255
215 232 255
215 232 255
215 232 255
215 232 255
215 232 255
215 232 255
215 232 255
214 232 255
214 232 255
214 232 255
214 232 255
214 232 255
214 232 255
214 232 255
214 232 255
214 232 255
214 232 255
214 232 255
214 232 255
214 232 255
214 232 255
214 232 255
214 232 255
214 232 255
214 231 255
214 231 255
214 231 255
214 231 255
214 231 255
214 231 255
214 231 255
214 231 255
214 231 255
214 231 255
214 231 255
214 231 255
214 231 255
214 231 255
214 231 255
214 231 255
213 231 255
213 231 255
213 231 255
213 231 255
213 231 255
213 231 255
213 231 255
213 231 255
213 231 255
213 231 255
213 231 255
213 231 255
213 231 255
213 231 255
213 231 255
213 231 255
213 231 255
213 231 255
213 231 255
213 231 255
213 231 255
213 231 255
213 231 255
213 231 255
213 231 255
213 231 255
213 231 255
213 231 255
213 231 255
212 231 255
212 231 255
212 231 255
212 231 255
212 231 255
212 231 255
212 231 255
212 231 255
212 230 255
212 230 255
212 230 255
212 230 255
212 230 255
212 230 255
212 230 255
212 230 255
212 230 255
212 230 255
212 230 255
212 230 255
212 230 255
212 230 255
212 230 255
212 230 255
212 230 255
212 230 255
211 230 255
211 230 255
211 230 255
211 230 255
211 230 255
211 230 255
211 230 255
211 230 255
211 230 255
211 230 255
211 230 255
211 230 255
211 230 255
211 230 255
211 230 255
211 230 255
211 230 255
211 230 255
211 230 255
211 230 255
211 230 255
211 230 255
211 230 255
211 230 255
211 230 255
210 230 255
210 230 255
210 230 255
210 229 255
210 229 255
210 229 255
210 229 255
210 229 255
210 229 255
210 229 255
111 121 135
5 6 7
5 6 7
5 6 7
5 6 7
5 6 6
5 6 7
5 6 7
5 6 7
5 6 6
5 6 7
5 6 7
5 6 7
5 6 6
5 6 7
5 6 7
5 6 6
5 6 7
5 6 7
5 6 6
5 6 6
5 6 7
5 6 6
5 6 7
5 6 7
5 6 6
5 6 7
6 6 7
5 6 7
5 6 6
5 6 7
5 6 7
5 6 6
5 6 6
5 6 7
5 6 7
5 6 7
5 6 6
5 6 6
5 5 6
5 5 6
5 6 7
5 6 7
5 6 7
5 6 6
5 6 6
5 6 7
5 6 7
5 6 6
5 6 7
5 5 6
5 6 7
5 6 6
5 6 6
5 6 7
5 6 7
5 6 6
5 6 7
5 6 7
5 6 7
5 5 6
5 6 7
5 6 7
5 6 6
5 6 7
5 6 6
5 5 6
5 6 7
5 6 6
5 6 7
5 5 6
5 6 7
5 6 7
5 6 7
5 6 7
5 6 7
5 6 6
5 6 7
5 6 6
5 5 6
5 6 7
5 6 7
5 6 6
5 6 7
5 6 6
5 6 6
5 6 7
5 6 7
5 6 6
5 5 6
5 6 7
5 6 7
5 6 7
5 6 7
5 6 7
5 6 7
5 6 7
5 6 6
5 6 7
5 6 7
5 6 7
5 6 7
5 5 6
5 6 7
5 6 7
122 134 149
210 229 255
210 229 255
210 229 255
210 229 255
210 229 255
210 229 255
210 229 255
210 230 255
210 230 255
210 230 255
211 230 255
211 230 255
211 230 255
211 230 255
211 230 255
211 230 255
211 230 255
211 230 255
211 230 255
211 230 255
211 230 255
211 230 255
211 230 255
211 230 255
211 230 255
211 230 255
211 230 255
211 230 255
211 230 255
211 230 255
211 230 255
211 230 255
211 230 255
211 230 255
211 230 255
212 230 255
212 230 255
212 230 255
212 230 255
212 230 255
212 230 255
212 230 255
212 230 255
212 230 255
212 230 255
212 230 255
212 230 255
212 230 255
212 230 255
212 230 255
212 230 255
212 230 255
212 230 255
212 231 255
212 231 255
212 231 255
212 231 255
212 231 255
212 231 255
212 231 255
212 231 255
213 231 255
213 231 255
213 231 255
213 231 255
213 231 255
213 231 255
213 231 255
213 231 255
213 231 255
213 231 255
213 231 255
213 231 255
213 231 255
213 231 255
213 231 255
213 231 255
213 231 255
213 231 255
213 231 255
213 231 255
213 231 255
213 231 255
213 231 255
213 231 255
213 231 255
213 231 255
213 231 255
213 231 255
213 231 255
214 231 255
214 231 255
214 231 255
214 231 255
214 231 255
214 231 255
214 231 255
214 231 255
214 231 255
214 231 255
214 231 255
214 231 255
214 231 255
214 231 255
214 231 255
214 231 255
214 232 255
214 232 255
214 232 255
214 232 255
214 232 255
214 232 255
214 232 255
214 232 255
214 232 255
214 232 255
214 232 255
214 232 255
214 232 255
214 232 255
214 232 255
214 232 255
214 232 255
214 232 255
215 232 255
215 232 255
215 232 255
215 232 255
215 232 255
215 232 255
215 232 255
215 232 255
215 232 255
215 232 255
215 232 255
215 232 255
215 232 255
215 232 255
215 232 255
215 232 255
215 232 255
215 232 255
215 232 255
215 232 255
215 232 255
215 232 255
215 232 255
215 232 255
215 232 255
215 232 255
215 232 255
215 232 255
215 232 255
215 232 255
215 232 255
215 232 255
215 232 255
215 232 255
215 232 255
215 232 255
215 232 255
215 232 255
215 232 255
215 232 255
215 232 255
215 232 255
215 232 255
215 232 255
215 232 255
215 232 255
215 232 255
215 232 255
215 232 255
215 232 255
215 232 255
215 232 255
215 232 255
214 232 255
214 232 255
214 232 255
214 232 255
214 232 255
214 232 255
214 232 255
214 232 255
214 232 255
214 232 255
214 232 255
214 232 255
214 232 255
214 232 255
214 232 255
214 232 255
214 232 255
214 231 255
214 231 255
214 231 255
214 231 255
214 231 255
214 231 255
214 231 255
214 231 255
214 231 255
214 231 255
214 231 255
214 231 255
214 231 255
214 231 255
214 231 255
214 231 255
214 231 255
213 231 255
213 231 255
213 231 255
213 231 255
213 231 255
213 231 255
213 231 255
213 231 255
213 231 255
213 231 255
213 231 255
213 231 255
213 231 255
213 231 255
213 231 255
213 231 255
213 231 255
213 231 255
213 231 255
213 231 255
213 231 255
213 231 255
213 231 255
213 231 255
213 231 255
213 231 255
213 231 255
213 231 255
212 231 255
212 231 255
212 231 255
212 231 255
212 231 255
212 231 255
212 231 255
212 231 255
212 230 255
212 230 255
212 230 255
212 230 255
212 230 255
212 230 255
212 230 255
212 230 255
212 230 255
212 230 255
212 230 255
212 230 255
212 230 255
212 230 255
212 230 255
212 230 255
212 230 255
212 230 255
211 230 255
211 230 255
211 230 255
211 230 255
211 230 255
211 230 255
211 230 255
211 230 255
211 230 255
211 230 255
211 230 255
211 230 255
211 230 255
211 230 255
211 230 255
211 230 255
211 230 255
211 230 255
211 230 255
211 230 255
211 230 255
211 230 255
211 230 255
211 230 255
211 230 255
211 230 255
210 230 255
210 230 255
164 179 199
5 6 7
5 6 7
5 5 6
5 6 7
5 6 7
5 6 7
5 6 7
5 6 7
5 6 7
5 6 7
5 6 6
5 6 7
5 6 7
5 6 7
5 6 7
5 6 6
5 6 7
5 6 7
5 6 6
5 6 7
5 6 7
5 6 7
5 6 7
5 6 7
5 6 6
5 6 7
5 6 6
5 6 7
5 6 6
5 5 6
5 6 7
5 6 7
5 6 6
5 6 7
5 6 7
5 6 6
5 6 7
5 5 6
5 6 7
5 5 6
5 5 6
5 5 6
5 6 6
5 6 6
5 6 6
5 6 6
5 6 6
5 6 7
5 6 6
5 6 6
5 6 6
5 5 6
5 6 7
5 6 7
5 6 6
5 6 6
5 6 7
5 6 7
5 6 7
5 6 6
5 6 7
5 6 7
5 6 7
5 6 6
5 5 6
5 6 7
5 6 6
5 6 6
5 6 7
5 5 6
5 6 7
5 6 7
5 6 7
5 6 7
5 5 6
5 6 7
5 6 7
5 6 7
5 5 6
5 6 7
5 5 6
5 6 7
5 6 7
5 6 6
5 6 7
5 6 7
5 6 6
5 5 6
5 6 7
5 6 6
5 6 7
5 6 7
5 6 6
5 6 7
5 6 7
5 6 6
5 6 7
5 6 6
5 6 6
5 6 7
5 6 7
5 6 6
5 6 7
5 6 7
5 6 7
5 6 7
164 179 199
210 230 255
210 230 255
211 230 255
211 230 255
211 230 255
211 230 255
211 230 255
211 230 255
211 230 255
211 230 255
211 230 255
211 230 255
211 230 255
211 230 255
211 230 255
211 230 255
211 230 255
211 230 255
211 230 255
211 230 255
211 230 255
211 230 255
211 230 255
211 230 255
211 230 255
211 230 255
211 230 255
211 230 255
212 230 255
212 230 255
212 230 255
212 230 255
212 230 255
212 230 255
212 230 255
212 230 255
212 230 255
212 230 255
212 230 255
212 230 255
212 230 255
212 230 255
212 230 255
212 230 255
212 230 255
212 230 255
212 231 255
212 231 255
212 231 255
212 231 255
212 231 255
212 231 255
212 231 255
212 231 255
213 231 255
213 231 255
213 231 255
213 231 255
213 231 255
213 231 255
213 231 255
213 231 255
213 231 255
213 231 255
213 231 255
213 231 255
213 231 255
213 231 255
213 231 255
213 231 255
213 231 255
213 231 255
213 231 255
213 231 255
213 231 255
213 231 255
213 231 255
213 231 255
213 231 255
213 231 255
213 231 255
213 231 255
214 231 255
214 231 255
214 231 255
214 231 255
214 231 255
214 231 255
214 231 255
214 231 255
214 231 255
214 231 255
214 231 255
214 231 255
214 231 255
214 231 255
214 231 255
214 231 255
214 231 255
214 232 255
214 232 255
214 232 255
214 232 255
214 232 255
214 232 255
214 232 255
214 232 255
214 232 255
214 232 255
214 232 255
214 232 255
214 232 255
214 232 255
214 232 255
214 232 255
214 232 255
215 232 255
215 232 255
215 232 255
215 232 255
215 232 255
215 232 255
215 232 255
215 232 255
215 232 255
215 232 255
215 232 255
215 232 255
215 232 255
215 232 255
215 232 255
215 232 255
215 232 255
215 232 255
215 232 255
215 232 255
215 232 255
215 232 255
215 232 255
215 232 255
215 232 255
215 232 255
215 232 255
215 232 255
215 232 255
215 232 255
215 232 255
215 232 255
215 232 255
215 232 255
215 232 255
215 232 255
215 232 255
215 232 255
215 232 255
215 232 255
215 232 255
215 232 255
215 232 255
215 232 255
215 232 255
215 232 255
215 232 255
215 232 255
215 232 255
215 232 255
215 232 255
215 232 255
215 232 255
215 232 255
215 232 255
215 232 255
215 232 255
215 232 255
215 232 255
215 232 255
215 232 255
215 232 255
215 232 255
215 232 255
215 232 255
215 232 255
215 232 255
214 232 255
214 232 255
214 232 255
214 232 255
214 232 255
214 232 255
214 232 255
214 232 255
214 232 255
214 232 255
214 232 255
214 232 255
214 232 255
214 232 255
214 232 255
214 232 255
214 231 255
214 231 255
214 231 255
214 231 255
214 231 255
214 231 255
214 231 255
214 231 255
214 231 255
214 231 255
214 231 255
214 231 255
214 231 255
214 231 255
214 231 255
214 231 255
214 231 255
213 231 255
213 231 255
213 231 255
213 231 255
213 231 255
213 231 255
213 231 255
213 231 255
213 231 255
213 231 255
213 231 255
213 231 255
213 231 255
213 231 255
213 231 255
213 231 255
213 231 255
213 231 255
213 231 255
213 231 255
213 231 255
213 231 255
213 231 255
213 231 255
213 231 255
213 231 255
213 231 255
213 231 255
212 231 255
212 231 255
212 231 255
212 231 255
212 231 255
212 231 255
212 231 255
212 231 255
212 230 255
212 230 255
212 230 255
212 230 255
212 230 255
212 230 255
212 230 255
212 230 255
212 230 255
212 230 255
212 230 255
212 230 255
212 230 255
212 230 255
212 230 255
212 230 255
212 230 255
212 230 255
211 230 255
211 230 255
211 230 255
211 230 255
211 230 255
211 230 255
211 230 255
211 230 255
211 230 255
211 230 255
211 230 255
211 230 255
211 230 255
211 230 255
211 230 255
211 230 255
211 230 255
211 230 255
211 230 255
211 230 255
211 230 255
197 214 238
30 33 36
5 6 7
5 6 7
5 6 6
5 6 6
5 6 7
5 6 7
5 6 6
5 6 6
5 6 7
5 6 7
5 6 7
5 6 7
5 6 7
5 6 7
5 6 7
5 6 6
5 6 7
5 5 6
6 6 7
5 6 7
5 6 7
5 6 7
5 6 7
5 6 6
5 6 6
5 6 7
5 6 6
5 6 6
5 5 6
5 6 7
5 6 7
5 6 6
5 6 7
5 6 7
5 6 7
5 6 6
5 6 6
5 6 7
5 6 7
5 6 6
5 6 7
5 6 6
5 6 7
5 6 6
5 6 6
5 5 6
5 5 6
5 6 6
5 5 6
5 6 6
5 6 6
5 6 7
5 6 7
5 6 7
5 6 7
5 6 7
5 6 6
5 6 6
5 5 6
5 6 7
5 6 6
5 5 6
5 6 7
5 6 7
5 6 6
5 6 7
5 6 7
5 6 7
5 6 7
5 6 6
5 6 7
5 6 6
5 6 7
5 6 7
5 6 7
5 6 6
5 6 7
5 6 7
5 6 6
5 5 6
5 6 7
5 6 6
5 6 7
5 6 6
5 6 7
5 6 7
5 5 6
5 6 7
5 6 7
5 6 6
5 6 6
5 6 6
5 5 6
5 6 7
6 6 7
5 6 6
5 6 7
5 6 7
5 6 7
5 6 7
5 6 7
5 6 7
5 6 7
5 6 7
5 6 7
5 6 6
59 65 72
199 217 241
211 230 255
211 230 255
211 230 255
211 230 255
211 230 255
211 230 255
211 230 255
211 230 255
211 230 255
211 230 255
211 230 255
211 230 255
211 230 255
211 230 255
211 230 255
211 230 255
211 230 255
211 230 255
211 230 255
211 230 255
211 230 255
212 230 255
212 230 255
212 230 255
212 230 255
212 230 255
212 230 255
212 230 255
212 230 255
212 230 255
212 230 255
212 230 255
212 230 255
212 230 255
212 230 255
212 230 255
212 230 255
212 230 255
212 230 255
212 231 255
212 231 255
212 231 255
212 231 255
212 231 255
212 231 255
212 231 255
212 231 255
213 231 255
213 231 255
213 231 255
213 231 255
213 231 255
213 231 255
213 231 255
213 231 255
213 231 255
213 231 255
213 231 255
213 231 255
213 231 255
213 231 255
213 231 255
213 231 255
213 231 255
213 231 255
213 231 255
213 231 255
213 231 255
213 231 255
213 231 255
213 231 255
213 231 255
213 231 255
213 231 255
213 231 255
214 231 255
214 231 255
214 231 255
214 231 255
214 231 255
214 231 255
214 231 255
214 231 255
214 231 255
214 231 255
214 231 255
214 231 255
214 231 255
214 231 255
214 231 255
214 231 255
214 232 255
214 232 255
214 232 255
214 232 255
214 232 255
214 232 255
214 232 255
214 232 255
214 232 255
214 232 255
214 232 255
214 232 255
214 232 255
214 232 255
214 232 255
214 232 255
214 232 255
215 232 255
215 232 255
215 232 255
215 232 255
215 232 255
215 232 255
215 232 255
215 232 255
215 232 255
215 232 255
215 232 255
215 232 255
215 232 255
215 232 255
215 232 255
215 232 255
215 232 255
215 232 255
215 232 255
215 232 255
215 232 255
215 232 255
215 232 255
215 232 255
215 232 255
215 232 255
215 232 255
215 232 255
215 232 255
215 232 255
215 232 255
215 232 255
215 232 255
215 232 255
215 232 255
215 232 255
215 232 255
216 232 255
216 232 255
216 232 255
215 232 255
215 232 255
215 232 255
215 232 255
215 232 255
215 232 255
215 232 255
215 232 255
215 232 255
215 232 255
215 232 255
215 232 255
215 232 255
215 232 255
215 232 255
215 232 255
215 232 255
215 232 255
215 232 255
215 232 255
215 232 255
215 232 255
215 232 255
215 232 255
215 232 255
215 232 255
215 232 255
215 232 255
215 232 255
215 232 255
215 232 255
215 232 255
215 232 255
215 232 255
215 232 255
215 232 255
215 232 255
215 232 255
215 232 255
215 232 255
215 232 255
214 232 255
214 232 255
214 232 255
214 232 255
214 232 255
214 232 255
214 232 255
214 232 255
214 232 255
214 232 255
214 232 255
214 232 255
214 232 255
214 232 255
214 232 255
214 232 255
214 231 255
214 231 255
214 231 255
214 231 255
214 231 255
214 231 255
214 231 255
214 231 255
214 231 255
214 231 255
214 231 255
214 231 255
214 231 255
214 231 255
214 231 255
214 231 255
213 231 255
213 231 255
213 231 255
213 231 255
213 231 255
213 231 255
213 231 255
213 231 255
213 231 255
213 231 255
213 231 255
213 231 255
213 231 255
213 231 255
213 231 255
213 231 255
213 231 255
213 231 255
213 231 255
213 231 255
213 231 255
213 231 255
213 231 255
213 231 255
213 231 255
213 231 255
213 231 255
213 231 255
212 231 255
212 231 255
212 231 255
212 231 255
212 231 255
212 231 255
212 231 255
212 231 255
212 231 255
212 230 255
212 230 255
212 230 255
212 230 255
212 230 255
212 230 255
212 230 255
212 230 255
212 230 255
212 230 255
212 230 255
212 230 255
212 230 255
212 230 255
212 230 255
212 230 255
212 230 255
212 230 255
211 230 255
211 230 255
211 230 255
211 230 255
211 230 255
211 230 255
211 230 255
211 230 255
211 230 255
211 230 255
211 230 255
211 230 255
211 230 255
211 230 255
113 124 137
5 6 7
5 6 7
5 6 6
5 6 6
5 5 6
5 6 6
5 5 6
5 6 7
5 6 7
5 6 7
5 6 7
5 6 7
5 6 6
5 5 6
5 6 6
5 6 7
5 6 7
5 6 7
5 6 7
5 5 6
5 6 7
5 6 7
5 6 7
5 6 6
5 6 6
5 6 7
5 6 6
5 6 6
5 6 6
5 6 7
5 6 7
5 6 7
5 6 7
5 5 6
5 6 7
5 6 6
5 5 6
5 6 7
5 5 6
5 6 7
5 6 6
5 6 7
5 6 6
5 6 7
5 6 7
5 5 6
5 5 6
5 6 6
5 6 7
5 5 6
5 5 6
5 5 6
5 6 6
5 6 7
5 5 6
5 6 7
5 5 6
5 6 6
5 6 7
5 6 6
5 6 6
5 6 7
5 6 6
5 6 6
5 6 6
5 6 6
5 6 7
5 5 6
5 6 7
5 6 7
5 5 6
5 6 6
5 6 7
5 6 7
5 5 6
5 6 6
5 6 7
5 6 6
5 6 7
5 5 6
5 6 7
5 6 6
5 5 6
5 6 7
5 6 7
5 6 7
5 6 7
5 6 6
5 6 6
5 6 7
5 6 7
5 6 7
5 6 7
5 6 6
5 6 7
5 6 6
5 5 6
5 6 7
5 6 7
5 6 7
5 6 7
5 6 7
5 6 7
5 6 7
5 6 7
5 5 6
5 6 7
5 6 7
117 128 142
211 230 255
211 230 255
211 230 255
211 230 255
211 230 255
211 230 255
211 230 255
211 230 255
211 230 255
211 230 255
211 230 255
211 230 255
211 230 255
212 230 255
212 230 255
212 230 255
212 230 255
212 230 255
212 230 255
212 230 255
212 230 255
212 230 255
212 230 255
212 230 255
212 230 255
212 230 255
212 230 255
212 230 255
212 230 255
212 230 255
212 230 255
212 230 255
212 230 255
212 231 255
212 231 255
212 231 255
212 231 255
212 231 255
212 231 255
212 231 255
213 231 255
213 231 255
213 231 255
213 231 255
213 231 255
213 231 255
213 231 255
213 231 255
213 231 255
213 231 255
213 231 255
213 231 255
213 231 255
213 231 255
213 231 255
213 231 255
213 231 255
213 231 255
213 231 255
213 231 255
213 231 255
213 231 255
213 231 255
213 231 255
213 231 255
213 231 255
213 231 255
213 231 255
213 231 255
214 231 255
214 231 255
214 231 255
214 231 255
214 231 255
214 231 255
214 231 255
214 231 255
214 231 255
214 231 255
214 231 255
214 231 255
214 231 255
214 231 255
214 231 255
214 231 255
214 232 255
214 232 255
214 232 255
214 232 255
214 232 255
214 232 255
214 232 255
214 232 255
214 232 255
214 232 255
214 232 255
214 232 255
214 232 255
214 232 255
214 232 255
214 232 255
214 232 255
215 232 255
215 232 255
215 232 255
215 232 255
215 232 255
215 232 255
215 232 255
215 232 255
215 232 255
215 232 255
215 232 255
215 232 255
215 232 255
215 232 255
215 232 255
215 232 255
215 232 255
215 232 255
215 232 255
215 232 255
215 232 255
215 232 255
215 232 255
215 232 255
215 232 255
215 232 255
215 232 255
215 232 255
215 232 255
215 232 255
215 232 255
215 232 255
215 232 255
215 232 255
215 232 255
215 232 255
215 232 255
215 232 255
215 232 255
215 232 255
216 232 255
216 232 255
216 232 255
216 232 255
216 232 255
216 232 255
216 232 255
216 232 255
216 232 255
216 232 255
216 232 255
216 232 255
216 232 255
216 232 255
215 232 255
215 232 255
215 232 255
215 232 255
215 232 255
215 232 255
215 232 255
215 232 255
215 232 255
215 232 255
215 232 255
215 232 255
215 232 255
215 232 255
215 232 255
215 232 255
215 232 255
215 232 255
215 232 255
215 232 255
215 232 255
215 232 255
215 232 255
215 232 255
215 232 255
215 232 255
215 232 255
215 232 255
215 232 255
215 232 255
215 232 255
215 232 255
215 232 255
215 232 255
215 232 255
215 232 255
215 232 255
215 232 255
215 232 255
215 232 255
214 232 255
214 232 255
214 232 255
214 232 255
214 232 255
214 232 255
214 232 255
214 232 255
214 232 255
214 232 255
214 232 255
214 232 255
214 232 255
214 232 255
214 232 255
214 232 255
214 231 255
214 231 255
214 231 255
214 231 255
214 231 255
214 231 255
214 231 255
214 231 255
214 231 255
214 231 255
214 231 255
214 231 255
214 231 255
214 231 255
214 231 255
214 231 255
213 231 255
213 231 255
213 231 255
213 231 255
213 231 255
213 231 255
213 231 255
213 231 255
213 231 255
213 231 255
213 231 255
213 231 255
213 231 255
213 231 255
213 231 255
213 231 255
213 231 255
213 231 255
213 231 255
213 231 255
213 231 255
213 231 255
213 231 255
213 231 255
213 231 255
213 231 255
213 231 255
213 231 255
213 231 255
212 231 255
212 231 255
212 231 255
212 231 255
212 231 255
212 231 255
212 231 255
212 230 255
212 230 255
212 230 255
212 230 255
212 230 255
212 230 255
212 230 255
212 230 255
212 230 255
212 230 255
212 230 255
212 230 255
212 230 255
212 230 255
212 230 255
212 230 255
212 230 255
212 230 255
212 230 255
212 230 255
211 230 255
211 230 255
211 230 255
211 230 255
211 230 255
166 181 201
5 6 7
5 6 7
5 6 7
5 6 7
5 6 7
5 6 7
5 6 6
5 6 7
5 6 7
5 6 7
5 6 6
5 6 6
5 6 7
5 6 7
5 6 6
5 5 6
5 6 7
5 6 7
5 6 7
5 6 7
5 6 6
5 6 6
5 5 6
5 5 6
5 6 6
5 6 7
5 5 6
5 6 7
5 6 7
5 6 7
5 6 6
5 6 6
5 6 7
5 6 6
5 5 6
5 5 6
5 5 6
5 6 6
5 6 7
5 6 6
5 5 6
5 6 7
5 6 6
5 6 6
5 5 6
5 6 7
5 6 7
5 6 7
5 6 6
5 6 7
5 6 7
5 6 6
5 6 7
5 6 7
5 6 7
5 5 6
5 6 7
5 6 7
5 6 6
5 5 6
5 5 6
5 6 6
5 6 6
5 5 6
5 5 6
5 6 6
5 5 6
5 6 6
5 5 6
5 6 6
5 5 6
5 6 6
5 5 6
5 6 6
5 6 6
5 6 7
5 6 7
5 6 6
5 6 7
5 5 6
5 6 7
5 6 6
5 6 6
5 6 7
5 6 6
5 6 6
5 5 6
5 6 7
5 6 6
5 6 7
5 6 7
5 6 7
5 5 6
5 6 7
5 6 7
5 6 7
5 6 6
5 6 7
5 5 6
5 6 6
5 6 7
5 6 7
5 6 7
5 6 7
5 5 6
5 6 7
5 6 6
5 6 6
5 6 7
5 6 7
182 198 220
211 230 255
211 230 255
211 230 255
211 230 255
211 230 255
212 230 255
212 230 255
212 230 255
212 230 255
212 230 255
212 230 255
212 230 255
212 230 255
212 230 255
212 230 255
212 230 255
212 230 255
212 230 255
212 230 255
212 230 255
212 230 255
212 230 255
212 230 255
212 230 255
212 231 255
212 231 255
212 231 255
212 231 255
212 231 255
212 231 255
212 231 255
212 231 255
212 231 255
213 231 255
213 231 255
213 231 255
213 231 255
213 231 255
213 231 255
213 231 255
213 231 255
213 231 255
213 231 255
213 231 255
213 231 255
213 231 255
213 231 255
213 231 255
213 231 255
213 231 255
213 231 255
213 231 255
213 231 255
213 231 255
213 231 255
213 231 255
213 231 255
213 231 255
213 231 255
213 231 255
213 231 255
214 231 255
214 231 255
214 231 255
214 231 255
214 231 255
214 231 255
214 231 255
214 231 255
214 231 255
214 231 255
214 231 255
214 231 255
214 231 255
214 231 255
214 231 255
214 231 255
214 232 255
214 232 255
214 232 255
214 232 255
214 232 255
214 232 255
214 232 255
214 232 255
214 232 255
214 232 255
214 232 255
214 232 255
214 232 255
214 232 255
214 232 255
214 232 255
214 232 255
215 232 255
215 232 255
215 232 255
215 232 255
215 232 255
215 232 255
215 232 255
215 232 255
215 232 255
215 232 255
215 232 255
215 232 255
215 232 255
215 232 255
215 232 255
215 232 255
215 232 255
215 232 255
215 232 255
215 232 255
215 232 255
215 232 255
215 232 255
215 232 255
215 232 255
215 232 255
215 232 255
215 232 255
215 232 255
215 232 255
215 232 255
215 232 255
215 232 255
215 232 255
215 232 255
215 232 255
215 232 255
215 232 255
215 232 255
215 232 255
216 232 255
216 232 255
216 232 255
216 232 255
216 232 255
216 232 255
216 232 255
216 232 255
216 232 255
216 232 255
216 233 255
216 233 255
216 233 255
216 233 255
216 232 255
216 232 255
216 232 255
216 232 255
216 232 255
216 232 255
216 232 255
216 232 255
216 232 255
216 232 255
216 232 255
216 232 255
216 232 255
216 232 255
215 232 255
215 232 255
215 232 255
215 232 255
215 232 255
215 232 255
215 232 255
215 232 255
215 232 255
215 232 255
215 232 255
215 232 255
215 232 255
215 232 255
215 232 255
215 232 255
215 232 255
215 232 255
215 232 255
215 232 255
215 232 255
215 232 255
215 232 255
215 232 255
215 232 255
215 232 255
215 232 255
215 232 255
215 232 255
215 232 255
215 232 255
215 232 255
215 232 255
215 232 255
215 232 255
215 232 255
215 232 255
215 232 255
215 232 255
214 232 255
214 232 255
214 232 255
214 232 255
214 232 255
214 232 255
214 232 255
214 232 255
214 232 255
214 232 255
214 232 255
214 232 255
214 232 255
214 232 255
214 232 255
214 232 255
214 232 255
214 231 255
214 231 255
214 231 255
214 231 255
214 231 255
214 231 255
214 231 255
214 231 255
214 231 255
214 231 255
214 231 255
214 231 255
214 231 255
214 231 255
214 231 255
213 231 255
213 231 255
213 231 255
213 231 255
213 231 255
213 231 255
213 231 255
213 231 255
213 231 255
213 231 255
213 231 255
213 231 255
213 231 255
213 231 255
213 231 255
213 231 255
213 231 255
213 231 255
213 231 255
213 231 255
213 231 255
213 231 255
213 231 255
213 231 255
213 231 255
213 231 255
213 231 255
213 231 255
213 231 255
212 231 255
212 231 255
212 231 255
212 231 255
212 231 255
212 231 255
212 231 255
212 231 255
212 230 255
212 230 255
212 230 255
212 230 255
212 230 255
212 230 255
212 230 255
212 230 255
212 230 255
212 230 255
212 230 255
212 230 255
212 230 255
212 230 255
212 230 255
212 230 255
212 230 255
206 224 249
56 61 68
5 6 7
5 6 7
5 6 7
5 6 6
5 6 6
5 6 7
5 5 6
4 5 6
5 5 6
5 6 7
5 6 7
5 6 6
5 6 6
5 6 6
5 6 7
5 5 6
5 6 6
5 6 7
5 6 6
5 6 6
5 6 7
5 6 7
5 5 6
5 6 6
5 6 7
5 6 6
5 5 6
5 6 6
5 6 7
4 5 6
5 6 7
5 6 7
5 6 6
5 6 6
5 5 6
5 6 6
5 6 6
5 6 7
5 6 7
5 5 6
5 6 6
5 6 6
5 6 6
5 6 7
5 6 7
5 6 7
5 5 6
5 6 7
5 6 7
5 6 7
5 6 6
5 5 6
5 6 6
5 5 6
5 6 7
5 6 7
5 6 7
5 6 6
5 5 6
5 5 6
5 6 6
5 6 6
5 5 6
5 6 6
5 5 6
5 6 7
5 6 7
5 6 7
5 6 7
5 6 6
5 6 7
5 6 6
5 6 6
5 5 6
5 6 6
5 6 7
5 6 6
5 6 6
5 5 6
5 6 7
5 6 7
5 6 6
5 6 6
5 5 6
5 6 6
5 6 6
5 5 6
5 6 7
5 6 7
5 6 7
5 5 6
5 6 7
5 6 7
5 6 6
5 6 7
5 6 7
5 6 7
5 6 6
5 6 7
5 6 7
5 6 7
5 6 7
5 6 7
5 6 6
5 6 7
5 6 7
5 6 7
5 6 6
5 6 6
5 6 7
73 80 88
207 226 250
212 230 255
212 230 255
212 230 255
212 230 255
212 230 255
212 230 255
212 230 255
212 230 255
212 230 255
212 230 255
212 230 255
212 230 255
212 230 255
212 230 255
212 230 255
212 230 255
212 230 255
212 231 255
212 231 255
212 231 255
212 231 255
212 231 255
212 231 255
212 231 255
212 231 255
213 231 255
213 231 255
213 231 255
213 231 255
213 231 255
213 231 255
213 231 255
213 231 255
213 231 255
213 231 255
213 231 255
213 231 255
213 231 255
213 231 255
213 231 255
213 231 255
213 231 255
213 231 255
213 231 255
213 231 255
213 231 255
213 231 255
213 231 255
213 231 255
213 231 255
213 231 255
213 231 255
213 231 255
214 231 255
214 231 255
214 231 255
214 231 255
214 231 255
214 231 255
214 231 255
214 231 255
214 231 255
214 231 255
214 231 255
214 231 255
214 231 255
214 231 255
214 231 255
214 231 255
214 232 255
214 232 255
214 232 255
214 232 255
214 232 255
214 232 255
214 232 255
214 232 255
214 232 255
214 232 255
214 232 255
214 232 255
214 232 255
214 232 255
214 232 255
214 232 255
215 232 255
215 232 255
215 232 255
215 232 255
215 232 255
215 232 255
215 232 255
215 232 255
215 232 255
215 232 255
215 232 255
215 232 255
215 232 255
215 232 255
215 232 255
215 232 255
215 232 255
215 232 255
215 232 255
215 232 255
215 232 255
215 232 255
215 232 255
215 232 255
215 232 255
215 232 255
215 232 255
215 232 255
215 232 255
215 232 255
215 232 255
215 232 255
215 232 255
215 232 255
215 232 255
215 232 255
215 232 255
215 232 255
215 232 255
215 232 255
216 232 255
216 232 255
216 232 255
216 232 255
216 232 255
216 232 255
216 232 255
216 232 255
216 232 255
216 232 255
216 232 255
216 232 255
216 232 255
216 232 255
216 232 255
216 233 255
216 233 255
216 233 255
216 233 255
216 233 255
216 233 255
216 233 255
216 233 255
216 233 255
216 233 255
216 233 255
216 233 255
216 233 255
216 233 255
216 232 255
216 232 255
216 232 255
216 232 255
216 232 255
216 232 255
216 232 255
216 232 255
216 232 255
216 232 255
216 232 255
216 232 255
216 232 255
216 232 255
216 232 255
215 232 255
215 232 255
215 232 255
215 232 255
215 232 255
215 232 255
215 232 255
215 232 255
215 232 255
215 232 255
215 232 255
215 232 255
215 232 255
215 232 255
215 232 255
215 232 255
215 232 255
215 232 255
215 232 255
215 232 255
215 232 255
215 232 255
215 232 255
215 232 255
215 232 255
215 232 255
215 232 255
215 232 255
215 232 255
215 232 255
215 232 255
215 232 255
215 232 255
215 232 255
215 232 255
215 232 255
215 232 255
215 232 255
215 232 255
214 232 255
214 232 255
214 232 255
214 232 255
214 232 255
214 232 255
214 232 255
214 232 255
214 232 255
214 232 255
214 232 255
214 232 255
214 232 255
214 232 255
214 232 255
214 232 255
214 231 255
214 231 255
214 231 255
214 231 255
214 231 255
214 231 255
214 231 255
214 231 255
214 231 255
214 231 255
214 231 255
214 231 255
214 231 255
214 231 255
214 231 255
213 231 255
213 231 255
213 231 255
213 231 255
213 231 255
213 231 255
213 231 255
213 231 255
213 231 255
213 231 255
213 231 255
213 231 255
213 231 255
213 231 255
213 231 255
213 231 255
213 231 255
213 231 255
213 231 255
213 231 255
213 231 255
213 231 255
213 231 255
213 231 255
213 231 255
213 231 255
213 231 255
213 231 255
213 231 255
213 231 255
212 231 255
212 231 255
212 231 255
212 231 255
212 231 255
212 231 255
212 231 255
212 231 255
212 230 255
212 230 255
212 230 255
212 230 255
212 230 255
212 230 255
212 230 255
212 230 255
212 230 255
150 163 181
5 6 7
5 5 6
5 5 6
5 6 7
5 6 7
5 6 7
5 6 7
5 6 7
5 6 7
5 6 6
5 6 6
5 6 6
5 6 6
5 5 6
5 6 6
5 5 6
5 6 7
5 6 6
5 6 6
5 6 6
5 5 6
5 5 6
5 6 6
5 6 6
5 6 6
5 5 6
5 6 7
5 6 6
5 5 6
5 5 6
5 6 6
5 6 7
5 5 6
5 6 7
5 5 6
5 6 6
5 6 6
5 6 7
5 6 6
5 5 6
5 6 6
5 6 7
5 6 6
5 5 6
5 6 7
5 6 6
5 5 6
5 5 6
5 5 6
5 6 7
5 5 6
5 5 6
5 6 7
5 6 7
5 5 6
5 6 6
5 5 6
5 6 6
5 6 7
5 6 7
5 6 6
5 5 6
5 6 6
5 5 6
5 6 7
5 6 7
4 5 6
5 5 6
5 6 6
5 6 6
5 6 6
5 6 6
5 6 6
5 6 6
5 6 7
5 5 6
5 6 6
5 5 6
5 6 7
5 6 7
5 6 6
5 5 6
5 6 7
5 6 7
5 5 6
5 6 6
5 6 7
5 5 6
5 6 6
5 6 7
5 5 6
5 6 7
5 5 6
5 5 6
5 5 6
5 6 7
5 6 7
5 6 6
5 5 6
5 6 7
5 5 6
5 6 7
5 6 6
5 6 6
5 6 6
5 6 7
5 6 7
5 6 7
5 5 6
5 6 7
5 6 7
5 6 7
153 166 184
212 230 255
212 230 255
212 230 255
212 230 255
212 230 255
212 230 255
212 230 255
212 230 255
212 230 255
212 231 255
212 231 255
212 231 255
212 231 255
212 231 255
212 231 255
212 231 255
212 231 255
212 231 255
213 231 255
213 231 255
213 231 255
213 231 255
213 231 255
213 231 255
213 231 255
213 231 255
213 231 255
213 231 255
213 231 255
213 231 255
213 231 255
213 231 255
213 231 255
213 231 255
213 231 255
213 231 255
213 231 255
213 231 255
213 231 255
213 231 255
213 231 255
213 231 255
213 231 255
213 231 255
213 231 255
213 231 255
214 231 255
214 231 255
214 231 255
214 231 255
214 231 255
214 231 255
214 231 255
214 231 255
214 231 255
214 231 255
214 231 255
214 231 255
214 231 255
214 231 255
214 231 255
214 231 255
214 232 255
214 232 255
214 232 255
214 232 255
214 232 255
214 232 255
214 232 255
214 232 255
214 232 255
214 232 255
214 232 255
214 232 255
214 232 255
214 232 255
214 232 255
214 232 255
215 232 255
215 232 255
215 232 255
215 232 255
215 232 255
215 232 255
215 232 255
215 232 255
215 232 255
215 232 255
215 232 255
215 232 255
215 232 255
215 232 255
215 232 255
215 232 255
215 232 255
215 232 255
215 232 255
215 232 255
215 232 255
215 232 255
215 232 255
215 232 255
215 232 255
215 232 255
215 232 255
215 232 255
215 232 255
215 232 255
215 232 255
215 232 255
215 232 255
215 232 255
215 232 255
215 232 255
215 232 255
215 232 255
215 232 255
215 232 255
216 232 255
216 232 255
216 232 255
216 232 255
216 232 255
216 232 255
216 232 255
216 232 255
216 232 255
216 232 255
216 232 255
216 232 255
216 232 255
216 233 255
216 233 255
216 233 255
216 233 255
216 233 255
216 233 255
216 233 255
216 233 255
216 233 255
216 233 255
216 233 255
216 233 255
216 233 255
216 233 255
216 233 255
216 233 255
216 233 255
216 233 255
216 233 255
216 233 255
216 233 255
216 233 255
216 233 255
216 233 255
216 233 255
216 233 255
216 233 255
216 233 255
216 233 255
216 233 255
216 233 255
216 232 255
216 232 255
216 232 255
216 232 255
216 232 255
216 232 255
216 232 255
216 232 255
216 232 255
216 232 255
216 232 255
216 232 255
216 232 255
216 232 255
215 232 255
215 232 255
215 232 255
215 232 255
215 232 255
215 232 255
215 232 255
215 232 255
215 232 255
215 232 255
215 232 255
215 232 255
215 232 255
215 232 255
215 232 255
215 232 255
215 232 255
215 232 255
215 232 255
215 232 255
215 232 255
215 232 255
215 232 255
215 232 255
215 232 255
215 232 255
215 232 255
215 232 255
215 232 255
215 232 255
215 232 255
215 232 255
215 232 255
215 232 255
215 232 255
215 232 255
215 232 255
215 232 255
214 232 255
214 232 255
214 232 255
214 232 255
214 232 255
214 232 255
214 232 255
214 232 255
214 232 255
214 232 255
214 232 255
214 232 255
214 232 255
214 232 255
214 232 255
214 232 255
214 232 255
214 231 255
214 231 255
214 231 255
214 231 255
214 231 255
214 231 255
214 231 255
214 231 255
214 231 255
214 231 255
214 231 255
214 231 255
214 231 255
214 231 255
214 231 255
213 231 255
213 231 255
213 231 255
213 231 255
213 231 255
213 231 255
213 231 255
213 231 255
213 231 255
213 231 255
213 231 255
213 231 255
213 231 255
213 231 255
213 231 255
213 231 255
213 231 255
213 231 255
213 231 255
213 231 255
213 231 255
213 231 255
213 231 255
213 231 255
213 231 255
213 231 255
213 231 255
213 231 255
213 231 255
213 231 255
212 231 255
212 231 255
212 231 255
212 231 255
212 231 255
212 231 255
212 231 255
212 231 255
212 231 255
202 220 244
47 51 57
5 6 7
5 6 7
5 6 6
5 6 6
5 6 6
5 6 6
5 6 6
5 6 7
5 6 6
5 5 6
5 6 6
5 6 6
5 6 7
5 6 7
5 5 6
5 6 6
5 6 7
5 6 7
5 6 6
5 6 6
5 6 7
5 6 6
5 6 6
5 6 6
5 5 6
5 6 7
5 6 7
5 6 6
5 6 7
5 6 6
5 6 6
5 5 6
5 5 6
5 6 7
5 6 7
5 6 6
5 6 6
5 6 6
5 6 6
5 6 7
5 6 7
5 6 6
5 5 6
5 6 7
5 5 6
5 6 7
5 6 6
5 6 7
5 5 6
5 5 6
5 6 6
5 6 6
5 6 7
5 5 6
5 5 6
5 5 6
5 6 6
5 6 7
5 6 7
5 6 6
5 5 6
5 5 6
5 5 6
5 6 6
5 5 6
5 5 6
5 5 6
5 6 6
5 5 6
5 6 6
5 5 6
5 6 7
5 6 6
5 5 6
5 5 6
5 6 7
5 6 7
5 5 6
5 6 6
5 6 7
5 6 7
5 6 7
5 5 6
5 6 6
5 6 6
5 6 6
5 6 6
5 6 7
5 6 7
5 5 6
5 5 6
5 6 6
5 5 6
5 5 6
5 5 6
5 5 6
5 6 7
5 6 6
5 6 7
5 6 7
5 5 6
5 5 6
5 6 6
5 6 7
5 5 6
5 6 7
5 6 6
5 6 7
5 6 7
5 6 6
5 5 6
5 6 6
42 46 51
198 215 238
212 231 255
212 231 255
212 231 255
212 231 255
212 231 255
212 231 255
212 231 255
212 231 255
213 231 255
213 231 255
213 231 255
213 231 255
213 231 255
213 231 255
213 231 255
213 231 255
213 231 255
213 231 255
213 231 255
213 231 255
213 231 255
213 231 255
213 231 255
213 231 255
213 231 255
213 231 255
213 231 255
213 231 255
213 231 255
213 231 255
213 231 255
213 231 255
213 231 255
213 231 255
213 231 255
213 231 255
213 231 255
213 231 255
213 231 255
214 231 255
214 231 255
214 231 255
214 231 255
214 231 255
214 231 255
214 231 255
214 231 255
214 231 255
214 231 255
214 231 255
214 231 255
214 231 255
214 231 255
214 231 255
214 231 255
214 232 255
214 232 255
214 232 255
214 232 255
214 232 255
214 232 255
214 232 255
214 232 255
214 232 255
214 232 255
214 232 255
214 232 255
214 232 255
214 232 255
214 232 255
214 232 255
215 232 255
215 232 255
215 232 255
215 232 255
215 232 255
215 232 255
215 232 255
215 232 255
215 232 255
215 232 255
215 232 255
215 232 255
215 232 255
215 232 255
215 232 255
215 232 255
215 232 255
215 232 255
215 232 255
215 232 255
215 232 255
215 232 255
215 232 255
215 232 255
215 232 255
215 232 255
215 232 255
215 232 255
215 232 255
215 232 255
215 232 255
215 232 255
215 232 255
215 232 255
215 232 255
215 232 255
215 232 255
216 232 255
216 232 255
216 232 255
216 232 255
216 232 255
216 232 255
216 232 255
216 232 255
216 232 255
216 232 255
216 232 255
216 232 255
216 232 255
216 232 255
216 232 255
216 233 255
216 233 255
216 233 255
216 233 255
216 233 255
216 233 255
216 233 255
216 233 255
216 233 255
216 233 255
216 233 255
216 233 255
216 233 255
216 233 255
216 233 255
216 233 255
216 233 255
216 233 255
216 233 255
216 233 255
216 233 255
216 233 255
216 233 255
216 233 255
216 233 255
216 233 255
216 233 255
216 233 255
216 233 255
216 233 255
216 233 255
216 233 255
216 233 255
216 233 255
216 233 255
216 233 255
216 233 255
216 233 255
216 233 255
216 233 255
216 233 255
216 233 255
216 233 255
216 233 255
216 233 255
216 233 255
216 232 255
216 232 255
216 232 255
216 232 255
216 232 255
216 232 255
216 232 255
216 232 255
216 232 255
216 232 255
216 232 255
216 232 255
216 232 255
216 232 255
215 232 255
215 232 255
215 232 255
215 232 255
215 232 255
215 232 255
215 232 255
215 232 255
215 232 255
215 232 255
215 232 255
215 232 255
215 232 255
215 232 255
215 232 255
215 232 255
215 232 255
215 232 255
215 232 255
215 232 255
215 232 255
215 232 255
215 232 255
215 232 255
215 232 255
215 232 255
215 232 255
215 232 255
215 232 255
215 232 255
215 232 255
215 232 255
215 232 255
215 232 255
215 232 255
215 232 255
215 232 255
215 232 255
214 232 255
214 232 255
214 232 255
214 232 255
214 232 255
214 232 255
214 232 255
214 232 255
214 232 255
214 232 255
214 232 255
214 232 255
214 232 255
214 232 255
214 232 255
214 232 255
214 231 255
214 231 255
214 231 255
214 231 255
214 231 255
214 231 255
214 231 255
214 231 255
214 231 255
214 231 255
214 231 255
214 231 255
214 231 255
214 231 255
214 231 255
214 231 255
213 231 255
213 231 255
213 231 255
213 231 255
213 231 255
213 231 255
213 231 255
213 231 255
213 231 255
213 231 255
213 231 255
213 231 255
213 231 255
213 231 255
213 231 255
213 231 255
213 231 255
213 231 255
213 231 255
213 231 255
213 231 255
213 231 255
213 231 255
213 231 255
213 231 255
213 231 255
213 231 255
213 231 255
213 231 255
213 231 255
213 231 255
152 165 182
5 6 7
5 6 6
5 6 6
5 6 7
5 6 7
5 6 7
4 5 6
5 6 7
5 6 7
5 6 6
5 6 6
5 6 7
5 6 6
5 6 6
5 6 6
5 6 6
5 6 7
5 6 7
5 6 6
5 5 6
5 6 7
5 6 6
5 6 7
5 5 6
5 6 7
5 5 6
5 6 6
5 5 6
5 5 6
5 6 6
5 5 6
5 6 7
5 5 6
5 6 7
5 5 6
5 6 7
5 5 6
5 6 7
5 5 6
5 6 6
5 6 6
5 6 6
5 6 6
5 6 6
5 6 7
5 5 6
5 6 7
5 5 6
5 6 6
5 5 6
5 6 6
5 5 6
5 5 6
5 5 6
5 5 6
5 5 6
5 5 6
5 6 7
5 6 7
5 6 6
5 5 6
5 6 7
5 5 6
5 5 6
5 5 6
5 5 6
5 5 6
5 6 6
5 6 6
5 6 7
5 5 6
5 6 6
5 5 6
5 5 6
5 6 7
5 5 6
5 5 6
5 6 6
5 6 7
5 6 7
5 6 6
5 6 6
5 6 6
5 6 6
5 6 6
5 5 6
5 6 7
5 6 7
5 5 6
5 5 6
5 6 6
5 5 6
5 6 7
5 6 6
5 6 6
5 5 6
5 6 6
5 6 6
5 5 6
5 5 6
5 6 7
5 5 6
5 6 7
5 6 6
5 6 7
5 5 6
5 6 7
5 5 6
5 6 6
5 6 7
5 6 6
5 6 7
5 6 7
5 6 6
126 136 151
213 231 255
213 231 255
213 231 255
213 231 255
213 231 255
213 231 255
213 231 255
213 231 255
213 231 255
213 231 255
213 231 255
213 231 255
213 231 255
213 231 255
213 231 255
213 231 255
213 231 255
213 231 255
213 231 255
213 231 255
213 231 255
213 231 255
213 231 255
213 231 255
213 231 255
213 231 255
213 231 255
213 231 255
213 231 255
213 231 255
213 231 255
214 231 255
214 231 255
214 231 255
214 231 255
214 231 255
214 231 255
214 231 255
214 231 255
214 231 255
214 231 255
214 231 255
214 231 255
214 231 255
214 231 255
214 231 255
214 231 255
214 232 255
214 232 255
214 232 255
214 232 255
214 232 255
214 232 255
214 232 255
214 232 255
214 232 255
214 232 255
214 232 255
214 232 255
214 232 255
214 232 255
214 232 255
214 232 255
215 232 255
215 232 255
215 232 255
215 232 255
215 232 255
215 232 255
215 232 255
215 232 255
215 232 255
215 232 255
215 232 255
215 232 255
215 232 255
215 232 255
215 232 255
215 232 255
215 232 255
215 232 255
215 232 255
215 232 255
215 232 255
215 232 255
215 232 255
215 232 255
215 232 255
215 232 255
215 232 255
215 232 255
215 232 255
215 232 255
215 232 255
215 232 255
215 232 255
215 232 255
215 232 255
215 232 255
215 232 255
215 232 255
216 232 255
216 232 255
216 232 255
216 232 255
216 232 255
216 232 255
216 232 255
216 232 255
216 232 255
216 232 255
216 232 255
216 232 255
216 232 255
216 232 255
216 233 255
216 233 255
216 233 255
216 233 255
216 233 255
216 233 255
216 233 255
216 233 255
216 233 255
216 233 255
216 233 255
216 233 255
216 233 255
216 233 255
216 233 255
216 233 255
216 233 255
216 233 255
216 233 255
216 233 255
216 233 255
216 233 255
216 233 255
216 233 255
216 233 255
216 233 255
216 233 255
217 233 255
216 233 255
216 233 255
216 233 255
216 233 255
216 233 255
216 233 255
216 233 255
216 233 255
216 233 255
216 233 255
216 233 255
216 233 255
216 233 255
216 233 255
216 233 255
216 233 255
216 233 255
216 233 255
216 233 255
216 233 255
216 233 255
216 233 255
216 233 255
216 233 255
216 233 255
216 233 255
216 233 255
216 233 255
216 233 255
216 233 255
216 233 255
216 233 255
216 233 255
216 233 255
216 233 255
216 232 255
216 232 255
216 232 255
216 232 255
216 232 255
216 232 255
216 232 255
216 232 255
216 232 255
216 232 255
216 232 255
216 232 255
216 232 255
215 232 255
215 232 255
215 232 255
215 232 255
215 232 255
215 232 255
215 232 255
215 232 255
215 232 255
215 232 255
215 232 255
215 232 255
215 232 255
215 232 255
215 232 255
215 232 255
215 232 255
215 232 255
215 232 255
215 232 255
215 232 255
215 232 255
215 232 255
215 232 255
215 232 255
215 232 255
215 232 255
215 232 255
215 232 255
215 232 255
215 232 255
215 232 255
215 232 255
215 232 255
215 232 255
215 232 255
215 232 255
215 232 255
214 232 255
214 232 255
214 232 255
214 232 255
214 232 255
214 232 255
214 232 255
214 232 255
214 232 255
214 232 255
214 232 255
214 232 255
214 232 255
214 232 255
214 232 255
214 232 255
214 231 255
214 231 255
214 231 255
214 231 255
214 231 255
214 231 255
214 231 255
214 231 255
214 231 255
214 231 255
214 231 255
214 231 255
214 231 255
214 231 255
214 231 255
214 231 255
213 231 255
213 231 255
213 231 255
213 231 255
213 231 255
213 231 255
213 231 255
213 231 255
213 231 255
213 231 255
213 231 255
213 231 255
213 231 255
213 231 255
213 231 255
213 231 255
213 231 255
213 231 255
213 231 255
213 231 255
213 231 255
213 231 255
198 215 238
43 46 51
5 6 7
5 6 6
5 6 7
5 6 7
5 5 6
5 6 6
5 6 7
5 5 6
5 5 6
5 6 7
5 5 6
5 5 6
5 6 6
5 6 6
5 6 7
5 6 6
5 5 6
5 6 7
5 5 6
5 6 6
5 6 6
5 6 6
5 6 6
5 6 6
5 6 6
5 6 7
5 6 6
5 6 6
5 5 6
5 6 6
5 5 6
5 6 6
5 6 6
5 6 6
5 5 6
5 6 7
5 5 6
5 6 6
5 6 7
5 6 6
5 5 6
5 6 7
5 6 6
5 5 6
5 6 6
5 6 7
5 6 6
5 6 6
5 6 6
5 6 7
5 5 6
5 6 7
5 5 6
5 6 7
5 6 6
5 6 7
5 6 7
5 5 6
5 6 7
5 6 6
5 6 6
5 5 6
5 5 6
5 6 6
5 5 6
5 5 6
5 5 6
5 6 6
5 5 6
5 6 6
5 6 6
5 5 6
5 5 6
5 5 6
5 6 7
5 6 6
5 5 6
5 6 7
5 5 6
5 5 6
5 5 6
5 6 7
5 6 6
5 5 6
5 6 6
5 6 6
5 5 6
5 5 6
5 6 6
5 5 6
5 5 6
5 6 7
5 5 6
5 5 6
5 6 6
5 5 6
5 6 6
5 6 7
5 6 7
5 6 7
5 6 6
5 6 6
5 5 6
5 5 6
5 6 7
5 5 6
5 6 7
5 6 6
5 6 7
5 6 7
5 5 6
5 6 6
5 6 7
5 6 7
37 40 44
195 212 234
213 231 255
213 231 255
213 231 255
213 231 255
213 231 255
213 231 255
213 231 255
213 231 255
213 231 255
213 231 255
213 231 255
213 231 255
213 231 255
213 231 255
213 231 255
213 231 255
213 231 255
213 231 255
213 231 255
213 231 255
213 231 255
213 231 255
214 231 255
214 231 255
214 231 255
214 231 255
214 231 255
214 231 255
214 231 255
214 231 255
214 231 255
214 231 255
214 231 255
214 231 255
214 231 255
214 231 255
214 231 255
214 231 255
214 232 255
214 232 255
214 232 255
214 232 255
214 232 255
214 232 255
214 232 255
214 232 255
214 232 255
214 232 255
214 232 255
214 232 255
214 232 255
214 232 255
214 232 255
214 232 255
215 232 255
215 232 255
215 232 255
215 232 255
215 232 255
215 232 255
215 232 255
215 232 255
215 232 255
215 232 255
215 232 255
215 232 255
215 232 255
215 232 255
215 232 255
215 232 255
215 232 255
215 232 255
215 232 255
215 232 255
215 232 255
215 232 255
215 232 255
215 232 255
215 232 255
215 232 255
215 232 255
215 232 255
215 232 255
215 232 255
215 232 255
215 232 255
215 232 255
215 232 255
215 232 255
215 232 255
215 232 255
215 232 255
216 232 255
216 232 255
216 232 255
216 232 255
216 232 255
216 232 255
216 232 255
216 232 255
216 232 255
216 232 255
216 232 255
216 232 255
216 232 255
216 233 255
216 233 255
216 233 255
216 233 255
216 233 255
216 233 255
216 233 255
216 233 255
216 233 255
216 233 255
216 233 255
216 233 255
216 233 255
216 233 255
216 233 255
216 233 255
216 233 255
216 233 255
216 233 255
216 233 255
216 233 255
216 233 255
216 233 255
216 233 255
216 233 255
216 233 255
216 233 255
216 233 255
216 233 255
216 233 255
216 233 255
216 233 255
216 233 255
216 233 255
216 233 255
217 233 255
217 233 255
217 233 255
217 233 255
217 233 255
217 233 255
217 233 255
217 233 255
217 233 255
217 233 255
217 233 255
216 233 255
216 233 255
216 233 255
216 233 255
216 233 255
216 233 255
216 233 255
216 233 255
216 233 255
216 233 255
216 233 255
216 233 255
216 233 255
216 233 255
216 233 255
216 233 255
216 233 255
216 233 255
216 233 255
216 233 255
216 233 255
216 233 255
216 233 255
216 233 255
216 233 255
216 233 255
216 233 255
216 233 255
216 233 255
216 233 255
216 233 255
216 233 255
216 233 255
216 233 255
216 232 255
216 232 255
216 232 255
216 232 255
216 232 255
216 232 255
216 232 255
216 232 255
216 232 255
216 232 255
216 232 255
216 232 255
216 232 255
215 232 255
215 232 255
215 232 255
215 232 255
215 232 255
215 232 255
215 232 255
215 232 255
215 232 255
215 232 255
215 232 255
215 232 255
215 232 255
215 232 255
215 232 255
215 232 255
215 232 255
215 232 255
215 232 255
215 232 255
215 232 255
215 232 255
215 232 255
215 232 255
215 232 255
215 232 255
215 232 255
215 232 255
215 232 255
215 232 255
215 232 255
215 232 255
215 232 255
215 232 255
215 232 255
215 232 255
215 232 255
214 232 255
214 232 255
214 232 255
214 232 255
214 232 255
214 232 255
214 232 255
214 232 255
214 232 255
214 232 255
214 232 255
214 232 255
214 232 255
214 232 255
214 232 255
214 232 255
214 232 255
214 231 255
214 231 255
214 231 255
214 231 255
214 231 255
214 231 255
214 231 255
214 231 255
214 231 255
214 231 255
214 231 255
214 231 255
214 231 255
214 231 255
214 231 255
214 231 255
213 231 255
213 231 255
213 231 255
213 231 255
213 231 255
213 231 255
213 231 255
213 231 255
213 231 255
213 231 255
213 231 255
213 231 255
213 231 255
213 231 255
113 122 135
5 6 7
5 6 7
5 5 6
5 5 6
5 5 6
5 6 6
5 5 6
5 6 6
5 6 6
5 6 7
5 6 7
5 6 6
5 6 6
5 5 6
5 6 6
5 6 6
5 6 6
5 5 6
5 6 6
5 5 6
5 6 7
5 5 6
5 5 6
5 5 6
5 5 6
5 5 6
5 6 7
5 5 6
5 6 6
5 5 6
5 6 6
5 6 6
5 5 6
5 6 7
5 5 6
5 6 6
5 5 6
5 6 6
5 6 6
5 6 7
5 5 6
5 6 6
5 6 7
5 5 6
5 5 6
5 6 7
5 6 7
5 6 6
5 5 6
4 5 6
5 5 6
5 5 6
5 5 6
5 5 6
5 6 7
5 5 6
5 5 6
5 5 6
5 6 6
5 6 6
5 5 6
5 5 6
5 6 6
5 6 6
5 6 7
5 5 6
5 5 6
5 6 7
5 6 6
5 5 6
5 5 6
5 5 6
5 5 6
5 5 6
5 6 6
5 6 6
5 5 6
5 5 6
5 5 6
5 6 7
5 6 7
5 5 6
5 6 6
5 5 6
5 6 6
5 6 6
5 5 6
5 5 6
5 5 6
5 5 6
5 6 6
5 6 6
5 5 6
5 5 6
5 5 6
5 5 6
5 6 7
5 5 6
5 6 6
5 5 6
5 6 6
5 6 6
5 5 6
5 6 7
5 5 6
5 6 6
5 5 6
5 5 6
5 5 6
5 6 6
5 5 6
5 6 7
5 6 7
5 6 6
5 6 7
5 6 6
124 135 149
213 231 255
213 231 255
213 231 255
213 231 255
213 231 255
213 231 255
213 231 255
213 231 255
213 231 255
213 231 255
213 231 255
213 231 255
213 231 255
214 231 255
214 231 255
214 231 255
214 231 255
214 231 255
214 231 255
214 231 255
214 231 255
214 231 255
214 231 255
214 231 255
214 231 255
214 231 255
214 231 255
214 231 255
214 231 255
214 231 255
214 232 255
214 232 255
214 232 255
214 232 255
214 232 255
214 232 255
214 232 255
214 232 255
214 232 255
214 232 255
214 232 255
214 232 255
214 232 255
214 232 255
214 232 255
214 232 255
215 232 255
215 232 255
215 232 255
215 232 255
215 232 255
215 232 255
215 232 255
215 232 255
215 232 255
215 232 255
215 232 255
215 232 255
215 232 255
215 232 255
215 232 255
215 232 255
215 232 255
215 232 255
215 232 255
215 232 255
215 232 255
215 232 255
215 232 255
215 232 255
215 232 255
215 232 255
215 232 255
215 232 255
215 232 255
215 232 255
215 232 255
215 232 255
215 232 255
215 232 255
215 232 255
215 232 255
215 232 255
215 232 255
216 232 255
216 232 255
216 232 255
216 232 255
216 232 255
216 232 255
216 232 255
216 232 255
216 232 255
216 232 255
216 232 255
216 232 255
216 232 255
216 233 255
216 233 255
216 233 255
216 233 255
216 233 255
216 233 255
216 233 255
216 233 255
216 233 255
216 233 255
216 233 255
216 233 255
216 233 255
216 233 255
216 233 255
216 233 255
216 233 255
216 233 255
216 233 255
216 233 255
216 233 255
216 233 255
216 233 255
216 233 255
216 233 255
216 233 255
216 233 255
216 233 255
216 233 255
216 233 255
216 233 255
216 233 255
216 233 255
216 233 255
217 233 255
217 233 255
217 233 255
217 233 255
217 233 255
217 233 255
217 233 255
217 233 255
217 233 255
217 233 255
217 233 255
217 233 255
217 233 255
217 233 255
217 233 255
217 233 255
217 233 255
217 233 255
217 233 255
217 233 255
217 233 255
217 233 255
217 233 255
217 233 255
217 233 255
217 233 255
217 233 255
217 233 255
217 233 255
216 233 255
216 233 255
216 233 255
216 233 255
216 233 255
216 233 255
216 233 255
216 233 255
216 233 255
216 233 255
216 233 255
216 233 255
216 233 255
216 233 255
216 233 255
216 233 255
216 233 255
216 233 255
216 233 255
216 233 255
216 233 255
216 233 255
216 233 255
216 233 255
216 233 255
216 233 255
216 233 255
216 233 255
216 233 255
216 233 255
216 233 255
216 233 255
216 233 255
216 233 255
216 232 255
216 232 255
216 232 255
216 232 255
216 232 255
216 232 255
216 232 255
216 232 255
216 232 255
216 232 255
216 232 255
216 232 255
215 232 255
215 232 255
215 232 255
215 232 255
215 232 255
215 232 255
215 232 255
215 232 255
215 232 255
215 232 255
215 232 255
215 232 255
215 232 255
215 232 255
215 232 255
215 232 255
215 232 255
215 232 255
215 232 255
215 232 255
215 232 255
215 232 255
215 232 255
215 232 255
215 232 255
215 232 255
215 232 255
215 232 255
215 232 255
215 232 255
215 232 255
215 232 255
215 232 255
215 232 255
215 232 255
215 232 255
215 232 255
215 232 255
214 232 255
214 232 255
214 232 255
214 232 255
214 232 255
214 232 255
214 232 255
214 232 255
214 232 255
214 232 255
214 232 255
214 232 255
214 232 255
214 232 255
214 232 255
214 232 255
214 231 255
214 231 255
214 231 255
214 231 255
214 231 255
214 231 255
214 231 255
214 231 255
214 231 255
214 231 255
214 231 255
214 231 255
214 231 255
214 231 255
214 231 255
214 231 255
214 231 255
214 231 255
213 231 255
213 231 255
213 231 255
204 220 244
30 33 36
5 5 6
5 6 6
5 6 6
5 5 6
5 6 7
5 6 7
5 6 7
5 6 7
5 6 6
5 6 6
5 5 6
5 5 6
5 6 6
5 6 6
5 6 6
5 6 7
5 6 7
5 6 6
5 6 7
5 5 6
5 5 6
5 6 7
5 6 7
5 5 6
5 6 6
5 5 6
5 6 6
5 5 6
4 5 6
5 6 6
5 6 6
5 6 6
5 5 6
5 6 6
5 6 6
5 6 6
5 5 6
5 5 6
5 5 6
5 5 6
5 6 7
5 5 6
5 5 6
5 5 6
5 5 6
5 5 6
5 5 6
5 5 6
5 5 6
5 5 6
5 5 6
5 6 6
5 5 6
5 5 6
5 6 6
5 5 6
5 6 6
5 6 6
5 6 7
5 5 6
5 5 6
5 6 7
5 6 7
5 6 6
5 6 6
5 5 6
5 5 6
5 5 6
5 6 6
5 6 6
5 6 6
5 5 6
5 6 6
5 6 6
5 6 7
5 5 6
5 6 6
5 6 6
5 5 6
5 6 6
5 5 6
4 5 6
5 6 6
5 5 6
5 6 6
5 6 6
5 5 6
5 5 6
5 5 6
5 5 6
5 6 7
5 5 6
5 5 6
5 5 6
5 6 7
5 6 7
5 6 6
5 6 6
5 6 6
5 6 7
5 6 7
5 6 6
5 6 7
5 6 6
5 6 7
5 6 7
5 6 7
5 5 6
5 5 6
5 6 6
5 6 7
5 5 6
5 5 6
5 6 7
5 6 7
5 5 6
5 6 6
208 225 249
213 231 255
213 231 255
213 231 255
214 231 255
214 231 255
214 231 255
214 231 255
214 231 255
214 231 255
214 231 255
214 231 255
214 231 255
214 231 255
214 231 255
214 231 255
214 231 255
214 231 255
214 231 255
214 231 255
214 231 255
214 231 255
214 232 255
214 232 255
214 232 255
214 232 255
214 232 255
214 232 255
214 232 255
214 232 255
214 232 255
214 232 255
214 232 255
214 232 255
214 232 255
214 232 255
214 232 255
214 232 255
215 232 255
215 232 255
215 232 255
215 232 255
215 232 255
215 232 255
215 232 255
215 232 255
215 232 255
215 232 255
215 232 255
215 232 255
215 232 255
215 232 255
215 232 255
215 232 255
215 232 255
215 232 255
215 232 255
215 232 255
215 232 255
215 232 255
215 232 255
215 232 255
215 232 255
215 232 255
215 232 255
215 232 255
215 232 255
215 232 255
215 232 255
215 232 255
215 232 255
215 232 255
215 232 255
215 232 255
215 232 255
216 232 255
216 232 255
216 232 255
216 232 255
216 232 255
216 232 255
216 232 255
216 232 255
216 232 255
216 232 255
216 232 255
216 232 255
216 232 255
216 233 255
216 233 255
216 233 255
216 233 255
216 233 255
216 233 255
216 233 255
216 233 255
216 233 255
216 233 255
216 233 255
216 233 255
216 233 255
216 233 255
216 233 255
216 233 255
216 233 255
216 233 255
216 233 255
216 233 255
216 233 255
216 233 255
216 233 255
216 233 255
216 233 255
216 233 255
216 233 255
216 233 255
216 233 255
216 233 255
216 233 255
216 233 255
216 233 255
216 233 255
217 233 255
217 233 255
217 233 255
217 233 255
217 233 255
217 233 255
217 233 255
217 233 255
217 233 255
217 233 255
217 233 255
217 233 255
217 233 255
217 233 255
217 233 255
217 233 255
217 233 255
217 233 255
217 233 255
217 233 255
217 233 255
217 233 255
217 233 255
217 233 255
217 233 255
217 233 255
217 233 255
217 233 255
217 233 255
217 233 255
217 233 255
217 233 255
217 233 255
217 233 255
217 233 255
217 233 255
217 233 255
217 233 255
217 233 255
217 233 255
217 233 255
217 233 255
217 233 255
217 233 255
217 233 255
217 233 255
217 233 255
217 233 255
216 233 255
216 233 255
216 233 255
216 233 255
216 233 255
216 233 255
216 233 255
216 233 255
216 233 255
216 233 255
216 233 255
216 233 255
216 233 255
216 233 255
216 233 255
216 233 255
216 233 255
216 233 255
216 233 255
216 233 255
216 233 255
216 233 255
216 233 255
216 233 255
216 233 255
216 233 255
216 233 255
216 233 255
216 233 255
216 233 255
216 233 255
216 233 255
216 232 255
216 232 255
216 232 255
216 232 255
216 232 255
216 232 255
216 232 255
216 232 255
216 232 255
216 232 255
216 232 255
216 232 255
216 232 255
215 232 255
215 232 255
215 232 255
215 232 255
215 232 255
215 232 255
215 232 255
215 232 255
215 232 255
215 232 255
215 232 255
215 232 255
215 232 255
215 232 255
215 232 255
215 232 255
215 232 255
215 232 255
215 232 255
215 232 255
215 232 255
215 232 255
215 232 255
215 232 255
215 232 255
215 232 255
215 232 255
215 232 255
215 232 255
215 232 255
215 232 255
215 232 255
215 232 255
215 232 255
215 232 255
215 232 255
215 232 255
214 232 255
214 232 255
214 232 255
214 232 255
214 232 255
214 232 255
214 232 255
214 232 255
214 232 255
214 232 255
214 232 255
214 232 255
214 232 255
214 232 255
214 232 255
214 232 255
214 232 255
214 232 255
214 231 255
214 231 255
214 231 255
214 231 255
214 231 255
214 231 255
214 231 255
214 231 255
214 231 255
214 231 255
214 231 255
151 163 181
5 6 7
4 5 6
5 6 6
5 6 7
5 6 6
5 6 6
5 5 6
5 5 6
5 6 7
5 6 6
5 6 7
5 6 7
5 5 6
5 6 6
5 6 7
5 6 7
5 5 6
5 5 6
5 5 6
5 5 6
5 5 6
5 6 6
5 5 6
5 6 7
5 5 6
5 6 7
5 5 6
5 5 6
5 6 6
5 6 6
5 5 6
5 6 7
5 6 6
5 6 6
5 6 6
5 5 6
5 5 6
5 6 7
5 6 7
5 5 6
4 5 6
5 5 6
5 6 6
5 5 6
5 5 6
5 5 6
5 6 6
5 5 6
5 6 6
5 5 6
5 5 6
5 5 6
5 6 6
5 5 6
5 5 6
5 5 6
5 5 6
5 5 6
5 5 6
5 6 7
5 5 6
4 5 6
5 5 6
5 6 7
5 5 6
4 5 5
5 5 6
5 5 6
5 5 6
5 6 6
5 5 6
5 6 6
5 5 6
5 5 6
5 6 7
5 5 6
5 5 6
4 5 6
5 5 6
5 5 6
5 6 6
5 5 6
5 6 6
5 5 6
5 5 6
5 6 6
5 5 6
5 5 6
5 6 7
5 5 6
5 6 6
5 6 6
5 6 6
5 5 6
5 6 6
5 5 6
5 5 6
5 6 7
5 6 6
5 5 6
5 6 6
5 6 6
5 6 6
5 6 6
5 5 6
5 5 6
5 6 6
5 6 7
5 6 7
5 6 7
5 6 6
5 6 6
5 5 6
6 6 7
5 6 7
5 6 6
5 5 6
5 6 7
149 162 179
214 231 255
214 231 255
214 231 255
214 231 255
214 231 255
214 231 255
214 231 255
214 231 255
214 231 255
214 231 255
214 231 255
214 231 255
214 232 255
214 232 255
214 232 255
214 232 255
214 232 255
214 232 255
214 232 255
214 232 255
214 232 255
214 232 255
214 232 255
214 232 255
214 232 255
214 232 255
214 232 255
214 232 255
215 232 255
215 232 255
215 232 255
215 232 255
215 232 255
215 232 255
215 232 255
215 232 255
215 232 255
215 232 255
215 232 255
215 232 255
215 232 255
215 232 255
215 232 255
215 232 255
215 232 255
215 232 255
215 232 255
215 232 255
215 232 255
215 232 255
215 232 255
215 232 255
215 232 255
215 232 255
215 232 255
215 232 255
215 232 255
215 232 255
215 232 255
215 232 255
215 232 255
215 232 255
215 232 255
215 232 255
215 232 255
215 232 255
216 232 255
216 232 255
216 232 255
216 232 255
216 232 255
216 232 255
216 232 255
216 232 255
216 232 255
216 232 255
216 232 255
216 232 255
216 232 255
216 233 255
216 233 255
216 233 255
216 233 255
216 233 255
216 233 255
216 233 255
216 233 255
216 233 255
216 233 255
216 233 255
216 233 255
216 233 255
216 233 255
216 233 255
216 233 255
216 233 255
216 233 255
216 233 255
216 233 255
216 233 255
216 233 255
216 233 255
216 233 255
216 233 255
216 233 255
216 233 255
216 233 255
216 233 255
216 233 255
216 233 255
216 233 255
217 233 255
217 233 255
217 233 255
217 233 255
217 233 255
217 233 255
217 233 255
217 233 255
217 233 255
217 233 255
217 233 255
217 233 255
217 233 255
217 233 255
217 233 255
217 233 255
217 233 255
217 233 255
217 233 255
217 233 255
217 233 255
217 233 255
217 233 255
217 233 255
217 233 255
217 233 255
217 233 255
217 233 255
217 233 255
217 233 255
217 233 255
217 233 255
217 233 255
217 233 255
217 233 255
217 233 255
217 233 255
217 233 255
217 233 255
217 233 255
217 233 255
217 233 255
217 233 255
217 233 255
217 233 255
217 233 255
217 233 255
217 233 255
217 233 255
217 233 255
217 233 255
217 233 255
217 233 255
217 233 255
217 233 255
217 233 255
217 233 255
217 233 255
217 233 255
217 233 255
217 233 255
217 233 255
217 233 255
217 233 255
217 233 255
217 233 255
217 233 255
216 233 255
216 233 255
216 233 255
216 233 255
216 233 255
216 233 255
216 233 255
216 233 255
216 233 255
216 233 255
216 233 255
216 233 255
216 233 255
216 233 255
216 233 255
216 233 255
216 233 255
216 233 255
216 233 255
216 233 255
216 233 255
216 233 255
216 233 255
216 233 255
216 233 255
216 233 255
216 233 255
216 233 255
216 233 255
216 233 255
216 233 255
216 233 255
216 232 255
216 232 255
216 232 255
216 232 255
216 232 255
216 232 255
216 232 255
216 232 255
216 232 255
216 232 255
216 232 255
216 232 255
216 232 255
215 232 255
215 232 255
215 232 255
215 232 255
215 232 255
215 232 255
215 232 255
215 232 255
215 232 255
215 232 255
215 232 255
215 232 255
215 232 255
215 232 255
215 232 255
215 232 255
215 232 255
215 232 255
215 232 255
215 232 255
215 232 255
215 232 255
215 232 255
215 232 255
215 232 255
215 232 255
215 232 255
215 232 255
215 232 255
215 232 255
215 232 255
215 232 255
215 232 255
215 232 255
215 232 255
215 232 255
215 232 255
215 232 255
214 232 255
214 232 255
214 232 255
214 232 255
214 232 255
214 232 255
214 232 255
214 232 255
214 232 255
214 232 255
214 232 255
214 232 255
214 232 255
214 232 255
214 232 255
214 232 255
214 232 255
214 232 255
211 228 252
74 80 88
5 6 6
5 5 6
5 5 6
5 5 6
5 6 7
5 6 7
5 5 6
5 6 6
5 6 7
5 5 6
5 5 6
5 6 7
5 6 6
5 6 6
5 6 7
5 5 6
5 5 6
5 5 6
5 6 6
5 5 6
5 6 7
5 5 6
5 6 6
5 5 6
5 5 6
5 6 6
5 6 6
5 5 6
5 6 6
5 5 6
5 6 6
5 6 6
5 6 6
5 5 6
5 6 6
5 6 6
5 5 6
5 6 6
5 6 7
5 5 6
5 6 6
5 6 6
5 5 6
5 5 6
5 5 6
5 5 6
5 6 6
5 5 6
5 5 6
5 5 6
5 5 6
5 6 7
5 5 6
5 6 6
5 5 6
5 5 6
5 5 6
5 5 6
5 6 6
5 5 6
5 5 6
5 6 7
5 5 6
5 5 6
5 5 6
5 5 6
5 6 7
5 6 6
5 5 6
5 6 6
5 6 6
5 5 6
5 5 6
5 5 6
5 6 6
5 5 6
5 6 6
5 6 6
4 5 6
5 5 6
5 6 6
5 6 6
5 5 6
5 5 6
5 5 6
5 6 7
5 5 6
5 6 7
5 6 6
5 6 7
5 5 6
5 5 6
5 6 6
5 5 6
5 6 6
5 6 6
5 6 6
5 5 6
5 6 7
5 6 6
5 5 6
5 5 6
5 6 6
5 5 6
5 5 6
5 6 7
5 5 6
5 5 6
5 6 7
5 5 6
5 6 6
5 5 6
5 6 6
5 6 7
5 6 6
5 6 6
5 6 7
5 5 6
56 61 68
207 224 248
214 231 255
214 232 255
214 232 255
214 232 255
214 232 255
214 232 255
214 232 255
214 232 255
214 232 255
214 232 255
214 232 255
214 232 255
214 232 255
214 232 255
214 232 255
214 232 255
214 232 255
214 232 255
215 232 255
215 232 255
215 232 255
215 232 255
215 232 255
215 232 255
215 232 255
215 232 255
215 232 255
215 232 255
215 232 255
215 232 255
215 232 255
215 232 255
215 232 255
215 232 255
215 232 255
215 232 255
215 232 255
215 232 255
215 232 255
215 232 255
215 232 255
215 232 255
215 232 255
215 232 255
215 232 255
215 232 255
215 232 255
215 232 255
215 232 255
215 232 255
215 232 255
215 232 255
215 232 255
215 232 255
215 232 255
216 232 255
216 232 255
216 232 255
216 232 255
216 232 255
216 232 255
216 232 255
216 232 255
216 232 255
216 232 255
216 232 255
216 232 255
216 232 255
216 233 255
216 233 255
216 233 255
216 233 255
216 233 255
216 233 255
216 233 255
216 233 255
216 233 255
216 233 255
216 233 255
216 233 255
216 233 255
216 233 255
216 233 255
216 233 255
216 233 255
216 233 255
216 233 255
216 233 255
216 233 255
216 233 255
216 233 255
216 233 255
216 233 255
216 233 255
216 233 255
216 233 255
216 233 255
216 233 255
216 233 255
216 233 255
217 233 255
217 233 255
217 233 255
217 233 255
217 233 255
217 233 255
217 233 255
217 233 255
217 233 255
217 233 255
217 233 255
217 233 255
217 233 255
217 233 255
217 233 255
217 233 255
217 233 255
217 233 255
217 233 255
217 233 255
217 233 255
217 233 255
217 233 255
217 233 255
217 233 255
217 233 255
217 233 255
217 233 255
217 233 255
217 233 255
217 233 255
217 233 255
217 233 255
217 233 255
217 233 255
217 233 255
217 233 255
217 233 255
217 233 255
217 233 255
217 233 255
217 233 255
217 233 255
217 233 255
217 233 255
217 233 255
217 233 255
217 233 255
217 233 255
217 233 255
217 233 255
217 233 255
217 233 255
217 233 255
217 233 255
217 233 255
217 233 255
217 233 255
217 233 255
217 233 255
217 233 255
217 233 255
217 233 255
217 233 255
217 233 255
217 233 255
217 233 255
217 233 255
217 233 255
217 233 255
217 233 255
217 233 255
217 233 255
217 233 255
217 233 255
217 233 255
217 233 255
217 233 255
217 233 255
217 233 255
217 233 255
217 233 255
217 233 255
217 233 255
217 233 255
217 233 255
217 233 255
216 233 255
216 233 255
216 233 255
216 233 255
216 233 255
216 233 255
216 233 255
216 233 255
216 233 255
216 233 255
216 233 255
216 233 255
216 233 255
216 233 255
216 233 255
216 233 255
216 233 255
216 233 255
216 233 255
216 233 255
216 233 255
216 233 255
216 233 255
216 233 255
216 233 255
216 233 255
216 233 255
216 233 255
216 233 255
216 233 255
216 233 255
216 232 255
216 232 255
216 232 255
216 232 255
216 232 255
216 232 255
216 232 255
216 232 255
216 232 255
216 232 255
216 232 255
216 232 255
216 232 255
216 232 255
215 232 255
215 232 255
215 232 255
215 232 255
215 232 255
215 232 255
215 232 255
215 232 255
215 232 255
215 232 255
215 232 255
215 232 255
215 232 255
215 232 255
215 232 255
215 232 255
215 232 255
215 232 255
215 232 255
215 232 255
215 232 255
215 232 255
215 232 255
215 232 255
215 232 255
215 232 255
215 232 255
215 232 255
215 232 255
215 232 255
215 232 255
215 232 255
215 232 255
215 232 255
215 232 255
215 232 255
215 232 255
215 232 255
214 232 255
214 232 255
214 232 255
214 232 255
214 232 255
214 232 255
214 232 255
214 232 255
169 182 201
5 6 6
5 6 6
5 5 6
5 5 6
5 6 6
5 5 6
5 6 7
5 6 7
5 5 6
5 5 6
5 6 6
5 6 7
5 5 6
5 6 6
5 6 6
5 5 6
5 6 7
5 6 6
5 5 6
5 6 6
5 6 7
5 6 7
5 5 6
5 6 6
5 5 6
5 6 7
5 5 6
5 5 6
5 6 6
5 5 6
5 5 6
5 5 6
5 5 6
5 5 6
5 5 6
5 5 6
5 6 6
5 6 6
5 6 6
5 5 6
5 5 6
5 5 6
5 5 6
5 5 6
5 5 6
5 5 6
5 5 6
5 5 6
5 5 6
5 5 6
5 5 6
5 5 6
5 5 6
4 5 6
5 5 6
5 5 6
5 5 6
5 5 6
5 6 6
5 5 6
5 5 6
5 5 6
5 5 6
5 6 6
5 5 6
5 6 7
4 5 5
5 6 6
5 5 6
5 6 6
5 5 6
5 6 6
5 5 6
5 5 6
5 5 6
5 6 6
5 5 6
5 6 7
4 5 6
5 5 6
5 6 6
5 5 6
5 6 6
5 6 6
5 5 6
5 5 6
5 5 6
5 5 6
5 5 6
5 6 6
5 5 6
5 5 6
5 6 6
5 6 6
5 5 6
5 5 6
5 6 6
5 5 6
5 5 6
5 6 7
5 6 6
5 6 7
5 6 7
5 6 6
5 5 6
5 6 7
5 6 6
5 5 6
5 5 6
5 5 6
4 5 6
5 6 6
5 6 7
5 6 6
5 5 6
5 5 6
5 5 6
5 6 7
5 6 7
5 6 6
167 181 199
214 232 255
214 232 255
214 232 255
214 232 255
214 232 255
214 232 255
214 232 255
214 232 255
215 232 255
215 232 255
215 232 255
215 232 255
215 232 255
215 232 255
215 232 255
215 232 255
215 232 255
215 232 255
215 232 255
215 232 255
215 232 255
215 232 255
215 232 255
215 232 255
215 232 255
215 232 255
215 232 255
215 232 255
215 232 255
215 232 255
215 232 255
215 232 255
215 232 255
215 232 255
215 232 255
215 232 255
215 232 255
215 232 255
215 232 255
215 232 255
215 232 255
215 232 255
215 232 255
215 232 255
215 232 255
215 232 255
215 232 255
216 232 255
216 232 255
216 232 255
216 232 255
216 232 255
216 232 255
216 232 255
216 232 255
216 232 255
216 232 255
216 232 255
216 232 255
216 233 255
216 233 255
216 233 255
216 233 255
216 233 255
216 233 255
216 233 255
216 233 255
216 233 255
216 233 255
216 233 255
216 233 255
216 233 255
216 233 255
216 233 255
216 233 255
216 233 255
216 233 255
216 233 255
216 233 255
216 233 255
216 233 255
216 233 255
216 233 255
216 233 255
216 233 255
216 233 255
216 233 255
216 233 255
216 233 255
216 233 255
216 233 255
217 233 255
217 233 255
217 233 255
217 233 255
217 233 255
217 233 255
217 233 255
217 233 255
217 233 255
217 233 255
217 233 255
217 233 255
217 233 255
217 233 255
217 233 255
217 233 255
217 233 255
217 233 255
217 233 255
217 233 255
217 233 255
217 233 255
217 233 255
217 233 255
217 233 255
217 233 255
217 233 255
217 233 255
217 233 255
217 233 255
217 233 255
217 233 255
217 233 255
217 233 255
217 233 255
217 233 255
217 233 255
217 233 255
217 233 255
217 233 255
217 233 255
217 233 255
217 233 255
217 233 255
217 233 255
217 233 255
217 233 255
217 233 255
217 233 255
217 233 255
217 233 255
217 233 255
217 233 255
217 233 255
217 233 255
217 233 255
217 233 255
217 233 255
217 233 255
217 233 255
217 233 255
217 233 255
217 233 255
217 233 255
217 233 255
217 233 255
217 233 255
217 233 255
217 233 255
217 233 255
217 233 255
217 233 255
217 233 255
217 233 255
217 233 255
217 233 255
217 233 255
217 233 255
217 233 255
217 233 255
217 233 255
217 233 255
217 233 255
217 233 255
217 233 255
217 233 255
217 233 255
217 233 255
217 233 255
217 233 255
217 233 255
217 233 255
217 233 255
217 233 255
217 233 255
217 233 255
217 233 255
217 233 255
217 233 255
217 233 255
217 233 255
217 233 255
217 233 255
217 233 255
217 233 255
217 233 255
216 233 255
216 233 255
216 233 255
216 233 255
216 233 255
216 233 255
216 233 255
216 233 255
216 233 255
216 233 255
216 233 255
216 233 255
216 233 255
216 233 255
216 233 255
216 233 255
216 233 255
216 233 255
216 233 255
216 233 255
216 233 255
216 233 255
216 233 255
216 233 255
216 233 255
216 233 255
216 233 255
216 233 255
216 233 255
216 233 255
216 233 255
216 232 255
216 232 255
216 232 255
216 232 255
216 232 255
216 232 255
216 232 255
216 232 255
216 232 255
216 232 255
216 232 255
216 232 255
216 232 255
216 232 255
215 232 255
215 232 255
215 232 255
215 232 255
215 232 255
215 232 255
215 232 255
215 232 255
215 232 255
215 232 255
215 232 255
215 232 255
215 232 255
215 232 255
215 232 255
215 232 255
215 232 255
215 232 255
215 232 255
215 232 255
215 232 255
215 232 255
215 232 255
215 232 255
215 232 255
215 232 255
215 232 255
215 232 255
215 232 255
215 232 255
215 232 255
215 232 255
215 232 255
215 232 255
215 232 255
215 232 255
107 116 128
5 6 7
5 6 6
5 6 6
5 5 6
5 6 7
5 5 6
5 6 6
5 5 6
5 5 6
5 6 7
4 5 6
5 5 6
5 5 6
5 5 6
5 6 6
5 6 6
5 5 6
5 5 6
5 6 6
5 5 6
5 6 6
5 5 6
5 6 6
5 6 6
5 5 6
5 5 6
5 5 6
5 5 6
5 5 6
5 6 6
5 6 6
5 6 6
5 6 7
5 6 6
5 5 6
5 5 6
5 5 6
5 5 6
5 5 6
5 6 6
5 6 6
5 5 6
5 5 6
5 5 6
5 6 6
4 5 6
5 6 6
5 5 6
5 5 6
5 5 6
5 6 6
5 5 6
5 6 6
5 5 6
5 5 6
5 5 6
5 5 6
5 5 6
5 5 6
5 6 6
5 6 6
4 5 6
5 5 6
5 5 6
5 5 6
5 5 6
5 5 6
5 6 7
4 5 5
5 5 6
5 6 7
5 5 6
5 6 6
5 5 6
5 6 7
5 6 6
5 6 6
5 5 6
5 5 6
5 5 6
5 5 6
5 6 6
5 5 6
5 5 6
5 5 6
5 5 6
5 5 6
5 5 6
4 5 6
5 5 6
5 6 6
5 6 6
5 5 6
5 6 6
5 6 6
4 5 6
5 6 6
5 6 6
5 6 7
5 5 6
5 5 6
5 6 6
5 5 6
5 6 6
5 5 6
5 5 6
5 5 6
5 5 6
5 6 6
5 5 6
5 6 7
5 5 6
5 6 7
5 5 6
5 5 6
5 6 7
5 5 6
5 6 6
5 6 6
5 6 6
115 125 137
215 232 255
215 232 255
215 232 255
215 232 255
215 232 255
215 232 255
215 232 255
215 232 255
215 232 255
215 232 255
215 232 255
215 232 255
215 232 255
215 232 255
215 232 255
215 232 255
215 232 255
215 232 255
215 232 255
215 232 255
215 232 255
215 232 255
215 232 255
215 232 255
215 232 255
215 232 255
215 232 255
215 232 255
215 232 255
215 232 255
215 232 255
215 232 255
215 232 255
215 232 255
215 232 255
215 232 255
215 232 255
216 232 255
216 232 255
216 232 255
216 232 255
216 232 255
216 232 255
216 232 255
216 232 255
216 232 255
216 232 255
216 232 255
216 232 255
216 232 255
216 233 255
216 233 255
216 233 255
216 233 255
216 233 255
216 233 255
216 233 255
216 233 255
216 233 255
216 233 255
216 233 255
216 233 255
216 233 255
216 233 255
216 233 255
216 233 255
216 233 255
216 233 255
216 233 255
216 233 255
216 233 255
216 233 255
216 233 255
216 233 255
216 233 255
216 233 255
216 233 255
216 233 255
216 233 255
216 233 255
216 233 255
217 233 255
217 233 255
217 233 255
217 233 255
217 233 255
217 233 255
217 233 255
217 233 255
217 233 255
217 233 255
217 233 255
217 233 255
217 233 255
217 233 255
217 233 255
217 233 255
217 233 255
217 233 255
217 233 255
217 233 255
217 233 255
217 233 255
217 233 255
217 233 255
217 233 255
217 233 255
217 233 255
217 233 255
217 233 255
217 233 255
217 233 255
217 233 255
217 233 255
217 233 255
217 233 255
217 233 255
217 233 255
217 233 255
217 233 255
217 233 255
217 233 255
217 233 255
217 233 255
217 233 255
217 233 255
217 233 255
217 233 255
217 233 255
217 233 255
217 233 255
217 233 255
217 233 255
217 233 255
217 233 255
217 233 255
217 233 255
217 233 255
217 233 255
218 234 255
218 234 255
218 234 255
218 233 255
218 233 255
218 233 255
218 233 255
218 233 255
218 233 255
218 233 255
218 233 255
217 233 255
217 233 255
217 233 255
217 233 255
217 233 255
217 233 255
217 233 255
217 233 255
217 233 255
217 233 255
217 233 255
217 233 255
217 233 255
217 233 255
217 233 255
217 233 255
217 233 255
217 233 255
217 233 255
217 233 255
217 233 255
217 233 255
217 233 255
217 233 255
217 233 255
217 233 255
217 233 255
217 233 255
217 233 255
217 233 255
217 233 255
217 233 255
217 233 255
217 233 255
217 233 255
217 233 255
217 233 255
217 233 255
217 233 255
217 233 255
217 233 255
217 233 255
217 233 255
217 233 255
217 233 255
217 233 255
217 233 255
217 233 255
217 233 255
217 233 255
217 233 255
217 233 255
217 233 255
217 233 255
217 233 255
217 233 255
217 233 255
216 233 255
216 233 255
216 233 255
216 233 255
216 233 255
216 233 255
216 233 255
216 233 255
216 233 255
216 233 255
216 233 255
216 233 255
216 233 255
216 233 255
216 233 255
216 233 255
216 233 255
216 233 255
216 233 255
216 233 255
216 233 255
216 233 255
216 233 255
216 233 255
216 233 255
216 233 255
216 233 255
216 233 255
216 233 255
216 233 255
216 233 255
216 232 255
216 232 255
216 232 255
216 232 255
216 232 255
216 232 255
216 232 255
216 232 255
216 232 255
216 232 255
216 232 255
216 232 255
216 232 255
215 232 255
215 232 255
215 232 255
215 232 255
215 232 255
215 232 255
215 232 255
215 232 255
215 232 255
215 232 255
215 232 255
215 232 255
215 232 255
215 232 255
215 232 255
215 232 255
215 232 255
215 232 255
215 232 255
215 232 255
215 232 255
215 232 255
215 232 255
215 232 255
215 232 255
215 232 255
204 220 242
5 6 7
5 6 7
5 6 6
5 6 7
5 6 7
5 5 6
5 6 6
5 5 6
5 5 6
5 5 6
5 6 6
5 6 6
5 5 6
5 6 6
5 5 6
5 6 6
5 6 7
5 5 6
5 5 6
5 5 6
5 5 6
5 5 6
5 6 6
5 5 6
5 5 6
5 5 6
5 5 6
5 6 6
5 6 6
5 5 6
5 6 6
5 5 6
5 6 6
5 5 6
5 5 6
5 5 6
5 6 6
5 5 6
5 6 6
5 6 6
5 6 6
5 6 6
5 5 6
5 6 6
5 5 6
5 5 6
5 6 6
5 6 6
5 5 6
5 5 6
4 5 6
5 6 7
5 5 6
5 5 6
5 6 6
5 5 6
5 5 6
5 5 6
5 5 6
5 5 6
5 6 7
5 6 6
5 5 6
5 6 6
5 5 6
5 5 6
5 5 6
5 6 6
5 6 6
4 5 6
5 5 6
4 5 5
4 5 6
5 6 7
5 5 6
5 5 6
5 6 6
5 5 6
5 5 6
5 5 6
5 5 6
5 5 6
4 5 6
5 6 6
5 5 6
4 5 6
5 6 6
5 5 6
5 6 6
5 5 6
5 5 6
5 5 6
5 5 6
5 5 6
5 6 6
5 5 6
5 5 6
4 5 6
5 5 6
5 5 6
5 5 6
5 5 6
5 6 6
5 5 6
5 6 6
5 5 6
5 6 6
5 6 6
5 6 6
5 5 6
5 5 6
5 5 6
5 5 6
5 5 6
5 6 6
5 5 6
5 5 6
5 5 6
5 5 6
5 6 6
5 6 6
30 33 36
204 220 242
215 232 255
215 232 255
215 232 255
215 232 255
215 232 255
215 232 255
215 232 255
215 232 255
215 232 255
215 232 255
215 232 255
215 232 255
215 232 255
215 232 255
215 232 255
215 232 255
215 232 255
215 232 255
215 232 255
215 232 255
215 232 255
215 232 255
215 232 255
215 232 255
215 232 255
216 232 255
216 232 255
216 232 255
216 232 255
216 232 255
216 232 255
216 232 255
216 232 255
216 232 255
216 232 255
216 232 255
216 232 255
216 232 255
216 233 255
216 233 255
216 233 255
216 233 255
216 233 255
216 233 255
216 233 255
216 233 255
216 233 255
216 233 255
216 233 255
216 233 255
216 233 255
216 233 255
216 233 255
216 233 255
216 233 255
216 233 255
216 233 255
216 233 255
216 233 255
216 233 255
216 233 255
216 233 255
216 233 255
216 233 255
216 233 255
216 233 255
216 233 255
216 233 255
216 233 255
216 233 255
217 233 255
217 233 255
217 233 255
217 233 255
217 233 255
217 233 255
217 233 255
217 233 255
217 233 255
217 233 255
217 233 255
217 233 255
217 233 255
217 233 255
217 233 255
217 233 255
217 233 255
217 233 255
217 233 255
217 233 255
217 233 255
217 233 255
217 233 255
217 233 255
217 233 255
217 233 255
217 233 255
217 233 255
217 233 255
217 233 255
217 233 255
217 233 255
217 233 255
217 233 255
217 233 255
217 233 255
217 233 255
217 233 255
217 233 255
217 233 255
217 233 255
217 233 255
217 233 255
217 233 255
217 233 255
217 233 255
217 233 255
217 233 255
217 233 255
217 233 255
217 233 255
217 233 255
217 233 255
217 233 255
217 233 255
217 233 255
218 233 255
218 233 255
218 233 255
218 233 255
218 233 255
218 233 255
218 233 255
218 233 255
218 233 255
218 234 255
218 234 255
218 234 255
218 234 255
218 234 255
218 234 255
218 234 255
218 234 255
218 234 255
218 234 255
218 234 255
218 234 255
218 234 255
218 234 255
218 234 255
218 234 255
218 234 255
218 234 255
218 233 255
218 233 255
218 233 255
218 233 255
218 233 255
218 233 255
218 233 255
218 233 255
217 233 255
217 233 255
217 233 255
217 233 255
217 233 255
217 233 255
217 233 255
217 233 255
217 233 255
217 233 255
217 233 255
217 233 255
217 233 255
217 233 255
217 233 255
217 233 255
217 233 255
217 233 255
217 233 255
217 233 255
217 233 255
217 233 255
217 233 255
217 233 255
217 233 255
217 233 255
217 233 255
217 233 255
217 233 255
217 233 255
217 233 255
217 233 255
217 233 255
217 233 255
217 233 255
217 233 255
217 233 255
217 233 255
217 233 255
217 233 255
217 233 255
217 233 255
217 233 255
217 233 255
217 233 255
217 233 255
217 233 255
217 233 255
217 233 255
217 233 255
217 233 255
217 233 255
217 233 255
217 233 255
217 233 255
217 233 255
216 233 255
216 233 255
216 233 255
216 233 255
216 233 255
216 233 255
216 233 255
216 233 255
216 233 255
216 233 255
216 233 255
216 233 255
216 233 255
216 233 255
216 233 255
216 233 255
216 233 255
216 233 255
216 233 255
216 233 255
216 233 255
216 233 255
216 233 255
216 233 255
216 233 255
216 233 255
216 233 255
216 233 255
216 233 255
216 233 255
216 233 255
216 232 255
216 232 255
216 232 255
216 232 255
216 232 255
216 232 255
216 232 255
216 232 255
216 232 255
216 232 255
216 232 255
216 232 255
215 232 255
215 232 255
215 232 255
215 232 255
215 232 255
215 232 255
215 232 255
215 232 255
215 232 255
215 232 255
215 232 255
215 232 255
215 232 255
215 232 255
215 232 255
215 232 255
162 175 193
5 6 7
5 6 7
5 6 6
5 6 7
5 6 6
5 5 6
5 5 6
5 5 6
5 6 6
5 5 6
5 5 6
5 5 6
5 5 6
5 6 6
5 5 6
5 5 6
5 5 6
5 6 6
5 6 6
4 5 6
5 6 6
5 5 6
5 5 6
5 5 6
5 6 6
5 5 6
5 5 6
5 5 6
5 6 6
5 6 6
5 5 6
5 5 6
5 6 6
5 5 6
5 5 6
5 5 6
5 5 6
5 6 6
5 5 6
5 6 6
5 5 6
5 5 6
5 6 6
5 5 6
5 5 6
5 5 6
5 5 6
5 6 6
4 5 6
5 5 6
5 5 6
5 5 6
5 5 6
4 5 6
5 5 6
5 5 6
5 5 6
5 5 6
5 5 6
5 6 6
5 5 6
5 5 6
5 6 6
5 5 6
5 6 6
5 6 6
5 5 6
5 5 6
5 5 6
5 5 6
5 5 6
5 5 6
5 6 6
5 5 6
5 6 6
5 5 6
5 5 6
5 5 6
5 5 6
5 5 6
5 5 6
5 5 6
5 6 7
5 6 6
5 5 6
5 5 6
5 6 6
5 5 6
5 5 6
5 5 6
5 5 6
5 6 7
4 5 6
5 5 6
5 6 6
5 5 6
5 6 6
5 5 6
5 5 6
5 5 6
5 5 6
5 5 6
5 5 6
5 5 6
5 5 6
5 6 6
5 5 6
5 5 6
5 5 6
5 6 6
5 5 6
5 6 6
5 5 6
5 5 6
5 5 6
5 5 6
5 6 6
5 5 6
5 5 6
5 6 6
5 6 7
5 5 6
161 174 191
215 232 255
215 232 255
215 232 255
215 232 255
215 232 255
215 232 255
215 232 255
215 232 255
215 232 255
215 232 255
215 232 255
215 232 255
215 232 255
215 232 255
215 232 255
216 232 255
216 232 255
216 232 255
216 232 255
216 232 255
216 232 255
216 232 255
216 232 255
216 232 255
216 232 255
216 232 255
216 232 255
216 232 255
216 233 255
216 233 255
216 233 255
216 233 255
216 233 255
216 233 255
216 233 255
216 233 255
216 233 255
216 233 255
216 233 255
216 233 255
216 233 255
216 233 255
216 233 255
216 233 255
216 233 255
216 233 255
216 233 255
216 233 255
216 233 255
216 233 255
216 233 255
216 233 255
216 233 255
216 233 255
216 233 255
216 233 255
216 233 255
216 233 255
216 233 255
216 233 255
217 233 255
217 233 255
217 233 255
217 233 255
217 233 255
217 233 255
217 233 255
217 233 255
217 233 255
217 233 255
217 233 255
217 233 255
217 233 255
217 233 255
217 233 255
217 233 255
217 233 255
217 233 255
217 233 255
217 233 255
217 233 255
217 233 255
217 233 255
217 233 255
217 233 255
217 233 255
217 233 255
217 233 255
217 233 255
217 233 255
217 233 255
217 233 255
217 233 255
217 233 255
217 233 255
217 233 255
217 233 255
217 233 255
217 233 255
217 233 255
217 233 255
217 233 255
217 233 255
217 233 255
217 233 255
217 233 255
217 233 255
217 233 255
217 233 255
217 233 255
217 233 255
217 233 255
217 233 255
217 233 255
217 233 255
217 233 255
218 233 255
218 233 255
218 233 255
218 233 255
218 233 255
218 233 255
218 233 255
218 234 255
218 234 255
218 234 255
218 234 255
218 234 255
218 234 255
218 234 255
218 234 255
218 234 255
218 234 255
218 234 255
218 234 255
218 234 255
218 234 255
218 234 255
218 234 255
218 234 255
218 234 255
218 234 255
218 234 255
218 234 255
218 234 255
218 234 255
218 234 255
218 234 255
218 234 255
218 234 255
218 234 255
218 234 255
218 234 255
218 234 255
218 234 255
218 234 255
218 234 255
218 234 255
218 234 255
218 234 255
218 234 255
218 234 255
218 234 255
218 234 255
218 234 255
218 233 255
218 233 255
218 233 255
218 233 255
218 233 255
218 233 255
218 233 255
217 233 255
217 233 255
217 233 255
217 233 255
217 233 255
217 233 255
217 233 255
217 233 255
217 233 255
217 233 255
217 233 255
217 233 255
217 233 255
217 233 255
217 233 255
217 233 255
217 233 255
217 233 255
217 233 255
217 233 255
217 233 255
217 233 255
217 233 255
217 233 255
217 233 255
217 233 255
217 233 255
217 233 255
217 233 255
217 233 255
217 233 255
217 233 255
217 233 255
217 233 255
217 233 255
217 233 255
217 233 255
217 233 255
217 233 255
217 233 255
217 233 255
217 233 255
217 233 255
217 233 255
217 233 255
217 233 255
217 233 255
217 233 255
217 233 255
217 233 255
217 233 255
217 233 255
217 233 255
217 233 255
217 233 255
217 233 255
216 233 255
216 233 255
216 233 255
216 233 255
216 233 255
216 233 255
216 233 255
216 233 255
216 233 255
216 233 255
216 233 255
216 233 255
216 233 255
216 233 255
216 233 255
216 233 255
216 233 255
216 233 255
216 233 255
216 233 255
216 233 255
216 233 255
216 233 255
216 233 255
216 233 255
216 233 255
216 233 255
216 233 255
216 233 255
216 233 255
216 233 255
216 232 255
216 232 255
216 232 255
216 232 255
216 232 255
216 232 255
216 232 255
216 232 255
216 232 255
216 232 255
216 232 255
216 232 255
216 232 255
216 232 255
215 232 255
215 232 255
215 232 255
89 96 105
5 5 6
5 5 6
5 5 6
5 6 6
5 6 6
5 5 6
5 5 6
5 5 6
5 5 6
5 5 6
5 5 6
5 6 6
5 5 6
5 5 6
5 5 6
5 5 6
5 5 6
5 5 6
5 6 7
4 5 6
5 6 6
5 6 6
5 6 7
5 5 6
5 6 7
5 6 7
5 6 6
5 6 6
5 6 6
5 5 6
5 5 6
5 5 6
5 5 6
5 5 6
5 6 7
5 5 6
5 6 6
5 5 6
5 5 6
5 5 6
5 5 6
5 5 6
5 5 6
5 5 6
5 5 6
5 5 6
5 5 6
5 5 6
5 5 6
5 5 6
4 5 5
5 5 6
5 6 6
4 5 6
4 5 6
5 5 6
5 5 6
5 6 6
5 5 6
5 5 6
5 5 6
5 6 6
5 5 6
5 5 6
5 5 6
5 5 6
5 5 6
5 5 6
4 5 6
5 6 6
5 5 6
5 5 6
5 5 6
5 6 7
5 6 6
5 5 6
5 5 6
5 6 6
5 5 6
5 5 6
5 5 6
5 6 6
5 5 6
4 5 6
4 5 6
5 5 6
5 5 6
5 6 6
5 6 6
5 5 6
5 5 6
4 5 6
5 5 6
5 5 6
5 5 6
5 6 6
4 5 6
5 5 6
5 5 6
5 6 7
5 5 6
5 5 6
5 5 6
5 5 6
4 5 5
5 6 6
5 5 6
5 5 6
5 5 6
5 5 6
5 6 7
5 5 6
5 6 6
5 6 6
5 5 6
5 5 6
5 5 6
5 5 6
5 6 6
5 5 6
5 5 6
5 6 6
99 106 117
215 232 255
215 232 255
216 232 255
216 232 255
216 232 255
216 232 255
216 232 255
216 232 255
216 232 255
216 232 255
216 232 255
216 232 255
216 232 255
216 232 255
216 232 255
216 232 255
216 232 255
216 233 255
216 233 255
216 233 255
216 233 255
216 233 255
216 233 255
216 233 255
216 233 255
216 233 255
216 233 255
216 233 255
216 233 255
216 233 255
216 233 255
216 233 255
216 233 255
216 233 255
216 233 255
216 233 255
216 233 255
216 233 255
216 233 255
216 233 255
216 233 255
216 233 255
216 233 255
216 233 255
216 233 255
216 233 255
216 233 255
216 233 255
216 233 255
217 233 255
217 233 255
217 233 255
217 233 255
217 233 255
217 233 255
217 233 255
217 233 255
217 233 255
217 233 255
217 233 255
217 233 255
217 233 255
217 233 255
217 233 255
217 233 255
217 233 255
217 233 255
217 233 255
217 233 255
217 233 255
217 233 255
217 233 255
217 233 255
217 233 255
217 233 255
217 233 255
217 233 255
217 233 255
217 233 255
217 233 255
217 233 255
217 233 255
217 233 255
217 233 255
217 233 255
217 233 255
217 233 255
217 233 255
217 233 255
217 233 255
217 233 255
217 233 255
217 233 255
217 233 255
217 233 255
217 233 255
217 233 255
217 233 255
217 233 255
217 233 255
217 233 255
217 233 255
217 233 255
217 233 255
218 233 255
218 233 255
218 233 255
218 233 255
218 233 255
218 233 255
218 233 255
218 234 255
218 234 255
218 234 255
218 234 255
218 234 255
218 234 255
218 234 255
218 234 255
218 234 255
218 234 255
218 234 255
218 234 255
218 234 255
218 234 255
218 234 255
218 234 255
218 234 255
218 234 255
218 234 255
218 234 255
218 234 255
218 234 255
218 234 255
218 234 255
218 234 255
218 234 255
218 234 255
218 234 255
218 234 255
218 234 255
218 234 255
218 234 255
218 234 255
218 234 255
218 234 255
218 234 255
218 234 255
218 234 255
218 234 255
218 234 255
218 234 255
218 234 255
218 234 255
218 234 255
218 234 255
218 234 255
218 234 255
218 234 255
218 234 255
218 234 255
218 234 255
218 234 255
218 234 255
218 234 255
218 234 255
218 234 255
218 234 255
218 234 255
218 234 255
218 234 255
218 234 255
218 234 255
218 234 255
218 234 255
218 234 255
218 234 255
218 234 255
218 233 255
218 233 255
218 233 255
218 233 255
218 233 255
218 233 255
218 233 255
217 233 255
217 233 255
217 233 255
217 233 255
217 233 255
217 233 255
217 233 255
217 233 255
217 233 255
217 233 255
217 233 255
217 233 255
217 233 255
217 233 255
217 233 255
217 233 255
217 233 255
217 233 255
217 233 255
217 233 255
217 233 255
217 233 255
217 233 255
217 233 255
217 233 255
217 233 255
217 233 255
217 233 255
217 233 255
217 233 255
217 233 255
217 233 255
217 233 255
217 233 255
217 233 255
217 233 255
217 233 255
217 233 255
217 233 255
217 233 255
217 233 255
217 233 255
217 233 255
217 233 255
217 233 255
217 233 255
217 233 255
217 233 255
217 233 255
217 233 255
217 233 255
217 233 255
217 233 255
217 233 255
216 233 255
216 233 255
216 233 255
216 233 255
216 233 255
216 233 255
216 233 255
216 233 255
216 233 255
216 233 255
216 233 255
216 233 255
216 233 255
216 233 255
216 233 255
216 233 255
216 233 255
216 233 255
216 233 255
216 233 255
216 233 255
216 233 255
216 233 255
216 233 255
216 233 255
216 233 255
216 233 255
216 233 255
216 233 255
216 233 255
216 233 255
216 233 255
216 233 255
216 232 255
216 232 255
216 232 255
203 219 241
5 5 6
5 5 6
5 5 6
5 6 6
5 6 6
5 5 6
5 5 6
5 6 6
4 5 6
5 5 6
5 6 6
5 5 6
5 5 6
5 6 6
5 5 6
5 5 6
5 6 6
5 6 6
5 5 6
5 6 6
5 5 6
5 5 6
5 5 6
5 5 6
5 5 6
5 5 6
5 6 6
5 6 6
5 5 6
5 5 6
5 6 7
5 5 6
4 5 6
4 5 6
5 5 6
5 6 6
5 5 6
5 6 6
5 5 6
5 5 6
5 5 6
5 5 6
5 5 6
5 5 6
5 5 6
5 5 6
5 5 6
5 5 6
5 5 6
5 6 6
4 5 6
5 5 6
5 6 7
5 5 6
5 6 6
5 5 6
4 5 6
5 5 6
5 5 6
5 5 6
5 5 6
5 5 6
5 5 6
5 5 6
5 5 6
5 5 6
5 5 6
5 5 6
4 5 6
5 5 6
5 5 6
5 5 6
4 5 5
5 6 6
5 5 6
5 5 6
5 5 6
5 5 6
5 5 6
5 5 6
5 5 6
5 5 6
5 5 6
5 5 6
5 5 6
5 6 7
5 6 6
4 5 6
5 5 6
5 6 6
5 5 6
5 5 6
5 6 6
5 6 6
5 5 6
5 5 6
5 6 6
5 6 6
5 5 6
5 5 6
5 5 6
5 5 6
5 5 6
5 5 6
5 5 6
5 6 6
5 5 6
4 5 6
4 5 6
5 6 6
5 5 6
5 5 6
5 5 6
5 5 6
5 5 6
5 6 7
5 6 6
5 5 6
5 5 6
5 6 6
5 5 6
4 5 6
5 6 7
5 6 6
203 219 241
216 232 255
216 232 255
216 232 255
216 233 255
216 233 255
216 233 255
216 233 255
216 233 255
216 233 255
216 233 255
216 233 255
216 233 255
216 233 255
216 233 255
216 233 255
216 233 255
216 233 255
216 233 255
216 233 255
216 233 255
216 233 255
216 233 255
216 233 255
216 233 255
216 233 255
216 233 255
216 233 255
216 233 255
216 233 255
216 233 255
216 233 255
216 233 255
216 233 255
216 233 255
216 233 255
216 233 255
217 233 255
217 233 255
217 233 255
217 233 255
217 233 255
217 233 255
217 233 255
217 233 255
217 233 255
217 233 255
217 233 255
217 233 255
217 233 255
217 233 255
217 233 255
217 233 255
217 233 255
217 233 255
217 233 255
217 233 255
217 233 255
217 233 255
217 233 255
217 233 255
217 233 255
217 233 255
217 233 255
217 233 255
217 233 255
217 233 255
217 233 255
217 233 255
217 233 255
217 233 255
217 233 255
217 233 255
217 233 255
217 233 255
217 233 255
217 233 255
217 233 255
217 233 255
217 233 255
217 233 255
217 233 255
217 233 255
217 233 255
217 233 255
217 233 255
217 233 255
217 233 255
217 233 255
217 233 255
217 233 255
217 233 255
218 233 255
218 233 255
218 233 255
218 233 255
218 233 255
218 233 255
218 234 255
218 234 255
218 234 255
218 234 255
218 234 255
218 234 255
218 234 255
218 234 255
218 234 255
218 234 255
218 234 255
218 234 255
218 234 255
218 234 255
218 234 255
218 234 255
218 234 255
218 234 255
218 234 255
218 234 255
218 234 255
218 234 255
218 234 255
218 234 255
218 234 255
218 234 255
218 234 255
218 234 255
218 234 255
218 234 255
218 234 255
218 234 255
218 234 255
218 234 255
218 234 255
218 234 255
218 234 255
218 234 255
218 234 255
218 234 255
218 234 255
218 234 255
218 234 255
218 234 255
218 234 255
218 234 255
218 234 255
218 234 255
218 234 255
218 234 255
218 234 255
218 234 255
218 234 255
218 234 255
218 234 255
218 234 255
218 234 255
218 234 255
218 234 255
218 234 255
218 234 255
218 234 255
218 234 255
218 234 255
218 234 255
218 234 255
218 234 255
218 234 255
218 234 255
218 234 255
218 234 255
218 234 255
218 234 255
218 234 255
218 234 255
218 234 255
218 234 255
218 234 255
218 234 255
218 234 255
218 234 255
218 234 255
218 234 255
218 234 255
218 234 255
218 234 255
218 234 255
218 234 255
218 234 255
218 234 255
218 234 255
218 234 255
218 233 255
218 234 255
218 233 255
218 233 255
218 233 255
218 233 255
218 233 255
217 233 255
217 233 255
217 233 255
217 233 255
217 233 255
217 233 255
217 233 255
217 233 255
217 233 255
217 233 255
217 233 255
217 233 255
217 233 255
217 233 255
217 233 255
217 233 255
217 233 255
217 233 255
217 233 255
217 233 255
217 233 255
217 233 255
217 233 255
217 233 255
217 233 255
217 233 255
217 233 255
217 233 255
217 233 255
217 233 255
217 233 255
217 233 255
217 233 255
217 233 255
217 233 255
217 233 255
217 233 255
217 233 255
217 233 255
217 233 255
217 233 255
217 233 255
217 233 255
217 233 255
217 233 255
217 233 255
217 233 255
217 233 255
217 233 255
217 233 255
217 233 255
217 233 255
217 233 255
217 233 255
217 233 255
216 233 255
216 233 255
216 233 255
216 233 255
216 233 255
216 233 255
216 233 255
216 233 255
216 233 255
216 233 255
216 233 255
216 233 255
216 233 255
216 233 255
216 233 255
216 233 255
216 233 255
216 233 255
216 233 255
216 233 255
216 233 255
216 233 255
216 233 255
174 187 206
5 5 6
5 5 6
5 6 7
5 6 6
5 5 6
4 5 6
5 5 6
5 5 6
5 6 6
5 5 6
5 6 7
5 5 6
5 5 6
5 6 6
5 5 6
5 5 6
5 6 6
5 5 6
5 5 6
5 5 6
5 5 6
5 5 6
5 6 6
4 5 6
5 5 6
5 5 6
5 6 6
5 5 6
5 6 6
5 5 6
5 5 6
5 5 6
5 5 6
5 5 6
5 5 6
5 6 6
5 5 6
5 6 6
5 5 6
5 5 6
5 5 6
5 5 6
5 5 6
5 6 6
5 5 6
5 5 6
5 5 6
5 5 6
5 5 6
5 5 6
5 5 6
5 5 6
5 5 6
5 5 6
5 5 6
5 5 6
5 6 6
5 5 6
4 5 6
5 5 6
5 5 6
5 5 6
5 5 6
5 5 6
5 5 6
5 5 6
5 6 7
5 5 6
5 5 6
5 5 6
5 5 6
5 5 6
5 6 6
5 6 6
5 5 6
5 5 6
5 5 6
4 5 6
5 5 6
5 5 6
5 6 6
5 5 6
5 5 6
5 5 6
5 5 6
5 6 6
5 5 6
5 5 6
5 6 6
5 5 6
5 5 6
5 6 6
5 5 6
5 6 6
5 6 6
5 5 6
5 5 6
5 6 6
5 5 6
5 5 6
5 5 6
5 6 6
5 5 6
5 5 6
5 5 6
5 6 7
5 5 6
5 5 6
5 5 6
5 5 6
5 5 6
5 6 6
5 5 6
5 6 6
5 5 6
5 6 6
5 5 6
5 5 6
4 5 5
5 5 6
5 5 6
5 5 6
5 5 6
5 5 6
163 176 193
216 233 255
216 233 255
216 233 255
216 233 255
216 233 255
216 233 255
216 233 255
216 233 255
216 233 255
216 233 255
216 233 255
216 233 255
216 233 255
216 233 255
216 233 255
216 233 255
216 233 255
216 233 255
216 233 255
216 233 255
216 233 255
216 233 255
216 233 255
216 233 255
217 233 255
217 233 255
217 233 255
217 233 255
217 233 255
217 233 255
217 233 255
217 233 255
217 233 255
217 233 255
217 233 255
217 233 255
217 233 255
217 233 255
217 233 255
217 233 255
217 233 255
217 233 255
217 233 255
217 233 255
217 233 255
217 233 255
217 233 255
217 233 255
217 233 255
217 233 255
217 233 255
217 233 255
217 233 255
217 233 255
217 233 255
217 233 255
217 233 255
217 233 255
217 233 255
217 233 255
217 233 255
217 233 255
217 233 255
217 233 255
217 233 255
217 233 255
217 233 255
217 233 255
217 233 255
217 233 255
217 233 255
217 233 255
217 233 255
217 233 255
217 233 255
217 233 255
217 233 255
217 233 255
218 233 255
218 233 255
218 233 255
218 233 255
218 233 255
218 233 255
218 234 255
218 234 255
218 234 255
218 234 255
218 234 255
218 234 255
218 234 255
218 234 255
218 234 255
218 234 255
218 234 255
218 234 255
218 234 255
218 234 255
218 234 255
218 234 255
218 234 255
218 234 255
218 234 255
218 234 255
218 234 255
218 234 255
218 234 255
218 234 255
218 234 255
218 234 255
218 234 255
218 234 255
218 234 255
218 234 255
218 234 255
218 234 255
218 234 255
218 234 255
218 234 255
218 234 255
218 234 255
218 234 255
218 234 255
218 234 255
218 234 255
218 234 255
218 234 255
218 234 255
218 234 255
218 234 255
218 234 255
218 234 255
218 234 255
218 234 255
218 234 255
218 234 255
218 234 255
218 234 255
218 234 255
218 234 255
218 234 255
218 234 255
218 234 255
218 234 255
218 234 255
218 234 255
218 234 255
218 234 255
218 234 255
218 234 255
218 234 255
218 234 255
218 234 255
218 234 255
218 234 255
218 234 255
218 234 255
218 234 255
218 234 255
218 234 255
218 234 255
218 234 255
218 234 255
218 234 255
218 234 255
218 234 255
218 234 255
218 234 255
218 234 255
218 234 255
218 234 255
218 234 255
218 234 255
218 234 255
218 234 255
218 234 255
218 234 255
218 234 255
218 234 255
218 234 255
218 234 255
218 234 255
218 234 255
218 234 255
218 234 255
218 234 255
218 234 255
218 234 255
218 234 255
218 234 255
218 234 255
218 234 255
218 234 255
218 234 255
218 234 255
218 234 255
218 234 255
218 234 255
218 234 255
218 234 255
218 234 255
218 234 255
218 234 255
218 233 255
218 233 255
218 233 255
218 233 255
218 233 255
218 233 255
217 233 255
217 233 255
217 233 255
217 233 255
217 233 255
217 233 255
217 233 255
217 233 255
217 233 255
217 233 255
217 233 255
217 233 255
217 233 255
217 233 255
217 233 255
217 233 255
217 233 255
217 233 255
217 233 255
217 233 255
217 233 255
217 233 255
217 233 255
217 233 255
217 233 255
217 233 255
217 233 255
217 233 255
217 233 255
217 233 255
217 233 255
217 233 255
217 233 255
217 233 255
217 233 255
217 233 255
217 233 255
217 233 255
217 233 255
217 233 255
217 233 255
217 233 255
217 233 255
217 233 255
217 233 255
217 233 255
217 233 255
217 233 255
217 233 255
217 233 255
217 233 255
217 233 255
217 233 255
217 233 255
217 233 255
216 233 255
216 233 255
216 233 255
216 233 255
216 233 255
216 233 255
216 233 255
216 233 255
216 233 255
216 233 255
114 123 135
5 5 6
5 5 6
5 5 6
5 6 6
5 5 6
5 6 6
5 5 6
5 5 6
5 5 6
5 5 6
5 5 6
5 5 6
5 5 6
5 5 6
5 5 6
5 5 6
5 5 6
5 6 6
5 5 6
5 6 6
5 5 6
5 6 6
5 5 6
5 6 7
5 5 6
5 5 6
5 5 6
5 5 6
5 5 6
5 5 6
5 5 6
5 5 6
5 5 6
5 5 6
5 5 6
4 5 6
5 5 6
5 5 6
5 5 6
5 6 6
5 6 6
5 5 6
5 5 6
4 5 6
4 5 6
5 5 6
5 5 6
5 5 6
5 5 6
4 5 6
5 5 6
5 5 6
4 5 6
5 5 6
5 5 6
5 5 6
5 6 6
5 5 6
5 6 7
5 5 6
4 5 6
5 6 6
5 5 6
5 5 6
5 5 6
5 5 6
5 5 6
5 6 6
5 5 6
5 5 6
5 6 6
5 6 6
5 6 6
5 5 6
5 5 6
5 5 6
5 5 6
5 5 6
5 6 6
5 5 6
5 5 6
5 5 6
5 5 6
5 5 6
5 5 6
5 5 6
5 6 7
5 6 6
5 6 6
5 5 6
5 5 6
4 5 6
5 5 6
5 5 6
5 5 6
5 5 6
5 6 6
4 5 6
5 5 6
5 5 6
5 6 7
5 5 6
5 5 6
5 5 6
5 6 6
5 5 6
5 5 6
4 5 6
4 5 6
5 5 6
5 5 6
5 6 6
5 5 6
5 5 6
5 5 6
5 5 6
5 5 6
4 5 6
5 5 6
5 5 6
5 5 6
5 5 6
5 5 6
5 5 6
126 136 149
216 233 255
216 233 255
216 233 255
216 233 255
216 233 255
216 233 255
216 233 255
216 233 255
216 233 255
217 233 255
217 233 255
217 233 255
217 233 255
217 233 255
217 233 255
217 233 255
217 233 255
217 233 255
217 233 255
217 233 255
217 233 255
217 233 255
217 233 255
217 233 255
217 233 255
217 233 255
217 233 255
217 233 255
217 233 255
217 233 255
217 233 255
217 233 255
217 233 255
217 233 255
217 233 255
217 233 255
217 233 255
217 233 255
217 233 255
217 233 255
217 233 255
217 233 255
217 233 255
217 233 255
217 233 255
217 233 255
217 233 255
217 233 255
217 233 255
217 233 255
217 233 255
217 233 255
217 233 255
217 233 255
217 233 255
217 233 255
217 233 255
217 233 255
217 233 255
217 233 255
217 233 255
217 233 255
217 233 255
217 233 255
217 233 255
218 233 255
218 233 255
218 233 255
218 233 255
218 233 255
218 233 255
218 234 255
218 234 255
218 234 255
218 234 255
218 234 255
218 234 255
218 234 255
218 234 255
218 234 255
218 234 255
218 234 255
218 234 255
218 234 255
218 234 255
218 234 255
218 234 255
218 234 255
218 234 255
218 234 255
218 234 255
218 234 255
218 234 255
218 234 255
218 234 255
218 234 255
218 234 255
218 234 255
218 234 255
218 234 255
218 234 255
218 234 255
218 234 255
218 234 255
218 234 255
218 234 255
218 234 255
218 234 255
218 234 255
218 234 255
218 234 255
218 234 255
218 234 255
218 234 255
218 234 255
218 234 255
218 234 255
218 234 255
218 234 255
218 234 255
218 234 255
218 234 255
218 234 255
218 234 255
218 234 255
218 234 255
218 234 255
218 234 255
218 234 255
218 234 255
218 234 255
218 234 255
218 234 255
218 234 255
218 234 255
218 234 255
218 234 255
219 234 255
219 234 255
219 234 255
219 234 255
219 234 255
219 234 255
219 234 255
219 234 255
219 234 255
219 234 255
219 234 255
219 234 255
218 234 255
218 234 255
218 234 255
218 234 255
218 234 255
218 234 255
218 234 255
218 234 255
218 234 255
218 234 255
218 234 255
218 234 255
218 234 255
218 234 255
218 234 255
218 234 255
218 234 255
218 234 255
218 234 255
218 234 255
218 234 255
218 234 255
218 234 255
218 234 255
218 234 255
218 234 255
218 234 255
218 234 255
218 234 255
218 234 255
218 234 255
218 234 255
218 234 255
218 234 255
218 234 255
218 234 255
218 234 255
218 234 255
218 234 255
218 234 255
218 234 255
218 234 255
218 234 255
218 234 255
218 234 255
218 234 255
218 234 255
218 234 255
218 234 255
218 234 255
218 234 255
218 234 255
218 234 255
218 234 255
218 234 255
218 234 255
218 234 255
218 234 255
218 234 255
218 234 255
218 234 255
218 234 255
218 234 255
218 234 255
218 234 255
218 234 255
218 234 255
218 233 255
218 233 255
218 233 255
218 233 255
218 233 255
218 233 255
217 233 255
217 233 255
217 233 255
217 233 255
217 233 255
217 233 255
217 233 255
217 233 255
217 233 255
217 233 255
217 233 255
217 233 255
217 233 255
217 233 255
217 233 255
217 233 255
217 233 255
217 233 255
217 233 255
217 233 255
217 233 255
217 233 255
217 233 255
217 233 255
217 233 255
217 233 255
217 233 255
217 233 255
217 233 255
217 233 255
217 233 255
217 233 255
217 233 255
217 233 255
217 233 255
217 233 255
217 233 255
217 233 255
217 233 255
217 233 255
217 233 255
217 233 255
217 233 255
217 233 255
217 233 255
217 233 255
217 233 255
217 233 255
217 233 255
217 233 255
217 233 255
213 229 252
65 70 77
5 5 6
5 6 6
5 5 6
4 5 6
5 5 6
5 6 6
5 5 6
5 6 6
5 5 6
5 5 6
5 6 6
5 5 6
5 5 6
5 5 6
5 5 6
5 5 6
5 5 6
5 5 6
5 6 6
5 5 6
5 5 6
4 5 6
5 5 6
5 5 6
5 6 6
5 5 6
5 5 6
5 5 6
4 5 6
5 5 6
5 5 6
5 6 7
4 5 6
5 5 6
5 5 6
4 5 6
5 5 6
5 6 6
4 5 6
5 5 6
5 5 6
4 5 6
5 5 6
5 5 6
5 5 6
5 5 6
5 5 6
5 5 6
5 5 6
5 5 6
4 5 6
5 6 6
5 6 6
5 5 6
5 6 6
5 5 6
5 5 6
5 5 6
4 5 6
5 5 6
4 5 6
5 5 6
5 6 6
4 5 5
5 5 6
5 5 6
4 5 6
5 5 6
5 5 6
5 5 6
5 5 6
4 5 6
5 5 6
5 5 6
4 5 6
5 5 6
5 6 6
5 5 6
5 5 6
5 5 6
5 6 6
5 6 6
5 5 6
5 5 6
5 5 6
5 5 6
5 5 6
5 6 6
5 5 6
5 5 6
5 5 6
5 5 6
5 5 6
5 5 6
5 6 6
4 5 6
5 6 6
4 5 6
5 5 6
5 6 6
5 5 6
5 5 6
5 5 6
4 5 6
5 6 6
5 5 6
4 5 6
5 5 6
5 6 6
5 5 6
5 5 6
5 5 6
5 6 6
5 5 6
5 5 6
5 5 6
5 6 6
5 5 6
5 5 6
5 5 6
5 5 6
5 5 6
5 5 6
5 5 6
72 77 85
216 232 254
217 233 255
217 233 255
217 233 255
217 233 255
217 233 255
217 233 255
217 233 255
217 233 255
217 233 255
217 233 255
217 233 255
217 233 255
217 233 255
217 233 255
217 233 255
217 233 255
217 233 255
217 233 255
217 233 255
217 233 255
217 233 255
217 233 255
217 233 255
217 233 255
217 233 255
217 233 255
217 233 255
217 233 255
217 233 255
217 233 255
217 233 255
217 233 255
217 233 255
217 233 255
217 233 255
217 233 255
217 233 255
217 233 255
217 233 255
217 233 255
217 233 255
217 233 255
217 233 255
217 233 255
217 233 255
217 233 255
217 233 255
217 233 255
217 233 255
217 233 255
218 233 255
218 233 255
218 233 255
218 233 255
218 233 255
218 233 255
218 234 255
218 234 255
218 234 255
218 234 255
218 234 255
218 234 255
218 234 255
218 234 255
218 234 255
218 234 255
218 234 255
218 234 255
218 234 255
218 234 255
218 234 255
218 234 255
218 234 255
218 234 255
218 234 255
218 234 255
218 234 255
218 234 255
218 234 255
218 234 255
218 234 255
218 234 255
218 234 255
218 234 255
218 234 255
218 234 255
218 234 255
218 234 255
218 234 255
218 234 255
218 234 255
218 234 255
218 234 255
218 234 255
218 234 255
218 234 255
218 234 255
218 234 255
218 234 255
218 234 255
218 234 255
218 234 255
218 234 255
218 234 255
218 234 255
218 234 255
218 234 255
218 234 255
218 234 255
218 234 255
218 234 255
218 234 255
218 234 255
218 234 255
218 234 255
218 234 255
218 234 255
218 234 255
218 234 255
218 234 255
218 234 255
218 234 255
218 234 255
218 234 255
219 234 255
219 234 255
219 234 255
219 234 255
219 234 255
219 234 255
219 234 255
219 234 255
219 234 255
219 234 255
219 234 255
219 234 255
219 234 255
219 234 255
219 234 255
219 234 255
219 234 255
219 234 255
219 234 255
219 234 255
219 234 255
219 234 255
219 234 255
219 234 255
219 234 255
219 234 255
219 234 255
219 234 255
219 234 255
219 234 255
219 234 255
219 234 255
219 234 255
219 234 255
219 234 255
219 234 255
219 234 255
219 234 255
219 234 255
219 234 255
218 234 255
218 234 255
218 234 255
218 234 255
218 234 255
218 234 255
218 234 255
218 234 255
218 234 255
218 234 255
218 234 255
218 234 255
218 234 255
218 234 255
218 234 255
218 234 255
218 234 255
218 234 255
218 234 255
218 234 255
218 234 255
218 234 255
218 234 255
218 234 255
218 234 255
218 234 255
218 234 255
218 234 255
218 234 255
218 234 255
218 234 255
218 234 255
218 234 255
218 234 255
218 234 255
218 234 255
218 234 255
218 234 255
218 234 255
218 234 255
218 234 255
218 234 255
218 234 255
218 234 255
218 234 255
218 234 255
218 234 255
218 234 255
218 234 255
218 234 255
218 234 255
218 234 255
218 234 255
218 234 255
218 234 255
218 234 255
218 234 255
218 234 255
218 234 255
218 234 255
218 234 255
218 234 255
218 234 255
218 234 255
218 234 255
218 234 255
218 233 255
218 233 255
218 233 255
218 233 255
218 233 255
218 233 255
217 233 255
217 233 255
217 233 255
217 233 255
217 233 255
217 233 255
217 233 255
217 233 255
217 233 255
217 233 255
217 233 255
217 233 255
217 233 255
217 233 255
217 233 255
217 233 255
217 233 255
217 233 255
217 233 255
217 233 255
217 233 255
217 233 255
217 233 255
217 233 255
217 233 255
217 233 255
217 233 255
217 233 255
217 233 255
217 233 255
217 233 255
217 233 255
217 233 255
217 233 255
217 233 255
217 233 255
201 216 237
5 5 6
5 5 6
5 5 6
5 5 6
4 5 6
5 5 6
5 5 6
5 5 6
4 5 6
5 5 6
5 5 6
5 5 6
5 6 6
5 5 6
5 5 6
5 6 6
5 5 6
5 5 6
5 5 6
4 5 6
5 5 6
5 5 6
5 5 6
5 5 6
5 5 6
4 5 6
5 5 6
5 5 6
5 5 6
5 5 6
4 5 6
5 5 6
5 5 6
4 5 6
5 5 6
5 5 6
5 5 6
5 5 6
5 5 6
5 5 6
5 5 6
4 5 6
5 6 7
5 5 6
5 6 6
5 5 6
5 5 6
5 6 6
5 5 6
5 5 6
4 5 6
5 5 6
5 5 6
5 5 6
5 5 6
5 5 6
5 5 6
5 5 6
5 6 6
5 5 6
4 5 5
5 5 6
5 5 6
5 6 6
5 6 6
5 5 6
4 5 6
5 5 6
5 6 6
5 5 6
5 5 6
4 5 6
5 5 6
4 5 6
5 5 6
5 5 6
4 5 5
5 5 6
4 5 5
5 5 6
5 5 6
5 5 6
5 5 6
5 5 6
5 5 6
5 6 6
5 5 6
5 5 6
4 5 5
5 5 6
5 5 6
4 5 6
5 5 6
5 5 6
5 5 6
5 5 6
5 5 6
5 5 6
5 5 6
5 5 6
5 5 6
5 6 6
5 5 6
5 6 6
5 5 6
4 5 6
5 5 6
5 5 6
5 6 6
4 5 6
5 5 6
5 5 6
5 5 6
5 5 6
5 6 6
5 5 6
5 5 6
5 5 6
5 5 6
5 5 6
5 5 6
5 5 6
5 6 6
5 5 6
5 6 6
5 6 6
202 217 238
217 233 255
217 233 255
217 233 255
217 233 255
217 233 255
217 233 255
217 233 255
217 233 255
217 233 255
217 233 255
217 233 255
217 233 255
217 233 255
217 233 255
217 233 255
217 233 255
217 233 255
217 233 255
217 233 255
217 233 255
217 233 255
217 233 255
217 233 255
217 233 255
217 233 255
217 233 255
217 233 255
217 233 255
217 233 255
217 233 255
217 233 255
217 233 255
217 233 255
217 233 255
217 233 255
217 233 255
218 233 255
218 233 255
218 233 255
218 233 255
218 233 255
218 233 255
218 234 255
218 234 255
218 234 255
218 234 255
218 234 255
218 234 255
218 234 255
218 234 255
218 234 255
218 234 255
218 234 255
218 234 255
218 234 255
218 234 255
218 234 255
218 234 255
218 234 255
218 234 255
218 234 255
218 234 255
218 234 255
218 234 255
218 234 255
218 234 255
218 234 255
218 234 255
218 234 255
218 234 255
218 234 255
218 234 255
218 234 255
218 234 255
218 234 255
218 234 255
218 234 255
218 234 255
218 234 255
218 234 255
218 234 255
218 234 255
218 234 255
218 234 255
218 234 255
218 234 255
218 234 255
218 234 255
218 234 255
218 234 255
218 234 255
218 234 255
218 234 255
218 234 255
218 234 255
218 234 255
218 234 255
218 234 255
218 234 255
218 234 255
218 234 255
218 234 255
218 234 255
218 234 255
218 234 255
218 234 255
218 234 255
218 234 255
219 234 255
219 234 255
219 234 255
219 234 255
219 234 255
219 234 255
219 234 255
219 234 255
219 234 255
219 234 255
219 234 255
219 234 255
219 234 255
219 234 255
219 234 255
219 234 255
219 234 255
219 234 255
219 234 255
219 234 255
219 234 255
219 234 255
219 234 255
219 234 255
219 234 255
219 234 255
219 234 255
219 234 255
219 234 255
219 234 255
219 234 255
219 234 255
219 234 255
219 234 255
219 234 255
219 234 255
219 234 255
219 234 255
219 234 255
219 234 255
219 234 255
219 234 255
219 234 255
219 234 255
219 234 255
219 234 255
219 234 255
219 234 255
219 234 255
219 234 255
219 234 255
219 234 255
219 234 255
219 234 255
219 234 255
219 234 255
219 234 255
219 234 255
219 234 255
219 234 255
219 234 255
219 234 255
219 234 255
219 234 255
219 234 255
219 234 255
219 234 255
219 234 255
219 234 255
219 234 255
219 234 255
219 234 255
219 234 255
218 234 255
218 234 255
218 234 255
218 234 255
218 234 255
218 234 255
218 234 255
218 234 255
218 234 255
218 234 255
218 234 255
218 234 255
218 234 255
218 234 255
218 234 255
218 234 255
218 234 255
218 234 255
218 234 255
218 234 255
218 234 255
218 234 255
218 234 255
218 234 255
218 234 255
218 234 255
218 234 255
218 234 255
218 234 255
218 234 255
218 234 255
218 234 255
218 234 255
218 234 255
218 234 255
218 234 255
218 234 255
218 234 255
218 234 255
218 234 255
218 234 255
218 234 255
218 234 255
218 234 255
218 234 255
218 234 255
218 234 255
218 234 255
218 234 255
218 234 255
218 234 255
218 234 255
218 234 255
218 234 255
218 234 255
218 234 255
218 234 255
218 234 255
218 234 255
218 234 255
218 234 255
218 234 255
218 234 255
218 234 255
218 233 255
218 233 255
218 233 255
218 233 255
218 233 255
218 233 255
218 233 255
217 233 255
217 233 255
217 233 255
217 233 255
217 233 255
217 233 255
217 233 255
217 233 255
217 233 255
217 233 255
217 233 255
217 233 255
217 233 255
217 233 255
217 233 255
217 233 255
217 233 255
217 233 255
217 233 255
217 233 255
171 184 201
5 5 6
5 6 6
4 5 6
5 5 6
5 5 6
5 5 6
5 5 6
5 6 6
5 5 6
4 5 5
5 5 6
5 5 6
4 5 6
5 5 6
5 5 6
4 5 6
5 5 6
5 5 6
5 5 6
5 5 6
5 5 6
5 5 6
5 6 6
5 5 6
5 5 6
5 5 6
5 5 6
5 5 6
4 5 5
5 5 6
5 5 6
5 5 6
4 5 6
4 5 5
4 5 6
5 5 6
5 5 6
5 5 6
5 5 6
5 5 6
5 5 6
5 5 6
5 5 6
5 5 6
5 6 6
5 5 6
5 5 6
5 6 6
5 5 6
5 5 6
5 6 6
5 5 6
4 5 6
5 5 6
5 5 6
5 6 6
5 5 6
5 5 6
4 5 6
5 5 6
5 5 6
5 5 6
5 5 6
5 5 6
5 5 6
5 5 6
4 5 6
5 5 6
4 5 5
4 5 6
5 5 6
4 5 6
5 5 6
5 5 6
5 5 6
5 5 6
5 5 6
5 5 6
5 5 6
5 5 6
5 5 6
4 5 6
5 6 7
5 5 6
5 6 6
5 5 6
5 5 6
5 5 6
5 5 6
5 5 6
5 6 6
5 5 6
4 5 6
5 5 6
5 5 6
5 5 6
5 5 6
5 5 6
5 5 6
4 5 6
5 5 6
5 5 6
5 5 6
5 5 6
5 5 6
4 5 5
5 5 6
5 5 6
5 5 6
5 5 6
5 5 6
4 5 6
5 5 6
5 5 6
5 6 6
5 5 6
4 5 6
5 5 6
5 5 6
5 5 6
5 5 6
5 5 6
5 5 6
5 5 6
5 5 6
5 5 6
158 170 186
217 233 255
217 233 255
217 233 255
217 233 255
217 233 255
217 233 255
217 233 255
217 233 255
217 233 255
217 233 255
217 233 255
217 233 255
217 233 255
217 233 255
217 233 255
217 233 255
217 233 255
217 233 255
217 233 255
217 233 255
218 233 255
218 233 255
218 233 255
218 233 255
218 233 255
218 233 255
218 234 255
218 234 255
218 234 255
218 234 255
218 234 255
218 234 255
218 234 255
218 234 255
218 234 255
218 234 255
218 234 255
218 234 255
218 234 255
218 234 255
218 234 255
218 234 255
218 234 255
218 234 255
218 234 255
218 234 255
218 234 255
218 234 255
218 234 255
218 234 255
218 234 255
218 234 255
218 234 255
218 234 255
218 234 255
218 234 255
218 234 255
218 234 255
218 234 255
218 234 255
218 234 255
218 234 255
218 234 255
218 234 255
218 234 255
218 234 255
218 234 255
218 234 255
218 234 255
218 234 255
218 234 255
218 234 255
218 234 255
218 234 255
218 234 255
218 234 255
218 234 255
218 234 255
218 234 255
218 234 255
218 234 255
218 234 255
218 234 255
218 234 255
218 234 255
218 234 255
218 234 255
218 234 255
218 234 255
218 234 255
218 234 255
218 234 255
219 234 255
219 234 255
219 234 255
219 234 255
219 234 255
219 234 255
219 234 255
219 234 255
219 234 255
219 234 255
219 234 255
219 234 255
219 234 255
219 234 255
219 234 255
219 234 255
219 234 255
219 234 255
219 234 255
219 234 255
219 234 255
219 234 255
219 234 255
219 234 255
219 234 255
219 234 255
219 234 255
219 234 255
219 234 255
219 234 255
219 234 255
219 234 255
219 234 255
219 234 255
219 234 255
219 234 255
219 234 255
219 234 255
219 234 255
219 234 255
219 234 255
219 234 255
219 234 255
219 234 255
219 234 255
219 234 255
219 234 255
219 234 255
219 234 255
219 234 255
219 234 255
219 234 255
219 234 255
219 234 255
219 234 255
219 234 255
219 234 255
219 234 255
219 234 255
219 234 255
219 234 255
219 234 255
219 234 255
219 234 255
219 234 255
219 234 255
219 234 255
219 234 255
219 234 255
219 234 255
219 234 255
219 234 255
219 234 255
219 234 255
219 234 255
219 234 255
219 234 255
219 234 255
219 234 255
219 234 255
219 234 255
219 234 255
219 234 255
219 234 255
219 234 255
219 234 255
219 234 255
219 234 255
219 234 255
219 234 255
219 234 255
219 234 255
219 234 255
219 234 255
219 234 255
219 234 255
219 234 255
219 234 255
219 234 255
219 234 255
219 234 255
219 234 255
219 234 255
219 234 255
219 234 255
218 234 255
218 234 255
218 234 255
218 234 255
218 234 255
218 234 255
218 234 255
218 234 255
218 234 255
218 234 255
218 234 255
218 234 255
218 234 255
218 234 255
218 234 255
218 234 255
218 234 255
218 234 255
218 234 255
218 234 255
218 234 255
218 234 255
218 234 255
218 234 255
218 234 255
218 234 255
218 234 255
218 234 255
218 234 255
218 234 255
218 234 255
218 234 255
218 234 255
218 234 255
218 234 255
218 234 255
218 234 255
218 234 255
218 234 255
218 234 255
218 234 255
218 234 255
218 234 255
218 234 255
218 234 255
218 234 255
218 234 255
218 234 255
218 234 255
218 234 255
218 234 255
218 234 255
218 234 255
218 234 255
218 234 255
218 234 255
218 234 255
218 234 255
218 234 255
218 234 255
218 234 255
218 234 255
218 234 255
218 234 255
218 234 255
218 234 255
218 233 255
218 233 255
218 233 255
218 233 255
218 233 255
218 233 255
217 233 255
217 233 255
217 233 255
136 146 159
5 5 6
4 5 6
5 5 6
5 5 6
5 5 6
5 6 6
5 6 6
5 5 6
5 5 6
5 5 6
5 5 6
5 5 6
5 5 6
4 5 6
4 5 6
4 5 6
5 6 6
5 5 6
4 5 6
5 5 6
5 5 6
4 5 6
5 5 6
5 5 6
5 5 6
5 6 6
5 5 6
5 5 6
5 5 6
5 5 6
4 5 6
5 5 6
4 5 6
5 6 6
4 5 6
5 6 6
5 6 7
4 5 6
5 5 6
4 5 6
5 5 6
4 5 6
5 5 6
5 5 6
4 5 6
5 5 6
5 5 6
5 5 6
5 5 6
5 5 6
5 5 6
5 5 6
5 5 6
4 5 6
4 5 6
4 5 5
4 5 6
5 5 6
4 5 6
4 5 5
5 6 6
5 5 6
5 5 6
5 5 6
5 5 6
5 5 6
5 5 6
5 5 6
5 5 6
4 5 5
5 5 6
5 5 6
4 5 6
5 5 6
4 5 5
5 5 6
5 5 6
5 5 6
5 5 6
5 5 6
5 5 6
5 5 6
4 5 6
5 5 6
5 5 6
5 6 6
5 5 6
4 5 6
5 5 6
5 5 6
5 5 6
5 5 6
5 5 6
4 5 6
4 5 6
5 5 6
5 5 6
5 5 6
5 5 6
5 5 6
5 5 6
5 5 6
5 5 6
5 5 6
5 6 6
5 5 6
4 5 6
5 5 6
4 5 5
5 6 6
5 5 6
5 5 6
5 5 6
5 5 6
5 5 6
5 5 6
5 5 6
5 5 6
5 5 6
5 5 6
5 6 6
5 5 6
4 5 6
4 5 6
4 5 6
5 5 6
147 158 173
217 233 255
218 233 255
218 233 255
218 233 255
218 233 255
218 233 255
218 233 255
218 233 255
218 233 255
218 234 255
218 234 255
218 234 255
218 234 255
218 234 255
218 234 255
218 234 255
218 234 255
218 234 255
218 234 255
218 234 255
218 234 255
218 234 255
218 234 255
218 234 255
218 234 255
218 234 255
218 234 255
218 234 255
218 234 255
218 234 255
218 234 255
218 234 255
218 234 255
218 234 255
218 234 255
218 234 255
218 234 255
218 234 255
218 234 255
218 234 255
218 234 255
218 234 255
218 234 255
218 234 255
218 234 255
218 234 255
218 234 255
218 234 255
218 234 255
218 234 255
218 234 255
218 234 255
218 234 255
218 234 255
218 234 255
218 234 255
218 234 255
218 234 255
218 234 255
218 234 255
218 234 255
218 234 255
218 234 255
218 234 255
218 234 255
218 234 255
218 234 255
218 234 255
218 234 255
218 234 255
218 234 255
218 234 255
218 234 255
218 234 255
218 234 255
219 234 255
219 234 255
219 234 255
219 234 255
219 234 255
219 234 255
219 234 255
219 234 255
219 234 255
219 234 255
219 234 255
219 234 255
219 234 255
219 234 255
219 234 255
219 234 255
219 234 255
219 234 255
219 234 255
219 234 255
219 234 255
219 234 255
219 234 255
219 234 255
219 234 255
219 234 255
219 234 255
219 234 255
219 234 255
219 234 255
219 234 255
219 234 255
219 234 255
219 234 255
219 234 255
219 234 255
219 234 255
219 234 255
219 234 255
219 234 255
219 234 255
219 234 255
219 234 255
219 234 255
219 234 255
219 234 255
219 234 255
219 234 255
219 234 255
219 234 255
219 234 255
219 234 255
219 234 255
219 234 255
219 234 255
219 234 255
219 234 255
219 234 255
219 234 255
219 234 255
219 234 255
219 234 255
219 234 255
219 234 255
219 234 255
219 234 255
219 234 255
219 234 255
219 234 255
219 234 255
219 234 255
219 234 255
219 234 255
219 234 255
219 234 255
219 234 255
219 234 255
219 234 255
219 234 255
219 234 255
219 234 255
219 234 255
219 234 255
219 234 255
219 234 255
219 234 255
219 234 255
219 234 255
219 234 255
219 234 255
219 234 255
219 234 255
219 234 255
219 234 255
219 234 255
219 234 255
219 234 255
219 234 255
219 234 255
219 234 255
219 234 255
219 234 255
219 234 255
219 234 255
219 234 255
219 234 255
219 234 255
219 234 255
219 234 255
219 234 255
219 234 255
219 234 255
219 234 255
219 234 255
219 234 255
219 234 255
219 234 255
219 234 255
219 234 255
219 234 255
219 234 255
219 234 255
219 234 255
219 234 255
219 234 255
219 234 255
219 234 255
219 234 255
219 234 255
219 234 255
219 234 255
219 234 255
219 234 255
219 234 255
219 234 255
219 234 255
219 234 255
219 234 255
219 234 255
219 234 255
218 234 255
218 234 255
218 234 255
218 234 255
218 234 255
218 234 255
218 234 255
218 234 255
218 234 255
218 234 255
218 234 255
218 234 255
218 234 255
218 234 255
218 234 255
218 234 255
218 234 255
218 234 255
218 234 255
218 234 255
218 234 255
218 234 255
218 234 255
218 234 255
218 234 255
218 234 255
218 234 255
218 234 255
218 234 255
218 234 255
218 234 255
218 234 255
218 234 255
218 234 255
218 234 255
218 234 255
218 234 255
218 234 255
218 234 255
218 234 255
218 234 255
218 234 255
218 234 255
218 234 255
218 234 255
218 234 255
218 234 255
218 234 255
218 234 255
218 234 255
218 234 255
218 234 255
218 234 255
218 234 255
218 234 255
218 234 255
218 234 255
104 112 122
5 5 6
5 5 6
5 5 6
5 5 6
5 6 6
5 6 6
5 5 6
5 5 6
5 5 6
5 6 6
5 5 6
5 5 6
5 5 6
4 5 5
4 5 6
4 5 6
5 5 6
5 5 6
5 5 6
5 6 6
4 5 5
5 5 6
5 5 6
5 5 6
5 5 6
5 6 6
5 5 6
4 5 5
5 5 6
5 5 6
5 5 6
5 6 6
5 5 6
5 5 6
4 5 5
4 5 6
5 5 6
4 5 5
4 5 6
5 6 6
5 5 6
5 5 6
5 5 6
5 5 6
5 5 6
5 5 6
5 5 6
5 5 6
5 5 6
5 5 6
5 5 6
4 5 6
5 6 6
5 5 6
4 5 5
4 5 5
5 5 6
5 6 6
5 5 6
5 5 6
4 5 5
5 5 6
5 5 6
5 5 6
5 6 6
5 5 6
5 5 6
5 5 6
4 5 5
5 5 6
5 5 6
5 5 6
5 5 6
5 5 6
5 5 6
4 5 6
4 5 6
5 5 6
5 5 6
4 5 6
5 5 6
5 5 6
5 5 6
5 5 6
5 5 6
5 5 6
5 5 6
5 5 6
4 5 6
5 5 6
5 5 6
5 5 6
5 5 6
4 5 6
5 5 6
5 5 6
4 5 6
4 5 6
5 5 6
5 5 6
5 5 6
5 5 6
5 5 6
5 5 6
4 5 6
5 5 6
5 5 6
4 5 6
5 5 6
5 5 6
5 5 6
4 5 6
5 5 6
5 5 6
5 5 6
4 5 6
5 5 6
5 5 6
4 5 6
5 5 6
5 5 6
5 6 6
5 5 6
5 5 6
5 5 6
5 5 6
81 87 95
218 234 255
218 234 255
218 234 255
218 234 255
218 234 255
218 234 255
218 234 255
218 234 255
218 234 255
218 234 255
218 234 255
218 234 255
218 234 255
218 234 255
218 234 255
218 234 255
218 234 255
218 234 255
218 234 255
218 234 255
218 234 255
218 234 255
218 234 255
218 234 255
218 234 255
218 234 255
218 234 255
218 234 255
218 234 255
218 234 255
218 234 255
218 234 255
218 234 255
218 234 255
218 234 255
218 234 255
218 234 255
218 234 255
218 234 255
218 234 255
218 234 255
218 234 255
218 234 255
218 234 255
218 234 255
218 234 255
218 234 255
218 234 255
218 234 255
218 234 255
218 234 255
218 234 255
218 234 255
218 234 255
218 234 255
219 234 255
219 234 255
219 234 255
219 234 255
219 234 255
219 234 255
219 234 255
219 234 255
219 234 255
219 234 255
219 234 255
219 234 255
219 234 255
219 234 255
219 234 255
219 234 255
219 234 255
219 234 255
219 234 255
219 234 255
219 234 255
219 234 255
219 234 255
219 234 255
219 234 255
219 234 255
219 234 255
219 234 255
219 234 255
219 234 255
219 234 255
219 234 255
219 234 255
219 234 255
219 234 255
219 234 255
219 234 255
219 234 255
219 234 255
219 234 255
219 234 255
219 234 255
219 234 255
219 234 255
219 234 255
219 234 255
219 234 255
219 234 255
219 234 255
219 234 255
219 234 255
219 234 255
219 234 255
219 234 255
219 234 255
219 234 255
219 234 255
219 234 255
219 234 255
219 234 255
219 234 255
219 234 255
219 234 255
219 234 255
219 234 255
219 234 255
219 234 255
219 234 255
219 234 255
219 234 255
219 234 255
219 234 255
219 234 255
219 234 255
219 234 255
219 234 255
219 234 255
219 234 255
219 234 255
219 234 255
219 234 255
219 235 255
219 235 255
219 235 255
219 235 255
219 234 255
219 234 255
219 234 255
219 234 255
219 234 255
219 234 255
219 234 255
219 234 255
219 234 255
219 234 255
219 234 255
219 234 255
219 234 255
219 234 255
219 234 255
219 234 255
219 234 255
219 234 255
219 234 255
219 234 255
219 234 255
219 234 255
219 234 255
219 234 255
219 234 255
219 234 255
219 234 255
219 234 255
219 234 255
219 234 255
219 234 255
219 234 255
219 234 255
219 234 255
219 234 255
219 234 255
219 234 255
219 234 255
219 234 255
219 234 255
219 234 255
219 234 255
219 234 255
219 234 255
219 234 255
219 234 255
219 234 255
219 234 255
219 234 255
219 234 255
219 234 255
219 234 255
219 234 255
219 234 255
219 234 255
219 234 255
219 234 255
219 234 255
219 234 255
219 234 255
219 234 255
219 234 255
219 234 255
219 234 255
219 234 255
219 234 255
219 234 255
219 234 255
219 234 255
219 234 255
219 234 255
219 234 255
219 234 255
219 234 255
219 234 255
219 234 255
219 234 255
219 234 255
219 234 255
219 234 255
219 234 255
219 234 255
219 234 255
219 234 255
219 234 255
219 234 255
219 234 255
219 234 255
219 234 255
219 234 255
219 234 255
219 234 255
219 234 255
219 234 255
219 234 255
219 234 255
218 234 255
218 234 255
218 234 255
218 234 255
218 234 255
218 234 255
218 234 255
218 234 255
218 234 255
218 234 255
218 234 255
218 234 255
218 234 255
218 234 255
218 234 255
218 234 255
218 234 255
218 234 255
218 234 255
218 234 255
218 234 255
218 234 255
218 234 255
218 234 255
218 234 255
218 234 255
218 234 255
218 234 255
218 234 255
218 234 255
218 234 255
218 234 255
218 234 255
218 234 255
218 234 255
213 228 249
5 6 6
5 5 6
5 5 6
5 6 6
5 5 6
5 5 6
5 6 7
5 5 6
5 5 6
5 5 6
5 5 6
5 5 6
5 5 6
5 5 6
5 6 6
5 5 6
4 5 5
5 5 6
5 5 6
4 5 6
5 5 6
5 5 6
5 5 6
4 5 6
5 6 6
5 5 6
4 5 5
4 5 6
5 5 6
5 5 6
5 5 6
5 6 6
4 5 6
5 6 6
4 5 5
4 5 6
4 5 6
4 5 6
4 5 6
5 5 6
5 5 6
5 5 6
5 5 6
5 5 6
5 5 6
4 5 6
4 5 5
5 5 6
5 5 6
5 5 6
4 5 5
4 5 6
5 5 6
5 5 6
5 5 6
5 5 6
5 5 6
5 5 6
4 5 6
5 5 6
5 6 6
5 5 6
5 5 6
5 5 6
5 5 6
5 6 6
5 5 6
5 5 6
4 5 6
4 5 6
5 5 6
5 5 6
4 5 6
5 5 6
5 5 6
4 5 6
5 5 6
5 5 6
5 5 6
4 5 6
5 6 6
5 5 6
5 5 6
5 5 6
4 5 6
5 5 6
5 5 6
4 5 6
4 5 6
4 5 6
4 5 6
5 5 6
5 5 6
5 5 6
5 5 6
5 5 6
5 5 6
5 5 6
5 5 6
4 5 6
5 5 6
5 5 6
5 5 6
5 5 6
4 5 6
5 5 6
5 5 6
5 5 6
5 5 6
5 5 6
5 5 6
5 5 6
5 5 6
5 5 6
5 5 6
5 5 6
5 5 6
5 5 6
5 5 6
4 5 5
5 5 6
5 5 6
5 5 6
5 5 6
5 6 6
5 5 6
5 5 6
22 24 26
217 233 254
218 234 255
218 234 255
218 234 255
218 234 255
218 234 255
218 234 255
218 234 255
218 234 255
218 234 255
218 234 255
218 234 255
218 234 255
218 234 255
218 234 255
218 234 255
218 234 255
218 234 255
218 234 255
218 234 255
218 234 255
218 234 255
218 234 255
218 234 255
218 234 255
218 234 255
218 234 255
218 234 255
218 234 255
218 234 255
218 234 255
218 234 255
218 234 255
218 234 255
218 234 255
218 234 255
218 234 255
219 234 255
219 234 255
219 234 255
219 234 255
219 234 255
219 234 255
219 234 255
219 234 255
219 234 255
219 234 255
219 234 255
219 234 255
219 234 255
219 234 255
219 234 255
219 234 255
219 234 255
219 234 255
219 234 255
219 234 255
219 234 255
219 234 255
219 234 255
219 234 255
219 234 255
219 234 255
219 234 255
219 234 255
219 234 255
219 234 255
219 234 255
219 234 255
219 234 255
219 234 255
219 234 255
219 234 255
219 234 255
219 234 255
219 234 255
219 234 255
219 234 255
219 234 255
219 234 255
219 234 255
219 234 255
219 234 255
219 234 255
219 234 255
219 234 255
219 234 255
219 234 255
219 234 255
219 234 255
219 234 255
219 234 255
219 234 255
219 234 255
219 234 255
219 234 255
219 234 255
219 234 255
219 234 255
219 234 255
219 234 255
219 234 255
219 234 255
219 234 255
219 234 255
219 234 255
219 234 255
219 234 255
219 234 255
219 234 255
219 234 255
219 234 255
219 234 255
219 234 255
219 234 255
219 234 255
219 234 255
219 234 255
219 234 255
219 234 255
219 234 255
219 234 255
219 234 255
219 234 255
219 234 255
219 234 255
219 234 255
219 234 255
219 234 255
219 234 255
219 234 255
219 235 255
219 235 255
219 235 255
219 235 255
219 235 255
220 235 255
220 235 255
220 235 255
220 235 255
220 235 255
220 235 255
220 235 255
220 235 255
220 235 255
220 235 255
220 235 255
220 235 255
220 235 255
220 235 255
220 235 255
219 235 255
219 235 255
219 235 255
219 235 255
219 235 255
219 235 255
219 235 255
219 235 255
219 235 255
219 235 255
219 235 255
219 235 255
219 235 255
219 234 255
219 235 255
219 235 255
219 234 255
219 234 255
219 234 255
219 234 255
219 234 255
219 234 255
219 234 255
219 234 255
219 234 255
219 234 255
219 234 255
219 234 255
219 234 255
219 234 255
219 234 255
219 234 255
219 234 255
219 234 255
219 234 255
219 234 255
219 234 255
219 234 255
219 234 255
219 234 255
219 234 255
219 234 255
219 234 255
219 234 255
219 234 255
219 234 255
219 234 255
219 234 255
219 234 255
219 234 255
219 234 255
219 234 255
219 234 255
219 234 255
219 234 255
219 234 255
219 234 255
219 234 255
219 234 255
219 234 255
219 234 255
219 234 255
219 234 255
219 234 255
219 234 255
219 234 255
219 234 255
219 234 255
219 234 255
219 234 255
219 234 255
219 234 255
219 234 255
219 234 255
219 234 255
219 234 255
219 234 255
219 234 255
219 234 255
219 234 255
219 234 255
219 234 255
219 234 255
219 234 255
219 234 255
219 234 255
219 234 255
219 234 255
219 234 255
219 234 255
219 234 255
219 234 255
219 234 255
219 234 255
219 234 255
219 234 255
219 234 255
219 234 255
219 234 255
219 234 255
219 234 255
219 234 255
219 234 255
219 234 255
219 234 255
219 234 255
218 234 255
218 234 255
218 234 255
218 234 255
218 234 255
218 234 255
218 234 255
218 234 255
218 234 255
218 234 255
218 234 255
218 234 255
218 234 255
218 234 255
189 203 221
5 6 6
5 5 6
5 5 6
5 5 6
5 5 6
5 5 6
4 5 6
5 5 6
4 5 6
5 5 6
4 5 6
5 5 6
5 5 6
5 5 6
5 5 6
5 5 6
5 5 6
5 5 6
5 5 6
5 5 6
5 5 6
5 5 6
5 6 6
4 5 6
5 5 6
5 5 6
5 5 6
4 5 6
5 5 6
5 5 6
4 5 5
5 5 6
5 5 6
4 5 6
4 5 6
4 5 6
5 6 6
5 5 6
5 5 6
4 5 5
5 5 6
5 5 6
5 6 6
5 5 6
5 5 6
4 5 5
5 5 6
4 5 6
5 5 6
5 5 6
5 5 6
5 5 6
4 5 6
4 5 6
5 5 6
5 5 6
4 5 5
5 5 6
5 5 6
5 5 6
4 5 6
4 5 6
5 5 6
5 5 6
4 5 6
5 5 6
5 5 6
5 5 6
4 5 6
5 5 6
4 5 6
5 5 6
5 5 6
5 5 6
5 5 6
5 5 6
5 5 6
4 5 6
4 5 6
5 5 6
5 5 6
4 5 5
4 5 6
5 5 6
5 5 6
4 5 6
5 5 6
5 5 6
5 5 6
5 5 6
5 5 6
5 5 6
5 5 6
4 5 6
5 5 6
5 5 6
5 5 6
5 6 6
5 5 6
4 5 5
5 5 6
5 5 6
5 5 6
5 5 6
5 5 6
5 5 6
5 6 6
5 5 6
5 5 6
5 5 6
4 5 5
5 6 6
4 5 5
5 5 6
5 5 6
5 5 6
5 5 6
4 5 6
5 5 6
5 5 6
4 5 6
4 5 6
5 5 6
4 5 6
4 5 6
4 5 6
5 6 6
4 5 6
199 213 233
218 234 255
218 234 255
218 234 255
218 234 255
218 234 255
218 234 255
218 234 255
218 234 255
218 234 255
218 234 255
218 234 255
218 234 255
218 234 255
218 234 255
219 234 255
219 234 255
219 234 255
219 234 255
219 234 255
219 234 255
219 234 255
219 234 255
219 234 255
219 234 255
219 234 255
219 234 255
219 234 255
219 234 255
219 234 255
219 234 255
219 234 255
219 234 255
219 234 255
219 234 255
219 234 255
219 234 255
219 234 255
219 234 255
219 234 255
219 234 255
219 234 255
219 234 255
219 234 255
219 234 255
219 234 255
219 234 255
219 234 255
219 234 255
219 234 255
219 234 255
219 234 255
219 234 255
219 234 255
219 234 255
219 234 255
219 234 255
219 234 255
219 234 255
219 234 255
219 234 255
219 234 255
219 234 255
219 234 255
219 234 255
219 234 255
219 234 255
219 234 255
219 234 255
219 234 255
219 234 255
219 234 255
219 234 255
219 234 255
219 234 255
219 234 255
219 234 255
219 234 255
219 234 255
219 234 255
219 234 255
219 234 255
219 234 255
219 234 255
219 234 255
219 234 255
219 234 255
219 234 255
219 234 255
219 234 255
219 234 255
219 234 255
219 234 255
219 234 255
219 234 255
219 234 255
219 234 255
219 234 255
219 234 255
219 234 255
219 234 255
219 234 255
219 234 255
219 234 255
219 234 255
219 234 255
219 234 255
219 234 255
219 235 255
219 235 255
219 235 255
219 235 255
219 235 255
219 235 255
219 235 255
219 235 255
219 235 255
219 235 255
219 235 255
219 235 255
219 235 255
219 235 255
220 235 255
220 235 255
220 235 255
220 235 255
220 235 255
220 235 255
220 235 255
220 235 255
220 235 255
220 235 255
220 235 255
220 235 255
220 235 255
220 235 255
220 235 255
220 235 255
220 235 255
220 235 255
220 235 255
220 235 255
220 235 255
220 235 255
220 235 255
220 235 255
220 235 255
220 235 255
220 235 255
220 235 255
220 235 255
220 235 255
220 235 255
220 235 255
220 235 255
220 235 255
220 235 255
220 235 255
220 235 255
220 235 255
220 235 255
220 235 255
220 235 255
220 235 255
220 235 255
220 235 255
220 235 255
220 235 255
220 235 255
220 235 255
220 235 255
220 235 255
220 235 255
220 235 255
220 235 255
220 235 255
219 235 255
219 235 255
219 235 255
219 235 255
219 235 255
219 235 255
219 235 255
219 235 255
219 235 255
219 235 255
219 235 255
219 235 255
219 235 255
219 235 255
219 235 255
219 234 255
219 234 255
219 234 255
219 234 255
219 234 255
219 234 255
219 234 255
219 234 255
219 234 255
219 234 255
219 234 255
219 234 255
219 234 255
219 234 255
219 234 255
219 234 255
219 234 255
219 234 255
219 234 255
219 234 255
219 234 255
219 234 255
219 234 255
219 234 255
219 234 255
219 234 255
219 234 255
219 234 255
219 234 255
219 234 255
219 234 255
219 234 255
219 234 255
219 234 255
219 234 255
219 234 255
219 234 255
219 234 255
219 234 255
219 234 255
219 234 255
219 234 255
219 234 255
219 234 255
219 234 255
219 234 255
219 234 255
219 234 255
219 234 255
219 234 255
219 234 255
219 234 255
219 234 255
219 234 255
219 234 255
219 234 255
219 234 255
219 234 255
219 234 255
219 234 255
219 234 255
219 234 255
219 234 255
219 234 255
219 234 255
219 234 255
219 234 255
219 234 255
219 234 255
219 234 255
219 234 255
219 234 255
219 234 255
219 234 255
219 234 255
219 234 255
219 234 255
219 234 255
219 234 255
219 234 255
182 194 212
5 5 6
5 5 6
4 5 6
5 5 6
4 5 5
5 5 6
5 5 6
5 5 6
5 5 6
5 5 6
4 5 6
5 5 6
5 5 6
4 5 6
4 5 6
4 5 6
5 5 6
4 5 6
5 5 6
5 5 6
5 5 6
4 5 6
5 5 6
5 5 6
5 5 6
5 5 6
5 5 6
4 5 6
5 5 6
4 5 6
5 5 6
4 5 6
4 5 5
4 5 6
4 5 6
4 5 6
4 5 5
4 5 6
4 5 6
5 6 6
4 5 5
5 5 6
5 5 6
5 5 6
5 5 6
4 5 5
4 5 6
5 5 6
4 5 6
5 5 6
4 5 6
5 5 6
5 5 6
4 5 6
4 5 5
5 5 6
5 5 6
4 5 6
5 5 6
5 5 6
4 5 6
5 5 6
4 5 6
5 6 6
4 5 6
5 5 6
4 5 6
4 5 6
4 5 5
5 5 6
4 5 6
5 5 6
5 5 6
4 5 6
5 5 6
5 5 6
5 5 6
4 5 6
5 5 6
5 5 6
5 5 6
5 5 6
5 5 6
5 5 6
5 5 6
5 5 6
5 5 6
5 6 6
5 5 6
4 5 6
5 5 6
4 5 6
5 5 6
5 5 6
5 5 6
5 5 6
5 5 6
4 5 6
5 5 6
4 5 6
5 5 6
4 5 6
5 5 6
4 5 5
5 5 6
5 5 6
5 5 6
5 5 6
5 5 6
5 5 6
5 5 6
4 5 6
5 5 6
5 5 6
4 5 5
4 5 6
4 5 5
5 5 6
5 5 6
5 5 6
4 5 6
5 5 6
5 5 6
5 5 6
4 5 6
4 5 5
5 6 6
4 5 6
173 186 203
219 234 255
219 234 255
219 234 255
219 234 255
219 234 255
219 234 255
219 234 255
219 234 255
219 234 255
219 234 255
219 234 255
219 234 255
219 234 255
219 234 255
219 234 255
219 234 255
219 234 255
219 234 255
219 234 255
219 234 255
219 234 255
219 234 255
219 234 255
219 234 255
219 234 255
219 234 255
219 234 255
219 234 255
219 234 255
219 234 255
219 234 255
219 234 255
219 234 255
219 234 255
219 234 255
219 234 255
219 234 255
219 234 255
219 234 255
219 234 255
219 234 255
219 234 255
219 234 255
219 234 255
219 234 255
219 234 255
219 234 255
219 234 255
219 234 255
219 234 255
219 234 255
219 234 255
219 234 255
219 234 255
219 234 255
219 234 255
219 234 255
219 234 255
219 234 255
219 234 255
219 234 255
219 234 255
219 234 255
219 234 255
219 234 255
219 234 255
219 234 255
219 234 255
219 234 255
219 234 255
219 234 255
219 234 255
219 234 255
219 234 255
219 234 255
219 234 255
219 234 255
219 234 255
219 234 255
219 234 255
219 235 255
219 235 255
219 235 255
219 235 255
219 235 255
219 235 255
219 235 255
219 235 255
219 235 255
219 235 255
219 235 255
219 235 255
219 235 255
219 235 255
219 235 255
220 235 255
220 235 255
220 235 255
220 235 255
220 235 255
220 235 255
220 235 255
220 235 255
220 235 255
220 235 255
220 235 255
220 235 255
220 235 255
220 235 255
220 235 255
220 235 255
220 235 255
220 235 255
220 235 255
220 235 255
220 235 255
220 235 255
220 235 255
220 235 255
220 235 255
220 235 255
220 235 255
220 235 255
220 235 255
220 235 255
220 235 255
220 235 255
220 235 255
220 235 255
220 235 255
220 235 255
220 235 255
220 235 255
220 235 255
220 235 255
220 235 255
220 235 255
220 235 255
220 235 255
220 235 255
220 235 255
220 235 255
220 235 255
220 235 255
220 235 255
220 235 255
220 235 255
220 235 255
220 235 255
220 235 255
220 235 255
220 235 255
220 235 255
220 235 255
220 235 255
220 235 255
220 235 255
220 235 255
220 235 255
220 235 255
220 235 255
220 235 255
220 235 255
220 235 255
220 235 255
220 235 255
220 235 255
220 235 255
220 235 255
220 235 255
220 235 255
220 235 255
220 235 255
220 235 255
220 235 255
220 235 255
220 235 255
220 235 255
220 235 255
220 235 255
220 235 255
220 235 255
220 235 255
220 235 255
220 235 255
220 235 255
220 235 255
220 235 255
220 235 255
220 235 255
220 235 255
220 235 255
220 235 255
220 235 255
220 235 255
220 235 255
220 235 255
220 235 255
220 235 255
220 235 255
220 235 255
220 235 255
219 235 255
219 235 255
219 235 255
219 235 255
219 235 255
219 235 255
219 235 255
219 235 255
219 235 255
219 235 255
219 235 255
219 235 255
219 235 255
219 235 255
219 235 255
219 234 255
219 234 255
219 234 255
219 234 255
219 234 255
219 234 255
219 234 255
219 234 255
219 234 255
219 234 255
219 234 255
219 234 255
219 234 255
219 234 255
219 234 255
219 234 255
219 234 255
219 234 255
219 234 255
219 234 255
219 234 255
219 234 255
219 234 255
219 234 255
219 234 255
219 234 255
219 234 255
219 234 255
219 234 255
219 234 255
219 234 255
219 234 255
219 234 255
219 234 255
219 234 255
219 234 255
219 234 255
219 234 255
219 234 255
219 234 255
219 234 255
219 234 255
219 234 255
219 234 255
219 234 255
219 234 255
219 234 255
219 234 255
219 234 255
219 234 255
219 234 255
219 234 255
219 234 255
161 172 188
5 5 6
5 5 6
5 5 6
4 5 6
4 5 6
5 5 6
5 5 6
5 5 6
5 5 6
5 5 6
5 5 6
5 5 6
5 5 6
5 5 6
4 4 5
5 5 6
4 5 6
4 5 5
5 5 6
5 5 6
5 5 6
5 5 6
5 5 6
5 5 6
4 5 5
5 5 6
4 5 6
5 5 6
5 5 6
4 5 5
5 5 6
5 6 6
4 4 5
4 5 6
5 5 6
5 5 6
5 6 6
5 5 6
5 5 6
5 5 6
5 5 6
5 5 6
4 5 5
5 5 6
5 5 6
4 5 6
5 5 6
4 5 6
4 5 5
5 5 6
4 5 6
4 5 6
4 5 6
5 5 6
5 6 6
5 5 6
5 5 6
5 5 6
5 5 6
5 5 6
4 5 6
4 5 6
4 5 6
4 5 5
4 5 5
5 5 6
4 5 6
4 5 5
4 5 6
5 6 7
4 5 6
5 5 6
5 5 6
4 5 5
5 5 6
5 5 6
5 5 6
5 5 6
4 5 6
5 5 6
5 5 6
5 5 6
4 5 5
5 6 6
5 5 6
4 5 6
5 6 6
4 5 5
5 6 6
5 5 6
5 5 6
4 5 6
4 5 6
5 5 6
4 5 5
4 5 6
4 5 6
4 5 6
5 5 6
4 5 6
5 5 6
5 5 6
5 5 6
4 5 6
5 5 6
5 5 6
5 5 6
5 6 6
5 5 6
5 5 6
4 5 6
5 5 6
5 5 6
5 5 6
5 5 6
5 5 6
5 5 6
5 5 6
5 5 6
5 6 6
4 5 6
5 5 6
4 5 6
4 5 6
5 5 6
5 5 6
5 5 6
5 5 6
162 174 189
219 234 255
219 234 255
219 234 255
219 234 255
219 234 255
219 234 255
219 234 255
219 234 255
219 234 255
219 234 255
219 234 255
219 234 255
219 234 255
219 234 255
219 234 255
219 234 255
219 234 255
219 234 255
219 234 255
219 234 255
219 234 255
219 234 255
219 234 255
219 234 255
219 234 255
219 234 255
219 234 255
219 234 255
219 234 255
219 234 255
219 234 255
219 234 255
219 234 255
219 234 255
219 234 255
219 234 255
219 234 255
219 234 255
219 234 255
219 234 255
219 234 255
219 234 255
219 234 255
219 234 255
219 234 255
219 234 255
219 234 255
219 234 255
219 234 255
219 234 255
219 234 255
219 234 255
219 234 255
219 234 255
219 235 255
219 235 255
219 235 255
219 235 255
219 235 255
219 235 255
219 235 255
219 235 255
219 235 255
219 235 255
219 235 255
219 235 255
219 235 255
219 235 255
220 235 255
220 235 255
220 235 255
220 235 255
220 235 255
220 235 255
220 235 255
220 235 255
220 235 255
220 235 255
220 235 255
220 235 255
220 235 255
220 235 255
220 235 255
220 235 255
220 235 255
220 235 255
220 235 255
220 235 255
220 235 255
220 235 255
220 235 255
220 235 255
220 235 255
220 235 255
220 235 255
220 235 255
220 235 255
220 235 255
220 235 255
220 235 255
220 235 255
220 235 255
220 235 255
220 235 255
220 235 255
220 235 255
220 235 255
220 235 255
220 235 255
220 235 255
220 235 255
220 235 255
220 235 255
220 235 255
220 235 255
220 235 255
220 235 255
220 235 255
220 235 255
220 235 255
220 235 255
220 235 255
220 235 255
220 235 255
220 235 255
220 235 255
220 235 255
220 235 255
220 235 255
220 235 255
220 235 255
220 235 255
220 235 255
220 235 255
220 235 255
220 235 255
220 235 255
220 235 255
220 235 255
220 235 255
220 235 255
220 235 255
220 235 255
220 235 255
220 235 255
220 235 255
220 235 255
220 235 255
220 235 255
220 235 255
220 235 255
220 235 255
220 235 255
220 235 255
220 235 255
220 235 255
220 235 255
220 235 255
220 235 255
220 235 255
220 235 255
220 235 255
220 235 255
220 235 255
220 235 255
220 235 255
220 235 255
220 235 255
220 235 255
220 235 255
220 235 255
220 235 255
220 235 255
220 235 255
220 235 255
220 235 255
220 235 255
220 235 255
220 235 255
220 235 255
220 235 255
220 235 255
220 235 255
220 235 255
220 235 255
220 235 255
220 235 255
220 235 255
220 235 255
220 235 255
220 235 255
220 235 255
220 235 255
220 235 255
220 235 255
220 235 255
220 235 255
220 235 255
220 235 255
220 235 255
220 235 255
220 235 255
220 235 255
220 235 255
220 235 255
220 235 255
220 235 255
220 235 255
220 235 255
220 235 255
220 235 255
220 235 255
220 235 255
220 235 255
220 235 255
220 235 255
220 235 255
220 235 255
220 235 255
220 235 255
220 235 255
220 235 255
220 235 255
220 235 255
220 235 255
220 235 255
220 235 255
220 235 255
220 235 255
220 235 255
220 235 255
220 235 255
220 235 255
219 235 255
219 235 255
219 235 255
219 235 255
219 235 255
219 235 255
219 235 255
219 235 255
219 235 255
219 235 255
219 235 255
219 235 255
219 235 255
219 235 255
219 235 255
219 234 255
219 234 255
219 234 255
219 234 255
219 234 255
219 234 255
219 234 255
219 234 255
219 234 255
219 234 255
219 234 255
219 234 255
219 234 255
219 234 255
219 234 255
219 234 255
219 234 255
219 234 255
219 234 255
219 234 255
219 234 255
219 234 255
131 140 153
5 5 6
5 5 6
5 5 6
5 5 6
5 6 6
4 5 6
4 5 5
5 5 6
5 5 6
5 5 6
5 5 6
4 5 5
5 5 6
5 5 6
4 5 6
5 5 6
4 5 5
4 5 5
4 5 5
5 5 6
4 5 6
5 5 6
4 5 6
5 5 6
4 5 5
5 5 6
4 5 6
5 5 6
5 5 6
5 5 6
4 5 6
4 5 5
5 5 6
4 5 6
5 5 6
5 5 6
5 5 6
5 5 6
5 5 6
5 5 6
5 5 6
5 5 6
5 5 6
4 5 6
5 5 6
4 5 5
5 5 6
5 5 6
5 5 6
5 5 6
4 5 5
5 5 6
5 5 6
5 5 6
5 5 6
4 5 6
5 5 6
4 5 5
5 5 6
4 5 6
5 5 6
4 5 5
5 5 6
5 5 6
5 5 6
5 5 6
4 5 6
5 5 6
4 5 6
5 5 6
4 5 6
5 5 6
5 5 6
4 5 6
5 5 6
4 5 5
5 5 6
4 5 5
5 5 6
5 5 6
5 5 6
5 5 6
5 5 6
5 5 6
5 5 6
4 5 6
4 5 5
4 5 5
5 5 6
5 5 6
5 6 6
5 5 6
5 5 6
4 5 6
5 5 6
5 5 6
5 5 6
5 5 6
4 5 5
5 5 6
5 5 6
4 5 6
4 5 6
4 5 6
4 5 6
4 5 6
4 5 6
4 5 5
5 6 6
5 5 6
5 5 6
4 5 6
5 5 6
5 5 6
5 5 6
5 5 6
5 5 6
4 5 6
5 5 6
5 5 6
5 5 6
5 5 6
5 5 6
5 5 6
5 5 6
4 5 6
5 5 6
5 5 6
147 157 171
219 234 255
219 234 255
219 234 255
219 234 255
219 234 255
219 234 255
219 234 255
219 234 255
219 234 255
219 234 255
219 234 255
219 234 255
219 234 255
219 234 255
219 234 255
219 234 255
219 234 255
219 234 255
219 234 255
219 234 255
219 234 255
219 234 255
219 235 255
219 235 255
219 235 255
219 235 255
219 235 255
219 235 255
219 235 255
219 235 255
219 235 255
219 235 255
219 235 255
219 235 255
219 235 255
219 235 255
219 235 255
220 235 255
219 235 255
220 235 255
220 235 255
220 235 255
220 235 255
220 235 255
220 235 255
220 235 255
220 235 255
220 235 255
220 235 255
220 235 255
220 235 255
220 235 255
220 235 255
220 235 255
220 235 255
220 235 255
220 235 255
220 235 255
220 235 255
220 235 255
220 235 255
220 235 255
220 235 255
220 235 255
220 235 255
220 235 255
220 235 255
220 235 255
220 235 255
220 235 255
220 235 255
220 235 255
220 235 255
220 235 255
220 235 255
220 235 255
220 235 255
220 235 255
220 235 255
220 235 255
220 235 255
220 235 255
220 235 255
220 235 255
220 235 255
220 235 255
220 235 255
220 235 255
220 235 255
220 235 255
220 235 255
220 235 255
220 235 255
220 235 255
220 235 255
220 235 255
220 235 255
220 235 255
220 235 255
220 235 255
220 235 255
220 235 255
220 235 255
220 235 255
220 235 255
220 235 255
220 235 255
220 235 255
220 235 255
220 235 255
220 235 255
220 235 255
220 235 255
220 235 255
220 235 255
220 235 255
220 235 255
220 235 255
220 235 255
220 235 255
220 235 255
220 235 255
220 235 255
220 235 255
220 235 255
220 235 255
220 235 255
220 235 255
220 235 255
220 235 255
220 235 255
220 235 255
220 235 255
220 235 255
220 235 255
220 235 255
220 235 255
220 235 255
220 235 255
220 235 255
220 235 255
220 235 255
220 235 255
220 235 255
220 235 255
220 235 255
220 235 255
220 235 255
220 235 255
220 235 255
220 235 255
220 235 255
220 235 255
220 235 255
220 235 255
220 235 255
220 235 255
220 235 255
220 235 255
220 235 255
220 235 255
220 235 255
220 235 255
220 235 255
220 235 255
220 235 255
220 235 255
220 235 255
220 235 255
220 235 255
220 235 255
220 235 255
220 235 255
220 235 255
220 235 255
220 235 255
220 235 255
220 235 255
220 235 255
220 235 255
220 235 255
220 235 255
220 235 255
220 235 255
220 235 255
220 235 255
220 235 255
220 235 255
220 235 255
220 235 255
220 235 255
220 235 255
220 235 255
220 235 255
220 235 255
220 235 255
220 235 255
220 235 255
220 235 255
220 235 255
220 235 255
220 235 255
220 235 255
220 235 255
220 235 255
220 235 255
220 235 255
220 235 255
220 235 255
220 235 255
220 235 255
220 235 255
220 235 255
220 235 255
220 235 255
220 235 255
220 235 255
220 235 255
220 235 255
220 235 255
220 235 255
220 235 255
220 235 255
220 235 255
220 235 255
220 235 255
220 235 255
220 235 255
220 235 255
220 235 255
220 235 255
220 235 255
220 235 255
220 235 255
220 235 255
220 235 255
220 235 255
220 235 255
220 235 255
220 235 255
220 235 255
220 235 255
220 235 255
220 235 255
220 235 255
220 235 255
220 235 255
220 235 255
220 235 255
220 235 255
220 235 255
220 235 255
220 235 255
220 235 255
220 235 255
220 235 255
220 235 255
220 235 255
220 235 255
220 235 255
220 235 255
220 235 255
220 235 255
220 235 255
220 235 255
220 235 255
220 235 255
219 235 255
219 235 255
219 235 255
133 143 155
4 5 5
5 5 6
5 5 6
4 5 5
5 5 6
4 5 5
4 5 6
4 5 6
5 5 6
5 5 6
5 5 6
5 5 6
5 5 6
5 5 6
4 5 5
5 5 6
4 5 6
4 5 6
5 5 6
4 5 5
5 5 6
5 5 6
4 5 5
5 5 6
5 5 6
5 5 6
4 5 6
5 5 6
5 5 6
4 5 5
4 5 6
5 5 6
5 5 6
4 5 5
4 5 6
5 5 6
4 5 6
4 5 5
4 5 5
4 5 6
4 5 5
4 5 6
4 5 6
5 5 6
4 5 6
5 5 6
5 5 6
4 5 5
5 5 6
4 5 6
4 5 6
5 5 6
4 5 6
4 5 5
5 5 6
5 5 6
4 5 6
5 5 6
5 5 6
4 5 6
5 5 6
4 5 5
5 5 6
4 5 6
4 5 6
5 5 6
4 4 5
4 5 6
5 5 6
5 5 6
5 5 6
4 5 5
5 5 6
5 5 6
4 5 6
4 5 6
5 5 6
4 5 6
5 5 6
5 5 6
5 5 6
4 5 6
5 5 6
5 5 6
5 5 6
4 5 6
4 4 5
5 5 6
5 5 6
5 5 6
5 5 6
5 5 6
5 5 6
4 5 5
4 5 5
5 5 6
4 5 6
5 5 6
5 5 6
4 5 6
4 5 5
5 5 6
5 5 6
4 5 6
5 5 6
5 5 6
5 5 6
5 6 6
5 5 6
5 5 6
5 5 6
4 5 5
4 5 5
5 5 6
5 5 6
4 5 6
5 5 6
5 5 6
4 5 5
5 5 6
5 5 6
5 5 6
5 5 6
5 5 6
5 5 6
4 5 5
5 5 6
5 5 6
118 126 137
219 235 255
220 235 255
220 235 255
220 235 255
220 235 255
220 235 255
220 235 255
220 235 255
220 235 255
220 235 255
220 235 255
220 235 255
220 235 255
220 235 255
220 235 255
220 235 255
220 235 255
220 235 255
220 235 255
220 235 255
220 235 255
220 235 255
220 235 255
220 235 255
220 235 255
220 235 255
220 235 255
220 235 255
220 235 255
220 235 255
220 235 255
220 235 255
220 235 255
220 235 255
220 235 255
220 235 255
220 235 255
220 235 255
220 235 255
220 235 255
220 235 255
220 235 255
220 235 255
220 235 255
220 235 255
220 235 255
220 235 255
220 235 255
220 235 255
220 235 255
220 235 255
220 235 255
220 235 255
220 235 255
220 235 255
220 235 255
220 235 255
220 235 255
220 235 255
220 235 255
220 235 255
220 235 255
220 235 255
220 235 255
220 235 255
220 235 255
220 235 255
220 235 255
220 235 255
220 235 255
220 235 255
220 235 255
220 235 255
220 235 255
220 235 255
220 235 255
220 235 255
220 235 255
220 235 255
220 235 255
220 235 255
220 235 255
220 235 255
220 235 255
220 235 255
220 235 255
220 235 255
220 235 255
220 235 255
220 235 255
220 235 255
220 235 255
220 235 255
220 235 255
220 235 255
220 235 255
220 235 255
220 235 255
220 235 255
220 235 255
220 235 255
220 235 255
220 235 255
220 235 255
220 235 255
220 235 255
220 235 255
220 235 255
220 235 255
220 235 255
220 235 255
220 235 255
220 235 255
220 235 255
220 235 255
220 235 255
220 235 255
220 235 255
220 235 255
220 235 255
220 235 255
220 235 255
220 235 255
220 235 255
220 235 255
220 235 255
220 235 255
220 235 255
220 235 255
220 235 255
220 235 255
220 235 255
220 235 255
220 235 255
220 235 255
220 235 255
220 235 255
220 235 255
220 235 255
220 235 255
220 235 255
220 235 255
220 235 255
220 235 255
220 235 255
220 235 255
220 235 255
220 235 255
220 235 255
220 235 255
220 235 255
220 235 255
220 235 255
220 235 255
220 235 255
220 235 255
220 235 255
220 235 255
220 235 255
220 235 255
220 235 255
220 235 255
220 235 255
220 235 255
220 235 255
220 235 255
220 235 255
220 235 255
220 235 255
220 235 255
220 235 255
220 235 255
220 235 255
220 235 255
220 235 255
220 235 255
220 235 255
220 235 255
220 235 255
220 235 255
220 235 255
220 235 255
220 235 255
220 235 255
220 235 255
220 235 255
220 235 255
220 235 255
220 235 255
220 235 255
220 235 255
220 235 255
220 235 255
220 235 255
220 235 255
220 235 255
220 235 255
220 235 255
220 235 255
220 235 255
220 235 255
220 235 255
220 235 255
220 235 255
220 235 255
220 235 255
220 235 255
220 235 255
220 235 255
220 235 255
220 235 255
220 235 255
220 235 255
220 235 255
220 235 255
220 235 255
220 235 255
220 235 255
220 235 255
220 235 255
220 235 255
220 235 255
220 235 255
220 235 255
220 235 255
220 235 255
220 235 255
220 235 255
220 235 255
220 235 255
220 235 255
220 235 255
220 235 255
220 235 255
220 235 255
220 235 255
220 235 255
220 235 255
220 235 255
220 235 255
220 235 255
220 235 255
220 235 255
220 235 255
220 235 255
220 235 255
220 235 255
220 235 255
220 235 255
220 235 255
220 235 255
220 235 255
220 235 255
220 235 255
220 235 255
220 235 255
220 235 255
220 235 255
220 235 255
220 235 255
220 235 255
220 235 255
220 235 255
220 235 255
220 235 255
220 235 255
220 235 255
220 235 255
220 235 255
220 235 255
110 117 128
5 5 6
4 5 5
5 5 6
5 5 6
5 5 6
5 5 6
5 5 6
5 5 6
4 5 6
5 5 6
5 5 6
4 5 5
4 5 6
5 5 6
5 5 6
5 5 6
4 5 5
5 5 6
5 5 6
4 5 6
4 5 5
5 5 6
4 5 6
4 5 6
5 5 6
4 5 6
4 5 6
5 5 6
5 5 6
5 5 6
5 5 6
5 5 6
5 5 6
5 5 6
5 5 6
5 5 6
4 5 5
4 5 6
5 5 6
5 5 6
4 5 5
5 5 6
5 5 6
5 5 6
5 5 6
5 5 6
5 5 6
4 5 5
5 5 6
4 5 5
5 5 6
5 5 6
4 5 5
5 5 6
5 5 6
5 5 6
5 5 6
5 5 6
5 5 6
4 5 6
4 5 5
5 5 6
5 5 6
5 5 6
4 5 6
4 5 6
4 5 5
5 5 6
4 5 6
5 5 6
4 5 6
5 5 6
4 5 6
4 4 5
5 5 6
5 5 6
4 5 6
4 5 5
4 5 5
5 5 6
5 5 6
5 5 6
4 5 5
5 5 6
5 5 6
5 5 6
5 5 6
5 5 6
4 5 5
5 5 6
5 5 6
5 5 6
4 5 6
5 5 6
4 5 6
5 5 6
5 5 6
4 5 6
5 5 6
5 5 6
4 5 6
4 5 6
5 5 6
4 5 6
4 5 5
5 5 6
4 5 5
5 5 6
5 5 6
4 5 5
5 5 6
5 5 6
4 5 5
5 5 6
4 5 6
4 5 5
4 5 6
5 5 6
5 5 6
5 5 6
5 5 6
5 5 6
5 6 6
5 5 6
4 5 6
5 5 6
5 5 6
5 5 6
101 107 117
220 235 255
220 235 255
220 235 255
220 235 255
220 235 255
220 235 255
220 235 255
220 235 255
220 235 255
220 235 255
220 235 255
220 235 255
220 235 255
220 235 255
220 235 255
220 235 255
220 235 255
220 235 255
220 235 255
220 235 255
220 235 255
220 235 255
220 235 255
220 235 255
220 235 255
220 235 255
220 235 255
220 235 255
220 235 255
220 235 255
220 235 255
220 235 255
220 235 255
220 235 255
220 235 255
220 235 255
220 235 255
220 235 255
220 235 255
220 235 255
220 235 255
220 235 255
220 235 255
220 235 255
220 235 255
220 235 255
220 235 255
220 235 255
220 235 255
220 235 255
220 235 255
220 235 255
220 235 255
220 235 255
220 235 255
220 235 255
220 235 255
220 235 255
220 235 255
220 235 255
220 235 255
220 235 255
220 235 255
220 235 255
220 235 255
220 235 255
220 235 255
220 235 255
220 235 255
220 235 255
220 235 255
220 235 255
220 235 255
220 235 255
220 235 255
220 235 255
220 235 255
220 235 255
220 235 255
220 235 255
220 235 255
220 235 255
220 235 255
220 235 255
220 235 255
220 235 255
220 235 255
220 235 255
220 235 255
220 235 255
220 235 255
220 235 255
220 235 255
220 235 255
220 235 255
220 235 255
220 235 255
220 235 255
220 235 255
220 235 255
220 235 255
220 235 255
220 235 255
220 235 255
220 235 255
220 235 255
220 235 255
220 235 255
220 235 255
220 235 255
220 235 255
220 235 255
220 235 255
220 235 255
220 235 255
220 235 255
220 235 255
220 235 255
220 235 255
220 235 255
220 235 255
220 235 255
220 235 255
220 235 255
220 235 255
220 235 255
220 235 255
220 235 255
220 235 255
220 235 255
220 235 255
220 235 255
220 235 255
220 235 255
220 235 255
221 235 255
221 235 255
221 235 255
221 235 255
221 235 255
221 235 255
221 235 255
221 235 255
221 235 255
221 235 255
221 235 255
221 235 255
221 235 255
221 235 255
221 235 255
221 235 255
221 235 255
221 235 255
221 235 255
221 235 255
221 235 255
221 235 255
221 235 255
220 235 255
220 235 255
220 235 255
220 235 255
220 235 255
220 235 255
220 235 255
220 235 255
220 235 255
220 235 255
220 235 255
220 235 255
220 235 255
220 235 255
220 235 255
220 235 255
220 235 255
220 235 255
220 235 255
220 235 255
220 235 255
220 235 255
220 235 255
220 235 255
220 235 255
220 235 255
220 235 255
220 235 255
220 235 255
220 235 255
220 235 255
220 235 255
220 235 255
220 235 255
220 235 255
220 235 255
220 235 255
220 235 255
220 235 255
220 235 255
220 235 255
220 235 255
220 235 255
220 235 255
220 235 255
220 235 255
220 235 255
220 235 255
220 235 255
220 235 255
220 235 255
220 235 255
220 235 255
220 235 255
220 235 255
220 235 255
220 235 255
220 235 255
220 235 255
220 235 255
220 235 255
220 235 255
220 235 255
220 235 255
220 235 255
220 235 255
220 235 255
220 235 255
220 235 255
220 235 255
220 235 255
220 235 255
220 235 255
220 235 255
220 235 255
220 235 255
220 235 255
220 235 255
220 235 255
220 235 255
220 235 255
220 235 255
220 235 255
220 235 255
220 235 255
220 235 255
220 235 255
220 235 255
220 235 255
220 235 255
220 235 255
220 235 255
220 235 255
220 235 255
220 235 255
220 235 255
220 235 255
220 235 255
220 235 255
220 235 255
220 235 255
220 235 255
220 235 255
220 235 255
220 235 255
220 235 255
220 235 255
220 235 255
220 235 255
220 235 255
220 235 255
220 235 255
76 81 88
4 5 5
5 5 6
4 5 5
5 5 6
4 5 5
4 5 5
5 6 6
4 5 6
5 5 6
4 5 5
4 5 5
5 5 6
5 5 6
5 5 6
4 5 6
4 5 5
4 5 6
4 5 6
4 5 6
4 5 5
5 5 6
4 5 5
5 5 6
4 5 6
5 5 6
4 5 6
5 5 6
4 5 5
5 5 6
4 5 6
4 5 6
5 5 6
4 5 5
4 5 6
5 5 6
4 5 6
5 5 6
4 5 6
5 5 6
4 5 6
5 5 6
5 5 6
5 5 6
4 5 6
4 5 5
5 5 6
4 5 5
5 5 6
5 5 6
4 5 6
5 5 6
4 5 6
5 5 6
5 5 6
4 5 5
5 5 6
5 5 6
5 5 6
5 5 6
4 5 6
5 5 6
5 5 6
4 5 5
4 5 5
4 5 6
5 5 6
4 5 5
4 5 6
4 5 6
5 5 6
4 5 6
5 5 6
5 5 6
4 4 5
5 5 6
5 5 6
5 5 6
5 5 6
4 5 6
4 5 6
4 5 5
4 5 6
5 5 6
5 5 6
5 5 6
5 5 6
4 5 6
4 5 6
4 5 5
5 5 6
4 5 6
5 5 6
5 5 6
4 5 5
5 5 6
5 5 6
4 5 6
4 5 5
5 5 6
5 5 6
4 5 6
5 5 6
5 5 6
4 4 5
4 5 5
5 5 6
5 5 6
5 5 6
5 5 6
4 5 6
4 5 6
4 5 6
5 5 6
4 5 5
5 5 6
5 5 6
5 5 6
5 5 6
4 5 5
4 5 5
4 5 6
4 5 5
5 5 6
5 5 6
5 5 6
5 5 6
4 5 5
5 5 6
93 99 108
220 235 255
220 235 255
220 235 255
220 235 255
220 235 255
220 235 255
220 235 255
220 235 255
220 235 255
220 235 255
220 235 255
220 235 255
220 235 255
220 235 255
220 235 255
220 235 255
220 235 255
220 235 255
220 235 255
220 235 255
220 235 255
220 235 255
220 235 255
220 235 255
220 235 255
220 235 255
220 235 255
220 235 255
220 235 255
220 235 255
220 235 255
220 235 255
220 235 255
220 235 255
220 235 255
220 235 255
220 235 255
220 235 255
220 235 255
220 235 255
220 235 255
220 235 255
220 235 255
220 235 255
220 235 255
220 235 255
220 235 255
220 235 255
220 235 255
220 235 255
220 235 255
220 235 255
220 235 255
220 235 255
220 235 255
220 235 255
220 235 255
220 235 255
220 235 255
220 235 255
220 235 255
220 235 255
220 235 255
220 235 255
220 235 255
220 235 255
220 235 255
220 235 255
220 235 255
220 235 255
220 235 255
220 235 255
220 235 255
220 235 255
220 235 255
220 235 255
220 235 255
220 235 255
220 235 255
220 235 255
220 235 255
220 235 255
220 235 255
220 235 255
220 235 255
220 235 255
220 235 255
220 235 255
220 235 255
220 235 255
220 235 255
220 235 255
220 235 255
220 235 255
220 235 255
220 235 255
220 235 255
220 235 255
220 235 255
220 235 255
220 235 255
220 235 255
220 235 255
220 235 255
220 235 255
220 235 255
220 235 255
220 235 255
220 235 255
220 235 255
220 235 255
220 235 255
220 235 255
221 235 255
221 235 255
220 235 255
221 235 255
221 235 255
221 235 255
221 235 255
221 235 255
221 235 255
221 235 255
221 235 255
221 235 255
221 235 255
221 235 255
221 235 255
221 235 255
221 235 255
221 235 255
221 235 255
221 235 255
221 235 255
221 235 255
221 235 255
221 235 255
221 235 255
221 235 255
221 235 255
221 235 255
221 235 255
221 235 255
221 235 255
221 235 255
221 235 255
221 235 255
221 235 255
221 235 255
221 235 255
221 235 255
221 235 255
221 235 255
221 235 255
221 235 255
221 235 255
221 235 255
221 235 255
221 235 255
221 235 255
221 235 255
221 235 255
221 235 255
221 235 255
221 235 255
221 235 255
221 235 255
221 235 255
221 235 255
221 235 255
221 235 255
221 235 255
221 235 255
221 235 255
221 235 255
221 235 255
221 235 255
221 235 255
221 235 255
221 235 255
221 235 255
221 235 255
221 235 255
221 235 255
221 235 255
221 235 255
221 235 255
221 235 255
221 235 255
221 235 255
221 235 255
221 235 255
221 235 255
221 235 255
221 235 255
221 235 255
221 235 255
221 235 255
221 235 255
221 235 255
221 235 255
221 235 255
221 235 255
221 235 255
221 235 255
221 235 255
221 235 255
221 235 255
221 235 255
221 235 255
221 235 255
221 235 255
221 235 255
221 235 255
221 235 255
221 235 255
221 235 255
221 235 255
221 235 255
221 235 255
221 235 255
221 235 255
221 235 255
220 235 255
221 235 255
221 235 255
220 235 255
221 235 255
220 235 255
220 235 255
220 235 255
220 235 255
220 235 255
220 235 255
220 235 255
220 235 255
220 235 255
220 235 255
220 235 255
220 235 255
220 235 255
220 235 255
220 235 255
220 235 255
220 235 255
220 235 255
220 235 255
220 235 255
220 235 255
220 235 255
220 235 255
220 235 255
220 235 255
220 235 255
220 235 255
220 235 255
220 235 255
220 235 255
220 235 255
220 235 255
220 235 255
220 235 255
220 235 255
220 235 255
220 235 255
220 235 255
220 235 255
220 235 255
220 235 255
220 235 255
79 85 92
5 5 6
4 5 6
5 5 6
5 5 6
4 5 6
4 5 5
4 5 5
5 5 6
4 5 5
4 5 5
4 5 6
4 5 5
4 5 6
4 5 5
5 5 6
5 5 6
5 5 6
4 4 5
4 5 6
5 5 6
5 5 6
5 5 6
5 5 6
4 5 5
4 5 5
5 5 6
5 5 6
4 5 5
5 5 6
4 5 6
4 5 6
4 5 6
4 5 6
5 5 6
4 5 5
4 5 6
5 5 6
4 5 5
5 5 6
5 5 6
4 5 6
5 5 6
5 5 6
5 5 6
4 5 5
5 5 6
5 5 6
4 5 5
4 5 6
4 5 6
5 5 6
4 5 6
4 5 6
4 5 6
5 5 6
5 5 6
5 5 6
5 5 6
4 5 6
5 5 6
5 5 6
4 5 6
5 5 6
5 5 6
5 5 6
5 5 6
5 5 6
5 5 6
5 5 6
4 5 6
4 5 6
5 5 6
5 5 6
4 5 6
5 5 6
5 5 6
4 5 5
5 6 6
4 5 5
4 5 6
4 5 6
5 5 6
5 5 6
4 5 5
4 5 5
5 5 6
4 5 5
5 5 6
5 5 6
5 5 6
5 5 6
4 5 5
4 5 5
4 5 6
5 5 6
5 5 6
5 5 6
4 5 6
5 5 6
4 5 5
4 5 6
5 5 6
5 5 6
4 5 5
5 5 6
5 5 6
5 5 6
4 4 5
5 5 6
5 5 6
4 5 5
5 5 6
5 5 6
5 5 6
4 5 5
4 5 6
4 5 5
5 5 6
5 5 6
5 5 6
5 5 6
4 5 6
5 5 6
4 5 6
5 5 6
5 5 6
5 5 6
5 5 6
73 78 85
220 235 255
220 235 255
220 235 255
220 235 255
220 235 255
220 235 255
220 235 255
220 235 255
220 235 255
220 235 255
220 235 255
220 235 255
220 235 255
220 235 255
220 235 255
220 235 255
220 235 255
220 235 255
220 235 255
220 235 255
220 235 255
220 235 255
220 235 255
220 235 255
220 235 255
220 235 255
220 235 255
220 235 255
220 235 255
220 235 255
220 235 255
220 235 255
220 235 255
220 235 255
220 235 255
220 235 255
220 235 255
220 235 255
220 235 255
220 235 255
220 235 255
220 235 255
220 235 255
220 235 255
220 235 255
220 235 255
221 235 255
221 235 255
221 235 255
221 235 255
221 235 255
221 235 255
221 235 255
221 235 255
221 235 255
221 235 255
221 235 255
221 235 255
221 235 255
221 235 255
221 235 255
221 235 255
221 235 255
221 235 255
221 235 255
221 235 255
221 235 255
221 235 255
221 235 255
221 235 255
221 235 255
221 235 255
221 235 255
221 235 255
221 235 255
221 235 255
221 235 255
221 235 255
221 235 255
221 235 255
221 235 255
221 235 255
221 235 255
221 235 255
221 235 255
221 235 255
221 235 255
221 235 255
221 235 255
221 235 255
221 235 255
221 235 255
221 235 255
221 235 255
221 235 255
221 235 255
221 235 255
221 235 255
221 235 255
221 235 255
221 235 255
221 235 255
221 235 255
221 235 255
221 235 255
221 235 255
221 235 255
221 235 255
221 235 255
221 235 255
221 235 255
221 235 255
221 235 255
221 235 255
221 235 255
221 235 255
221 235 255
221 235 255
221 235 255
221 235 255
221 235 255
221 235 255
221 235 255
221 235 255
221 235 255
221 235 255
221 235 255
221 235 255
221 235 255
221 235 255
221 235 255
221 235 255
221 235 255
221 235 255
221 235 255
221 235 255
221 235 255
221 235 255
221 235 255
221 235 255
221 235 255
221 235 255
221 235 255
221 235 255
221 235 255
221 235 255
221 235 255
221 235 255
221 235 255
221 235 255
221 235 255
221 235 255
221 235 255
221 235 255
221 235 255
221 235 255
221 235 255
221 235 255
221 235 255
221 235 255
221 235 255
221 235 255
221 235 255
221 235 255
221 235 255
221 235 255
221 235 255
221 235 255
221 235 255
221 235 255
221 235 255
221 235 255
221 235 255
221 235 255
221 235 255
221 235 255
221 235 255
221 235 255
221 235 255
221 235 255
221 235 255
221 235 255
221 235 255
221 235 255
221 235 255
221 235 255
221 235 255
221 235 255
221 235 255
221 235 255
221 235 255
221 235 255
221 235 255
221 235 255
221 235 255
221 235 255
221 235 255
221 235 255
221 235 255
221 235 255
221 235 255
221 235 255
221 235 255
221 235 255
221 235 255
221 235 255
221 235 255
221 235 255
221 235 255
221 235 255
221 235 255
221 235 255
221 235 255
221 235 255
221 235 255
221 235 255
221 235 255
221 235 255
221 235 255
221 235 255
221 235 255
221 235 255
221 235 255
221 235 255
221 235 255
221 235 255
221 235 255
221 235 255
221 235 255
221 235 255
221 235 255
221 235 255
221 235 255
221 235 255
221 235 255
221 235 255
221 235 255
221 235 255
221 235 255
221 235 255
221 235 255
221 235 255
221 235 255
221 235 255
221 235 255
221 235 255
221 235 255
221 235 255
221 235 255
221 235 255
221 235 255
221 235 255
221 235 255
221 235 255
221 235 255
221 235 255
221 235 255
221 235 255
221 235 255
221 235 255
221 235 255
221 235 255
221 235 255
221 235 255
221 235 255
221 235 255
221 235 255
221 235 255
221 235 255
221 235 255
62 66 72
4 5 6
5 5 6
5 5 6
4 5 6
4 5 5
4 4 5
4 5 5
5 5 6
5 5 6
5 5 6
5 5 6
5 5 6
5 6 6
4 5 5
5 5 6
5 5 6
4 5 6
5 5 6
4 5 6
4 5 6
4 5 5
5 5 6
5 5 6
5 5 6
4 5 5
5 5 6
4 5 6
5 5 6
4 5 6
5 5 6
5 5 6
5 5 6
5 5 6
4 5 5
5 5 6
4 5 6
4 5 6
4 5 6
4 5 5
4 5 5
4 5 5
5 5 6
5 5 6
4 4 5
5 5 6
4 5 6
5 5 6
4 5 6
4 5 6
5 5 6
5 5 6
5 5 6
4 5 6
4 5 5
4 5 6
4 5 5
4 4 5
5 5 6
4 5 5
4 5 6
5 5 6
4 5 6
5 5 6
5 5 6
5 5 6
4 5 6
4 5 6
4 5 6
5 5 6
4 5 6
5 5 6
5 5 6
4 5 5
4 5 6
4 5 6
5 5 6
5 5 6
5 5 6
4 5 5
4 5 6
4 5 5
5 5 6
4 4 5
4 5 5
5 5 6
4 5 5
5 5 6
5 5 6
4 5 6
4 5 6
5 5 6
5 5 6
5 5 6
4 5 6
4 5 6
4 5 6
5 5 6
5 5 6
4 5 5
5 5 6
4 5 5
5 5 6
5 5 6
4 4 5
5 5 6
5 5 6
5 5 6
4 5 6
4 5 6
5 5 6
4 5 5
4 5 6
5 5 6
4 5 6
5 5 6
4 5 5
4 5 5
4 5 6
4 5 6
4 5 5
5 5 6
5 5 6
5 5 6
4 5 6
4 5 6
4 5 5
5 5 6
5 5 6
70 74 81
221 235 255
221 235 255
221 235 255
221 235 255
221 235 255
221 235 255
221 235 255
221 235 255
221 235 255
221 235 255
221 235 255
221 235 255
221 235 255
221 235 255
221 235 255
221 235 255
221 235 255
221 235 255
221 235 255
221 235 255
221 235 255
221 235 255
221 235 255
221 235 255
221 235 255
221 235 255
221 235 255
221 235 255
221 235 255
221 235 255
221 235 255
221 235 255
221 235 255
221 235 255
221 235 255
221 235 255
221 235 255
221 235 255
221 235 255
221 235 255
221 235 255
221 235 255
221 235 255
221 235 255
221 235 255
221 235 255
221 235 255
221 235 255
221 235 255
221 235 255
221 235 255
221 235 255
221 235 255
221 235 255
221 235 255
221 235 255
221 235 255
221 235 255
221 235 255
221 235 255
221 235 255
221 235 255
221 235 255
221 235 255
221 235 255
221 235 255
221 235 255
221 235 255
221 235 255
221 235 255
221 235 255
221 235 255
221 235 255
221 235 255
221 235 255
221 235 255
221 235 255
221 235 255
221 235 255
221 235 255
221 235 255
221 235 255
221 235 255
221 235 255
221 235 255
221 235 255
221 235 255
221 235 255
221 235 255
221 235 255
221 235 255
221 235 255
221 235 255
221 235 255
221 235 255
221 235 255
221 235 255
221 235 255
221 235 255
221 235 255
221 235 255
221 235 255
221 235 255
221 235 255
221 235 255
221 235 255
221 235 255
221 235 255
221 235 255
221 235 255
221 235 255
221 235 255
221 235 255
221 235 255
221 235 255
221 235 255
221 235 255
221 235 255
221 235 255
221 235 255
221 235 255
221 235 255
221 235 255
221 235 255
221 235 255
221 235 255
221 235 255
221 235 255
221 235 255
221 235 255
221 235 255
221 235 255
221 235 255
221 235 255
221 235 255
221 235 255
221 235 255
221 235 255
221 235 255
221 235 255
221 235 255
221 235 255
221 235 255
221 235 255
221 235 255
221 235 255
221 235 255
221 235 255
221 235 255
221 235 255
221 235 255
221 235 255
221 235 255
221 235 255
221 235 255
221 235 255
221 235 255
221 235 255
221 235 255
221 235 255
221 235 255
221 235 255
221 235 255
221 235 255
221 235 255
221 235 255
221 235 255
221 235 255
221 235 255
221 235 255
221 235 255
221 235 255
221 235 255
221 235 255
221 235 255
221 235 255
221 235 255
221 235 255
221 235 255
221 235 255
221 235 255
221 235 255
221 235 255
221 235 255
221 235 255
221 235 255
221 235 255
221 235 255
221 235 255
221 235 255
221 235 255
221 235 255
221 235 255
221 235 255
221 235 255
221 235 255
221 235 255
221 235 255
221 235 255
221 235 255
221 235 255
221 235 255
221 235 255
221 235 255
221 235 255
221 235 255
221 235 255
221 235 255
221 235 255
221 235 255
221 235 255
221 235 255
221 235 255
221 235 255
221 235 255
221 235 255
221 235 255
221 235 255
221 235 255
221 235 255
221 235 255
221 235 255
221 235 255
221 235 255
221 235 255
221 235 255
221 235 255
221 235 255
221 235 255
221 235 255
221 235 255
221 235 255
221 235 255
221 235 255
221 235 255
221 235 255
221 235 255
221 235 255
221 235 255
221 235 255
221 235 255
221 235 255
221 235 255
221 235 255
221 235 255
221 235 255
221 235 255
221 235 255
221 235 255
221 235 255
221 235 255
221 235 255
221 235 255
221 235 255
221 235 255
221 235 255
221 235 255
221 235 255
221 235 255
221 235 255
221 235 255
221 235 255
221 235 255
221 235 255
221 235 255
221 235 255
221 235 255
221 235 255
221 235 255
221 235 255
44 47 51
5 5 6
5 5 6
4 5 6
4 5 6
4 5 6
5 5 6
5 5 6
4 5 5
5 5 6
4 5 5
4 5 5
5 5 6
5 5 6
5 5 6
4 5 5
4 5 5
4 5 5
4 5 6
5 5 6
4 5 5
4 5 6
4 5 5
4 5 5
4 5 5
4 5 6
4 5 5
4 5 6
4 5 5
5 5 6
4 5 5
4 5 6
4 5 5
5 5 6
5 5 6
5 5 6
4 5 6
4 5 6
5 5 6
4 5 5
4 5 6
4 5 6
5 5 6
5 5 6
4 5 6
5 5 6
4 5 5
4 5 5
5 5 6
5 5 6
4 5 6
5 5 6
4 5 6
4 5 6
5 5 6
5 5 6
4 5 5
5 5 6
5 5 6
5 5 6
4 5 5
4 5 5
4 5 5
5 5 6
4 5 5
4 5 5
5 6 6
5 5 6
5 5 6
4 5 6
5 5 6
4 5 6
4 5 5
4 5 6
5 5 6
4 5 6
4 5 5
5 5 6
5 6 6
5 5 6
4 5 5
4 5 6
5 5 6
5 5 6
4 5 6
5 5 6
5 5 6
4 5 6
5 5 6
4 5 5
5 5 6
5 5 6
4 5 5
4 4 5
4 4 5
5 5 6
4 5 5
4 5 6
4 5 5
5 5 6
5 5 6
5 5 6
5 5 6
5 5 6
5 5 6
4 5 6
4 5 5
4 5 6
5 5 6
5 5 6
5 5 6
5 5 6
4 4 5
5 5 6
5 5 6
5 5 6
4 5 5
4 5 5
5 5 6
5 5 6
4 5 5
4 5 6
5 5 6
4 4 5
4 5 5
4 5 6
4 5 6
5 5 6
5 5 6
54 58 63
221 235 255
221 235 255
221 235 255
221 235 255
221 235 255
221 235 255
221 235 255
221 235 255
221 235 255
221 235 255
221 235 255
221 235 255
221 235 255
221 235 255
221 235 255
221 235 255
221 235 255
221 235 255
221 235 255
221 235 255
221 235 255
221 235 255
221 235 255
221 235 255
221 235 255
221 235 255
221 235 255
221 235 255
221 235 255
221 235 255
221 235 255
221 235 255
221 235 255
221 235 255
221 235 255
221 235 255
221 235 255
221 235 255
221 235 255
221 235 255
221 235 255
221 235 255
221 235 255
221 235 255
221 235 255
221 235 255
221 235 255
221 235 255
221 235 255
221 235 255
221 235 255
221 235 255
221 235 255
221 235 255
221 235 255
221 235 255
221 235 255
221 235 255
221 235 255
221 235 255
221 235 255
221 235 255
221 235 255
221 235 255
221 235 255
221 235 255
221 235 255
221 235 255
221 235 255
221 235 255
221 235 255
221 235 255
221 235 255
221 235 255
221 235 255
221 235 255
221 235 255
221 235 255
221 235 255
221 235 255
221 235 255
221 235 255
221 235 255
221 235 255
221 235 255
221 235 255
221 235 255
221 235 255
221 235 255
221 235 255
221 235 255
221 235 255
221 235 255
221 235 255
221 235 255
221 235 255
221 235 255
221 235 255
221 235 255
221 235 255
221 235 255
221 235 255
221 235 255
221 235 255
221 235 255
221 235 255
221 235 255
221 235 255
221 235 255
221 235 255
221 235 255
221 235 255
221 235 255
221 235 255
221 235 255
221 235 255
221 235 255
221 235 255
221 235 255
221 235 255
221 235 255
221 235 255
221 235 255
221 235 255
221 235 255
221 235 255
221 235 255
221 235 255
221 235 255
221 235 255
221 235 255
221 235 255
221 235 255
221 235 255
221 235 255
221 236 255
221 236 255
221 236 255
221 236 255
221 236 255
221 236 255
221 236 255
221 236 255
221 236 255
221 236 255
221 236 255
221 236 255
221 236 255
221 236 255
221 236 255
221 236 255
221 236 255
221 236 255
221 236 255
221 236 255
221 236 255
221 236 255
221 236 255
221 236 255
221 236 255
221 236 255
221 236 255
221 236 255
221 236 255
221 236 255
221 236 255
221 236 255
221 236 255
221 236 255
221 236 255
221 236 255
221 236 255
221 236 255
221 236 255
221 236 255
221 236 255
221 236 255
221 236 255
221 236 255
221 236 255
221 236 255
221 236 255
221 236 255
221 236 255
221 236 255
221 236 255
221 236 255
221 236 255
221 236 255
221 236 255
221 236 255
221 236 255
221 236 255
221 236 255
221 236 255
221 236 255
221 236 255
221 236 255
221 236 255
221 236 255
221 236 255
221 236 255
221 236 255
221 236 255
221 236 255
221 236 255
221 236 255
221 236 255
221 236 255
221 236 255
221 236 255
221 236 255
221 236 255
221 236 255
221 236 255
221 236 255
221 236 255
221 236 255
221 236 255
221 236 255
221 236 255
221 236 255
221 236 255
221 236 255
221 236 255
221 236 255
221 236 255
221 236 255
221 236 255
221 236 255
221 236 255
221 236 255
221 236 255
221 236 255
221 236 255
221 236 255
221 236 255
221 236 255
221 236 255
221 236 255
221 236 255
221 236 255
221 236 255
221 236 255
221 236 255
221 236 255
221 236 255
221 236 255
221 236 255
221 236 255
221 236 255
221 236 255
221 236 255
221 236 255
221 236 255
221 236 255
221 236 255
221 236 255
221 236 255
221 236 255
221 236 255
221 236 255
221 236 255
221 236 255
221 236 255
221 236 255
221 236 255
221 236 255
221 236 255
221 236 255
54 58 62
4 5 6
5 5 6
4 5 5
4 5 6
4 5 6
4 5 5
5 5 6
5 5 6
5 5 6
5 5 6
4 5 6
5 5 6
4 5 6
4 5 5
4 5 5
4 5 6
4 5 5
4 5 5
5 5 6
4 4 5
4 5 6
4 5 6
4 4 5
4 5 5
5 5 6
5 5 6
4 5 6
4 5 5
5 5 6
5 5 6
4 5 5
5 5 6
5 5 6
4 5 5
4 5 6
5 5 6
4 4 5
5 5 6
4 5 5
4 5 5
4 5 5
5 5 6
4 5 6
4 5 5
4 4 5
4 5 5
4 5 6
4 5 5
4 5 6
5 5 6
5 5 6
4 5 5
4 5 6
4 4 5
5 5 6
5 5 6
5 5 6
5 5 6
5 5 6
5 5 6
5 5 6
5 5 6
5 5 6
4 4 5
4 5 6
4 5 6
5 5 6
4 5 5
4 5 6
5 5 6
5 5 6
4 5 6
4 5 6
4 5 6
5 5 6
5 5 6
4 5 6
4 5 6
5 5 6
4 5 6
5 5 6
4 5 5
4 5 6
4 5 6
4 4 5
4 5 5
5 5 6
4 5 6
5 5 6
5 5 6
4 5 5
4 5 6
4 5 5
5 5 6
4 4 5
4 5 6
4 5 6
4 5 6
4 5 6
5 6 6
4 5 6
5 5 6
5 6 6
5 5 6
4 4 5
5 5 6
5 5 6
5 5 6
5 5 6
4 5 5
4 5 5
4 5 6
4 5 5
4 5 5
5 5 6
4 5 6
4 5 5
4 5 6
4 5 5
4 5 6
5 5 6
4 5 5
4 5 5
5 5 6
5 5 6
5 5 6
5 5 6
4 5 5
44 47 51
221 236 255
221 236 255
221 236 255
221 236 255
221 236 255
221 236 255
221 236 255
221 236 255
221 236 255
221 236 255
221 236 255
221 236 255
221 236 255
221 236 255
221 236 255
221 236 255
221 236 255
221 236 255
221 236 255
221 236 255
221 236 255
221 236 255
221 236 255
221 236 255
221 236 255
221 236 255
221 236 255
221 236 255
221 236 255
221 236 255
221 236 255
221 236 255
221 236 255
221 236 255
221 236 255
221 236 255
221 236 255
221 236 255
221 236 255
221 236 255
221 236 255
221 236 255
221 236 255
221 236 255
221 236 255
221 236 255
221 236 255
221 236 255
221 236 255
221 236 255
221 236 255
221 236 255
221 236 255
221 236 255
221 236 255
221 236 255
221 236 255
221 236 255
221 236 255
221 236 255
221 236 255
221 236 255
221 236 255
221 236 255
221 236 255
221 236 255
221 236 255
221 236 255
221 236 255
221 236 255
221 236 255
221 236 255
221 236 255
221 236 255
221 236 255
221 236 255
221 236 255
221 236 255
221 236 255
221 236 255
221 236 255
221 236 255
221 236 255
221 236 255
221 236 255
221 236 255
221 236 255
221 236 255
221 236 255
221 236 255
221 236 255
221 236 255
221 236 255
221 236 255
221 236 255
221 236 255
221 236 255
221 236 255
221 236 255
221 236 255
221 236 255
221 236 255
221 236 255
221 236 255
221 236 255
221 236 255
221 236 255
221 236 255
221 236 255
221 236 255
221 236 255
221 236 255
221 236 255
221 236 255
221 236 255
221 236 255
221 236 255
221 236 255
221 236 255
221 236 255
221 236 255
221 236 255
221 236 255
221 236 255
221 236 255
221 236 255
221 236 255
221 236 255
221 236 255
221 236 255
221 236 255
221 236 255
221 236 255
221 236 255
221 236 255
221 236 255
221 236 255
221 236 255
221 236 255
221 236 255
221 236 255
221 236 255
221 236 255
221 236 255
221 236 255
221 236 255
221 236 255
221 236 255
221 236 255
221 236 255
221 236 255
221 236 255
221 236 255
221 236 255
221 236 255
221 236 255
221 236 255
221 236 255
221 236 255
221 236 255
221 236 255
221 236 255
221 236 255
221 236 255
221 236 255
221 236 255
221 236 255
221 236 255
221 236 255
221 236 255
221 236 255
221 236 255
221 236 255
221 236 255
221 236 255
221 236 255
221 236 255
221 236 255
221 236 255
221 236 255
221 236 255
221 236 255
221 236 255
221 236 255
221 236 255
221 236 255
221 236 255
221 236 255
221 236 255
221 236 255
221 236 255
221 236 255
221 236 255
221 236 255
221 236 255
221 236 255
221 236 255
221 236 255
221 236 255
221 236 255
221 236 255
221 236 255
221 236 255
221 236 255
221 236 255
221 236 255
221 236 255
221 236 255
221 236 255
221 236 255
221 236 255
221 236 255
221 236 255
221 236 255
221 236 255
221 236 255
221 236 255
221 236 255
221 236 255
221 236 255
221 236 255
221 236 255
221 236 255
221 236 255
221 236 255
221 236 255
221 236 255
221 236 255
221 236 255
221 236 255
221 236 255
221 236 255
221 236 255
221 236 255
221 236 255
221 236 255
221 236 255
221 236 255
221 236 255
221 236 255
221 236 255
221 236 255
221 236 255
221 236 255
221 236 255
221 236 255
221 236 255
221 236 255
221 236 255
221 236 255
221 236 255
221 236 255
221 236 255
221 236 255
221 236 255
221 236 255
221 236 255
221 236 255
221 236 255
221 236 255
221 236 255
221 236 255
221 236 255
221 236 255
221 236 255
221 236 255
221 236 255
221 236 255
221 236 255
221 236 255
83 88 95
4 5 6
5 5 6
5 5 6
4 5 5
4 5 5
4 4 5
4 5 6
5 5 6
4 5 5
4 5 5
4 5 6
5 5 6
4 5 6
5 5 6
4 5 6
5 5 6
4 5 5
5 5 6
5 5 6
4 5 6
4 5 6
5 5 6
5 5 6
4 5 5
4 5 5
4 5 5
4 5 5
4 5 6
5 5 6
4 5 6
4 5 5
5 5 6
4 5 5
4 5 5
4 4 5
4 5 6
4 5 5
4 5 5
5 5 6
4 5 5
5 5 6
4 5 5
5 5 6
4 5 5
5 5 6
4 5 6
4 5 6
5 5 6
5 5 6
4 5 6
5 5 6
4 5 6
4 4 5
4 5 5
4 5 5
4 5 5
4 4 5
5 5 6
5 5 6
5 5 6
4 4 5
4 5 5
5 5 6
4 5 6
4 5 5
4 5 5
4 5 5
4 5 5
4 5 6
4 5 6
5 5 6
4 5 6
4 4 5
4 5 5
4 5 5
4 5 5
5 5 6
4 5 5
4 5 5
4 5 5
4 5 5
4 4 5
5 5 6
5 5 6
4 5 6
5 5 6
4 5 5
4 5 5
4 5 6
5 5 6
5 5 6
4 5 5
4 5 5
4 5 6
5 5 6
5 5 6
4 5 5
5 5 6
4 5 5
5 5 6
4 5 5
4 5 5
5 5 6
4 5 6
4 5 6
4 5 6
5 5 6
4 5 6
4 5 6
4 5 6
4 5 6
4 5 5
4 5 5
4 5 6
4 5 5
4 5 6
4 5 6
5 5 6
4 5 6
4 5 5
4 5 5
4 5 6
4 5 5
5 5 6
5 5 6
5 5 6
4 5 6
4 5 6
49 53 57
221 236 255
221 236 255
221 236 255
221 236 255
221 236 255
221 236 255
221 236 255
221 236 255
221 236 255
221 236 255
221 236 255
221 236 255
221 236 255
221 236 255
221 236 255
221 236 255
221 236 255
221 236 255
221 236 255
221 236 255
221 236 255
221 236 255
221 236 255
221 236 255
221 236 255
221 236 255
221 236 255
221 236 255
221 236 255
221 236 255
221 236 255
221 236 255
221 236 255
221 236 255
221 236 255
221 236 255
221 236 255
221 236 255
221 236 255
221 236 255
221 236 255
221 236 255
221 236 255
221 236 255
221 236 255
221 236 255
221 236 255
221 236 255
221 236 255
221 236 255
221 236 255
221 236 255
221 236 255
221 236 255
221 236 255
221 236 255
221 236 255
221 236 255
221 236 255
221 236 255
221 236 255
221 236 255
221 236 255
221 236 255
221 236 255
221 236 255
221 236 255
221 236 255
221 236 255
221 236 255
221 236 255
221 236 255
221 236 255
221 236 255
221 236 255
221 236 255
221 236 255
221 236 255
221 236 255
221 236 255
221 236 255
221 236 255
221 236 255
221 236 255
221 236 255
221 236 255
221 236 255
221 236 255
221 236 255
221 236 255
221 236 255
221 236 255
221 236 255
221 236 255
221 236 255
221 236 255
221 236 255
221 236 255
221 236 255
221 236 255
221 236 255
221 236 255
221 236 255
221 236 255
221 236 255
221 236 255
221 236 255
221 236 255
221 236 255
221 236 255
221 236 255
221 236 255
221 236 255
221 236 255
221 236 255
221 236 255
221 236 255
221 236 255
221 236 255
221 236 255
221 236 255
221 236 255
221 236 255
221 236 255
221 236 255
221 236 255
221 236 255
221 236 255
221 236 255
221 236 255
221 236 255
221 236 255
221 236 255
221 236 255
221 236 255
222 236 255
222 236 255
222 236 255
222 236 255
222 236 255
222 236 255
222 236 255
222 236 255
222 236 255
222 236 255
222 236 255
222 236 255
222 236 255
222 236 255
222 236 255
222 236 255
222 236 255
222 236 255
222 236 255
222 236 255
222 236 255
222 236 255
222 236 255
222 236 255
222 236 255
222 236 255
222 236 255
222 236 255
222 236 255
222 236 255
222 236 255
222 236 255
222 236 255
222 236 255
222 236 255
222 236 255
222 236 255
222 236 255
222 236 255
222 236 255
222 236 255
222 236 255
222 236 255
222 236 255
222 236 255
222 236 255
222 236 255
222 236 255
222 236 255
222 236 255
222 236 255
222 236 255
222 236 255
222 236 255
222 236 255
222 236 255
222 236 255
222 236 255
222 236 255
222 236 255
222 236 255
222 236 255
222 236 255
222 236 255
222 236 255
222 236 255
222 236 255
222 236 255
222 236 255
222 236 255
222 236 255
222 236 255
222 236 255
222 236 255
222 236 255
222 236 255
222 236 255
222 236 255
222 236 255
222 236 255
222 236 255
222 236 255
222 236 255
222 236 255
222 236 255
222 236 255
222 236 255
222 236 255
222 236 255
222 236 255
222 236 255
222 236 255
222 236 255
222 236 255
222 236 255
222 236 255
222 236 255
222 236 255
222 236 255
222 236 255
222 236 255
222 236 255
222 236 255
222 236 255
222 236 255
222 236 255
222 236 255
222 236 255
222 236 255
222 236 255
222 236 255
222 236 255
222 236 255
222 236 255
222 236 255
222 236 255
222 236 255
222 236 255
222 236 255
222 236 255
222 236 255
222 236 255
222 236 255
222 236 255
222 236 255
222 236 255
222 236 255
222 236 255
222 236 255
222 236 255
222 236 255
222 236 255
222 236 255
222 236 255
222 236 255
59 62 67
5 5 6
4 5 5
5 5 6
5 5 6
5 5 6
5 5 6
4 5 5
4 5 6
5 5 6
4 5 5
4 5 5
4 5 5
5 5 6
4 5 5
4 5 5
4 5 5
4 5 6
4 5 6
5 5 6
4 5 5
4 5 5
4 5 6
5 5 6
5 5 6
4 5 6
5 5 6
5 5 6
4 5 5
5 5 6
4 5 6
4 5 5
4 5 5
5 5 6
4 5 6
4 5 5
4 5 5
4 5 6
5 5 6
4 5 5
4 5 6
4 5 5
4 5 5
4 5 5
4 5 6
5 5 6
4 5 5
4 5 6
4 5 5
4 5 5
4 5 6
4 5 5
5 5 6
5 5 6
4 4 4
4 5 6
4 4 5
5 5 6
4 5 5
4 5 5
4 5 6
4 5 5
5 5 6
4 5 6
4 5 6
5 5 6
4 5 5
5 5 6
4 5 6
5 5 6
4 5 5
4 5 6
5 5 6
5 5 6
5 5 6
4 5 5
4 5 5
4 5 5
5 5 6
4 5 6
4 5 5
4 5 5
5 5 6
4 5 5
4 5 5
4 5 5
4 5 6
4 5 5
4 5 6
5 5 6
5 5 6
4 5 5
5 5 6
5 5 6
5 5 6
5 5 6
4 5 5
4 5 6
4 5 5
5 5 6
5 5 6
4 5 6
4 5 6
5 5 6
4 5 6
5 5 6
4 5 5
5 5 6
4 5 5
4 5 6
4 5 5
4 5 6
5 5 6
5 5 6
4 5 5
4 5 5
5 5 6
4 4 5
5 5 6
4 5 5
5 5 6
4 4 5
4 5 5
4 5 6
4 5 6
5 5 6
4 5 5
4 5 6
5 5 6
63 67 72
222 236 255
222 236 255
222 236 255
222 236 255
222 236 255
222 236 255
222 236 255
222 236 255
222 236 255
222 236 255
222 236 255
222 236 255
222 236 255
222 236 255
222 236 255
222 236 255
222 236 255
222 236 255
222 236 255
222 236 255
222 236 255
222 236 255
222 236 255
222 236 255
222 236 255
222 236 255
222 236 255
222 236 255
222 236 255
222 236 255
222 236 255
222 236 255
222 236 255
222 236 255
222 236 255
222 236 255
222 236 255
222 236 255
222 236 255
222 236 255
222 236 255
222 236 255
222 236 255
222 236 255
222 236 255
222 236 255
222 236 255
222 236 255
222 236 255
222 236 255
222 236 255
222 236 255
222 236 255
222 236 255
222 236 255
222 236 255
222 236 255
222 236 255
222 236 255
222 236 255
222 236 255
222 236 255
222 236 255
222 236 255
222 236 255
222 236 255
222 236 255
222 236 255
222 236 255
222 236 255
222 236 255
222 236 255
222 236 255
222 236 255
222 236 255
222 236 255
222 236 255
222 236 255
222 236 255
222 236 255
222 236 255
222 236 255
222 236 255
222 236 255
222 236 255
222 236 255
222 236 255
222 236 255
222 236 255
222 236 255
222 236 255
222 236 255
222 236 255
222 236 255
222 236 255
222 236 255
222 236 255
222 236 255
222 236 255
222 236 255
222 236 255
222 236 255
222 236 255
222 236 255
222 236 255
222 236 255
222 236 255
222 236 255
222 236 255
222 236 255
222 236 255
222 236 255
222 236 255
222 236 255
222 236 255
222 236 255
222 236 255
222 236 255
222 236 255
222 236 255
222 236 255
222 236 255
222 236 255
222 236 255
222 236 255
222 236 255
222 236 255
222 236 255
222 236 255
222 236 255
222 236 255
222 236 255
222 236 255
222 236 255
222 236 255
222 236 255
222 236 255
222 236 255
222 236 255
222 236 255
222 236 255
222 236 255
222 236 255
222 236 255
222 236 255
222 236 255
222 236 255
222 236 255
222 236 255
222 236 255
222 236 255
222 236 255
222 236 255
222 236 255
222 236 255
222 236 255
222 236 255
222 236 255
222 236 255
222 236 255
222 236 255
222 236 255
222 236 255
222 236 255
222 236 255
222 236 255
222 236 255
222 236 255
222 236 255
222 236 255
222 236 255
222 236 255
222 236 255
222 236 255
222 236 255
222 236 255
222 236 255
222 236 255
222 236 255
222 236 255
222 236 255
222 236 255
222 236 255
222 236 255
222 236 255
222 236 255
222 236 255
222 236 255
222 236 255
222 236 255
222 236 255
222 236 255
222 236 255
222 236 255
222 236 255
222 236 255
222 236 255
222 236 255
222 236 255
222 236 255
222 236 255
222 236 255
222 236 255
222 236 255
222 236 255
222 236 255
222 236 255
222 236 255
222 236 255
222 236 255
222 236 255
222 236 255
222 236 255
222 236 255
222 236 255
222 236 255
222 236 255
222 236 255
222 236 255
222 236 255
222 236 255
222 236 255
222 236 255
222 236 255
222 236 255
222 236 255
222 236 255
222 236 255
222 236 255
222 236 255
222 236 255
222 236 255
222 236 255
222 236 255
222 236 255
222 236 255
222 236 255
222 236 255
222 236 255
222 236 255
222 236 255
222 236 255
222 236 255
222 236 255
222 236 255
222 236 255
222 236 255
222 236 255
222 236 255
222 236 255
222 236 255
222 236 255
222 236 255
222 236 255
222 236 255
222 236 255
222 236 255
222 236 255
222 236 255
222 236 255
222 236 255
222 236 255
222 236 255
222 236 255
222 236 255
222 236 255
222 236 255
222 236 255
222 236 255
222 236 255
83 88 95
4 5 5
4 5 6
4 5 5
5 5 6
5 5 6
5 5 6
4 5 5
5 5 6
5 5 6
4 5 5
4 5 5
5 5 6
4 5 6
4 5 5
4 5 5
4 5 5
4 5 5
4 5 5
5 5 6
5 5 6
4 5 5
4 5 5
5 5 6
5 5 6
4 5 5
4 5 5
4 5 5
4 4 5
5 5 6
4 5 5
4 5 5
4 5 6
4 5 6
4 5 6
4 5 6
4 5 6
4 5 5
5 5 6
5 5 6
4 5 6
4 5 5
4 5 6
4 4 5
4 5 5
5 5 6
4 5 6
4 5 6
4 5 5
4 5 6
4 5 5
4 5 5
4 5 5
4 5 6
4 5 5
4 5 5
5 5 6
4 5 6
4 5 6
5 5 6
4 5 6
5 5 6
5 5 6
4 5 5
4 4 5
4 5 6
4 5 5
5 5 6
4 5 5
4 5 6
5 5 6
4 5 6
4 4 5
4 5 5
4 5 6
4 5 5
5 5 6
5 5 6
4 5 5
4 5 6
5 5 6
4 5 6
4 5 5
4 5 5
5 5 6
5 5 6
4 5 5
4 5 5
4 5 6
5 5 6
4 5 6
4 5 6
4 5 5
4 4 5
4 5 5
5 5 6
5 5 6
4 5 5
4 5 5
4 5 6
4 5 5
5 5 6
4 5 5
4 5 5
4 4 5
4 5 5
5 5 6
4 5 5
4 5 6
4 5 5
4 5 5
4 5 6
5 5 6
4 5 5
4 4 5
4 5 6
5 5 6
4 5 5
4 5 5
4 5 5
4 5 6
4 5 6
4 5 6
4 5 5
4 5 5
4 5 5
5 5 6
5 5 6
4 4 5
83 88 95
222 236 255
222 236 255
222 236 255
222 236 255
222 236 255
222 236 255
222 236 255
222 236 255
222 236 255
222 236 255
222 236 255
222 236 255
222 236 255
222 236 255
222 236 255
222 236 255
222 236 255
222 236 255
222 236 255
222 236 255
222 236 255
222 236 255
222 236 255
222 236 255
222 236 255
222 236 255
222 236 255
222 236 255
222 236 255
222 236 255
222 236 255
222 236 255
222 236 255
222 236 255
222 236 255
222 236 255
222 236 255
222 236 255
222 236 255
222 236 255
222 236 255
222 236 255
222 236 255
222 236 255
222 236 255
222 236 255
222 236 255
222 236 255
222 236 255
222 236 255
222 236 255
222 236 255
222 236 255
222 236 255
222 236 255
222 236 255
222 236 255
222 236 255
222 236 255
222 236 255
222 236 255
222 236 255
222 236 255
222 236 255
222 236 255
222 236 255
222 236 255
222 236 255
222 236 255
222 236 255
222 236 255
222 236 255
222 236 255
222 236 255
222 236 255
222 236 255
222 236 255
222 236 255
222 236 255
222 236 255
222 236 255
222 236 255
222 236 255
222 236 255
222 236 255
222 236 255
222 236 255
222 236 255
222 236 255
222 236 255
222 236 255
222 236 255
222 236 255
222 236 255
222 236 255
222 236 255
222 236 255
222 236 255
222 236 255
222 236 255
222 236 255
222 236 255
222 236 255
222 236 255
222 236 255
222 236 255
222 236 255
222 236 255
222 236 255
222 236 255
222 236 255
222 236 255
222 236 255
222 236 255
222 236 255
222 236 255
222 236 255
222 236 255
222 236 255
222 236 255
222 236 255
222 236 255
222 236 255
222 236 255
222 236 255
222 236 255
222 236 255
222 236 255
222 236 255
222 236 255
222 236 255
222 236 255
222 236 255
222 236 255
222 236 255
222 236 255
222 236 255
222 236 255
222 236 255
222 236 255
222 236 255
222 236 255
222 236 255
222 236 255
222 236 255
222 236 255
222 236 255
222 236 255
222 236 255
222 236 255
222 236 255
222 236 255
222 236 255
222 236 255
222 236 255
222 236 255
222 236 255
222 236 255
222 236 255
222 236 255
222 236 255
222 236 255
222 236 255
222 236 255
222 236 255
222 236 255
222 236 255
222 236 255
222 236 255
222 236 255
222 236 255
222 236 255
222 236 255
222 236 255
222 236 255
222 236 255
222 236 255
222 236 255
222 236 255
222 236 255
222 236 255
222 236 255
222 236 255
222 236 255
222 236 255
222 236 255
222 236 255
222 236 255
222 236 255
222 236 255
222 236 255
222 236 255
222 236 255
222 236 255
222 236 255
222 236 255
222 236 255
222 236 255
222 236 255
222 236 255
222 236 255
222 236 255
222 236 255
222 236 255
222 236 255
222 236 255
222 236 255
222 236 255
222 236 255
222 236 255
222 236 255
222 236 255
222 236 255
222 236 255
222 236 255
222 236 255
222 236 255
222 236 255
222 236 255
222 236 255
222 236 255
222 236 255
222 236 255
222 236 255
222 236 255
222 236 255
222 236 255
222 236 255
222 236 255
222 236 255
222 236 255
222 236 255
222 236 255
222 236 255
222 236 255
222 236 255
222 236 255
222 236 255
222 236 255
222 236 255
222 236 255
222 236 255
222 236 255
222 236 255
222 236 255
222 236 255
222 236 255
222 236 255
222 236 255
222 236 255
222 236 255
222 236 255
222 236 255
222 236 255
222 236 255
222 236 255
222 236 255
222 236 255
222 236 255
222 236 255
222 236 255
222 236 255
222 236 255
222 236 255
222 236 255
222 236 255
222 236 255
222 236 255
222 236 255
222 236 255
91 97 105
4 5 6
4 5 6
5 5 6
4 5 6
4 4 5
5 5 6
4 5 5
4 5 5
4 5 5
4 5 5
4 5 5
5 5 6
4 5 5
4 5 6
4 5 6
5 5 6
4 5 6
4 5 5
4 5 6
4 5 6
5 5 6
5 5 6
4 5 5
4 5 6
4 5 5
4 5 5
4 5 5
5 5 6
4 5 5
4 5 6
5 5 6
4 5 6
5 5 6
4 5 6
5 5 6
4 5 5
5 5 6
4 4 5
4 5 5
4 5 6
4 4 5
4 5 5
5 5 6
5 5 6
4 5 5
5 5 6
4 4 5
4 4 5
4 5 5
4 4 5
4 5 6
4 5 6
4 5 6
4 5 6
4 5 6
4 5 5
4 5 6
4 5 5
4 5 5
4 5 5
5 5 6
5 5 6
4 5 5
4 5 5
4 5 5
5 5 6
4 5 5
5 5 6
4 5 5
4 5 5
5 5 6
4 5 5
4 4 5
4 5 5
4 5 6
5 5 6
4 5 6
4 5 5
4 4 5
5 5 6
4 5 5
4 5 5
4 5 5
4 5 6
4 5 5
4 5 6
5 5 6
5 5 6
5 6 6
4 5 5
4 5 5
5 5 6
4 5 5
4 4 5
4 5 6
5 5 6
4 5 5
4 4 5
5 5 6
5 5 6
4 5 5
4 5 5
4 5 5
4 5 5
4 5 5
5 5 6
4 5 6
4 5 5
4 5 6
4 5 5
4 5 5
5 5 6
4 4 5
4 5 5
4 5 5
4 5 5
4 5 5
5 5 6
4 5 5
4 5 5
4 4 5
4 5 5
4 5 5
5 5 6
4 4 5
4 4 5
4 5 5
4 5 5
94 100 108
222 236 255
222 236 255
222 236 255
222 236 255
222 236 255
222 236 255
222 236 255
222 236 255
222 236 255
222 236 255
222 236 255
222 236 255
222 236 255
222 236 255
222 236 255
222 236 255
222 236 255
222 236 255
222 236 255
222 236 255
222 236 255
222 236 255
222 236 255
222 236 255
222 236 255
222 236 255
222 236 255
222 236 255
222 236 255
222 236 255
222 236 255
222 236 255
222 236 255
222 236 255
222 236 255
222 236 255
222 236 255
222 236 255
222 236 255
222 236 255
222 236 255
222 236 255
222 236 255
222 236 255
222 236 255
222 236 255
222 236 255
222 236 255
222 236 255
222 236 255
222 236 255
222 236 255
222 236 255
222 236 255
222 236 255
222 236 255
222 236 255
222 236 255
222 236 255
222 236 255
222 236 255
222 236 255
222 236 255
222 236 255
222 236 255
222 236 255
222 236 255
222 236 255
222 236 255
222 236 255
222 236 255
222 236 255
222 236 255
222 236 255
222 236 255
222 236 255
222 236 255
222 236 255
222 236 255
222 236 255
222 236 255
222 236 255
222 236 255
222 236 255
222 236 255
222 236 255
222 236 255
222 236 255
222 236 255
222 236 255
222 236 255
222 236 255
222 236 255
222 236 255
222 236 255
222 236 255
222 236 255
222 236 255
222 236 255
222 236 255
222 236 255
222 236 255
222 236 255
222 236 255
222 236 255
222 236 255
222 236 255
222 236 255
222 236 255
222 236 255
222 236 255
222 236 255
222 236 255
222 236 255
222 236 255
222 236 255
222 236 255
222 236 255
222 236 255
222 236 255
222 236 255
222 236 255
222 236 255
222 236 255
222 236 255
222 236 255
222 236 255
222 236 255
222 236 255
222 236 255
222 236 255
222 236 255
222 236 255
222 236 255
222 236 255
222 236 255
222 236 255
222 236 255
222 236 255
222 236 255
222 236 255
222 236 255
222 236 255
222 236 255
222 236 255
222 236 255
222 236 255
222 236 255
222 236 255
222 236 255
222 236 255
222 236 255
222 236 255
222 236 255
222 236 255
222 236 255
222 236 255
222 236 255
222 236 255
222 236 255
222 236 255
222 236 255
222 236 255
222 236 255
222 236 255
222 236 255
222 236 255
222 236 255
222 236 255
222 236 255
222 236 255
222 236 255
222 236 255
222 236 255
222 236 255
222 236 255
222 236 255
222 236 255
222 236 255
222 236 255
222 236 255
222 236 255
222 236 255
222 236 255
222 236 255
222 236 255
222 236 255
222 236 255
222 236 255
222 236 255
222 236 255
222 236 255
222 236 255
222 236 255
222 236 255
222 236 255
222 236 255
222 236 255
222 236 255
222 236 255
222 236 255
222 236 255
222 236 255
222 236 255
222 236 255
222 236 255
222 236 255
222 236 255
222 236 255
222 236 255
222 236 255
222 236 255
222 236 255
222 236 255
222 236 255
222 236 255
222 236 255
222 236 255
222 236 255
222 236 255
222 236 255
222 236 255
222 236 255
222 236 255
222 236 255
222 236 255
222 236 255
222 236 255
222 236 255
222 236 255
222 236 255
222 236 255
222 236 255
222 236 255
222 236 255
222 236 255
222 236 255
222 236 255
222 236 255
222 236 255
222 236 255
222 236 255
222 236 255
222 236 255
222 236 255
222 236 255
222 236 255
222 236 255
222 236 255
223 236 255
222 236 255
223 236 255
223 236 255
223 236 255
223 236 255
223 236 255
223 236 255
223 236 255
223 236 255
223 236 255
223 236 255
223 236 255
223 236 255
223 236 255
223 236 255
223 236 255
223 236 255
223 236 255
223 236 255
223 236 255
111 118 128
4 5 5
5 5 6
4 5 5
4 4 5
4 5 5
4 5 5
4 5 5
4 4 5
5 5 6
5 5 6
4 5 5
4 5 5
4 5 5
4 5 5
4 4 5
4 5 6
4 5 6
4 5 5
5 5 6
4 5 6
4 5 6
4 5 5
4 5 5
4 4 5
5 5 6
4 5 5
5 5 6
4 5 5
4 5 5
5 5 6
4 5 5
4 5 5
5 5 6
4 5 6
4 5 5
4 5 6
4 5 6
4 5 6
4 5 5
4 5 5
4 5 5
5 5 6
5 5 6
4 5 5
4 5 6
4 5 5
5 5 6
4 5 5
4 5 6
4 5 5
4 5 5
4 4 5
5 5 6
4 4 5
4 5 5
4 5 5
4 5 5
4 5 5
5 5 6
4 5 6
5 5 6
4 5 5
4 5 5
4 5 6
5 5 6
5 5 6
4 5 6
4 5 6
4 5 5
4 5 6
5 5 6
4 5 5
4 5 5
4 5 5
5 5 6
5 5 6
4 5 6
4 5 5
5 5 6
4 5 5
4 5 6
4 5 6
4 5 6
5 5 6
4 5 5
4 5 5
4 5 5
4 5 5
4 4 5
4 5 6
4 5 6
5 5 6
4 5 5
4 5 5
4 5 5
4 5 5
4 5 6
4 5 5
5 5 6
4 5 5
4 5 6
4 5 5
4 5 6
4 4 5
5 5 6
5 5 6
4 4 5
4 5 5
4 4 5
5 5 6
4 4 5
5 5 6
4 5 5
4 5 5
5 5 6
4 5 5
4 5 6
4 5 6
4 5 6
4 5 6
4 5 5
4 5 5
4 5 6
4 5 5
4 5 5
4 5 5
5 5 6
4 4 5
116 123 133
223 236 255
223 236 255
223 236 255
223 236 255
223 236 255
223 236 255
223 236 255
223 236 255
223 236 255
223 236 255
223 236 255
223 236 255
223 236 255
223 236 255
223 236 255
223 236 255
223 236 255
223 236 255
223 236 255
222 236 255
223 236 255
223 236 255
222 236 255
222 236 255
222 236 255
222 236 255
222 236 255
222 236 255
222 236 255
222 236 255
222 236 255
222 236 255
222 236 255
222 236 255
222 236 255
222 236 255
222 236 255
222 236 255
222 236 255
222 236 255
222 236 255
222 236 255
222 236 255
222 236 255
222 236 255
222 236 255
222 236 255
222 236 255
222 236 255
222 236 255
222 236 255
222 236 255
222 236 255
222 236 255
222 236 255
222 236 255
222 236 255
222 236 255
222 236 255
222 236 255
222 236 255
222 236 255
222 236 255
222 236 255
222 236 255
222 236 255
222 236 255
222 236 255
222 236 255
222 236 255
222 236 255
222 236 255
222 236 255
222 236 255
222 236 255
222 236 255
222 236 255
222 236 255
222 236 255
222 236 255
222 236 255
222 236 255
222 236 255
222 236 255
222 236 255
222 236 255
222 236 255
222 236 255
222 236 255
222 236 255
222 236 255
222 236 255
222 236 255
222 236 255
222 236 255
222 236 255
222 236 255
222 236 255
222 236 255
222 236 255
222 236 255
222 236 255
222 236 255
222 236 255
222 236 255
222 236 255
222 236 255
222 236 255
222 236 255
222 236 255
222 236 255
222 236 255
222 236 255
222 236 255
222 236 255
222 236 255
222 236 255
222 236 255
222 236 255
222 236 255
222 236 255
222 236 255
222 236 255
222 236 255
222 236 255
222 236 255
222 236 255
222 236 255
222 236 255
222 236 255
222 236 255
222 236 255
222 236 255
222 236 255
222 236 255
222 236 255
222 236 255
222 236 255
222 236 255
222 236 255
222 236 255
222 236 255
222 236 255
222 236 255
222 236 255
222 236 255
222 236 255
222 236 255
222 236 255
222 236 255
222 236 255
222 236 255
222 236 255
222 236 255
222 236 255
222 236 255
222 236 255
222 236 255
222 236 255
222 236 255
222 236 255
222 236 255
222 236 255
222 236 255
222 236 255
222 236 255
222 236 255
222 236 255
222 236 255
222 236 255
222 236 255
222 236 255
222 236 255
222 236 255
222 236 255
222 236 255
222 236 255
222 236 255
222 236 255
222 236 255
222 236 255
222 236 255
222 236 255
222 236 255
222 236 255
222 236 255
222 236 255
222 236 255
222 236 255
222 236 255
222 236 255
222 236 255
222 236 255
222 236 255
222 236 255
222 236 255
222 236 255
222 236 255
222 236 255
222 236 255
222 236 255
222 236 255
222 236 255
222 236 255
222 236 255
222 236 255
222 236 255
222 236 255
223 236 255
223 236 255
223 236 255
223 236 255
223 236 255
223 236 255
223 236 255
223 236 255
223 236 255
223 236 255
223 236 255
223 236 255
223 236 255
223 236 255
223 236 255
223 236 255
223 236 255
223 236 255
223 236 255
223 236 255
223 236 255
223 236 255
223 236 255
223 236 255
223 236 255
223 236 255
223 236 255
223 236 255
223 236 255
223 236 255
223 236 255
223 236 255
223 236 255
223 236 255
223 236 255
223 236 255
223 236 255
223 236 255
223 236 255
223 236 255
223 236 255
223 236 255
223 236 255
223 236 255
223 236 255
223 236 255
223 236 255
223 236 255
223 236 255
223 236 255
223 236 255
223 236 255
223 236 255
223 236 255
223 236 255
223 236 255
223 236 255
223 236 255
223 236 255
223 236 255
223 236 255
223 236 255
132 140 151
4 4 5
4 5 5
4 5 5
4 5 6
4 5 5
4 5 5
4 5 6
4 5 5
4 4 5
5 5 6
4 5 5
4 5 5
4 4 5
4 5 5
5 5 6
4 5 5
4 4 5
5 5 6
5 5 6
4 5 5
4 5 5
4 5 6
4 5 5
5 5 6
5 5 6
5 5 6
5 5 6
5 5 6
4 5 6
4 5 5
4 5 6
4 5 5
4 5 5
4 5 6
4 4 5
5 5 6
4 5 5
4 5 5
4 5 5
4 4 5
4 5 6
5 5 6
4 5 5
4 5 6
4 5 6
4 5 5
4 5 5
4 4 5
4 5 6
4 5 6
4 4 5
5 5 6
4 4 5
4 5 6
4 5 6
4 5 5
4 5 5
4 5 5
4 5 6
4 5 5
5 5 6
4 5 6
4 4 5
5 5 6
4 5 5
4 5 5
4 5 5
4 5 5
5 5 6
5 5 6
5 5 6
4 5 6
4 4 5
4 4 5
4 5 5
4 5 5
4 5 5
4 5 5
4 5 5
4 5 6
4 5 5
4 5 6
4 4 5
4 5 6
4 5 6
4 5 6
5 5 6
4 5 6
4 5 5
4 5 5
4 5 5
4 5 6
4 4 5
4 4 5
4 5 5
5 5 6
4 5 6
5 5 6
4 5 5
4 5 5
4 5 5
5 5 6
4 5 5
5 5 6
5 5 6
5 5 6
4 5 5
4 4 5
4 4 5
5 5 6
4 5 5
4 5 5
4 5 5
4 5 5
4 5 5
4 5 6
4 5 5
4 5 5
4 5 6
4 5 5
4 5 5
5 5 6
4 4 5
4 5 5
5 5 6
4 5 5
4 5 5
5 5 6
144 153 165
223 236 255
223 236 255
223 236 255
223 236 255
223 236 255
223 236 255
223 236 255
223 236 255
223 236 255
223 236 255
223 236 255
223 236 255
223 236 255
223 236 255
223 236 255
223 236 255
223 236 255
223 236 255
223 236 255
223 236 255
223 236 255
223 236 255
223 236 255
223 236 255
223 236 255
223 236 255
223 236 255
223 236 255
223 236 255
223 236 255
223 236 255
223 236 255
223 236 255
223 236 255
223 236 255
223 236 255
223 236 255
223 236 255
223 236 255
223 236 255
223 236 255
223 236 255
223 236 255
223 236 255
223 236 255
223 236 255
223 236 255
223 236 255
223 236 255
223 236 255
223 236 255
223 236 255
223 236 255
223 236 255
223 236 255
223 236 255
223 236 255
223 236 255
223 236 255
223 236 255
223 236 255
223 236 255
223 236 255
222 236 255
222 236 255
222 236 255
222 236 255
222 236 255
222 236 255
222 236 255
222 236 255
222 236 255
222 236 255
222 236 255
222 236 255
222 236 255
222 236 255
222 236 255
222 236 255
222 236 255
222 236 255
222 236 255
222 236 255
222 236 255
222 236 255
222 236 255
222 236 255
222 236 255
222 236 255
222 236 255
222 236 255
222 236 255
222 236 255
222 236 255
222 236 255
222 236 255
222 236 255
222 236 255
222 236 255
222 236 255
222 236 255
222 236 255
222 236 255
222 236 255
222 236 255
222 236 255
222 236 255
222 236 255
222 236 255
222 236 255
222 236 255
222 236 255
222 236 255
222 236 255
222 236 255
222 236 255
222 236 255
222 236 255
222 236 255
222 236 255
222 236 255
222 236 255
222 236 255
222 236 255
222 236 255
222 236 255
222 236 255
222 236 255
222 236 255
222 236 255
222 236 255
222 236 255
222 236 255
222 236 255
222 236 255
222 236 255
222 236 255
222 236 255
222 236 255
222 236 255
222 236 255
222 236 255
222 236 255
222 236 255
222 236 255
222 236 255
222 236 255
222 236 255
222 236 255
222 236 255
222 236 255
222 236 255
222 236 255
222 236 255
222 236 255
222 236 255
222 236 255
222 236 255
222 236 255
222 236 255
222 236 255
222 236 255
222 236 255
222 236 255
222 236 255
222 236 255
222 236 255
222 236 255
222 236 255
222 236 255
222 236 255
222 236 255
223 236 255
223 236 255
223 236 255
223 236 255
223 236 255
223 236 255
223 236 255
223 236 255
223 236 255
223 236 255
223 236 255
223 236 255
223 236 255
223 236 255
223 236 255
223 236 255
223 236 255
223 236 255
223 236 255
223 236 255
223 236 255
223 236 255
223 236 255
223 236 255
223 236 255
223 236 255
223 236 255
223 236 255
223 236 255
223 236 255
223 236 255
223 236 255
223 236 255
223 236 255
223 236 255
223 236 255
223 236 255
223 236 255
223 236 255
223 236 255
223 236 255
223 236 255
223 236 255
223 236 255
223 236 255
223 236 255
223 236 255
223 236 255
223 236 255
223 236 255
223 236 255
223 236 255
223 236 255
223 236 255
223 236 255
223 236 255
223 236 255
223 236 255
223 236 255
223 236 255
223 236 255
223 236 255
223 236 255
223 236 255
223 236 255
223 236 255
223 237 255
223 237 255
223 237 255
223 237 255
223 237 255
223 237 255
223 237 255
223 237 255
223 237 255
223 237 255
223 237 255
223 237 255
223 237 255
223 237 255
223 237 255
223 237 255
223 237 255
223 237 255
223 237 255
223 237 255
223 237 255
223 237 255
223 237 255
223 237 255
223 237 255
223 237 255
223 237 255
223 237 255
223 237 255
223 237 255
223 237 255
223 237 255
158 167 181
4 4 5
5 5 6
4 5 5
4 5 5
4 5 5
4 5 5
4 5 5
4 5 5
4 4 5
4 5 6
5 5 6
5 5 6
4 5 5
5 5 6
4 4 5
4 5 6
4 5 6
4 5 6
4 4 5
4 5 5
4 5 5
4 5 5
5 5 6
4 5 5
4 5 6
4 5 5
4 5 6
4 5 5
5 5 6
4 5 6
4 5 5
4 5 5
4 5 5
4 5 5
4 5 5
5 5 6
5 5 6
4 5 6
4 5 5
4 5 5
4 5 5
5 5 6
4 5 6
5 5 6
4 5 5
4 4 5
5 5 6
4 4 5
4 5 5
4 5 5
4 5 6
4 5 5
4 5 5
4 4 5
4 5 5
5 5 6
5 5 6
4 5 6
4 5 5
4 5 5
4 5 5
4 4 5
4 5 5
4 5 5
4 5 6
4 5 6
4 5 5
4 5 5
4 5 6
4 5 5
4 5 5
4 5 5
4 4 5
5 5 6
4 5 5
4 5 5
4 5 5
4 5 5
4 5 5
4 4 5
4 5 5
4 5 6
4 5 5
4 5 5
5 5 6
4 5 5
4 5 5
4 5 5
4 5 6
4 5 6
4 5 5
5 5 6
4 4 5
4 5 5
4 5 5
4 5 5
4 4 5
4 5 5
4 5 5
5 5 6
4 5 5
4 5 5
4 5 5
4 5 5
4 5 5
4 5 6
4 4 5
4 4 5
4 5 6
4 5 6
4 5 5
4 5 5
4 5 5
4 5 5
4 5 5
4 4 5
4 5 5
4 5 6
4 5 5
4 5 6
4 4 5
5 5 6
5 5 6
4 5 5
5 5 6
5 5 6
4 5 5
5 5 6
164 174 188
223 237 255
223 237 255
223 237 255
223 237 255
223 237 255
223 237 255
223 237 255
223 237 255
223 237 255
223 237 255
223 237 255
223 237 255
223 237 255
223 237 255
223 237 255
223 237 255
223 237 255
223 237 255
223 237 255
223 237 255
223 237 255
223 237 255
223 237 255
223 237 255
223 237 255
223 237 255
223 237 255
223 237 255
223 237 255
223 237 255
223 237 255
223 237 255
223 236 255
223 236 255
223 236 255
223 236 255
223 236 255
223 236 255
223 236 255
223 236 255
223 236 255
223 236 255
223 236 255
223 236 255
223 236 255
223 236 255
223 236 255
223 236 255
223 236 255
223 236 255
223 236 255
223 236 255
223 236 255
223 236 255
223 236 255
223 236 255
223 236 255
223 236 255
223 236 255
223 236 255
223 236 255
223 236 255
223 236 255
223 236 255
223 236 255
223 236 255
223 236 255
223 236 255
223 236 255
223 236 255
223 236 255
223 236 255
223 236 255
223 236 255
223 236 255
223 236 255
223 236 255
223 236 255
223 236 255
223 236 255
223 236 255
223 236 255
223 236 255
223 236 255
223 236 255
223 236 255
223 236 255
223 236 255
223 236 255
223 236 255
223 236 255
223 236 255
223 236 255
223 236 255
223 236 255
223 236 255
223 236 255
223 236 255
222 236 255
223 236 255
222 236 255
222 236 255
222 236 255
222 236 255
222 236 255
222 236 255
222 236 255
222 236 255
222 236 255
222 236 255
222 236 255
222 236 255
222 236 255
222 236 255
222 236 255
222 236 255
222 236 255
222 236 255
222 236 255
222 236 255
222 236 255
222 236 255
222 236 255
222 236 255
222 236 255
222 236 255
222 236 255
222 236 255
222 236 255
222 236 255
222 236 255
222 236 255
222 236 255
222 236 255
222 236 255
222 236 255
222 236 255
222 236 255
223 236 255
223 236 255
223 236 255
223 236 255
223 236 255
223 236 255
223 236 255
223 236 255
223 236 255
223 236 255
223 236 255
223 236 255
223 236 255
223 236 255
223 236 255
223 236 255
223 236 255
223 236 255
223 236 255
223 236 255
223 236 255
223 236 255
223 236 255
223 236 255
223 236 255
223 236 255
223 236 255
223 236 255
223 236 255
223 236 255
223 236 255
223 236 255
223 236 255
223 236 255
223 236 255
223 236 255
223 236 255
223 236 255
223 236 255
223 236 255
223 236 255
223 236 255
223 236 255
223 236 255
223 236 255
223 236 255
223 236 255
223 236 255
223 236 255
223 236 255
223 236 255
223 236 255
223 236 255
223 236 255
223 236 255
223 236 255
223 236 255
223 236 255
223 236 255
223 236 255
223 236 255
223 236 255
223 236 255
223 236 255
223 236 255
223 236 255
223 236 255
223 236 255
223 236 255
223 236 255
223 236 255
223 237 255
223 237 255
223 237 255
223 237 255
223 237 255
223 237 255
223 237 255
223 237 255
223 237 255
223 237 255
223 237 255
223 237 255
223 237 255
223 237 255
223 237 255
223 237 255
223 237 255
223 237 255
223 237 255
223 237 255
223 237 255
223 237 255
223 237 255
223 237 255
223 237 255
223 237 255
223 237 255
223 237 255
223 237 255
223 237 255
223 237 255
223 237 255
223 237 255
223 237 255
223 237 255
223 237 255
223 237 255
223 237 255
223 237 255
223 237 255
223 237 255
223 237 255
223 237 255
223 237 255
223 237 255
223 237 255
223 237 255
223 237 255
223 237 255
223 237 255
223 237 255
223 237 255
223 237 255
223 237 255
223 237 255
223 237 255
223 237 255
223 237 255
223 237 255
223 237 255
223 237 255
172 182 196
4 5 5
4 4 5
4 5 5
4 5 6
4 5 5
4 5 6
4 4 5
5 5 6
4 5 5
4 5 5
5 5 6
4 4 5
4 4 5
4 5 5
4 5 6
4 5 5
4 5 5
4 4 5
4 5 5
4 5 6
4 5 6
5 5 6
4 5 5
4 5 5
4 5 5
4 5 5
4 5 6
4 4 5
5 5 6
4 5 6
4 4 5
4 5 6
4 5 6
4 4 5
4 5 5
4 5 5
5 5 6
4 5 5
4 4 5
4 4 5
4 5 5
4 5 5
4 5 5
5 5 6
4 5 5
5 5 6
5 5 6
4 4 5
4 5 5
5 5 6
4 5 5
4 4 5
5 5 6
4 5 6
4 5 5
4 5 5
4 5 6
4 5 5
5 5 6
4 5 5
4 4 5
4 5 5
4 4 5
4 5 5
5 5 6
5 5 6
4 5 5
4 5 5
4 5 5
4 5 5
4 5 5
4 5 6
4 4 5
5 5 6
4 4 5
4 5 5
4 5 6
4 5 6
4 5 5
4 5 6
4 5 6
4 4 5
4 5 5
4 4 5
4 4 5
5 5 6
4 5 5
4 5 6
5 5 6
4 5 5
4 5 5
4 5 5
4 5 5
5 5 6
4 4 5
5 5 6
4 5 6
4 5 5
5 5 6
4 5 5
4 4 5
5 5 6
4 5 5
4 5 5
5 5 6
4 4 5
4 4 5
4 5 5
4 4 5
4 4 5
4 5 5
4 5 5
4 5 5
4 5 6
4 4 5
4 5 6
4 5 6
4 5 5
4 5 6
5 5 6
4 5 6
4 5 5
5 5 6
4 5 6
4 5 5
4 5 5
4 5 5
5 5 6
153 162 175
223 237 255
223 237 255
223 237 255
223 237 255
223 237 255
223 237 255
223 237 255
223 237 255
223 237 255
223 237 255
223 237 255
223 237 255
223 237 255
223 237 255
223 237 255
223 237 255
223 237 255
223 237 255
223 237 255
223 237 255
223 237 255
223 237 255
223 237 255
223 237 255
223 237 255
223 237 255
223 237 255
223 237 255
223 237 255
223 237 255
223 237 255
223 237 255
223 237 255
223 237 255
223 237 255
223 237 255
223 237 255
223 237 255
223 237 255
223 237 255
223 237 255
223 237 255
223 237 255
223 237 255
223 237 255
223 237 255
223 237 255
223 237 255
223 237 255
223 237 255
223 237 255
223 237 255
223 237 255
223 237 255
223 237 255
223 237 255
223 237 255
223 237 255
223 237 255
223 237 255
223 237 255
223 236 255
223 237 255
223 236 255
223 236 255
223 236 255
223 236 255
223 236 255
223 236 255
223 236 255
223 236 255
223 236 255
223 236 255
223 236 255
223 236 255
223 236 255
223 236 255
223 236 255
223 236 255
223 236 255
223 236 255
223 236 255
223 236 255
223 236 255
223 236 255
223 236 255
223 236 255
223 236 255
223 236 255
223 236 255
223 236 255
223 236 255
223 236 255
223 236 255
223 236 255
223 236 255
223 236 255
223 236 255
223 236 255
223 236 255
223 236 255
223 236 255
223 236 255
223 236 255
223 236 255
223 236 255
223 236 255
223 236 255
223 236 255
223 236 255
223 236 255
223 236 255
223 236 255
223 236 255
223 236 255
223 236 255
223 236 255
223 236 255
223 236 255
223 236 255
223 236 255
223 236 255
223 236 255
223 236 255
223 236 255
223 236 255
223 236 255
223 236 255
223 236 255
223 236 255
223 236 255
222 236 255
222 236 255
222 236 255
222 236 255
223 236 255
223 236 255
223 236 255
223 236 255
223 236 255
223 236 255
223 236 255
223 236 255
223 236 255
223 236 255
223 236 255
223 236 255
223 236 255
223 236 255
223 236 255
223 236 255
223 236 255
223 236 255
223 236 255
223 236 255
223 236 255
223 236 255
223 236 255
223 236 255
223 236 255
223 236 255
223 236 255
223 236 255
223 236 255
223 236 255
223 236 255
223 236 255
223 236 255
223 236 255
223 236 255
223 236 255
223 236 255
223 236 255
223 236 255
223 236 255
223 236 255
223 236 255
223 236 255
223 236 255
223 236 255
223 236 255
223 237 255
223 237 255
223 237 255
223 237 255
223 237 255
223 237 255
223 237 255
223 237 255
223 237 255
223 237 255
223 237 255
223 237 255
223 237 255
223 237 255
223 237 255
223 237 255
223 237 255
223 237 255
223 237 255
223 237 255
223 237 255
223 237 255
223 237 255
223 237 255
223 237 255
223 237 255
223 237 255
223 237 255
223 237 255
223 237 255
223 237 255
223 237 255
223 237 255
223 237 255
223 237 255
223 237 255
223 237 255
223 237 255
223 237 255
223 237 255
223 237 255
223 237 255
223 237 255
223 237 255
223 237 255
223 237 255
223 237 255
223 237 255
223 237 255
223 237 255
223 237 255
223 237 255
223 237 255
223 237 255
223 237 255
223 237 255
223 237 255
223 237 255
223 237 255
223 237 255
223 237 255
223 237 255
223 237 255
223 237 255
224 237 255
224 237 255
224 237 255
224 237 255
224 237 255
224 237 255
224 237 255
224 237 255
224 237 255
224 237 255
224 237 255
224 237 255
224 237 255
224 237 255
224 237 255
224 237 255
224 237 255
224 237 255
224 237 255
224 237 255
224 237 255
224 237 255
224 237 255
224 237 255
224 237 255
192 204 220
4 4 5
4 5 5
4 4 5
4 4 5
4 4 5
4 5 5
4 5 6
4 5 5
4 5 6
4 5 5
4 5 6
4 5 5
4 5 5
4 5 5
4 5 5
4 5 5
4 5 5
4 5 5
4 5 5
4 4 5
4 5 5
4 4 5
4 5 5
4 4 5
4 4 5
4 5 5
4 4 5
4 5 5
5 5 6
4 5 5
4 5 5
4 4 5
4 4 5
5 5 6
4 5 5
4 5 5
4 5 5
5 5 6
4 4 5
5 5 6
4 5 5
4 5 5
5 5 6
4 5 6
4 5 5
4 5 6
4 5 5
4 4 5
4 5 5
4 4 5
4 4 5
4 4 5
4 4 5
4 5 6
5 5 6
4 4 5
4 5 5
4 5 5
4 5 6
4 5 6
4 4 5
4 5 6
5 5 6
4 4 5
4 5 5
4 5 6
4 5 5
4 5 5
4 5 5
5 5 6
5 5 6
5 5 6
4 5 5
5 5 6
4 5 5
4 5 5
5 5 6
4 5 6
4 5 5
4 5 6
4 5 5
4 4 5
4 5 5
5 5 6
4 5 5
4 5 5
5 5 6
4 5 5
4 4 5
4 5 6
4 4 5
4 5 5
4 5 6
4 5 6
4 5 5
4 4 5
4 5 5
4 5 5
5 5 6
5 5 6
4 5 6
5 5 6
5 5 6
5 5 6
4 5 6
4 5 5
4 5 5
4 5 6
4 4 5
4 5 5
4 5 6
4 5 5
4 4 5
4 5 5
4 5 6
4 4 5
4 5 6
4 5 5
4 5 5
4 5 5
4 4 5
4 5 6
4 5 5
4 4 5
4 5 5
4 5 6
4 4 5
4 4 5
180 191 206
224 237 255
224 237 255
224 237 255
224 237 255
224 237 255
224 237 255
224 237 255
224 237 255
224 237 255
224 237 255
224 237 255
224 237 255
224 237 255
224 237 255
224 237 255
224 237 255
224 237 255
224 237 255
224 237 255
224 237 255
224 237 255
224 237 255
224 237 255
224 237 255
224 237 255
223 237 255
223 237 255
223 237 255
223 237 255
223 237 255
223 237 255
223 237 255
223 237 255
223 237 255
223 237 255
223 237 255
223 237 255
223 237 255
223 237 255
223 237 255
223 237 255
223 237 255
223 237 255
223 237 255
223 237 255
223 237 255
223 237 255
223 237 255
223 237 255
223 237 255
223 237 255
223 237 255
223 237 255
223 237 255
223 237 255
223 237 255
223 237 255
223 237 255
223 237 255
223 237 255
223 237 255
223 237 255
223 237 255
223 237 255
223 237 255
223 237 255
223 237 255
223 237 255
223 237 255
223 237 255
223 237 255
223 237 255
223 237 255
223 237 255
223 237 255
223 237 255
223 237 255
223 237 255
223 237 255
223 237 255
223 237 255
223 237 255
223 237 255
223 237 255
223 237 255
223 237 255
223 237 255
223 237 255
223 237 255
223 236 255
223 236 255
223 236 255
223 236 255
223 236 255
223 236 255
223 236 255
223 236 255
223 236 255
223 236 255
223 236 255
223 236 255
223 236 255
223 236 255
223 236 255
223 236 255
223 236 255
223 236 255
223 236 255
223 236 255
223 236 255
223 236 255
223 236 255
223 236 255
223 236 255
223 236 255
223 236 255
223 236 255
223 236 255
223 236 255
223 236 255
223 236 255
223 236 255
223 236 255
223 236 255
223 236 255
223 236 255
223 236 255
223 236 255
223 236 255
223 236 255
223 236 255
223 236 255
223 236 255
223 236 255
223 236 255
223 236 255
223 236 255
223 236 255
223 236 255
223 236 255
223 236 255
223 236 255
223 236 255
223 236 255
223 236 255
223 236 255
223 236 255
223 236 255
223 236 255
223 236 255
223 236 255
223 236 255
223 236 255
223 236 255
223 236 255
223 237 255
223 237 255
223 237 255
223 237 255
223 237 255
223 237 255
223 237 255
223 237 255
223 237 255
223 237 255
223 237 255
223 237 255
223 237 255
223 237 255
223 237 255
223 237 255
223 237 255
223 237 255
223 237 255
223 237 255
223 237 255
223 237 255
223 237 255
223 237 255
223 237 255
223 237 255
223 237 255
223 237 255
223 237 255
223 237 255
223 237 255
223 237 255
223 237 255
223 237 255
223 237 255
223 237 255
223 237 255
223 237 255
223 237 255
223 237 255
223 237 255
223 237 255
223 237 255
223 237 255
223 237 255
223 237 255
223 237 255
223 237 255
223 237 255
223 237 255
223 237 255
223 237 255
223 237 255
223 237 255
223 237 255
223 237 255
223 237 255
223 237 255
223 237 255
223 237 255
223 237 255
223 237 255
223 237 255
223 237 255
223 237 255
223 237 255
224 237 255
224 237 255
224 237 255
224 237 255
224 237 255
224 237 255
224 237 255
224 237 255
224 237 255
224 237 255
224 237 255
224 237 255
224 237 255
224 237 255
224 237 255
224 237 255
224 237 255
224 237 255
224 237 255
224 237 255
224 237 255
224 237 255
224 237 255
224 237 255
224 237 255
224 237 255
224 237 255
224 237 255
224 237 255
224 237 255
224 237 255
224 237 255
224 237 255
224 237 255
224 237 255
224 237 255
224 237 255
224 237 255
224 237 255
224 237 255
224 237 255
224 237 255
224 237 255
224 237 255
224 237 255
224 237 255
224 237 255
224 237 255
224 237 255
208 220 237
5 5 6
4 4 5
4 4 5
4 5 5
4 4 5
4 5 5
4 5 6
5 5 6
4 4 5
4 5 6
4 5 5
4 5 6
4 5 5
5 5 6
5 5 6
4 4 5
4 5 5
4 5 5
4 5 5
5 5 6
5 5 6
4 4 5
4 5 5
4 4 5
4 5 5
5 5 6
4 4 5
4 4 5
4 5 5
4 5 5
4 5 6
4 5 6
4 5 5
4 5 5
4 5 5
5 5 6
4 5 5
4 5 5
4 5 5
4 5 5
4 4 5
5 5 6
4 5 6
5 5 6
4 5 5
5 5 6
4 4 5
5 5 6
4 4 5
4 5 5
4 4 5
4 5 5
4 5 5
4 4 5
4 5 5
4 5 5
4 5 6
4 5 5
4 5 5
4 5 5
4 5 5
4 4 5
4 5 5
5 5 6
4 5 6
4 5 5
5 5 6
4 5 6
4 5 6
4 5 6
4 4 5
4 4 5
4 5 5
4 5 6
4 5 5
4 5 6
4 5 5
4 4 5
5 5 6
5 5 6
4 5 5
4 5 5
4 4 5
4 5 5
4 4 5
4 5 5
4 5 5
4 4 5
4 5 5
4 5 5
4 4 5
4 5 6
4 5 5
4 5 5
4 5 5
4 5 5
4 5 5
4 5 5
4 5 5
4 5 5
4 5 5
5 5 6
4 4 5
4 5 5
4 4 5
4 4 5
5 5 6
4 5 5
4 5 5
4 5 6
4 5 5
5 5 6
4 4 5
4 4 5
4 5 6
4 4 5
4 5 5
4 4 5
4 5 6
4 5 5
4 5 5
4 5 5
4 5 5
4 4 5
4 5 5
4 4 5
4 4 5
4 4 5
199 211 227
224 237 255
224 237 255
224 237 255
224 237 255
224 237 255
224 237 255
224 237 255
224 237 255
224 237 255
224 237 255
224 237 255
224 237 255
224 237 255
224 237 255
224 237 255
224 237 255
224 237 255
224 237 255
224 237 255
224 237 255
224 237 255
224 237 255
224 237 255
224 237 255
224 237 255
224 237 255
224 237 255
224 237 255
224 237 255
224 237 255
224 237 255
224 237 255
224 237 255
224 237 255
224 237 255
224 237 255
224 237 255
224 237 255
224 237 255
224 237 255
224 237 255
224 237 255
224 237 255
224 237 255
224 237 255
224 237 255
224 237 255
224 237 255
223 237 255
223 237 255
223 237 255
223 237 255
223 237 255
223 237 255
223 237 255
223 237 255
223 237 255
223 237 255
223 237 255
223 237 255
223 237 255
223 237 255
223 237 255
223 237 255
223 237 255
223 237 255
223 237 255
223 237 255
223 237 255
223 237 255
223 237 255
223 237 255
223 237 255
223 237 255
223 237 255
223 237 255
223 237 255
223 237 255
223 237 255
223 237 255
223 237 255
223 237 255
223 237 255
223 237 255
223 237 255
223 237 255
223 237 255
223 237 255
223 237 255
223 237 255
223 237 255
223 237 255
223 237 255
223 237 255
223 237 255
223 237 255
223 237 255
223 237 255
223 237 255
223 237 255
223 237 255
223 237 255
223 237 255
223 237 255
223 237 255
223 237 255
223 237 255
223 237 255
223 237 255
223 237 255
223 237 255
223 237 255
223 237 255
223 237 255
223 237 255
223 236 255
223 236 255
223 236 255
223 236 255
223 236 255
223 236 255
223 236 255
223 236 255
223 236 255
223 236 255
223 236 255
223 236 255
223 236 255
223 236 255
223 236 255
223 236 255
223 236 255
223 236 255
223 236 255
223 236 255
223 237 255
223 237 255
223 237 255
223 237 255
223 237 255
223 237 255
223 237 255
223 237 255
223 237 255
223 237 255
223 237 255
223 237 255
223 237 255
223 237 255
223 237 255
223 237 255
223 237 255
223 237 255
223 237 255
223 237 255
223 237 255
223 237 255
223 237 255
223 237 255
223 237 255
223 237 255
223 237 255
223 237 255
223 237 255
223 237 255
223 237 255
223 237 255
223 237 255
223 237 255
223 237 255
223 237 255
223 237 255
223 237 255
223 237 255
223 237 255
223 237 255
223 237 255
223 237 255
223 237 255
223 237 255
223 237 255
223 237 255
223 237 255
223 237 255
223 237 255
223 237 255
223 237 255
223 237 255
223 237 255
223 237 255
223 237 255
223 237 255
223 237 255
223 237 255
223 237 255
223 237 255
223 237 255
223 237 255
223 237 255
223 237 255
224 237 255
224 237 255
224 237 255
224 237 255
224 237 255
224 237 255
224 237 255
224 237 255
224 237 255
224 237 255
224 237 255
224 237 255
224 237 255
224 237 255
224 237 255
224 237 255
224 237 255
224 237 255
224 237 255
224 237 255
224 237 255
224 237 255
224 237 255
224 237 255
224 237 255
224 237 255
224 237 255
224 237 255
224 237 255
224 237 255
224 237 255
224 237 255
224 237 255
224 237 255
224 237 255
224 237 255
224 237 255
224 237 255
224 237 255
224 237 255
224 237 255
224 237 255
224 237 255
224 237 255
224 237 255
224 237 255
224 237 255
224 237 255
224 237 255
224 237 255
224 237 255
224 237 255
224 237 255
224 237 255
224 237 255
224 237 255
224 237 255
224 237 255
224 237 255
224 237 255
224 237 255
224 237 255
224 237 255
224 237 255
224 237 255
224 237 255
224 237 255
224 237 255
224 237 255
224 237 255
220 232 250
22 24 26
4 5 5
4 4 5
4 5 5
4 5 5
4 4 5
4 5 5
4 5 6
4 4 5
4 5 6
4 5 6
4 4 5
5 5 6
4 5 5
4 5 5
4 5 5
4 5 5
4 5 5
4 4 5
4 5 5
4 5 5
4 5 5
4 4 5
5 5 6
4 4 5
4 5 5
4 5 5
4 5 5
4 5 6
4 5 5
4 5 5
4 5 5
4 5 5
4 4 5
4 5 5
4 5 5
4 5 6
4 5 5
4 5 5
4 5 5
4 5 6
4 5 5
4 5 5
4 5 5
5 5 6
4 5 6
4 5 5
5 5 6
4 5 5
4 5 6
4 4 5
4 4 5
4 5 5
4 5 5
4 5 6
5 5 6
4 5 5
4 5 5
4 5 5
4 5 5
4 5 5
4 5 6
5 5 6
4 5 5
5 5 6
4 5 5
5 5 6
5 5 6
4 4 5
4 5 5
4 4 5
4 5 5
4 5 5
4 5 6
4 5 5
4 4 5
4 5 5
4 5 5
4 5 5
4 5 6
4 5 6
4 5 5
4 5 5
4 5 6
4 5 5
4 5 5
5 5 6
4 5 5
4 4 5
4 5 5
4 5 5
4 4 5
4 5 5
5 5 6
4 5 6
4 5 5
4 4 5
4 5 6
4 5 6
4 5 5
4 4 5
4 5 5
4 5 5
4 5 5
4 4 5
4 5 5
4 4 5
4 5 5
4 4 5
4 4 5
4 5 6
4 4 5
4 5 5
5 5 6
4 5 5
4 4 5
4 5 5
5 5 6
5 5 6
4 4 5
4 5 6
4 5 5
4 5 5
4 4 5
4 5 5
5 5 6
4 5 5
22 24 26
224 237 255
224 237 255
224 237 255
224 237 255
224 237 255
224 237 255
224 237 255
224 237 255
224 237 255
224 237 255
224 237 255
224 237 255
224 237 255
224 237 255
224 237 255
224 237 255
224 237 255
224 237 255
224 237 255
224 237 255
224 237 255
224 237 255
224 237 255
224 237 255
224 237 255
224 237 255
224 237 255
224 237 255
224 237 255
224 237 255
224 237 255
224 237 255
224 237 255
224 237 255
224 237 255
224 237 255
224 237 255
224 237 255
224 237 255
224 237 255
224 237 255
224 237 255
224 237 255
224 237 255
224 237 255
224 237 255
224 237 255
224 237 255
224 237 255
224 237 255
224 237 255
224 237 255
224 237 255
224 237 255
224 237 255
224 237 255
224 237 255
224 237 255
224 237 255
224 237 255
224 237 255
224 237 255
224 237 255
224 237 255
224 237 255
224 237 255
224 237 255
224 237 255
224 237 255
224 237 255
224 237 255
224 237 255
223 237 255
223 237 255
223 237 255
223 237 255
223 237 255
223 237 255
223 237 255
223 237 255
223 237 255
223 237 255
223 237 255
223 237 255
223 237 255
223 237 255
223 237 255
223 237 255
223 237 255
223 237 255
223 237 255
223 237 255
223 237 255
223 237 255
223 237 255
223 237 255
223 237 255
223 237 255
223 237 255
223 237 255
223 237 255
223 237 255
223 237 255
223 237 255
223 237 255
223 237 255
223 237 255
223 237 255
223 237 255
223 237 255
223 237 255
223 237 255
223 237 255
223 237 255
223 237 255
223 237 255
223 237 255
223 237 255
223 237 255
223 237 255
223 237 255
223 237 255
223 237 255
223 237 255
223 237 255
223 237 255
223 237 255
223 237 255
223 237 255
223 237 255
223 237 255
223 237 255
223 237 255
223 237 255
223 237 255
223 237 255
223 237 255
223 237 255
223 237 255
223 237 255
223 237 255
223 237 255
223 237 255
223 237 255
223 237 255
223 237 255
223 237 255
223 237 255
223 237 255
223 237 255
223 237 255
223 237 255
223 237 255
223 237 255
223 237 255
223 237 255
223 237 255
223 237 255
223 237 255
223 237 255
223 237 255
223 237 255
223 237 255
223 237 255
223 237 255
223 237 255
223 237 255
223 237 255
223 237 255
223 237 255
223 237 255
223 237 255
223 237 255
223 237 255
223 237 255
223 237 255
223 237 255
223 237 255
223 237 255
223 237 255
224 237 255
223 237 255
224 237 255
224 237 255
224 237 255
224 237 255
224 237 255
224 237 255
224 237 255
224 237 255
224 237 255
224 237 255
224 237 255
224 237 255
224 237 255
224 237 255
224 237 255
224 237 255
224 237 255
224 237 255
224 237 255
224 237 255
224 237 255
224 237 255
224 237 255
224 237 255
224 237 255
224 237 255
224 237 255
224 237 255
224 237 255
224 237 255
224 237 255
224 237 255
224 237 255
224 237 255
224 237 255
224 237 255
224 237 255
224 237 255
224 237 255
224 237 255
224 237 255
224 237 255
224 237 255
224 237 255
224 237 255
224 237 255
224 237 255
224 237 255
224 237 255
224 237 255
224 237 255
224 237 255
224 237 255
224 237 255
224 237 255
224 237 255
224 237 255
224 237 255
224 237 255
224 237 255
224 237 255
224 237 255
224 237 255
224 237 255
224 237 255
224 237 255
224 237 255
224 237 255
224 237 255
224 237 255
224 237 255
224 237 255
224 237 255
224 237 255
224 237 255
224 237 255
224 237 255
224 237 255
223 236 254
220 233 250
213 225 242
214 226 244
204 216 233
198 210 226
185 196 211
181 191 206
182 193 208
159 168 181
165 174 188
147 156 167
50 53 57
4 5 5
4 5 5
4 4 5
4 4 5
4 5 5
4 5 5
4 4 5
4 5 5
4 5 5
4 5 5
4 4 5
4 5 6
4 4 5
4 5 5
4 4 5
4 4 5
4 4 5
4 5 5
4 5 6
4 4 5
4 4 5
4 4 5
4 5 5
4 5 5
4 4 5
4 5 5
4 5 6
4 5 6
4 5 5
4 5 5
4 5 5
4 5 6
4 5 5
4 5 6
4 5 5
4 4 5
4 5 5
4 5 6
4 4 5
4 5 5
4 5 5
4 5 5
4 5 5
4 5 5
4 5 5
4 4 5
4 5 5
4 5 5
4 4 5
4 5 5
4 5 5
4 5 5
4 5 5
4 5 5
4 4 5
5 5 6
4 5 5
5 5 6
4 5 5
5 5 6
4 4 5
4 5 6
4 4 5
4 4 5
4 5 5
4 4 5
4 5 5
4 5 6
4 5 6
4 4 5
4 4 5
4 5 5
4 4 5
4 5 5
4 5 5
4 5 5
4 5 5
4 4 5
4 5 5
4 5 5
4 5 6
4 5 5
5 5 6
4 5 5
5 5 6
4 5 5
4 4 5
4 5 5
4 5 5
4 5 6
4 5 5
4 5 5
4 5 5
4 4 5
4 5 5
4 5 5
4 4 5
5 5 6
4 5 5
4 4 5
4 5 5
4 5 5
5 5 6
4 4 5
4 5 5
4 5 5
4 5 5
5 5 6
4 5 5
4 5 5
4 4 5
4 4 5
4 5 5
4 5 5
4 4 5
4 5 6
4 5 5
4 4 5
4 5 5
4 4 5
4 5 5
4 5 5
4 5 5
4 4 5
4 5 5
4 5 5
39 41 44
147 156 167
160 169 182
166 176 189
169 179 193
181 191 206
185 196 211
189 200 215
199 211 227
201 212 229
206 218 234
219 231 249
224 237 255
224 237 255
224 237 255
224 237 255
224 237 255
224 237 255
224 237 255
224 237 255
224 237 255
224 237 255
224 237 255
224 237 255
224 237 255
224 237 255
224 237 255
224 237 255
224 237 255
224 237 255
224 237 255
224 237 255
224 237 255
224 237 255
224 237 255
224 237 255
224 237 255
224 237 255
224 237 255
224 237 255
224 237 255
224 237 255
224 237 255
224 237 255
224 237 255
224 237 255
224 237 255
224 237 255
224 237 255
224 237 255
224 237 255
224 237 255
224 237 255
224 237 255
224 237 255
224 237 255
224 237 255
224 237 255
224 237 255
224 237 255
224 237 255
224 237 255
224 237 255
224 237 255
224 237 255
224 237 255
224 237 255
224 237 255
224 237 255
224 237 255
224 237 255
224 237 255
224 237 255
224 237 255
224 237 255
224 237 255
224 237 255
224 237 255
224 237 255
224 237 255
224 237 255
224 237 255
224 237 255
224 237 255
224 237 255
224 237 255
224 237 255
224 237 255
224 237 255
224 237 255
224 237 255
224 237 255
223 237 255
223 237 255
223 237 255
223 237 255
223 237 255
223 237 255
223 237 255
223 237 255
223 237 255
223 237 255
223 237 255
223 237 255
223 237 255
223 237 255
223 237 255
223 237 255
223 237 255
223 237 255
223 237 255
223 237 255
223 237 255
223 237 255
223 237 255
223 237 255
223 237 255
223 237 255
223 237 255
223 237 255
223 237 255
223 237 255
223 237 255
223 237 255
223 237 255
223 237 255
223 237 255
223 237 255
223 237 255
223 237 255
223 237 255
223 237 255
223 237 255
223 237 255
223 237 255
223 237 255
223 237 255
223 237 255
223 237 255
223 237 255
223 237 255
223 237 255
223 237 255
223 237 255
223 237 255
223 237 255
223 237 255
223 237 255
223 237 255
223 237 255
223 237 255
223 237 255
223 237 255
223 237 255
223 237 255
223 237 255
223 237 255
223 237 255
223 237 255
223 237 255
223 237 255
223 237 255
224 237 255
224 237 255
224 237 255
224 237 255
224 237 255
224 237 255
224 237 255
224 237 255
224 237 255
224 237 255
224 237 255
224 237 255
224 237 255
224 237 255
224 237 255
224 237 255
224 237 255
224 237 255
224 237 255
224 237 255
224 237 255
224 237 255
224 237 255
224 237 255
224 237 255
224 237 255
224 237 255
224 237 255
224 237 255
224 237 255
224 237 255
224 237 255
224 237 255
224 237 255
224 237 255
224 237 255
224 237 255
224 237 255
224 237 255
224 237 255
224 237 255
224 237 255
224 237 255
224 237 255
224 237 255
224 237 255
224 237 255
224 237 255
224 237 255
224 237 255
224 237 255
224 237 255
224 237 255
224 237 255
224 237 255
224 237 255
224 237 255
224 237 255
224 237 255
224 237 255
224 237 255
224 237 255
224 237 255
224 237 255
224 237 255
224 237 255
224 237 255
224 237 255
224 237 255
224 237 255
224 237 255
224 237 255
224 237 255
224 237 255
224 237 255
224 237 255
224 237 255
224 237 255
224 237 255
224 237 255
224 237 255
224 237 255
224 237 255
221 234 252
215 228 245
193 204 220
199 211 227
177 187 201
166 176 189
163 173 186
166 176 189
136 144 155
144 152 164
138 146 157
123 130 140
98 103 111
87 92 99
87 92 99
55 58 63
6 7 8
6 6 8
6 7 8
6 7 8
6 6 8
6 7 8
6 6 8
6 6 8
6 7 8
6 7 8
6 6 8
6 7 8
5 6 6
4 5 6
4 5 6
4 4 5
4 4 5
4 5 5
4 4 5
4 5 5
4 5 5
4 5 5
4 5 5
4 5 5
4 5 5
4 5 5
4 4 5
4 5 5
4 4 5
4 4 5
4 4 5
4 5 5
4 4 5
4 4 5
4 5 6
4 4 5
4 5 5
4 5 5
4 5 5
4 4 5
4 5 5
4 5 5
4 4 5
4 5 5
4 5 5
4 5 5
4 5 5
4 5 5
4 5 6
4 5 5
4 5 5
4 4 5
4 5 5
4 5 5
4 5 5
5 5 6
4 4 5
4 5 5
5 5 6
4 5 5
4 5 5
4 4 5
5 5 6
4 5 5
4 5 6
4 4 5
4 5 6
4 4 5
5 5 6
4 4 5
5 5 6
4 4 5
4 5 6
4 5 5
4 5 5
4 5 5
4 5 5
4 4 4
4 5 6
4 4 5
4 5 6
5 5 6
4 5 5
4 5 5
4 4 5
4 5 5
4 5 5
4 5 6
4 5 5
4 5 5
4 5 5
4 5 5
4 5 5
5 5 6
4 4 5
4 5 6
4 4 5
4 5 6
4 5 5
4 5 5
4 5 5
4 4 5
4 4 5
4 5 5
4 5 5
4 4 5
4 4 5
4 5 6
4 4 5
4 5 5
4 5 5
4 5 5
4 5 5
4 4 5
4 5 5
4 5 5
4 5 5
5 5 6
5 5 6
4 5 6
4 5 6
4 5 6
4 5 5
4 5 5
4 4 5
4 5 5
4 5 5
4 4 5
4 4 5
4 5 5
5 5 6
4 4 5
4 5 5
4 5 5
4 4 5
4 5 6
4 4 5
4 4 5
4 5 5
5 5 6
6 6 8
6 7 8
6 7 8
6 7 8
6 7 8
6 6 8
6 6 8
6 7 8
6 7 8
6 7 8
6 7 8
39 41 45
67 71 77
87 92 99
98 103 111
100 106 114
133 140 151
131 138 149
140 148 159
155 164 177
165 174 188
172 182 196
188 199 214
189 200 215
201 212 229
206 218 234
208 220 237
221 234 252
224 237 255
224 237 255
224 237 255
224 237 255
224 237 255
224 237 255
224 237 255
224 237 255
224 237 255
224 237 255
224 237 255
224 237 255
224 237 255
224 237 255
224 237 255
224 237 255
224 237 255
224 237 255
224 237 255
224 237 255
224 237 255
224 237 255
224 237 255
224 237 255
224 237 255
224 237 255
224 237 255
224 237 255
224 237 255
224 237 255
224 237 255
224 237 255
224 237 255
224 237 255
224 237 255
224 237 255
224 237 255
224 237 255
224 237 255
224 237 255
224 237 255
224 237 255
224 237 255
224 237 255
224 237 255
224 237 255
224 237 255
224 237 255
224 237 255
224 237 255
224 237 255
224 237 255
224 237 255
224 237 255
224 237 255
224 237 255
224 237 255
224 237 255
224 237 255
224 237 255
224 237 255
224 237 255
224 237 255
224 237 255
224 237 255
224 237 255
224 237 255
224 237 255
224 237 255
224 237 255
224 237 255
224 237 255
224 237 255
224 237 255
224 237 255
224 237 255
224 237 255
224 237 255
224 237 255
224 237 255
224 237 255
224 237 255
224 237 255
223 237 255
223 237 255
223 237 255
223 237 255
223 237 255
223 237 255
223 237 255
223 237 255
223 237 255
223 237 255
223 237 255
223 237 255
223 237 255
223 237 255
223 237 255
223 237 255
223 237 255
223 237 255
223 237 255
223 237 255
223 237 255
223 237 255
223 237 255
223 237 255
223 237 255
223 237 255
223 237 255
223 237 255
223 237 255
223 237 255
223 237 255
223 237 255
224 237 255
224 237 255
224 237 255
224 237 255
224 237 255
224 237 255
224 237 255
224 237 255
224 237 255
224 237 255
224 237 255
224 237 255
224 237 255
224 237 255
224 237 255
224 237 255
224 237 255
224 237 255
224 237 255
224 237 255
224 237 255
224 237 255
224 237 255
224 237 255
224 237 255
224 237 255
224 237 255
224 237 255
224 237 255
224 237 255
224 237 255
224 237 255
224 237 255
224 237 255
224 237 255
224 237 255
224 237 255
224 237 255
224 237 255
224 237 255
224 237 255
224 237 255
224 237 255
224 237 255
224 237 255
224 237 255
224 237 255
224 237 255
224 237 255
224 237 255
224 237 255
224 237 255
224 237 255
224 237 255
224 237 255
224 237 255
224 237 255
224 237 255
224 237 255
224 237 255
224 237 255
224 237 255
224 237 255
224 237 255
224 237 255
224 237 255
224 237 255
224 237 255
224 237 255
224 237 255
224 237 255
224 237 255
224 237 255
224 237 255
224 237 255
224 237 255
224 237 255
224 237 255
224 237 255
224 237 255
224 237 255
224 237 255
224 237 255
224 237 255
224 237 255
224 237 255
218 230 248
212 224 241
205 216 233
212 224 241
188 199 214
178 188 203
155 164 177
147 156 167
147 156 167
127 134 144
112 119 128
103 109 117
87 92 99
50 53 57
6 7 8
6 7 8
6 7 8
6 6 8
6 6 8
6 7 8
6 7 8
6 7 8
6 7 8
6 6 8
6 6 8
6 7 8
6 7 8
6 6 8
6 7 8
6 7 8
6 7 8
6 7 8
6 7 8
6 7 8
6 7 8
6 7 8
6 7 8
6 7 8
6 7 8
6 7 8
6 7 8
6 7 8
6 7 8
5 5 6
4 5 5
4 5 6
4 4 5
4 5 5
4 5 5
4 4 5
4 5 5
5 5 6
4 4 5
4 4 5
4 5 5
5 5 6
4 5 6
4 5 5
4 5 5
4 5 5
4 4 5
4 5 5
4 5 6
4 4 5
4 5 6
4 5 5
4 5 6
4 5 5
4 4 5
4 5 5
4 5 5
4 5 5
4 5 5
4 5 5
4 4 5
4 5 6
4 5 6
4 5 6
4 5 5
4 5 6
4 5 5
4 5 6
4 5 5
4 4 5
4 4 5
4 5 6
4 5 5
4 5 5
4 5 5
4 4 5
4 5 5
4 4 4
4 4 5
4 5 5
4 4 5
4 5 5
4 4 5
4 4 5
4 4 5
4 4 5
4 4 5
4 5 5
4 5 5
4 5 6
4 5 6
4 5 5
4 4 5
4 5 5
4 5 5
4 4 5
4 5 6
4 5 5
4 5 6
4 5 6
4 5 5
5 5 6
4 4 5
4 4 5
4 5 5
4 5 5
4 5 5
4 5 6
4 5 5
4 4 5
4 5 5
4 5 5
4 5 5
4 5 5
4 4 5
4 4 5
4 5 6
4 5 6
4 5 5
4 5 5
4 5 5
4 4 5
4 5 6
4 5 5
4 5 5
4 5 6
4 4 5
4 5 5
4 5 5
4 4 5
4 4 5
4 4 5
4 5 5
4 4 5
4 5 5
4 5 6
4 4 5
4 4 5
4 5 5
4 5 5
4 5 6
4 5 5
4 5 5
4 5 6
4 4 5
4 4 5
4 4 5
4 4 5
4 4 5
4 4 5
4 4 5
4 4 5
4 4 5
4 5 5
4 4 5
4 4 5
5 6 7
6 7 8
6 6 8
6 7 8
6 7 8
6 6 8
6 6 8
6 6 8
6 7 8
6 6 8
6 6 8
6 7 8
6 7 8
6 7 8
6 6 8
6 6 8
6 7 8
6 7 8
6 7 8
6 7 8
6 6 8
6 6 8
6 7 8
6 7 8
6 6 8
6 7 8
6 7 8
6 7 8
6 7 8
45 48 51
55 58 63
92 98 105
90 95 102
119 126 135
129 136 147
135 142 153
159 168 181
149 157 169
175 185 200
178 188 203
202 214 230
213 225 242
208 220 237
221 234 252
224 237 255
224 237 255
224 237 255
224 237 255
224 237 255
224 237 255
224 237 255
224 237 255
224 237 255
224 237 255
224 237 255
224 237 255
224 237 255
224 237 255
224 237 255
224 237 255
224 237 255
224 237 255
224 237 255
224 237 255
224 237 255
224 237 255
224 237 255
224 237 255
224 237 255
224 237 255
224 237 255
224 237 255
224 237 255
224 237 255
224 237 255
224 237 255
224 237 255
224 237 255
224 237 255
224 237 255
224 237 255
224 237 255
224 237 255
224 237 255
224 237 255
224 237 255
224 237 255
224 237 255
224 237 255
224 237 255
224 237 255
224 237 255
224 237 255
224 237 255
224 237 255
224 237 255
224 237 255
224 237 255
224 237 255
224 237 255
224 237 255
224 237 255
224 237 255
224 237 255
224 237 255
224 237 255
224 237 255
224 237 255
224 237 255
224 237 255
224 237 255
224 237 255
224 237 255
224 237 255
224 237 255
224 237 255
224 237 255
224 237 255
224 237 255
224 237 255
224 237 255
224 237 255
224 237 255
224 237 255
224 237 255
224 237 255
224 237 255
224 237 255
224 237 255
224 237 255
223 237 255
223 237 255
223 237 255
223 237 255
223 237 255
223 237 255
223 237 255
224 237 255
224 237 255
224 237 255
224 237 255
224 237 255
224 237 255
224 237 255
224 237 255
224 237 255
224 237 255
224 237 255
224 237 255
224 237 255
224 237 255
224 237 255
224 237 255
224 237 255
224 237 255
224 237 255
224 237 255
224 237 255
224 237 255
224 237 255
224 237 255
224 237 255
224 237 255
224 237 255
224 237 255
224 237 255
224 237 255
224 237 255
224 237 255
224 237 255
224 237 255
224 237 255
224 237 255
224 237 255
224 237 255
224 237 255
224 237 255
224 237 255
224 237 255
224 237 255
224 237 255
224 237 255
224 237 255
224 237 255
224 237 255
224 237 255
224 237 255
224 237 255
224 237 255
224 237 255
224 237 255
224 237 255
224 237 255
224 237 255
224 237 255
224 237 255
224 237 255
224 237 255
224 237 255
224 237 255
224 237 255
224 237 255
224 237 255
224 237 255
224 237 255
224 237 255
224 237 255
224 237 255
224 237 255
224 237 255
224 237 255
224 237 255
224 237 255
224 237 255
225 237 255
225 237 255
223 236 254
211 223 240
198 210 226
194 206 221
178 188 203
168 178 191
152 161 173
152 161 173
138 146 157
121 128 138
92 98 105
98 103 111
71 75 81
50 53 57
6 7 8
6 7 8
6 6 8
6 7 8
6 6 8
6 6 8
6 7 8
6 7 8
6 7 8
6 7 8
6 7 8
6 7 8
6 7 8
6 7 8
6 7 8
6 6 8
6 7 8
6 6 8
6 7 8
6 6 8
6 7 8
6 7 8
6 7 8
6 7 8
6 7 8
6 7 8
6 6 8
6 7 8
6 7 8
6 6 8
6 7 8
6 7 8
6 7 8
6 6 8
6 7 8
6 7 8
6 6 8
6 7 8
6 6 8
6 7 8
6 6 8
6 6 8
6 7 8
5 6 7
4 5 5
4 5 5
4 5 5
4 4 5
5 5 6
4 5 5
4 4 5
4 5 5
4 5 5
4 4 5
4 5 5
4 5 5
4 5 5
3 4 4
4 4 5
5 5 6
4 5 5
4 4 5
4 5 5
4 4 5
4 4 5
5 5 6
4 4 5
4 5 5
4 5 5
4 4 5
4 5 5
4 5 5
5 5 6
4 5 5
4 4 5
4 5 6
4 4 5
4 4 5
4 4 5
4 4 5
4 5 5
4 4 5
4 5 5
4 5 5
4 5 5
4 5 6
4 5 5
4 5 5
4 5 5
4 5 6
4 5 5
4 5 6
4 5 5
4 4 5
4 4 5
4 5 5
4 5 5
4 5 6
4 5 5
4 4 5
4 5 5
4 4 5
4 5 6
4 5 5
4 5 5
4 5 5
4 4 5
4 5 5
4 5 5
4 5 6
4 4 5
4 5 5
4 5 5
4 5 5
4 4 5
4 4 5
4 5 5
4 5 5
4 4 5
4 4 5
4 4 5
4 5 5
4 5 5
4 5 5
4 4 5
4 5 5
4 4 5
4 5 5
4 5 5
4 4 5
4 4 5
4 5 5
4 5 5
4 4 5
4 5 5
5 5 6
4 5 5
4 5 6
4 4 5
4 5 5
4 5 6
4 4 5
4 4 5
4 5 5
4 4 5
4 4 5
4 5 5
4 4 5
4 4 5
4 4 5
4 4 5
5 5 6
4 4 4
4 5 6
4 4 5
4 4 5
4 4 5
4 4 5
4 4 5
5 5 6
4 5 5
4 4 5
4 5 5
4 5 5
4 5 5
4 4 5
4 4 5
4 4 5
4 5 5
4 4 5
6 6 7
6 7 8
6 6 8
6 7 8
6 7 8
6 6 8
6 7 8
6 7 8
6 7 8
6 7 8
6 7 8
6 6 8
6 7 8
6 7 8
6 7 8
6 7 8
6 7 8
6 6 8
6 6 8
6 6 8
6 6 8
6 7 8
6 7 8
6 7 8
6 7 8
6 7 8
6 6 8
6 7 8
6 6 8
6 7 8
6 7 8
6 6 8
6 7 8
6 6 8
6 7 8
6 7 8
6 7 8
6 6 8
6 7 8
6 7 8
6 7 8
6 7 8
6 7 8
6 7 8
32 34 37
74 79 85
100 106 114
103 109 117
133 140 151
135 142 153
165 174 188
159 168 181
169 179 193
169 179 193
188 199 214
203 215 231
214 226 244
220 233 250
225 237 255
224 237 255
224 237 255
224 237 255
224 237 255
224 237 255
224 237 255
224 237 255
224 237 255
224 237 255
224 237 255
224 237 255
224 237 255
224 237 255
224 237 255
224 237 255
224 237 255
224 237 255
224 237 255
224 237 255
224 237 255
224 237 255
224 237 255
224 237 255
224 237 255
224 237 255
224 237 255
224 237 255
224 237 255
224 237 255
224 237 255
224 237 255
224 237 255
224 237 255
224 237 255
224 237 255
224 237 255
224 237 255
224 237 255
224 237 255
224 237 255
224 237 255
224 237 255
224 237 255
224 237 255
224 237 255
224 237 255
224 237 255
224 237 255
224 237 255
224 237 255
224 237 255
224 237 255
224 237 255
224 237 255
224 237 255
224 237 255
224 237 255
224 237 255
224 237 255
224 237 255
224 237 255
224 237 255
224 237 255
224 237 255
224 237 255
224 237 255
224 237 255
224 237 255
224 237 255
224 237 255
224 237 255
224 237 255
224 237 255
224 237 255
224 237 255
224 237 255
224 237 255
224 237 255
224 237 255
224 237 255
224 237 255
224 237 255
224 237 255
224 237 255
224 237 255
224 237 255
224 237 255
224 237 255
224 237 255
224 237 255
224 237 255
224 237 255
224 237 255
224 237 255
224 237 255
224 237 255
224 237 255
224 237 255
224 237 255
224 237 255
224 237 255
224 237 255
224 237 255
224 237 255
224 237 255
224 237 255
224 237 255
224 237 255
224 237 255
224 237 255
224 237 255
224 237 255
224 237 255
224 237 255
224 237 255
224 237 255
224 237 255
224 237 255
224 237 255
224 237 255
224 237 255
224 237 255
224 237 255
224 237 255
224 237 255
224 237 255
224 237 255
224 237 255
224 237 255
224 237 255
224 237 255
224 237 255
224 237 255
224 237 255
224 237 255
224 237 255
224 237 255
224 237 255
224 237 255
224 237 255
224 237 255
225 237 255
225 237 255
223 236 254
219 231 249
207 219 236
193 204 220
190 201 217
184 194 209
172 182 196
147 156 167
137 144 155
125 132 142
95 101 108
92 98 105
78 82 89
55 58 63
6 6 8
6 7 8
6 7 8
6 7 8
6 7 8
6 6 8
6 7 8
6 6 8
6 6 8
6 7 8
6 7 8
6 7 8
6 7 8
6 6 8
6 7 8
6 7 8
6 7 8
6 7 8
6 7 8
6 7 8
6 7 8
6 6 8
6 7 8
6 7 8
6 7 8
6 6 8
6 7 8
6 6 8
6 7 8
6 7 8
6 7 8
6 6 8
6 7 8
6 6 8
6 7 8
6 6 8
6 6 8
6 7 8
6 7 8
6 6 8
6 7 8
6 7 8
6 7 8
6 6 8
6 6 8
6 7 8
6 7 8
6 7 8
6 7 8
6 7 8
6 7 8
6 7 8
6 6 8
6 7 8
6 7 8
6 6 8
6 7 8
6 7 8
4 5 5
4 4 5
4 4 5
4 4 5
4 5 6
4 4 5
4 4 5
4 4 5
5 5 6
4 5 5
4 4 5
4 4 5
4 4 5
4 5 5
4 5 5
4 4 5
4 4 5
4 5 5
4 5 5
4 5 5
4 4 5
4 4 5
4 4 5
4 5 5
4 5 5
4 4 5
4 5 5
4 5 5
4 5 5
4 5 6
4 5 5
4 4 5
4 5 5
4 5 5
4 4 5
4 4 5
4 5 5
4 4 5
4 5 5
4 5 5
4 5 5
4 5 5
4 4 5
4 5 5
4 4 5
4 5 5
4 5 5
4 5 5
4 5 5
4 4 5
4 4 5
4 5 5
4 5 5
4 4 5
4 5 5
4 5 5
5 5 6
4 5 5
4 5 5
4 5 5
4 4 5
4 4 5
4 4 5
4 5 5
4 4 5
4 5 5
4 5 5
4 5 6
4 4 5
4 5 5
4 4 5
4 5 5
4 4 5
4 5 5
4 5 5
3 4 4
5 5 6
4 4 5
4 5 5
4 4 5
5 5 6
4 4 5
4 4 5
4 5 5
4 4 5
5 5 6
4 5 6
4 5 5
4 4 5
4 4 5
4 5 5
4 5 5
4 5 5
4 5 5
4 4 5
4 4 5
4 5 5
4 4 5
4 4 5
4 5 5
4 4 5
4 5 5
4 4 5
4 4 5
4 5 5
4 4 5
4 4 5
4 4 5
4 5 5
4 5 5
4 4 5
4 4 5
4 5 5
4 5 5
4 5 5
4 4 4
4 4 5
4 5 6
4 5 5
4 5 5
4 5 5
4 4 5
4 4 5
4 5 5
5 5 6
4 5 5
6 7 8
6 7 8
6 7 8
6 6 8
6 6 8
6 7 8
6 7 8
6 6 8
6 6 8
6 7 8
6 7 8
6 6 8
6 6 8
6 7 8
6 6 8
6 6 8
6 7 8
6 7 8
6 6 8
6 7 8
6 7 8
6 7 8
6 7 8
6 7 8
6 6 8
6 7 8
6 7 8
6 7 8
6 6 8
6 7 8
6 7 8
6 7 8
6 7 8
6 6 8
6 7 8
6 7 8
6 7 8
6 7 8
6 7 8
6 6 8
6 7 8
6 7 8
6 7 8
6 6 8
6 7 8
6 7 8
6 7 8
6 7 8
6 6 8
6 7 8
6 6 8
6 6 8
6 7 8
6 6 8
6 7 8
6 7 8
6 7 8
6 7 8
45 48 51
84 89 96
84 89 96
133 140 151
119 126 135
142 150 162
152 161 173
163 173 186
171 181 195
192 203 218
203 215 231
211 223 240
219 231 249
225 237 255
225 237 255
225 237 255
224 237 255
224 237 255
224 237 255
224 237 255
224 237 255
224 237 255
224 237 255
224 237 255
224 237 255
224 237 255
224 237 255
224 237 255
224 237 255
224 237 255
224 237 255
224 237 255
224 237 255
224 237 255
224 237 255
224 237 255
224 237 255
224 237 255
224 237 255
224 237 255
224 237 255
224 237 255
224 237 255
224 237 255
224 237 255
224 237 255
224 237 255
224 237 255
224 237 255
224 237 255
224 237 255
224 237 255
224 237 255
224 237 255
224 237 255
224 237 255
224 237 255
224 237 255
224 237 255
224 237 255
224 237 255
224 237 255
224 237 255
224 237 255
224 237 255
224 237 255
224 237 255
224 237 255
224 237 255
224 237 255
224 237 255
224 237 255
224 237 255
224 237 255
224 237 255
224 237 255
224 237 255
224 237 255
224 237 255
224 237 255
224 237 255
224 237 255
224 237 255
224 237 255
224 237 255
224 237 255
224 237 255
224 237 255
224 237 255
224 237 255
224 237 255
224 237 255
224 237 255
224 237 255
224 237 255
224 237 255
224 237 255
224 237 255
224 237 255
224 237 255
224 237 255
224 237 255
224 237 255
224 237 255
224 237 255
224 237 255
224 237 255
224 237 255
224 237 255
224 237 255
224 237 255
224 237 255
224 237 255
224 237 255
224 237 255
224 237 255
224 237 255
224 237 255
224 237 255
224 237 255
224 237 255
224 237 255
224 237 255
224 237 255
224 237 255
224 237 255
224 237 255
224 237 255
225 237 255
225 237 255
225 237 255
225 237 255
222 235 253
207 219 236
200 211 227
196 207 223
187 197 212
171 181 195
144 152 164
142 150 162
133 140 151
119 126 135
92 98 105
45 48 51
45 48 51
6 7 8
6 7 8
6 7 8
6 7 8
6 7 8
6 6 8
6 7 8
6 7 8
6 7 8
6 7 8
6 7 8
6 7 8
6 6 8
6 6 8
6 7 8
6 7 8
6 6 8
6 7 8
6 6 8
6 7 8
6 6 8
6 7 8
6 7 8
6 6 8
6 7 8
6 7 8
6 7 8
6 7 8
6 7 8
6 6 8
6 7 8
6 6 8
6 6 8
6 7 8
6 7 8
6 7 8
6 7 8
6 7 8
6 7 8
6 6 8
6 6 8
6 7 8
6 7 8
6 7 8
6 7 8
6 7 8
6 7 8
6 7 8
6 7 8
6 7 8
6 6 8
6 6 8
6 7 8
6 6 8
6 6 8
6 6 8
6 7 8
6 6 8
6 6 8
6 7 8
6 6 8
6 7 8
6 7 8
6 7 8
6 7 8
6 6 8
6 7 8
6 7 8
6 7 8
6 7 8
6 6 8
5 5 6
4 4 5
3 4 4
4 4 5
4 5 6
4 5 5
4 4 5
4 5 5
4 4 5
4 5 5
4 4 5
4 4 5
4 4 5
4 5 5
4 4 5
4 4 5
4 4 5
4 5 6
4 5 5
4 5 5
4 5 5
4 4 5
4 5 5
4 4 4
5 5 6
5 5 6
4 4 5
4 4 5
4 4 5
4 5 5
4 5 5
4 5 5
4 5 5
4 4 5
4 4 5
4 4 5
4 4 5
4 5 5
4 5 5
4 5 5
4 5 5
4 4 5
4 4 5
4 5 5
4 5 5
4 5 5
4 5 6
4 4 5
4 4 5
4 5 5
4 5 5
4 4 5
4 4 5
4 4 5
4 4 5
5 5 6
4 5 6
4 5 5
4 5 5
4 5 5
4 5 6
4 4 5
4 5 5
4 4 5
4 5 5
4 5 5
4 4 5
4 4 5
4 4 5
5 5 6
4 5 5
4 5 5
4 4 5
4 5 5
4 4 5
4 5 5
4 5 5
4 4 5
4 4 5
4 4 5
4 4 5
4 5 5
4 4 5
4 5 5
4 4 5
4 4 5
4 5 5
4 5 5
4 5 5
4 4 5
4 4 5
4 4 5
4 4 5
4 5 6
4 5 5
5 5 6
4 4 5
4 5 5
4 5 5
4 5 5
4 4 5
4 5 5
4 4 5
4 4 5
4 4 5
4 5 5
4 4 5
4 5 5
4 5 5
4 5 5
4 5 5
4 5 5
4 5 5
4 5 5
4 5 5
4 5 5
4 4 5
4 5 5
4 5 6
5 5 6
4 5 5
4 4 5
4 4 5
4 5 5
4 4 5
5 5 6
6 7 8
6 6 8
6 7 8
6 7 8
6 7 8
6 7 8
6 6 8
6 7 8
6 7 8
6 7 8
6 7 8
6 7 8
6 7 8
6 7 8
6 6 8
6 6 8
6 6 8
6 7 8
6 7 8
6 7 8
6 7 8
6 7 8
6 7 8
6 7 8
6 7 8
6 6 8
6 6 8
6 7 8
6 7 8
6 7 8
6 7 8
6 6 8
6 6 8
6 7 8
6 7 8
6 7 8
6 7 8
6 7 8
6 7 8
6 7 8
6 7 8
6 6 8
6 7 8
6 6 8
6 7 8
6 7 8
6 7 8
6 7 8
6 7 8
6 6 8
6 7 8
6 7 8
6 6 8
6 7 8
6 6 8
6 7 8
6 7 8
6 6 8
6 7 8
6 7 8
6 7 8
6 7 8
6 7 8
6 7 8
6 7 8
6 6 8
6 7 8
6 7 8
6 7 8
6 7 8
6 7 8
39 41 45
67 71 77
90 95 102
119 126 135
117 123 133
149 157 169
156 164 177
168 178 191
174 184 198
182 193 208
205 216 233
209 221 238
220 233 250
225 237 255
225 237 255
225 237 255
224 237 255
225 237 255
224 237 255
224 237 255
224 237 255
224 237 255
224 237 255
224 237 255
224 237 255
224 237 255
224 237 255
224 237 255
224 237 255
224 237 255
224 237 255
224 237 255
224 237 255
224 237 255
224 237 255
224 237 255
224 237 255
224 237 255
224 237 255
224 237 255
224 237 255
224 237 255
224 237 255
224 237 255
224 237 255
224 237 255
224 237 255
224 237 255
224 237 255
224 237 255
224 237 255
224 237 255
224 237 255
224 237 255
224 237 255
224 237 255
224 237 255
224 237 255
224 237 255
224 237 255
224 237 255
224 237 255
224 237 255
224 237 255
224 237 255
224 237 255
224 237 255
224 237 255
224 237 255
224 237 255
224 237 255
224 237 255
224 237 255
224 237 255
224 237 255
224 237 255
224 237 255
224 237 255
224 237 255
224 237 255
224 237 255
224 237 255
224 237 255
224 237 255
224 237 255
224 237 255
224 237 255
224 237 255
224 237 255
224 237 255
224 237 255
224 237 255
224 237 255
224 237 255
224 237 255
224 237 255
224 237 255
224 237 255
224 237 255
224 237 255
224 237 255
225 237 255
225 237 255
225 237 255
225 237 255
225 237 255
223 236 254
217 229 246
201 212 229
200 211 227
178 188 203
181 191 206
160 169 182
142 150 162
131 138 149
119 126 135
108 114 122
78 82 89
32 34 37
6 7 8
6 6 8
6 7 8
6 7 8
6 7 8
6 7 8
6 6 8
6 7 8
6 6 8
6 7 8
6 7 8
6 7 8
6 7 8
6 7 8
6 7 8
6 7 8
6 7 8
6 7 8
6 6 8
6 7 8
6 6 8
6 7 8
6 7 8
6 7 8
6 6 8
6 7 8
6 6 8
6 7 8
6 7 8
6 6 8
6 7 8
6 7 8
6 7 8
6 6 8
6 7 8
6 7 8
6 7 8
6 6 8
6 7 8
6 6 8
6 6 8
6 7 8
6 6 8
6 7 8
6 6 8
6 7 8
6 7 8
6 7 8
6 6 8
6 6 8
6 6 8
6 7 8
6 7 8
6 7 8
6 7 8
6 7 8
6 7 8
6 7 8
6 7 8
6 6 8
6 7 8
6 7 8
6 7 8
6 7 8
6 6 8
6 7 8
6 6 8
6 7 8
6 6 8
6 6 8
6 7 8
6 7 8
6 7 8
6 6 8
6 7 8
6 7 8
6 6 8
6 7 8
6 6 8
6 7 8
6 7 8
6 6 8
6 6 8
6 6 8
5 6 7
4 4 5
4 5 5
4 4 5
4 4 5
4 4 5
4 4 5
4 4 5
4 5 5
4 4 5
4 4 5
4 5 5
4 4 5
4 4 5
4 4 5
3 4 4
4 5 5
4 4 5
4 5 5
4 5 6
4 4 5
4 5 5
4 4 5
4 5 5
4 4 5
4 4 4
4 4 5
4 5 5
4 4 5
4 4 5
4 4 5
4 4 5
4 5 5
4 5 6
4 4 5
4 4 5
4 4 5
4 5 5
4 4 5
4 5 5
4 5 5
4 5 5
4 4 5
4 4 5
4 5 6
4 5 5
4 5 5
4 5 5
4 5 5
4 4 5
4 5 5
4 5 5
4 5 5
5 5 6
4 5 5
4 5 5
4 4 5
4 5 5
4 4 5
4 4 5
4 5 6
4 5 5
4 4 5
4 5 5
4 5 5
4 5 5
4 5 6
4 5 5
4 4 5
4 4 5
4 5 5
4 4 5
4 5 5
4 5 5
4 5 5
4 5 5
4 4 5
4 5 5
4 4 5
4 4 5
4 4 5
4 4 5
4 4 5
4 4 5
4 5 5
4 5 5
4 5 5
4 4 5
4 5 5
4 5 5
4 5 5
4 5 5
4 4 5
4 5 5
4 4 5
4 5 5
4 5 5
4 4 5
4 5 5
4 4 5
4 5 5
4 5 5
4 4 5
4 5 5
4 4 5
4 4 5
4 5 5
4 5 5
4 4 5
4 4 5
4 4 5
4 4 5
4 4 5
4 4 5
4 5 5
4 4 5
4 4 5
4 4 5
4 4 5
4 4 5
4 4 5
4 5 5
4 5 5
4 4 5
4 4 5
5 6 7
6 6 8
6 7 8
6 6 8
6 7 8
6 6 8
6 6 8
6 7 8
6 7 8
6 7 8
6 7 8
6 7 8
6 6 8
6 7 8
6 6 8
6 6 8
6 6 8
6 6 8
6 6 8
6 6 8
6 7 8
6 6 8
6 7 8
6 6 8
6 6 8
6 6 8
6 6 8
6 7 8
6 6 8
6 7 8
6 7 8
6 6 8
6 7 8
6 7 8
6 7 8
6 7 8
6 7 8
6 7 8
6 6 8
6 7 8
6 6 8
6 7 8
6 7 8
6 7 8
6 6 8
6 7 8
6 7 8
6 7 8
6 6 8
6 7 8
6 7 8
6 6 8
6 6 8
6 6 8
6 7 8
6 7 8
6 7 8
6 7 8
6 7 8
6 6 8
6 6 8
6 7 8
6 7 8
6 7 8
6 6 8
6 6 8
6 7 8
6 7 8
6 6 8
6 7 8
6 7 8
6 7 8
6 6 8
6 7 8
6 7 8
6 7 8
6 7 8
6 7 8
6 7 8
6 6 8
6 6 8
6 7 8
6 7 8
6 6 8
6 7 8
39 41 45
90 95 102
110 116 125
117 123 133
138 146 157
149 157 169
145 154 166
181 191 206
187 197 212
202 214 230
208 220 237
214 226 244
225 237 255
225 237 255
225 237 255
225 237 255
225 237 255
224 237 255
224 237 255
224 237 255
224 237 255
224 237 255
224 237 255
224 237 255
224 237 255
224 237 255
224 237 255
224 237 255
224 237 255
224 237 255
224 237 255
224 237 255
224 237 255
224 237 255
224 237 255
224 237 255
224 237 255
224 237 255
224 237 255
224 237 255
224 237 255
224 237 255
224 237 255
224 237 255
224 237 255
224 237 255
224 237 255
224 237 255
224 237 255
224 237 255
224 237 255
224 237 255
224 237 255
224 237 255
224 237 255
224 237 255
224 237 255
224 237 255
224 237 255
224 237 255
224 237 255
224 237 255
224 237 255
224 237 255
224 237 255
224 237 255
224 237 255
224 237 255
224 237 255
224 237 255
224 237 255
224 237 255
224 237 255
224 237 255
224 237 255
225 237 255
225 237 255
225 237 255
225 237 255
225 237 255
225 237 255
221 234 252
220 233 250
201 212 229
197 208 224
185 196 211
178 188 203
159 168 181
140 148 159
135 142 153
112 119 128
74 79 85
81 86 92
45 48 51
6 7 8
6 7 8
6 7 8
6 7 8
6 7 8
6 7 8
6 7 8
6 6 8
6 6 8
6 6 8
6 6 8
6 6 8
6 7 8
6 7 8
6 7 8
6 7 8
6 7 8
6 6 8
6 7 8
6 6 8
6 7 8
6 6 8
6 7 8
6 7 8
6 6 8
6 6 8
6 7 8
6 7 8
6 7 8
6 7 8
6 6 8
6 7 8
6 7 8
6 6 8
6 7 8
6 7 8
6 7 8
6 7 8
6 7 8
6 7 8
6 7 8
6 6 8
6 7 8
6 7 8
6 7 8
6 7 8
6 6 8
6 6 8
6 7 8
6 6 8
6 6 8
6 7 8
6 7 8
6 7 8
6 6 8
6 7 8
6 7 8
6 6 8
6 6 8
6 7 8
6 7 8
6 6 8
6 7 8
6 7 8
6 7 8
6 6 8
6 7 8
6 7 8
6 6 8
6 7 8
6 7 8
6 7 8
6 6 8
6 7 8
6 7 8
6 6 8
6 7 8
6 6 8
6 6 8
6 7 8
6 7 8
6 6 8
6 6 8
6 6 8
6 6 8
6 7 8
6 7 8
6 7 8
6 6 8
6 7 8
6 6 8
6 6 8
6 6 8
6 6 8
6 6 8
6 7 8
5 6 7
4 5 5
4 5 5
4 4 5
4 5 6
4 5 5
4 4 5
4 4 5
4 5 5
4 4 5
4 5 5
4 4 5
4 4 5
4 5 5
4 4 5
4 4 5
4 5 5
4 4 5
4 5 5
4 4 5
4 5 5
4 4 5
4 4 5
4 5 5
4 4 5
4 5 5
4 5 5
4 4 5
4 4 5
4 4 5
3 4 4
4 4 5
4 5 5
4 4 5
4 4 5
4 4 5
4 5 5
4 4 5
4 4 5
4 4 5
5 5 6
4 5 6
4 5 5
4 4 5
4 5 5
4 5 6
4 5 5
4 4 5
4 4 5
4 4 4
4 4 5
4 5 5
4 4 5
4 5 5
4 4 5
4 5 5
4 4 5
3 4 4
4 5 5
4 5 5
4 5 5
4 4 5
4 5 5
4 4 5
4 4 5
4 5 5
4 4 5
4 5 5
4 5 5
4 5 6
4 4 5
4 5 6
4 5 5
4 5 5
4 4 5
4 4 5
4 4 5
4 4 5
4 4 5
4 4 5
4 5 5
4 4 5
4 5 5
5 5 6
4 4 5
4 4 5
4 4 5
4 4 5
4 5 5
4 4 5
4 5 5
4 5 5
4 5 5
4 4 5
4 4 5
4 5 6
4 4 5
4 4 5
4 5 5
4 4 5
4 5 5
4 4 5
5 5 6
4 4 5
4 4 5
4 5 5
4 4 5
4 5 5
4 4 5
4 5 5
4 4 5
4 5 5
4 5 5
4 4 5
4 5 5
4 4 5
4 5 5
4 4 5
4 4 5
4 4 5
4 4 5
4 5 5
4 4 5
4 4 5
4 5 5
6 6 7
6 7 8
6 7 8
6 6 8
6 7 8
6 6 8
6 6 8
6 6 8
6 6 8
6 6 8
6 6 8
6 7 8
6 6 8
6 7 8
6 7 8
6 6 8
6 6 8
6 7 8
6 7 8
6 6 8
6 6 8
6 6 8
6 7 8
6 7 8
6 7 8
6 6 8
6 7 8
6 7 8
6 7 8
6 7 8
6 7 8
6 7 8
6 6 8
6 7 8
6 6 8
6 6 8
6 6 8
6 7 8
6 7 8
6 7 8
6 6 8
6 6 8
6 7 8
6 7 8
6 7 8
6 7 8
6 6 8
6 7 8
6 6 8
6 7 8
6 7 8
6 7 8
6 7 8
6 6 8
6 7 8
6 7 8
6 7 8
6 6 8
6 7 8
6 7 8
6 7 8
6 7 8
6 7 8
6 7 8
6 7 8
6 7 8
6 7 8
6 7 8
6 7 8
6 6 8
6 7 8
6 7 8
6 7 8
6 7 8
6 7 8
6 7 8
6 7 8
6 7 8
6 6 8
6 6 8
6 7 8
6 7 8
6 7 8
6 7 8
6 7 8
6 7 8
6 7 8
6 6 8
6 7 8
6 7 8
6 7 8
6 6 8
6 6 8
6 7 8
6 7 8
6 7 8
6 6 8
6 7 8
63 67 72
90 95 102
103 109 117
121 128 138
149 157 169
154 163 175
171 181 195
175 185 200
191 201 217
208 220 237
215 228 245
223 236 254
225 237 255
225 237 255
225 237 255
225 237 255
225 237 255
225 237 255
224 237 255
224 237 255
224 237 255
224 237 255
224 237 255
224 237 255
224 237 255
224 237 255
224 237 255
224 237 255
224 237 255
224 237 255
224 237 255
224 237 255
224 237 255
224 237 255
224 237 255
224 237 255
224 237 255
224 237 255
224 237 255
224 237 255
224 237 255
224 237 255
224 237 255
224 237 255
224 237 255
224 237 255
224 237 255
224 237 255
224 237 255
225 237 255
225 237 255
225 237 255
225 237 255
225 237 255
225 237 255
225 237 255
225 237 255
219 231 249
208 220 237
191 201 217
187 197 212
167 176 189
165 174 188
137 144 155
127 134 144
110 116 125
93 98 105
71 75 81
39 41 45
6 7 8
6 7 8
6 7 8
6 7 8
6 7 8
6 7 8
6 7 8
6 6 8
6 7 8
6 7 8
6 7 8
6 6 8
6 7 8
6 7 8
6 7 8
6 6 8
6 7 8
6 7 8
6 6 8
6 7 8
6 7 8
6 7 8
6 7 8
6 7 8
6 6 8
6 7 8
6 7 8
6 7 8
6 7 8
6 7 8
6 7 8
6 7 8
6 6 8
6 7 8
6 6 8
6 6 8
6 7 8
6 7 8
6 7 8
6 7 8
6 6 8
6 6 8
6 7 8
6 7 8
6 7 8
6 7 8
6 6 8
6 7 8
6 7 8
6 7 8
6 7 8
6 7 8
6 6 8
6 6 8
6 7 8
6 7 8
6 6 8
6 7 8
6 6 8
6 7 8
6 6 8
6 7 8
6 7 8
6 6 8
6 6 8
6 6 8
6 6 8
6 7 8
6 6 8
6 6 8
6 7 8
6 7 8
6 6 8
6 7 8
6 7 8
6 6 8
6 7 8
6 7 8
6 6 8
6 6 8
6 6 8
6 7 8
6 6 8
6 6 8
6 6 8
6 6 8
6 7 8
6 7 8
6 7 8
6 7 8
6 6 8
6 6 8
6 6 8
6 6 8
6 6 7
6 7 8
6 6 8
6 7 8
6 7 8
6 6 8
6 7 8
6 6 8
6 7 8
6 7 8
6 7 8
6 7 8
6 6 8
6 7 8
6 6 8
4 5 6
4 4 4
4 4 5
4 5 5
4 5 5
4 4 5
4 4 5
4 4 5
4 4 5
4 4 5
4 5 5
4 4 5
4 5 5
4 4 4
4 5 5
4 5 5
4 5 5
4 4 5
4 4 5
4 4 5
4 4 5
4 5 5
4 4 5
4 5 5
4 4 5
3 4 4
5 5 6
4 4 5
4 5 6
4 5 5
3 4 4
4 4 5
4 4 5
4 5 5
5 5 6
4 4 5
4 5 6
4 5 5
4 4 5
4 4 4
4 4 5
4 4 5
4 4 5
3 4 4
4 4 5
4 4 5
4 5 5
4 4 5
4 4 5
4 4 5
4 4 5
4 4 5
4 5 5
4 5 5
4 5 5
4 5 5
4 5 5
4 4 5
4 5 5
4 4 5
4 4 5
4 4 5
4 5 5
4 4 5
4 4 5
4 4 5
4 4 5
4 4 5
4 4 5
4 4 5
4 4 5
4 4 5
4 4 5
4 5 5
4 5 5
4 5 5
5 5 6
4 5 5
4 4 5
4 4 5
4 4 5
4 4 4
4 5 5
4 5 5
4 4 5
4 5 5
5 5 6
4 5 5
4 4 5
4 5 5
4 4 5
4 5 5
4 4 5
4 5 5
3 4 4
4 4 5
4 5 6
4 4 5
4 4 5
4 5 5
4 4 5
4 4 5
4 4 5
4 5 5
4 5 5
4 5 5
5 5 6
4 5 6
4 4 5
4 4 5
4 4 5
4 5 5
4 4 5
4 5 5
4 5 5
4 5 5
4 4 5
3 4 4
4 4 5
4 4 5
4 4 5
4 4 5
4 4 4
4 5 6
6 7 8
6 7 8
6 6 8
6 7 8
6 6 8
6 7 8
6 6 8
6 6 8
6 6 8
6 6 7
6 6 8
6 6 8
6 6 8
6 6 8
6 6 8
6 7 8
6 7 8
6 7 8
6 6 8
6 7 8
6 6 8
6 6 8
6 6 8
6 7 8
6 7 8
6 7 8
6 7 8
6 7 8
6 7 8
6 7 8
6 7 8
6 6 8
6 6 8
6 7 8
6 7 8
6 7 8
6 7 8
6 6 8
6 7 8
6 7 8
6 7 8
6 6 8
6 7 8
6 7 8
6 7 8
6 7 8
6 6 8
6 7 8
6 7 8
6 7 8
6 7 8
6 7 8
6 7 8
6 7 8
6 7 8
6 6 8
6 6 8
6 7 8
6 6 8
6 7 8
6 6 8
6 6 8
6 7 8
6 7 8
6 7 8
6 7 8
6 7 8
6 7 8
6 7 8
6 7 8
6 6 8
6 6 8
6 7 8
6 7 8
6 6 8
6 6 8
6 7 8
6 7 8
6 7 8
6 7 8
6 7 8
6 7 8
6 6 8
6 7 8
6 6 8
6 7 8
6 6 8
6 7 8
6 7 8
6 6 8
6 7 8
6 7 8
6 7 8
6 7 8
6 7 8
6 7 8
6 6 8
6 7 8
6 7 8
6 7 8
6 6 8
6 7 8
6 7 8
6 7 8
6 7 8
6 7 8
6 7 8
6 7 8
6 7 8
32 34 37
63 67 72
74 79 85
112 119 128
138 146 157
142 150 162
163 173 186
174 184 198
191 201 217
200 211 227
211 223 240
213 225 242
225 237 255
225 237 255
225 237 255
225 237 255
225 237 255
225 237 255
225 237 255
224 237 255
224 237 255
224 237 255
224 237 255
224 237 255
224 237 255
224 237 255
224 237 255
224 237 255
224 237 255
225 237 255
225 237 255
225 237 255
225 237 255
225 237 255
220 233 250
214 227 244
198 210 226
188 199 214
177 187 201
171 181 195
140 148 159
135 142 153
100 106 114
105 111 120
63 67 72
32 34 37
6 7 8
6 7 8
6 7 8
6 6 8
6 7 8
6 6 8
6 7 8
6 7 8
6 7 8
6 7 8
6 7 8
6 7 8
6 6 8
6 6 8
6 7 8
6 6 8
6 6 8
6 7 8
6 7 8
6 7 8
6 6 8
6 7 8
6 7 8
6 7 8
6 7 8
6 7 8
6 7 8
6 6 8
6 7 8
6 6 8
6 7 8
6 7 8
6 7 8
6 7 8
6 7 8
6 7 8
6 7 8
6 6 8
6 6 8
6 6 8
6 7 8
6 7 8
6 7 8
6 7 8
6 7 8
6 7 8
6 7 8
6 7 8
6 7 8
6 7 8
6 7 8
6 7 8
6 6 8
6 6 8
6 7 8
6 7 8
6 7 8
6 7 8
6 7 8
6 7 8
6 7 8
6 6 8
6 7 8
6 7 8
6 6 8
6 7 8
6 7 8
6 6 8
6 6 8
6 6 8
6 7 8
6 6 8
6 6 8
6 7 8
6 7 8
6 6 8
6 6 8
6 6 8
6 6 8
6 6 8
6 6 8
6 6 8
6 6 8
6 6 8
6 6 8
6 6 8
6 6 8
6 6 8
6 6 8
6 6 8
6 6 8
6 7 8
6 6 8
6 7 8
6 6 8
6 7 8
6 6 8
6 6 8
6 6 8
6 7 8
6 6 8
6 7 8
6 7 8
6 6 8
6 7 8
6 6 8
6 7 8
6 7 8
6 7 8
6 6 8
6 7 8
6 6 8
6 6 8
6 6 8
6 7 8
6 6 8
6 6 8
6 7 8
6 7 8
6 6 8
6 7 8
5 5 6
4 4 5
4 4 5
4 5 5
4 4 5
4 4 5
4 4 5
3 4 4
4 4 5
4 5 5
4 5 5
3 4 4
4 4 5
4 4 5
4 4 5
4 4 5
4 4 5
4 4 5
4 4 5
4 4 5
4 5 5
4 5 5
4 5 5
4 4 5
3 4 4
4 5 5
4 4 5
4 4 5
4 5 5
4 4 5
4 4 5
4 5 6
4 4 5
4 4 5
4 4 5
4 5 5
4 4 5
4 5 5
4 4 5
4 4 5
4 4 5
4 5 5
4 5 5
4 5 5
4 4 5
4 4 5
4 5 6
4 5 5
4 4 5
4 4 5
4 4 5
4 4 5
3 4 4
4 5 5
4 5 5
4 4 4
4 4 5
4 5 5
4 4 5
4 4 5
4 4 5
4 4 5
4 5 5
4 5 5
4 5 5
4 4 5
4 4 5
4 5 6
4 4 5
4 4 5
4 5 5
4 4 5
4 4 5
4 5 5
4 4 5
4 5 5
4 4 5
3 4 4
4 5 5
4 4 5
4 5 5
4 5 5
4 4 4
4 5 5
4 4 5
4 4 5
4 5 5
4 4 5
4 5 5
4 4 5
4 5 5
4 5 5
4 4 5
4 5 5
3 4 4
4 4 5
4 5 5
4 4 5
4 4 5
4 4 4
4 5 5
4 5 5
4 5 5
4 5 5
4 5 5
4 4 5
4 4 5
4 4 5
4 5 5
4 5 5
4 4 5
4 4 5
4 5 5
4 5 5
4 4 5
4 4 5
4 4 5
3 4 4
4 4 5
3 4 4
4 4 5
3 4 4
4 5 5
5 5 6
6 7 8
6 7 8
6 6 8
6 6 8
6 6 8
6 7 8
6 6 8
6 6 8
6 6 8
6 6 8
6 6 8
6 6 8
6 6 8
6 6 8
6 6 8
6 6 8
6 6 8
6 7 8
6 6 8
6 7 8
6 6 8
6 7 8
6 7 8
6 7 8
6 7 8
6 7 8
6 7 8
6 6 8
6 7 8
6 7 8
6 7 8
6 6 8
6 7 8
6 7 8
6 6 8
6 6 7
6 7 8
6 7 8
6 6 8
6 6 8
6 7 8
6 7 8
6 7 8
6 7 8
6 7 8
6 6 8
6 7 8
6 7 8
6 6 8
6 7 8
6 6 8
6 6 8
6 6 8
6 6 8
6 7 8
6 7 8
6 6 8
6 7 8
6 7 8
6 7 8
6 6 8
6 6 8
6 6 8
6 7 8
6 6 8
6 7 8
6 7 8
6 7 8
6 7 8
6 7 8
6 7 8
6 6 8
6 6 8
6 7 8
6 7 8
6 7 8
6 6 8
6 7 8
6 7 8
6 7 8
6 6 8
6 7 8
6 6 8
6 7 8
6 7 8
6 7 8
6 7 8
6 7 8
6 7 8
6 7 8
6 7 8
6 7 8
6 6 8
6 6 8
6 7 8
6 7 8
6 6 8
6 7 8
6 7 8
6 7 8
6 7 8
6 6 8
6 7 8
6 7 8
6 7 8
6 7 8
6 6 8
6 7 8
6 7 8
6 7 8
6 7 8
6 7 8
6 7 8
6 6 8
6 6 8
6 7 8
6 7 8
6 7 8
6 7 8
6 7 8
6 7 8
39 41 45
84 89 96
78 82 89
133 140 151
142 150 162
151 159 171
172 182 196
185 196 211
194 206 221
205 216 233
208 220 237
220 233 250
225 237 255
225 237 255
225 237 255
225 237 255
225 237 255
149 157 169
121 128 138
112 119 128
93 98 105
78 82 89
6 7 8
6 7 8
6 6 8
6 7 8
6 7 8
6 7 8
6 7 8
6 7 8
6 6 8
6 6 8
6 7 8
6 7 8
6 7 8
6 7 8
6 7 8
6 6 8
6 7 8
6 7 8
6 6 8
6 6 8
6 7 8
6 6 8
6 7 8
6 7 8
6 7 8
6 7 8
6 7 8
6 7 8
6 7 8
6 7 8
6 7 8
6 7 8
6 7 8
6 7 8
6 7 8
6 6 8
6 7 8
6 7 8
6 7 8
6 6 8
6 7 8
6 7 8
6 7 8
6 7 8
6 6 8
6 6 8
6 7 8
6 7 8
6 7 8
6 7 8
6 7 8
6 6 8
6 7 8
6 7 8
6 6 8
6 6 8
6 7 8
6 6 8
6 7 8
6 7 8
6 7 8
6 7 8
6 7 8
6 6 8
6 7 8
6 7 8
6 7 8
6 7 8
6 7 8
6 7 8
6 6 8
6 7 8
6 6 8
6 6 8
6 6 8
6 7 8
6 6 8
6 6 8
6 6 8
6 6 8
6 7 8
6 7 8
6 7 8
6 6 8
6 7 8
6 6 8
6 7 8
6 7 8
6 7 8
6 7 8
6 7 8
6 7 8
6 7 8
6 7 8
6 6 8
6 6 8
6 7 8
6 6 8
6 7 8
6 7 8
6 7 8
6 6 8
6 6 8
6 7 8
6 6 8
6 7 8
6 6 8
6 6 8
6 6 8
6 6 8
6 6 8
6 6 8
6 6 8
6 7 8
6 7 8
6 7 8
6 7 8
6 6 8
6 6 8
6 7 8
6 7 8
6 6 8
6 7 8
6 6 8
6 7 8
6 7 8
6 7 8
6 6 8
6 6 8
6 7 8
6 6 8
6 6 7
6 6 8
5 6 7
4 4 4
4 4 5
4 4 5
4 5 5
4 4 5
4 4 5
4 4 5
4 4 5
4 4 5
4 4 5
4 4 5
4 4 5
4 4 5
4 5 5
4 4 5
4 4 5
4 5 5
4 4 5
4 4 5
4 4 5
4 5 5
4 4 5
4 5 5
4 4 5
4 4 5
4 4 5
4 4 5
4 4 5
4 5 5
4 4 5
4 5 5
4 5 5
4 5 5
4 4 5
4 4 5
4 4 5
4 5 5
4 4 5
3 4 4
4 4 5
3 4 4
3 4 4
4 5 5
4 4 5
4 5 5
4 4 5
4 5 6
4 5 5
4 4 5
4 5 5
4 4 5
4 4 4
4 4 5
4 4 4
4 4 5
4 4 5
5 5 6
4 4 5
4 5 5
4 5 5
4 4 5
4 5 5
4 4 5
4 5 5
4 5 5
4 5 5
4 5 5
4 5 5
4 4 5
4 4 5
4 4 5
4 5 5
4 4 5
4 4 5
4 5 5
4 5 5
4 5 5
4 5 5
4 4 5
4 4 5
4 5 5
4 4 5
4 4 5
4 5 5
4 4 5
4 4 5
4 4 5
4 4 5
4 5 5
4 4 5
4 4 5
4 4 5
4 5 6
4 4 5
4 4 5
4 4 5
4 5 5
4 4 5
4 4 5
4 4 5
4 5 5
4 4 5
4 4 5
4 4 5
4 4 5
4 5 5
4 4 5
3 4 4
3 3 4
4 4 5
4 5 5
4 4 5
4 4 5
4 4 5
3 4 4
4 4 5
4 4 4
4 4 4
3 4 4
4 4 5
4 5 5
4 4 5
5 6 7
6 6 8
6 6 8
6 7 8
6 7 8
6 6 8
6 6 8
6 6 8
6 7 8
6 6 8
6 7 8
6 6 8
6 6 8
6 6 7
6 6 8
6 7 8
6 6 8
6 6 8
6 7 8
6 7 8
6 7 8
6 7 8
6 7 8
6 7 8
6 7 8
6 6 8
6 6 8
6 7 8
6 7 8
6 6 8
6 6 8
6 7 8
6 7 8
6 7 8
6 7 8
6 7 8
6 6 8
6 7 8
6 7 8
6 7 8
6 7 8
6 6 8
6 6 8
6 6 8
6 6 8
6 6 8
6 6 8
6 7 8
6 7 8
6 6 8
6 6 8
6 7 8
6 6 8
6 7 8
6 6 8
6 7 8
6 7 8
6 7 8
6 7 8
6 7 8
6 7 8
6 6 8
6 7 8
6 6 8
6 6 8
6 7 8
6 6 8
6 7 8
6 7 8
6 7 8
6 7 8
6 6 8
6 6 8
6 7 8
6 7 8
6 6 8
6 6 8
6 7 8
6 6 8
6 7 8
6 6 8
6 7 8
6 7 8
6 7 8
6 6 8
6 6 8
6 7 8
6 7 8
6 7 8
6 6 8
6 6 8
6 6 8
6 6 8
6 7 8
6 7 8
6 7 8
6 6 8
6 7 8
6 6 8
6 7 8
6 7 8
6 6 8
6 6 8
6 7 8
6 7 8
6 7 8
6 7 8
6 7 8
6 7 8
6 7 8
6 7 8
6 6 8
6 7 8
6 6 8
6 7 8
6 7 8
6 6 8
6 7 8
6 7 8
6 7 8
6 6 8
6 7 8
6 6 8
6 6 8
6 7 8
6 7 8
6 7 8
6 6 8
6 7 8
6 7 8
6 7 8
6 7 8
6 7 8
6 7 8
78 82 89
81 86 92
103 109 117
119 126 135
162 171 184
6 7 8
6 7 8
6 7 8
6 7 8
6 7 8
6 7 8
6 6 8
6 6 8
6 7 8
6 7 8
6 6 8
6 7 8
6 7 8
6 7 8
6 7 8
6 7 8
6 7 8
6 7 8
6 6 8
6 7 8
6 7 8
6 7 8
6 7 8
6 6 8
6 6 8
6 6 8
6 7 8
6 6 8
6 6 8
6 7 8
6 6 8
6 7 8
6 7 8
6 6 8
6 7 8
6 7 8
6 6 8
6 7 8
6 6 8
6 7 8
6 7 8
6 7 8
6 7 8
6 7 8
6 7 8
6 6 8
6 7 8
6 7 8
6 7 8
6 7 8
6 7 8
6 6 8
6 7 8
6 7 8
6 7 8
6 6 8
6 6 8
6 7 8
6 7 8
6 7 8
6 6 8
6 7 8
6 6 8
6 6 8
6 6 8
6 6 8
6 6 8
6 6 8
6 7 8
6 6 8
6 7 8
6 7 8
6 6 8
6 7 8
6 6 8
6 7 8
6 7 8
6 7 8
6 6 8
6 6 8
6 7 8
6 7 8
6 7 8
6 7 8
6 6 8
6 7 8
6 7 8
6 6 8
6 7 8
6 6 8
6 7 8
6 6 8
6 6 8
6 6 8
6 7 8
6 7 8
6 7 8
6 7 8
6 6 8
6 6 8
6 6 8
6 7 8
6 7 8
6 7 8
6 7 8
6 6 7
6 6 8
6 7 8
6 7 8
6 6 8
6 7 8
6 7 8
6 6 8
6 7 8
6 6 8
6 7 8
6 7 8
6 6 8
6 7 8
6 6 8
6 6 8
6 7 8
6 6 8
6 7 8
6 6 8
6 6 8
6 7 8
6 7 8
6 7 8
6 7 8
6 6 8
6 6 8
6 6 8
6 6 8
6 7 8
6 6 8
6 6 8
6 7 8
6 7 8
4 5 6
4 4 5
4 4 5
4 4 5
4 4 5
4 5 5
4 4 5
4 4 5
4 4 5
4 4 4
4 5 5
4 4 5
4 4 5
4 4 5
4 4 5
4 4 5
4 4 5
4 5 5
4 4 5
3 4 4
4 4 5
4 5 5
4 4 5
4 4 5
4 4 4
4 5 5
4 5 5
4 5 5
4 5 5
4 4 5
4 5 5
4 5 5
4 4 5
4 4 5
4 5 5
4 4 4
4 5 5
4 4 5
4 5 5
4 5 5
4 5 5
4 4 5
4 5 5
4 4 5
4 4 5
3 4 4
4 5 6
4 5 6
4 5 5
4 4 5
4 5 5
4 4 5
4 4 5
4 5 5
4 4 5
4 4 5
4 4 5
4 5 5
5 5 6
4 4 5
4 5 5
4 5 5
4 4 4
4 5 5
4 5 5
4 4 5
5 5 6
4 4 5
4 5 5
4 4 5
4 4 5
4 4 5
4 4 5
4 5 5
4 4 5
4 4 5
4 4 5
3 4 4
4 4 5
4 4 5
4 4 5
4 4 5
4 4 5
4 4 5
4 5 5
4 4 5
3 4 4
4 5 5
4 5 5
4 4 5
4 4 5
4 4 5
4 4 5
4 4 5
4 4 5
4 4 5
4 4 5
4 5 5
4 4 5
4 4 5
4 4 5
4 4 5
4 4 5
4 4 5
4 4 5
4 5 5
4 4 5
4 4 4
4 4 5
4 4 5
4 4 5
4 4 5
4 4 4
4 4 5
4 4 5
4 4 5
4 4 5
4 4 5
4 4 5
4 4 5
4 4 5
4 5 6
6 6 8
6 6 8
6 6 7
6 7 8
6 7 8
6 6 8
6 6 8
6 7 8
6 6 8
6 6 8
6 6 8
6 7 8
6 6 8
6 7 8
6 7 8
6 6 8
6 7 8
6 6 8
6 7 8
6 7 8
6 7 8
6 6 8
6 6 8
6 6 8
6 6 8
6 6 8
6 6 8
6 6 8
6 7 8
6 6 8
6 7 8
6 7 8
6 6 8
6 6 8
6 6 8
6 6 8
6 6 8
6 6 8
6 6 8
6 7 8
6 6 8
6 6 8
6 7 8
6 7 8
6 7 8
6 7 8
6 6 8
6 7 8
6 7 8
6 7 8
6 7 8
6 6 8
6 6 8
6 6 8
6 7 8
6 6 8
6 7 8
6 6 8
6 6 8
6 7 8
6 7 8
6 6 8
6 6 8
6 7 8
6 7 8
6 7 8
6 6 8
6 7 8
6 6 8
6 7 8
6 7 8
6 6 8
6 6 8
6 6 8
6 7 8
6 7 8
6 7 8
6 7 8
6 7 8
6 7 8
6 7 8
6 6 8
6 7 8
6 6 8
6 6 8
6 7 8
6 6 8
6 6 8
6 6 8
6 6 8
6 7 8
6 6 8
6 7 8
6 7 8
6 7 8
6 7 8
6 7 8
6 7 8
6 7 8
6 7 8
6 7 8
6 7 8
6 7 8
6 7 8
6 7 8
6 7 8
6 7 8
6 6 8
6 7 8
6 7 8
6 6 8
6 7 8
6 7 8
6 7 8
6 7 8
6 7 8
6 7 8
6 7 8
6 7 8
6 7 8
6 7 8
6 6 8
6 7 8
6 6 8
6 7 8
6 7 8
6 7 8
6 6 8
6 7 8
6 6 8
6 7 8
6 7 8
6 7 8
6 7 8
6 7 8
6 7 8
6 7 8
6 7 8
6 7 8
6 7 8
6 7 8
6 7 8
6 7 8
6 7 8
6 7 8
6 7 8
6 6 8
6 6 8
6 7 8
6 7 8
6 6 8
6 7 8
6 7 8
6 6 8
6 7 8
6 7 8
6 7 8
6 7 8
6 6 8
6 7 8
6 7 8
6 6 8
6 6 8
6 6 8
6 6 8
6 7 8
6 7 8
6 7 8
6 7 8
6 6 8
6 6 8
6 7 8
6 7 8
6 7 8
6 7 8
6 7 8
6 7 8
6 7 8
6 6 8
6 7 8
6 6 8
6 7 8
6 6 8
6 6 8
6 7 8
6 6 8
6 7 8
6 6 8
6 7 8
6 7 8
6 7 8
6 7 8
6 6 8
6 6 8
6 6 8
6 7 8
6 7 8
6 6 8
6 6 8
6 7 8
6 6 8
6 6 8
6 6 8
6 7 8
6 6 8
6 7 8
6 7 8
6 6 8
6 6 8
6 6 8
6 6 8
6 7 8
6 7 8
6 6 8
6 7 8
6 7 8
6 7 8
6 7 8
6 7 8
6 7 8
6 6 8
6 7 8
6 6 8
6 6 8
6 7 8
6 6 8
6 6 8
6 7 8
6 7 8
6 6 8
6 7 8
6 6 8
6 6 8
6 7 8
6 6 7
6 7 8
6 7 8
6 6 8
6 6 8
6 7 8
6 6 8
6 6 8
6 7 8
6 6 8
6 6 8
6 6 8
6 6 8
6 6 7
6 6 8
6 6 8
6 6 8
6 7 8
6 6 8
6 7 8
6 6 8
6 6 8
6 7 8
6 7 8
6 6 7
6 6 8
6 7 8
6 6 8
6 7 8
6 7 8
6 6 8
6 6 8
6 6 7
6 6 8
6 6 7
6 6 8
6 7 8
6 6 7
6 6 8
6 6 7
6 6 8
6 6 8
6 6 7
6 6 8
5 6 7
4 4 5
4 4 5
4 4 5
4 4 5
4 4 5
4 4 5
4 4 5
4 4 5
4 4 5
4 4 5
4 4 4
4 4 5
4 4 4
4 4 5
3 4 4
3 4 4
4 4 5
4 4 5
3 4 4
4 4 5
4 4 5
4 4 5
4 5 5
4 4 5
4 4 5
4 4 5
4 4 5
4 4 5
4 4 5
4 5 5
4 4 5
4 5 5
4 4 5
4 4 5
4 4 5
4 4 5
4 4 5
4 5 5
4 4 5
4 4 5
4 4 5
4 5 5
4 4 5
4 4 4
4 5 5
4 4 5
4 4 5
4 4 5
4 4 5
4 4 5
4 4 5
4 4 5
4 5 5
4 5 5
4 4 5
4 4 5
4 5 5
4 4 5
4 4 5
4 4 5
4 5 5
4 4 5
4 4 5
4 5 5
4 5 5
4 4 5
4 4 5
4 5 5
4 4 5
4 5 6
5 5 6
3 4 4
4 4 5
4 4 5
4 4 5
4 4 5
4 5 5
4 4 5
4 5 5
4 4 5
4 5 5
4 4 5
4 4 5
4 5 5
4 5 5
4 4 5
4 4 5
4 4 5
4 4 5
4 4 5
4 4 5
4 5 5
4 5 5
4 4 5
4 4 5
4 4 5
4 5 5
4 4 5
4 4 5
4 4 5
4 5 5
4 4 5
4 4 5
4 4 4
4 5 6
3 4 4
4 5 5
4 4 5
4 4 5
4 4 5
4 4 5
4 4 4
4 5 5
4 5 5
4 4 5
3 3 4
4 4 5
4 4 5
4 5 5
3 4 4
5 6 7
6 7 8
6 6 8
6 6 7
6 6 8
6 7 8
6 6 8
6 6 8
6 6 8
6 7 8
6 6 8
6 6 8
6 6 8
6 6 8
6 6 8
6 6 8
6 6 8
6 6 8
6 6 8
6 7 8
6 6 8
6 7 8
6 6 8
6 7 8
6 6 8
6 7 8
6 7 8
6 6 8
6 6 8
6 6 8
6 6 8
6 6 8
6 7 8
6 7 8
6 6 8
6 6 8
6 6 8
6 7 8
6 7 8
6 6 8
6 6 8
6 7 8
6 6 8
6 7 8
6 7 8
6 7 8
6 7 8
6 6 8
6 7 8
6 6 8
6 7 8
6 7 8
6 7 8
6 6 8
6 6 8
6 7 8
6 7 8
6 7 8
6 7 8
6 7 8
6 7 8
6 7 8
6 7 8
6 7 8
6 6 8
6 7 8
6 6 8
6 7 8
6 6 8
6 7 8
6 7 8
6 7 8
6 7 8
6 7 8
6 7 8
6 7 8
6 6 8
6 7 8
6 7 8
6 7 8
6 6 8
6 6 8
6 6 8
6 7 8
6 6 8
6 7 8
6 6 8
6 6 8
6 6 8
6 7 8
6 6 8
6 7 8
6 7 8
6 7 8
6 7 8
6 7 8
6 7 8
6 6 8
6 6 8
6 7 8
6 7 8
6 7 8
6 6 8
6 7 8
6 7 8
6 6 8
6 7 8
6 6 8
6 7 8
6 7 8
6 7 8
6 7 8
6 7 8
6 6 8
6 7 8
6 7 8
6 6 8
6 6 8
6 7 8
6 7 8
6 7 8
6 7 8
6 6 8
6 7 8
6 7 8
6 7 8
6 7 8
6 6 8
6 7 8
6 7 8
6 6 8
6 7 8
6 7 8
6 6 8
6 7 8
6 6 8
6 7 8
6 7 8
6 7 8
6 7 8
6 7 8
6 7 8
6 7 8
6 7 8
6 6 8
6 7 8
6 7 8
6 7 8
6 7 8
6 7 8
6 7 8
6 7 8
6 7 8
6 7 8
6 7 8
6 7 8
6 6 8
6 7 8
6 6 8
6 7 8
6 7 8
6 6 8
6 6 8
6 6 8
6 6 8
6 7 8
6 7 8
6 6 8
6 6 8
6 6 8
6 7 8
6 6 8
6 7 8
6 6 8
6 7 8
6 7 8
6 6 8
6 6 8
6 6 8
6 7 8
6 6 8
6 7 8
6 7 8
6 7 8
6 7 8
6 6 8
6 6 8
6 7 8
6 6 8
6 6 8
6 6 8
6 7 8
6 7 8
6 6 8
6 6 8
6 7 8
6 7 8
6 6 8
6 7 8
6 7 8
6 7 8
6 7 8
6 6 8
6 7 8
6 6 8
6 6 8
6 7 8
6 6 8
6 6 8
6 7 8
6 6 8
6 7 8
6 6 8
6 7 8
6 7 8
6 6 8
6 6 8
6 7 8
6 7 8
6 6 7
6 7 8
6 6 8
6 7 8
6 6 8
6 6 8
6 6 8
6 7 8
6 6 8
6 7 8
6 7 8
6 6 8
6 7 8
6 6 8
6 6 8
6 6 8
6 6 8
6 6 8
6 7 8
6 7 8
6 7 8
6 6 8
6 6 8
6 6 8
6 6 8
6 6 8
6 7 8
6 7 8
6 6 8
6 6 8
6 6 8
6 6 8
6 6 8
6 6 8
6 7 8
6 7 8
6 6 8
6 7 8
6 6 8
6 6 8
6 7 8
6 7 8
6 6 7
6 6 8
6 6 8
6 6 7
6 6 8
6 6 8
6 6 8
6 7 8
6 6 8
6 7 8
6 6 8
6 6 7
6 6 8
6 7 8
6 6 8
6 6 8
6 6 8
6 6 7
6 6 7
4 5 5
4 4 5
3 4 4
4 4 5
4 4 5
3 4 4
4 4 5
4 4 5
4 4 5
4 5 6
4 4 5
4 4 5
4 4 4
4 4 5
3 4 4
4 4 5
3 4 4
4 5 5
4 4 4
4 4 5
4 4 5
4 4 5
3 4 4
4 4 5
3 4 4
4 4 5
4 5 5
4 4 5
4 5 5
4 4 5
4 4 5
4 5 5
4 4 5
4 4 4
4 4 5
4 4 5
4 4 5
4 4 5
4 4 5
3 4 4
4 4 5
4 5 5
4 4 5
4 5 5
4 5 5
4 4 5
4 4 5
4 4 5
4 4 5
4 4 4
4 5 5
4 4 5
4 4 4
4 4 5
4 5 5
4 4 5
3 4 4
3 4 4
4 4 5
4 4 5
4 4 5
4 5 5
4 4 5
4 4 5
4 5 5
4 4 5
3 4 4
4 4 5
4 4 5
4 5 5
4 4 4
4 4 5
4 5 5
4 5 5
4 4 5
4 5 5
4 4 5
4 4 5
4 5 5
4 4 5
4 4 5
4 5 5
4 5 5
4 5 5
4 5 5
4 4 5
3 4 4
4 5 5
4 4 5
4 5 5
4 4 5
4 4 5
4 5 5
4 4 5
4 5 5
4 4 5
4 4 5
4 4 4
4 4 5
4 5 5
4 5 5
4 4 5
4 4 4
4 4 4
4 5 5
4 4 5
4 5 5
4 4 4
3 4 4
4 4 5
4 4 5
4 4 5
3 4 4
4 4 4
4 4 5
4 4 5
4 4 5
3 4 4
4 4 5
3 4 4
6 6 8
6 6 8
6 6 8
6 6 8
6 6 8
6 6 8
6 6 8
6 6 8
6 6 8
6 6 8
6 6 8
6 6 8
6 6 8
6 6 8
6 7 8
6 6 7
6 6 8
6 7 8
6 6 8
6 6 7
6 6 7
6 6 8
6 6 8
6 7 8
6 6 8
6 6 8
6 6 8
6 7 8
6 7 8
6 6 8
6 6 8
6 6 8
6 6 8
6 7 8
6 7 8
6 6 8
6 7 8
6 6 8
6 7 8
6 6 8
6 6 8
6 6 8
6 7 8
6 7 8
6 7 8
6 6 8
6 6 8
6 7 8
6 7 8
6 7 8
6 7 8
6 7 8
6 6 8
6 6 8
6 6 8
6 7 8
6 6 8
6 6 8
6 6 8
6 6 8
6 6 8
6 7 8
6 7 8
6 7 8
6 6 8
6 7 8
6 6 8
6 7 8
6 6 8
6 6 8
6 7 8
6 7 8
6 7 8
6 6 8
6 6 8
6 6 8
6 7 8
6 6 8
6 7 8
6 7 8
6 7 8
6 6 8
6 7 8
6 7 8
6 7 8
6 6 8
6 7 8
6 6 8
6 7 8
6 7 8
6 6 8
6 6 8
6 7 8
6 6 8
6 6 8
6 7 8
6 7 8
6 7 8
6 7 8
6 7 8
6 7 8
6 7 8
6 7 8
6 7 8
6 6 8
6 7 8
6 7 8
6 7 8
6 7 8
6 7 8
6 7 8
6 7 8
6 7 8
6 6 8
6 7 8
6 6 8
6 7 8
6 6 8
6 7 8
6 6 8
6 6 8
6 7 8
6 7 8
6 7 8
6 7 8
6 7 8
6 7 8
6 7 8
6 6 8
6 7 8
6 7 8
6 6 8
6 7 8
6 7 8
6 7 8
6 6 8
6 7 8
6 6 8
6 6 8
6 7 8
6 7 8
6 7 8
6 7 8
6 6 8
6 7 8
6 7 8
6 7 8
6 6 8
6 7 8
6 7 8
6 7 8
6 7 8
6 7 8
6 7 8
6 7 8
6 6 8
6 6 8
6 7 8
6 7 8
6 6 8
6 7 8
6 7 8
6 6 8
6 7 8
6 7 8
6 6 8
6 6 8
6 7 8
6 7 8
6 7 8
6 7 8
6 7 8
6 7 8
6 6 8
6 6 8
6 7 8
6 6 8
6 7 8
6 7 8
6 6 8
6 7 8
6 6 8
6 6 8
6 6 8
6 7 8
6 7 8
6 6 8
6 6 8
6 7 8
6 6 8
6 6 8
6 7 8
6 7 8
6 7 8
6 6 8
6 7 8
6 6 8
6 6 8
6 6 8
6 7 8
6 6 8
6 6 8
6 6 8
6 7 8
6 6 8
6 6 8
6 6 8
6 6 8
6 6 8
6 7 8
6 7 8
6 6 8
6 7 8
6 7 8
6 6 8
6 6 8
6 7 8
6 6 8
6 7 8
6 7 8
6 6 8
6 6 8
6 7 8
6 6 8
6 6 8
6 7 8
6 6 7
6 6 8
6 7 8
6 7 8
6 6 8
6 6 8
6 7 8
6 6 8
6 6 8
6 7 8
6 6 8
6 6 8
6 6 8
6 6 7
6 6 8
6 7 8
6 6 8
6 6 8
6 7 8
6 6 8
6 6 8
6 6 8
6 6 8
6 6 8
6 7 8
6 7 8
6 7 8
6 6 8
6 7 8
6 7 8
6 7 8
6 6 8
6 6 8
6 6 7
6 6 8
6 6 8
5 6 7
6 6 8
6 6 8
6 6 8
6 6 8
6 6 8
6 6 8
6 6 8
6 7 8
6 6 8
6 6 7
6 6 8
6 6 8
6 6 7
6 7 8
6 6 8
6 7 8
6 6 7
5 6 6
4 4 5
4 4 4
3 4 4
4 4 5
4 4 5
4 4 5
4 4 5
4 4 5
4 4 5
3 4 4
4 5 5
4 4 5
4 5 5
4 4 4
4 4 5
4 4 5
4 4 5
4 4 5
4 4 5
4 4 4
3 3 4
4 4 5
4 4 5
3 4 4
4 4 5
4 4 5
3 4 4
4 4 5
4 4 5
4 4 4
4 5 5
4 4 5
4 5 5
4 4 5
4 4 5
4 4 5
4 4 4
4 5 5
4 4 5
4 4 5
4 4 5
4 4 5
4 4 5
4 4 5
4 4 4
4 4 5
4 4 5
4 4 5
4 4 5
4 4 5
4 4 5
4 5 5
3 4 4
4 5 5
4 4 4
4 4 5
4 4 4
4 5 5
4 4 5
3 4 4
4 5 6
4 4 5
4 4 5
4 4 5
4 4 5
4 4 5
4 5 5
4 4 5
4 4 5
4 5 5
4 4 5
4 4 5
4 5 5
4 5 5
4 4 5
4 4 4
4 4 5
4 4 5
4 5 5
4 4 5
4 4 5
4 4 5
4 4 5
4 4 5
5 5 6
4 4 5
4 5 5
4 4 5
4 5 5
4 5 5
4 4 5
4 5 5
4 4 5
4 4 5
4 4 5
4 5 5
4 5 5
4 5 5
4 4 5
4 4 5
4 4 5
3 4 4
3 4 4
4 4 5
4 4 5
4 4 5
4 4 5
4 5 5
4 5 5
4 4 5
4 4 5
4 4 5
4 4 5
4 4 5
4 4 5
4 4 5
4 4 5
3 4 4
5 5 6
6 6 7
6 6 7
6 6 7
6 6 7
6 7 8
6 6 8
6 7 8
6 6 7
6 6 8
6 6 7
6 6 7
6 6 8
6 7 8
6 7 8
6 6 8
6 7 8
6 6 8
6 6 8
6 6 8
6 6 8
6 6 8
6 6 8
6 7 8
6 7 8
6 7 8
6 6 8
6 6 8
6 6 8
6 6 8
6 7 8
6 6 8
6 6 8
6 6 8
6 6 8
6 6 7
6 7 8
6 7 8
6 6 8
6 6 8
6 6 7
6 6 7
6 6 8
6 6 8
6 6 8
6 6 8
6 6 8
6 7 8
6 6 8
6 6 8
6 7 8
6 6 8
6 6 7
6 6 8
6 7 8
6 6 8
6 6 8
6 6 8
6 7 8
6 6 8
6 6 8
6 6 8
6 6 8
6 6 8
6 6 8
6 7 8
6 6 8
6 6 8
6 6 8
6 7 8
6 6 8
6 7 8
6 7 8
6 6 8
6 6 8
6 7 8
6 6 8
6 7 8
6 7 8
6 6 8
6 7 8
6 7 8
6 6 8
6 6 8
6 7 8
6 7 8
6 7 8
6 7 8
6 7 8
6 6 8
6 6 8
6 6 8
6 7 8
6 7 8
6 7 8
6 6 8
6 7 8
6 6 8
6 6 8
6 7 8
6 7 8
6 6 8
6 6 8
6 7 8
6 7 8
6 6 8
6 7 8
6 6 8
6 7 8
6 7 8
6 7 8
6 7 8
6 6 8
6 7 8
6 7 8
6 7 8
6 7 8
6 6 8
6 7 8
6 7 8
6 6 8
6 7 8
6 7 8
6 7 8
6 7 8
6 7 8
6 7 8
6 7 8
6 7 8
6 7 8
6 6 8
6 7 8
6 7 8
6 6 8
6 6 8
6 6 8
6 7 8
6 7 8
6 6 8
6 6 8
6 7 8
6 6 8
6 6 8
6 7 8
6 6 8
6 6 8
6 7 8
6 6 8
6 7 8
6 7 8
6 6 8
6 7 8
6 6 8
6 6 8
6 7 8
6 7 8
6 7 8
6 7 8
6 6 8
6 7 8
6 6 8
6 7 8
6 6 8
6 7 8
6 7 8
6 6 8
6 7 8
6 7 8
6 7 8
6 7 8
6 6 8
6 7 8
6 6 8
6 7 8
6 6 8
6 7 8
6 6 8
6 7 8
6 6 8
6 6 8
6 7 8
6 7 8
6 6 8
6 6 8
6 7 8
6 6 8
6 6 8
6 7 8
6 7 8
6 7 8
6 6 8
6 6 8
6 6 8
6 6 8
6 7 8
6 6 8
6 6 8
6 6 8
6 7 8
6 7 8
6 7 8
6 7 8
6 6 8
6 6 8
6 7 8
6 6 8
6 6 8
6 7 8
6 6 8
6 7 8
6 7 8
6 6 8
6 6 8
6 7 8
6 6 8
6 6 8
6 6 8
6 7 8
6 6 8
6 7 8
6 7 8
6 7 8
6 6 8
6 7 8
6 6 8
6 7 8
6 6 8
6 7 8
6 6 8
6 6 8
6 7 8
6 6 7
6 6 8
6 6 8
6 6 8
6 6 8
6 7 8
6 7 8
6 6 8
6 7 8
6 6 8
6 6 8
6 6 7
6 7 8
6 6 7
6 6 8
6 6 8
6 6 8
6 6 8
6 6 8
6 6 8
6 7 8
6 7 8
6 7 8
6 6 8
6 6 8
6 7 8
6 6 8
6 6 8
6 6 8
6 7 8
6 6 8
6 6 8
6 6 8
6 6 8
6 6 7
6 6 8
6 6 8
6 6 8
6 6 8
6 6 8
6 6 8
6 6 8
6 6 8
6 6 8
6 6 8
6 6 7
6 6 8
6 6 7
6 6 8
6 6 7
5 6 7
4 4 5
4 4 4
4 4 4
4 4 5
4 4 5
4 4 5
4 5 5
4 4 5
3 4 4
4 4 4
4 5 5
4 4 5
4 4 5
4 4 4
4 5 5
4 5 5
4 4 5
4 4 4
4 4 5
4 4 5
4 5 5
4 5 5
3 4 4
4 4 5
4 4 5
3 4 4
4 4 5
4 5 5
4 4 4
4 4 5
4 4 5
4 4 5
4 4 5
4 4 5
4 4 4
4 4 5
4 4 5
3 4 4
4 4 5
4 4 5
4 4 5
4 5 5
4 4 5
4 4 5
3 4 4
4 4 5
4 4 5
4 5 5
4 5 5
3 4 4
4 4 5
3 4 4
4 5 5
4 5 5
4 4 5
4 4 5
4 4 5
4 5 5
4 4 5
4 4 5
4 4 4
4 4 5
4 4 5
4 4 5
4 4 5
4 5 5
4 4 5
4 4 5
4 4 5
3 4 4
4 4 5
4 4 4
4 4 5
4 4 5
4 4 5
4 4 5
4 4 5
4 4 5
4 4 5
4 4 5
4 4 5
4 4 5
4 4 5
4 4 5
4 4 5
4 4 5
4 4 5
4 4 5
4 4 5
4 4 4
4 4 5
4 4 5
4 4 5
4 5 5
4 5 5
4 4 5
4 4 5
4 4 5
4 4 4
4 4 5
4 4 5
4 4 5
4 4 5
4 5 5
4 4 4
3 4 4
4 4 5
4 4 5
4 4 5
4 4 4
4 4 5
4 4 5
4 4 5
4 4 4
4 4 5
3 3 4
4 4 5
4 4 5
5 6 7
6 6 8
6 6 7
6 6 7
5 6 7
6 6 8
6 6 7
6 6 8
6 6 8
6 6 8
6 6 8
6 6 7
6 6 8
6 6 7
6 6 7
6 6 8
6 6 8
6 6 8
6 6 8
6 6 8
6 6 7
6 6 8
6 7 8
6 6 8
6 6 7
6 6 8
6 6 8
6 6 8
6 6 8
6 6 8
6 6 8
6 7 8
6 6 8
6 6 8
6 7 8
6 6 8
6 6 8
6 7 8
6 6 8
6 6 8
6 6 8
6 6 8
6 6 8
6 7 8
6 6 8
6 7 8
6 6 8
6 6 7
6 6 8
6 6 8
6 7 8
6 7 8
6 6 8
6 7 8
6 6 8
6 6 8
6 7 8
6 7 8
6 6 8
6 6 8
6 7 8
6 6 8
6 6 8
6 6 8
6 7 8
6 6 8
6 6 8
6 7 8
6 6 8
6 6 8
6 7 8
6 6 8
6 6 8
6 6 8
6 7 8
6 6 8
6 7 8
6 7 8
6 7 8
6 6 8
6 6 8
6 6 8
6 7 8
6 6 7
6 6 8
6 6 8
6 6 8
6 7 8
6 7 8
6 6 8
6 7 8
6 7 8
6 7 8
6 7 8
6 6 8
6 7 8
6 6 8
6 7 8
6 6 8
6 7 8
6 7 8
6 7 8
6 6 8
6 6 8
6 6 8
6 6 8
6 6 8
6 7 8
6 7 8
6 7 8
6 7 8
6 7 8
6 6 8
6 7 8
6 6 8
6 6 8
6 6 8
6 7 8
6 6 8
6 7 8
6 7 8
6 7 8
6 7 8
6 6 8
6 7 8
6 7 8
6 6 8
6 7 8
6 7 8
6 6 8
6 7 8
6 7 8
6 7 8
6 7 8
6 7 8
6 7 8
6 7 8
6 7 8
6 7 8
6 7 8
6 7 8
6 7 8
6 6 8
6 7 8
6 6 8
6 7 8
6 7 8
6 7 8
6 7 8
6 6 8
6 6 8
6 7 8
6 6 8
6 7 8
6 7 8
6 6 8
6 7 8
6 7 8
6 6 8
6 6 8
6 7 8
6 6 8
6 7 8
6 6 8
6 7 8
6 7 8
6 7 8
6 6 8
6 7 8
6 7 8
6 7 8
6 7 8
6 6 8
6 7 8
6 6 8
6 6 8
6 7 8
6 6 8
6 7 8
6 7 8
6 6 8
6 7 8
6 6 8
6 6 8
6 7 8
6 6 8
6 6 8
6 7 8
6 7 8
6 7 8
6 7 8
6 6 8
6 7 8
6 6 8
6 7 8
6 7 8
6 7 8
6 7 8
6 7 8
6 7 8
6 7 8
6 6 8
6 7 8
6 7 8
6 6 8
6 6 8
6 7 8
6 7 8
6 6 8
6 7 8
6 7 8
6 6 8
6 6 8
6 6 8
6 6 8
6 7 8
6 7 8
6 7 8
6 7 8
6 6 8
6 6 7
6 6 8
6 7 8
6 7 8
6 6 8
6 7 8
6 6 8
6 7 8
6 6 8
6 6 8
6 6 8
6 6 8
6 7 8
6 6 8
6 6 8
6 6 8
6 7 8
6 7 8
6 6 8
6 7 8
6 6 8
6 6 8
6 6 8
6 6 8
6 6 7
6 6 8
6 7 8
6 7 8
6 7 8
6 6 8
6 6 8
6 6 8
6 6 8
6 6 8
6 6 8
6 6 8
6 6 8
6 6 8
6 6 8
6 6 8
6 6 8
6 6 8
6 6 8
6 6 7
6 6 7
6 6 8
6 6 7
6 6 7
6 6 8
6 6 8
6 7 8
5 6 7
6 6 8
6 6 7
6 6 7
6 6 8
6 6 8
6 6 7
6 6 8
6 6 7
6 6 8
6 6 8
4 5 6
4 4 5
3 4 4
4 4 4
4 4 5
4 5 5
4 4 5
4 4 5
4 4 4
4 4 5
4 4 5
4 4 5
4 4 5
3 4 4
4 4 5
4 4 5
4 4 5
4 4 4
4 5 5
4 4 5
4 5 5
3 4 4
4 4 5
4 4 5
4 4 5
4 4 5
4 4 5
4 4 5
4 4 5
4 4 5
4 4 5
4 4 5
4 4 5
4 4 5
3 4 4
4 4 5
4 4 5
4 5 5
4 4 5
4 4 5
4 4 5
3 4 4
4 4 5
4 4 5
4 4 5
4 4 5
4 4 4
4 4 5
4 4 4
4 4 5
4 4 5
4 4 5
4 4 5
4 5 5
4 4 5
4 4 5
4 4 5
4 4 5
4 4 5
4 4 5
3 4 4
4 4 5
4 4 5
4 4 5
4 4 5
4 4 5
4 4 5
4 4 5
3 4 4
4 5 5
3 3 4
4 4 5
4 4 5
3 4 4
4 4 5
4 4 5
4 4 5
4 4 5
4 4 5
4 4 4
3 4 4
4 5 5
4 5 5
4 4 5
4 5 5
4 5 5
4 4 5
4 4 5
4 4 5
3 4 4
3 4 4
4 4 5
4 4 5
4 4 5
4 4 5
4 4 5
3 4 4
4 4 5
3 4 4
3 3 4
4 4 5
4 4 5
4 4 4
4 5 5
4 4 5
4 5 5
4 4 4
4 4 5
4 4 5
3 4 4
4 4 4
3 4 4
4 4 5
4 4 5
4 4 5
4 4 4
3 4 4
4 5 6
6 6 8
6 6 8
6 6 7
5 6 7
6 6 8
6 6 8
6 6 8
6 6 7
6 6 7
6 6 8
6 6 7
6 6 8
6 6 7
6 6 8
6 6 8
6 7 8
6 6 7
6 6 7
6 6 8
6 7 8
6 6 8
6 7 8
6 7 8
6 6 8
6 6 8
6 6 7
6 6 7
6 6 8
6 6 8
6 6 7
6 6 8
6 6 8
6 6 8
6 7 8
6 7 8
6 7 8
6 6 8
6 6 7
6 7 8
6 6 8
6 7 8
6 6 8
6 7 8
6 6 8
6 6 8
6 6 8
6 7 8
6 6 8
6 6 8
6 6 8
6 7 8
6 7 8
6 7 8
6 6 8
6 7 8
6 6 8
6 6 8
6 7 8
6 7 8
6 6 8
6 6 8
6 6 8
6 7 8
6 7 8
6 6 8
6 7 8
6 7 8
6 6 8
6 7 8
6 6 8
6 7 8
6 7 8
6 6 8
6 7 8
6 7 8
6 6 8
6 7 8
6 6 8
6 6 8
6 7 8
6 7 8
6 6 8
6 6 8
6 6 8
6 6 8
6 7 8
6 6 8
6 7 8
6 7 8
6 6 8
6 7 8
6 7 8
6 6 8
6 7 8
6 6 8
6 6 8
6 6 7
6 7 8
6 6 8
6 6 8
6 7 8
6 7 8
6 6 8
6 7 8
6 7 8
6 6 8
6 7 8
6 7 8
6 7 8
6 6 8
6 6 8
6 7 8
6 7 8
6 6 8
6 7 8
6 7 8
6 7 8
6 6 8
6 7 8
6 7 8
6 7 8
6 7 8
6 6 8
6 7 8
6 6 8
6 7 8
6 6 8
6 7 8
6 7 8
6 7 8
6 7 8
6 6 8
6 7 8
6 7 8
6 7 8
6 6 8
6 7 8
6 6 8
6 7 8
6 7 8
6 7 8
6 7 8
6 6 8
6 7 8
6 7 8
6 7 8
6 6 8
6 6 8
6 7 8
6 7 8
6 7 8
6 6 8
6 7 8
6 7 8
6 7 8
6 7 8
6 7 8
6 7 8
6 6 8
6 6 8
6 6 8
6 6 8
6 7 8
6 6 8
6 7 8
6 7 8
6 6 8
6 7 8
6 7 8
6 7 8
6 7 8
6 6 8
6 7 8
6 7 8
6 7 8
6 7 8
6 6 8
6 6 8
6 6 8
6 7 8
6 7 8
6 6 8
6 7 8
6 7 8
6 6 8
6 6 8
6 7 8
6 7 8
6 7 8
6 6 8
6 6 8
6 6 8
6 7 8
6 6 8
6 6 8
6 6 8
6 7 8
6 6 8
6 6 8
6 7 8
6 6 8
6 6 8
6 7 8
6 6 8
6 7 8
6 7 8
6 6 8
6 6 8
6 7 8
6 6 8
6 7 8
6 7 8
6 7 8
6 6 8
6 7 8
6 6 8
6 7 8
6 7 8
6 7 8
6 7 8
6 6 8
6 6 8
6 6 8
6 6 8
6 6 8
6 6 8
6 6 8
6 6 8
6 6 8
6 6 8
6 6 8
6 6 8
6 7 8
6 6 8
6 7 8
6 7 8
6 6 7
6 7 8
6 7 8
6 7 8
6 6 8
6 6 8
6 6 8
6 6 8
6 6 8
6 6 8
5 6 7
6 6 8
6 7 8
6 6 8
6 6 8
6 6 7
6 7 8
6 6 8
6 6 8
6 6 7
6 7 8
6 6 8
6 6 8
5 6 7
6 6 8
6 7 8
6 7 8
6 6 8
6 6 8
6 6 7
6 6 8
6 6 8
6 6 7
6 6 7
6 6 7
6 7 8
5 6 7
6 6 7
6 6 7
6 6 7
6 6 7
6 6 8
6 7 8
6 6 7
6 6 7
6 6 7
5 6 7
3 4 4
4 4 5
4 4 5
4 4 5
3 4 4
4 4 5
4 4 4
4 4 4
4 4 4
3 4 4
4 4 5
3 4 4
3 3 4
4 4 4
4 4 5
4 5 5
4 4 5
4 4 4
4 4 5
3 4 4
4 4 5
4 4 5
4 5 5
4 4 4
3 4 4
4 4 5
4 4 4
4 4 4
4 4 5
3 4 4
4 5 5
4 4 5
4 4 5
3 4 4
3 4 4
4 4 4
4 4 5
4 4 5
4 5 5
4 4 5
3 4 4
4 5 5
4 4 5
4 4 5
3 4 4
4 4 4
4 4 5
4 4 5
3 4 4
4 4 5
4 4 5
4 5 5
4 4 4
4 4 4
4 4 5
4 4 5
4 5 6
3 4 4
4 4 5
4 4 4
4 5 6
3 4 4
4 4 5
4 4 5
4 4 5
4 4 5
4 4 4
4 4 5
4 4 5
4 4 5
3 4 4
4 5 5
4 4 5
4 4 5
4 4 5
4 4 5
4 4 5
4 5 5
4 5 5
4 4 5
4 4 5
4 4 5
4 4 5
4 5 5
4 4 5
4 4 5
3 4 4
4 4 5
4 5 5
4 4 5
4 4 5
4 4 5
4 5 5
3 4 4
4 4 5
4 4 5
4 5 5
4 4 5
4 4 5
3 3 4
3 4 4
3 4 4
4 4 5
4 4 5
4 4 5
4 4 5
4 4 4
3 3 4
3 4 4
4 4 5
4 4 5
4 4 5
4 4 5
3 3 4
4 4 4
4 4 5
5 6 7
6 6 8
5 6 7
6 6 7
6 6 7
6 6 7
6 6 8
6 6 8
6 6 8
6 6 8
5 6 7
6 6 7
6 6 7
6 6 8
6 6 7
6 6 8
6 6 8
6 6 8
6 6 8
6 6 8
6 6 8
6 6 7
6 6 7
6 6 7
6 6 8
6 6 8
6 6 8
6 6 7
6 6 8
6 6 8
6 6 7
6 6 7
6 6 7
6 6 8
6 7 8
6 6 8
6 6 8
6 6 8
6 6 8
6 6 8
6 7 8
6 6 8
6 7 8
6 6 8
6 6 8
6 6 8
6 7 8
6 6 8
6 6 8
6 6 8
6 6 8
6 6 8
6 6 8
6 7 8
6 7 8
6 7 8
6 7 8
6 7 8
6 6 8
6 6 8
6 7 8
6 7 8
6 7 8
6 7 8
6 6 8
6 7 8
6 7 8
6 7 8
6 6 8
6 6 8
6 6 8
6 7 8
6 7 8
6 7 8
6 7 8
6 7 8
6 6 8
6 6 8
6 6 8
6 7 8
6 6 8
6 7 8
6 6 8
6 6 8
6 6 8
6 7 8
6 6 8
6 7 8
6 7 8
6 7 8
6 6 8
6 7 8
6 6 8
6 7 8
6 6 8
6 7 8
6 6 8
6 7 8
6 7 8
6 6 8
6 7 8
6 6 8
6 7 8
6 6 8
6 7 8
6 7 8
6 7 8
6 7 8
6 7 8
6 7 8
6 7 8
6 6 8
6 7 8
6 6 8
6 7 8
6 7 8
6 7 8
6 7 8
6 7 8
6 6 8
6 6 8
6 6 8
6 6 8
6 7 8
6 6 8
6 6 8
6 7 8
6 6 8
6 7 8
6 7 8
6 7 8
6 7 8
6 7 8
6 6 8
6 7 8
6 7 8
6 7 8
6 6 8
6 7 8
6 7 8
6 7 8
6 7 8
6 7 8
6 6 8
6 7 8
6 7 8
6 7 8
6 7 8
6 7 8
6 7 8
6 7 8
6 6 8
6 6 8
6 7 8
6 7 8
6 6 8
6 7 8
6 6 8
6 6 8
6 7 8
6 7 8
6 6 8
6 7 8
6 7 8
6 6 8
6 7 8
6 6 8
6 7 8
6 7 8
6 6 8
6 7 8
6 7 8
6 7 8
6 6 8
6 6 8
6 7 8
6 7 8
6 7 8
6 7 8
6 6 8
6 6 8
6 6 8
6 7 8
6 6 8
6 7 8
6 6 8
6 6 8
6 6 8
6 7 8
6 7 8
6 6 8
6 7 8
6 7 8
6 6 8
6 7 8
6 6 8
6 7 8
6 6 8
6 7 8
6 6 8
6 6 8
6 7 8
6 6 8
6 7 8
6 6 8
6 7 8
6 7 8
6 6 8
6 6 7
6 7 8
6 6 8
6 7 8
6 7 8
6 6 8
6 6 8
6 6 8
6 6 8
6 7 8
6 6 8
6 6 8
6 7 8
6 6 8
6 6 8
6 6 8
6 6 8
6 7 8
6 7 8
6 6 8
6 7 8
6 6 8
6 6 8
6 6 7
6 7 8
6 7 8
6 6 8
6 6 8
6 6 8
6 6 8
6 6 8
6 7 8
6 6 8
6 6 8
6 6 8
6 6 8
6 6 8
6 6 7
6 6 8
6 7 8
6 6 7
6 6 8
6 6 8
6 6 8
6 6 8
6 6 7
6 6 7
6 6 8
6 6 7
6 6 7
6 6 8
6 6 7
6 6 7
6 6 7
6 6 7
6 6 7
6 6 7
6 6 8
6 6 7
6 6 7
6 7 8
6 6 8
6 6 8
6 6 7
5 6 7
6 6 7
6 6 7
6 6 7
5 6 7
6 6 8
6 6 7
6 6 7
5 6 7
5 6 7
6 6 8
6 6 8
5 5 6
4 4 4
4 4 4
4 4 4
4 4 4
4 4 5
4 4 5
4 4 5
3 3 4
4 4 5
4 4 5
4 4 5
4 4 5
4 4 5
4 4 4
4 4 5
3 4 4
3 4 4
3 4 4
4 4 5
3 4 4
4 4 5
4 4 5
4 4 5
4 4 5
4 4 5
4 5 5
4 4 5
3 4 4
4 4 5
4 4 4
3 3 4
4 4 4
3 4 4
4 4 5
4 5 5
4 4 5
4 5 5
4 4 5
4 4 4
4 4 5
4 4 4
4 4 4
4 4 4
4 5 5
4 4 4
4 4 5
4 4 5
4 4 4
3 4 4
4 4 5
4 4 5
4 5 5
4 4 5
4 4 4
4 4 4
4 4 5
4 4 5
3 4 4
4 4 5
4 4 5
4 4 5
4 4 5
4 4 5
4 4 5
4 4 5
4 4 5
4 4 5
4 4 5
4 5 5
4 4 4
4 4 5
4 4 5
4 4 5
4 4 5
4 4 5
4 4 5
4 4 5
4 5 5
4 4 5
3 4 4
4 4 5
4 4 5
4 4 5
4 4 5
4 5 5
4 5 5
3 4 4
4 4 5
3 4 4
4 5 5
4 4 5
4 4 5
4 4 5
3 4 4
4 4 5
4 4 5
4 5 5
4 4 5
4 4 4
4 4 5
4 4 5
4 4 5
4 4 5
4 4 4
3 4 4
3 4 4
4 4 4
4 4 5
4 4 5
4 4 5
4 4 4
4 4 4
4 4 4
3 4 4
4 5 5
6 6 7
6 6 8
5 6 7
5 6 7
5 6 7
5 6 7
6 6 8
6 6 8
6 6 7
5 6 7
6 7 8
6 6 7
6 6 7
6 6 8
6 6 7
6 6 7
5 6 7
6 6 7
6 6 8
6 6 8
6 6 8
6 6 8
6 6 7
6 6 8
6 6 8
5 6 7
6 6 8
6 6 8
6 6 8
6 6 8
6 6 7
6 6 8
6 6 7
6 6 8
6 6 8
6 6 8
6 6 7
6 6 8
6 6 8
6 6 8
6 6 8
6 6 8
6 6 8
6 6 8
6 6 8
6 6 8
6 7 8
6 6 8
6 6 8
6 6 8
6 7 8
6 7 8
6 6 8
6 6 8
6 7 8
6 7 8
6 7 8
6 6 8
6 6 8
6 6 8
6 6 8
6 6 8
6 6 8
6 6 8
6 6 8
6 7 8
6 7 8
6 6 8
6 6 7
6 7 8
6 7 8
6 7 8
6 6 8
6 6 8
6 7 8
6 6 8
6 7 8
6 6 8
6 7 8
6 6 8
6 6 8
6 6 8
6 6 8
6 6 8
6 6 8
6 6 8
6 6 8
6 7 8
6 6 8
6 7 8
6 6 8
6 7 8
6 7 8
6 7 8
6 6 8
6 6 8
6 7 8
6 7 8
6 6 8
6 7 8
6 7 8
6 6 8
6 6 8
6 7 8
6 7 8
6 6 8
6 6 8
6 7 8
6 6 8
6 7 8
6 7 8
6 6 8
6 7 8
6 6 8
6 6 8
6 7 8
6 7 8
6 7 8
6 6 8
6 7 8
6 7 8
6 7 8
6 6 8
6 7 8
6 7 8
6 7 8
6 6 8
6 6 8
6 7 8
6 7 8
6 6 8
6 7 8
6 7 8
6 6 8
6 6 8
6 7 8
6 7 8
6 6 8
6 7 8
6 7 8
6 6 8
6 6 8
6 7 8
6 7 8
6 6 8
6 6 8
6 6 8
6 6 8
6 6 8
6 7 8
6 7 8
6 7 8
6 7 8
6 7 8
6 7 8
6 7 8
6 6 8
6 7 8
6 7 8
6 7 8
6 6 8
6 7 8
6 6 8
6 7 8
6 7 8
6 6 8
6 7 8
6 7 8
6 7 8
6 6 8
6 7 8
6 6 8
6 6 8
6 7 8
6 6 8
6 6 8
6 7 8
6 7 8
6 6 8
6 6 8
6 7 8
6 7 8
6 6 8
6 7 8
6 7 8
6 6 8
6 6 8
6 6 8
6 6 8
6 7 8
6 6 8
6 7 8
6 7 8
6 7 8
6 7 8
6 6 8
6 7 8
6 6 8
6 6 8
6 6 8
6 6 8
6 7 8
6 6 8
6 7 8
6 6 8
6 6 7
6 7 8
6 7 8
6 7 8
6 6 8
6 6 8
6 7 8
6 6 8
6 6 8
6 7 8
6 6 8
6 6 8
6 6 8
6 6 8
6 6 7
6 6 8
6 6 8
6 6 8
6 6 8
6 6 8
6 7 8
6 6 8
6 6 7
6 7 8
6 6 8
6 6 7
6 7 8
6 6 8
6 6 8
6 6 8
6 6 8
6 6 8
6 6 8
6 6 8
6 6 8
6 6 8
6 6 8
6 7 8
6 6 8
6 6 8
6 6 8
6 6 8
6 7 8
6 6 8
6 6 7
6 6 7
6 6 8
6 6 8
6 6 7
6 6 8
5 6 7
6 6 7
6 6 7
6 6 8
6 6 7
6 6 7
6 6 7
6 6 7
6 6 7
6 6 8
6 6 7
6 6 8
6 6 8
6 7 8
5 6 7
6 6 8
6 6 7
6 6 8
6 6 7
6 6 7
6 6 8
6 6 8
6 6 7
5 6 7
5 6 7
6 6 7
6 6 7
5 6 7
6 6 7
5 6 7
3 4 4
4 4 5
4 4 5
4 4 4
4 4 5
3 4 4
4 4 5
4 4 4
3 4 4
4 4 5
4 5 5
4 4 5
4 4 5
3 4 4
4 4 5
4 4 5
3 4 4
4 4 5
4 4 5
4 4 5
4 4 5
4 4 5
3 4 4
4 4 5
3 4 4
4 4 4
4 4 5
4 5 5
4 4 4
4 4 4
4 4 5
4 4 5
4 5 5
4 4 4
4 4 5
4 4 5
4 4 5
4 4 5
4 4 5
4 4 5
4 4 5
4 4 4
4 5 5
4 4 5
4 5 5
4 4 5
3 4 4
4 4 4
3 4 4
3 4 4
4 4 5
4 4 5
4 4 5
4 4 5
4 4 5
3 4 4
3 4 4
4 4 5
4 4 5
4 4 5
4 4 5
4 4 5
4 4 5
4 4 5
4 4 5
3 4 4
4 4 5
4 4 5
4 4 5
4 4 5
4 4 5
4 4 5
4 4 5
4 4 5
4 4 5
4 4 4
4 4 5
3 4 4
4 4 5
4 4 4
4 4 5
3 4 4
4 4 5
4 4 5
4 5 5
4 4 4
3 4 4
4 4 4
4 4 5
4 5 5
4 4 5
3 4 4
4 4 4
3 4 4
4 4 5
4 4 5
3 4 4
4 4 4
4 4 5
4 4 5
3 4 4
4 4 5
3 4 4
4 5 5
4 4 5
3 3 4
4 4 5
4 4 5
4 4 5
3 4 4
4 4 5
3 3 3
3 3 4
4 4 5
5 6 7
6 6 7
6 6 8
6 6 7
6 6 7
5 6 7
6 6 7
6 6 8
6 6 8
6 6 7
6 6 7
6 6 7
6 6 7
5 6 7
6 6 7
6 6 8
6 6 8
6 6 8
6 6 8
6 6 8
6 6 8
6 6 7
6 6 8
6 6 8
6 6 7
6 7 8
6 6 8
6 6 7
6 6 7
6 6 8
6 6 8
6 6 8
6 6 8
6 6 7
6 6 8
6 6 8
6 7 8
6 6 8
6 7 8
6 6 8
6 6 8
6 6 8
6 6 8
6 6 7
6 6 8
6 6 8
6 6 8
6 6 7
6 6 8
6 6 8
6 6 8
6 6 8
6 6 8
6 6 8
6 6 8
6 6 8
6 6 8
6 6 7
6 7 8
6 6 8
6 6 7
6 6 8
6 7 8
6 7 8
6 6 8
6 6 8
6 6 8
6 6 8
6 7 8
6 6 8
6 6 8
6 7 8
6 6 8
6 6 8
6 7 8
6 6 8
6 6 7
6 6 8
6 7 8
6 6 8
6 7 8
6 6 8
6 6 8
6 7 8
6 7 8
6 7 8
6 7 8
6 6 8
6 7 8
6 7 8
6 6 8
6 6 8
6 6 8
6 6 8
6 6 7
6 7 8
6 7 8
6 6 8
6 7 8
6 7 8
6 7 8
6 6 8
6 6 8
6 6 8
6 7 8
6 7 8
6 7 8
6 6 8
6 7 8
6 6 8
6 7 8
6 7 8
6 6 8
6 7 8
6 7 8
6 7 8
6 6 8
6 6 8
6 7 8
6 7 8
6 7 8
6 6 8
6 7 8
6 7 8
6 7 8
6 7 8
6 6 8
6 6 8
6 7 8
6 6 8
6 7 8
6 7 8
6 7 8
6 6 8
6 6 8
6 6 8
6 7 8
6 6 8
6 6 8
6 6 8
6 7 8
6 7 8
6 7 8
6 7 8
6 7 8
6 7 8
6 7 8
6 7 8
6 7 8
6 6 8
6 7 8
6 7 8
6 6 8
6 7 8
6 7 8
6 7 8
6 7 8
6 7 8
6 6 8
6 7 8
6 6 8
6 6 8
6 6 8
6 7 8
6 6 8
6 6 8
6 7 8
6 7 8
6 7 8
6 7 8
6 6 8
6 6 7
6 7 8
6 7 8
6 7 8
6 6 8
6 6 8
6 7 8
6 7 8
6 7 8
6 6 8
6 6 8
6 7 8
6 6 8
6 7 8
6 7 8
6 6 8
6 7 8
6 6 8
6 6 8
6 7 8
6 6 8
6 7 8
6 6 8
6 6 8
6 6 7
6 6 8
6 7 8
6 6 8
6 6 8
6 7 8
6 6 8
6 6 8
6 6 8
6 6 8
6 7 8
6 7 8
6 7 8
6 6 8
6 6 8
6 6 8
6 7 8
6 6 8
6 6 8
6 6 8
6 6 8
6 6 8
6 6 8
6 6 8
6 7 8
6 6 8
6 6 8
6 6 8
6 6 8
6 6 8
6 7 8
6 6 8
6 6 8
6 6 8
6 6 7
6 6 7
5 6 7
6 6 8
6 6 8
6 6 8
6 6 7
6 6 7
6 6 8
6 6 8
6 6 8
6 6 8
6 6 8
6 6 8
6 6 8
6 6 7
6 6 8
6 6 8
6 6 7
6 6 7
6 6 8
6 6 8
6 7 8
6 6 7
6 6 8
6 6 8
6 6 8
6 6 7
6 6 7
6 6 7
6 6 8
5 6 7
6 6 7
6 6 7
6 6 7
6 6 8
6 6 8
5 6 7
6 6 8
6 6 8
6 6 8
5 6 7
6 6 7
6 6 7
6 6 7
5 6 7
6 6 8
6 6 7
6 6 7
6 6 8
5 6 7
5 6 7
5 6 7
6 6 7
6 6 8
6 6 7
6 6 7
4 5 6
3 4 4
3 4 4
3 4 4
3 4 4
4 4 4
4 4 5
4 4 5
3 4 4
4 4 5
4 4 5
4 4 4
4 4 5
4 4 4
3 4 4
4 4 5
3 4 4
3 3 4
4 4 5
4 4 5
3 4 4
3 4 4
4 4 5
4 4 4
4 4 5
4 4 5
3 4 4
4 4 5
3 4 4
4 4 5
4 4 4
4 4 5
4 4 4
4 4 4
3 4 4
3 4 4
4 4 5
3 4 4
3 4 4
3 4 4
4 4 5
4 4 5
4 4 5
3 4 4
3 4 4
4 4 5
4 4 5
4 4 5
4 4 5
4 4 5
3 4 4
3 4 4
3 3 4
4 4 4
3 4 4
4 4 4
3 3 4
4 4 5
3 4 4
4 4 5
3 4 4
4 4 5
4 4 5
4 4 4
4 4 5
4 5 5
4 4 4
4 4 5
4 4 5
3 4 4
4 5 5
4 4 5
4 4 5
4 4 5
4 4 5
4 5 5
4 4 5
4 4 5
4 4 5
4 4 5
4 4 4
4 4 5
3 4 4
4 4 5
3 4 4
4 4 5
4 4 4
4 4 5
4 5 5
4 4 5
3 4 4
3 4 4
3 4 4
3 4 4
4 4 4
4 4 5
4 4 4
4 4 5
4 5 5
4 4 5
4 4 5
3 4 4
4 4 5
3 4 4
3 4 4
4 4 5
3 4 4
3 4 4
4 4 5
4 4 5
4 5 5
3 4 4
4 4 5
5 6 7
5 6 7
5 6 7
5 6 7
5 6 7
6 6 7
5 6 7
5 6 7
6 6 8
6 6 8
6 6 7
6 6 7
6 6 7
6 6 7
6 6 8
6 6 7
6 6 8
5 6 7
6 6 8
5 6 7
6 6 8
6 6 7
6 6 7
6 6 8
6 6 8
6 6 7
6 6 8
6 6 7
6 6 7
6 6 7
6 6 7
6 6 8
6 6 7
6 6 7
6 6 7
6 6 7
6 6 8
6 6 8
6 6 8
6 6 8
6 6 8
6 6 8
6 6 8
6 6 8
6 6 8
6 6 8
6 6 8
6 7 8
6 6 7
6 6 8
6 6 7
6 6 8
6 6 8
6 6 8
6 6 8
6 6 8
6 6 8
6 7 8
6 6 8
6 6 7
6 7 8
6 6 8
6 6 8
6 6 8
6 6 8
6 6 8
6 6 8
6 6 8
6 7 8
6 7 8
6 6 8
6 6 8
6 7 8
6 7 8
6 6 7
6 7 8
6 6 7
6 6 8
6 6 8
6 7 8
6 6 8
6 7 8
6 6 8
6 6 8
6 6 8
6 7 8
6 7 8
6 6 8
6 7 8
6 7 8
6 7 8
6 6 8
6 7 8
6 7 8
6 7 8
6 7 8
6 7 8
6 6 8
6 6 8
6 7 8
6 6 8
6 6 8
6 6 8
6 7 8
6 6 8
6 6 8
6 6 8
6 7 8
6 7 8
6 7 8
6 6 8
6 7 8
6 7 8
6 7 8
6 6 8
6 6 8
6 7 8
6 6 8
6 7 8
6 7 8
6 7 8
6 6 8
6 7 8
6 7 8
6 7 8
6 6 8
6 7 8
6 6 8
6 7 8
6 6 8
6 6 8
6 6 8
6 6 8
6 6 8
6 7 8
6 7 8
6 6 8
6 6 8
6 7 8
6 6 8
6 6 8
6 7 8
6 6 8
6 7 8
6 7 8
6 6 8
6 7 8
6 6 8
6 6 8
6 7 8
6 6 8
6 7 8
6 7 8
6 6 8
6 7 8
6 6 8
6 6 8
6 7 8
6 7 8
6 7 8
6 7 8
6 6 8
6 6 8
6 6 8
6 6 8
6 7 8
6 6 8
6 7 8
6 6 8
6 6 8
6 7 8
6 6 8
6 7 8
6 7 8
6 6 8
6 6 8
6 6 8
6 7 8
6 6 8
6 7 8
6 6 8
6 6 8
6 7 8
6 6 8
6 6 8
6 7 8
6 7 8
6 7 8
6 7 8
6 6 8
6 7 8
6 6 8
6 6 8
6 6 8
6 6 8
6 6 8
6 6 8
6 7 8
6 7 8
6 7 8
6 6 8
6 7 8
6 6 8
6 6 8
6 6 8
6 6 8
6 6 8
6 6 8
6 6 7
6 6 8
6 6 8
6 7 8
6 6 8
6 6 8
6 7 8
6 6 8
6 6 8
6 6 8
6 6 8
6 6 8
6 7 8
6 6 8
6 7 8
6 6 8
6 6 8
6 7 8
6 7 8
6 6 7
6 6 8
6 7 8
6 6 8
6 6 7
6 7 8
6 6 8
6 6 8
6 6 8
6 6 7
6 6 8
6 6 7
6 6 8
6 6 8
6 7 8
6 6 8
6 6 8
6 6 7
6 6 8
6 6 8
6 6 8
6 6 7
6 6 7
6 6 8
6 6 7
6 6 8
6 6 8
6 6 7
5 6 7
6 6 8
6 6 8
6 6 7
6 6 8
5 6 7
6 6 7
6 6 8
5 6 7
6 6 8
6 6 8
6 6 8
5 6 7
6 6 7
6 6 7
6 6 8
5 6 7
6 6 7
6 6 8
6 6 7
6 6 7
6 6 7
5 6 7
6 6 7
5 6 7
5 6 7
5 6 7
5 6 7
5 6 7
5 6 7
6 6 7
5 6 7
5 6 7
4 4 4
4 4 4
3 3 4
3 4 4
4 4 4
4 4 5
3 4 4
3 4 4
3 4 4
3 4 4
3 4 4
4 4 4
4 4 5
3 3 4
4 4 4
4 4 5
4 4 5
4 4 4
4 4 5
4 4 5
4 4 5
4 5 5
3 4 4
4 4 5
4 4 5
3 4 4
4 4 5
3 4 4
4 4 5
4 4 4
4 4 5
4 4 5
4 4 5
4 4 5
4 4 5
4 4 5
4 4 5
3 4 4
4 4 5
4 4 5
3 4 4
4 4 5
4 4 5
4 4 5
4 4 5
3 3 4
4 4 5
3 4 4
4 4 5
4 4 5
4 4 4
4 4 4
4 5 5
4 4 4
4 4 5
4 4 4
4 4 5
4 4 5
4 4 5
4 4 4
3 4 4
4 4 5
4 4 5
3 4 4
4 4 5
4 4 4
4 4 5
3 4 4
4 4 5
3 3 4
4 4 5
4 4 4
3 4 4
4 4 5
3 4 4
4 4 5
4 4 5
4 4 5
4 4 5
4 4 5
4 4 5
4 4 4
3 4 4
4 4 5
4 4 5
4 4 4
4 4 4
4 4 5
4 4 5
3 4 4
4 5 5
4 4 5
4 4 4
3 4 4
4 4 4
3 4 4
4 4 5
3 4 4
3 4 4
3 4 4
4 4 5
4 4 5
3 4 4
4 4 4
3 4 4
4 4 5
4 4 5
4 4 5
3 4 4
4 4 5
4 4 4
4 4 5
5 6 7
5 6 7
5 6 7
6 6 7
5 6 7
5 6 7
6 6 7
5 6 7
6 6 7
5 6 7
5 6 7
5 6 7
5 6 7
6 6 7
6 6 7
6 6 7
5 6 7
6 6 8
6 6 8
6 6 7
6 6 7
6 6 7
6 6 8
6 6 7
6 6 7
6 6 7
5 6 7
6 6 7
6 6 7
6 6 7
6 6 8
6 6 7
6 6 8
6 6 7
6 6 8
6 6 8
6 6 8
6 6 8
6 6 7
6 6 8
6 6 7
6 6 7
6 6 8
6 6 8
6 6 7
6 6 8
6 6 7
6 6 8
6 6 7
6 6 7
6 7 8
6 6 8
6 6 8
6 6 8
6 7 8
6 6 7
6 6 7
6 7 8
6 6 8
6 6 8
6 6 7
6 6 8
6 7 8
6 6 8
6 6 8
6 6 8
6 6 8
6 6 8
6 6 8
6 6 8
6 7 8
6 7 8
6 7 8
6 7 8
6 7 8
6 6 8
6 7 8
6 7 8
6 7 8
6 7 8
6 6 8
6 6 8
6 6 8
6 6 8
6 7 8
6 6 8
6 7 8
6 6 8
6 7 8
6 7 8
6 6 8
6 6 7
6 7 8
6 7 8
6 6 8
6 6 8
6 7 8
6 6 8
6 6 8
6 6 7
6 7 8
6 6 7
6 7 8
6 7 8
6 7 8
6 7 8
6 6 8
6 7 8
6 7 8
6 6 8
6 7 8
6 7 8
6 7 8
6 7 8
6 6 8
6 6 8
6 6 8
6 6 8
6 7 8
6 6 8
6 7 8
6 7 8
6 7 8
6 7 8
6 6 8
6 6 8
6 7 8
6 6 8
6 6 8
6 7 8
6 7 8
6 7 8
6 7 8
6 7 8
6 7 8
6 6 8
6 6 8
6 7 8
6 7 8
6 6 8
6 7 8
6 6 8
6 6 8
6 7 8
6 6 8
6 7 8
6 6 8
6 7 8
6 7 8
6 6 8
6 6 8
6 7 8
6 7 8
6 6 8
6 6 8
6 6 8
6 6 8
6 6 8
6 7 8
6 6 8
6 7 8
6 7 8
6 7 8
6 6 8
6 7 8
6 7 8
6 7 8
6 6 8
6 6 8
6 7 8
6 6 8
6 6 8
6 7 8
6 7 8
6 6 8
6 6 8
6 7 8
6 6 8
6 7 8
6 7 8
6 6 7
6 7 8
6 6 8
6 7 8
6 6 8
6 6 8
6 7 8
6 6 8
6 7 8
6 6 8
6 6 8
6 7 8
6 7 8
6 6 8
6 7 8
6 6 8
6 6 8
6 7 8
6 7 8
6 7 8
6 6 8
6 6 8
6 6 8
6 6 8
6 6 8
6 6 8
6 6 8
6 6 8
6 7 8
6 6 8
6 6 8
6 6 8
6 6 7
6 6 7
6 7 8
6 6 8
6 6 7
6 6 8
6 7 8
6 6 7
6 6 8
6 6 8
6 6 8
6 6 8
6 6 8
6 6 8
6 6 8
6 6 8
6 6 8
6 6 8
6 6 8
6 6 8
6 6 8
6 6 8
6 6 7
6 6 7
6 6 8
6 6 7
6 6 8
6 6 7
6 6 7
6 6 7
6 6 8
6 6 8
6 6 8
6 6 7
6 6 7
6 6 8
6 6 7
6 6 8
6 6 7
5 6 7
5 6 7
6 6 7
6 6 7
6 6 8
5 6 7
6 6 8
5 6 7
6 6 7
6 6 8
6 6 8
5 6 7
5 6 7
6 6 8
6 6 8
6 6 7
6 6 7
5 6 7
5 6 7
6 6 7
6 6 7
6 6 7
5 6 7
6 6 7
5 6 7
5 6 7
5 6 7
6 6 7
6 6 7
5 6 7
5 6 7
5 6 7
5 6 7
6 6 7
5 6 7
6 6 7
6 6 7
5 6 6
4 4 4
4 4 5
3 3 4
4 4 5
4 4 5
4 4 4
3 4 4
4 4 5
4 4 5
4 4 4
4 4 5
4 4 5
4 4 5
4 4 5
4 4 4
3 4 4
4 4 4
4 4 4
3 4 4
4 4 4
4 4 4
4 4 5
4 4 4
4 4 5
4 4 5
3 3 4
3 4 4
4 4 5
4 4 5
3 4 4
4 4 5
4 4 5
4 4 5
3 4 4
4 4 5
4 4 5
4 4 4
4 4 5
4 5 5
4 4 4
3 4 4
3 4 4
4 4 5
4 4 5
4 4 5
4 5 5
3 4 4
3 4 4
4 4 5
3 4 4
4 4 4
4 4 4
3 4 4
3 4 4
3 4 4
4 4 4
4 4 5
4 4 5
3 4 4
4 4 5
4 4 5
4 4 5
4 4 5
4 4 5
4 4 4
3 4 4
3 4 4
4 4 4
4 4 4
4 4 5
4 4 4
3 4 4
3 4 4
4 4 4
4 4 5
4 4 5
3 4 4
3 4 4
4 4 5
4 4 4
3 4 4
4 4 4
3 4 4
3 3 4
4 5 5
3 4 4
3 4 4
4 4 5
4 4 5
4 4 5
3 4 4
3 4 4
4 4 5
4 4 5
4 4 5
4 4 4
4 4 4
3 4 4
4 4 5
3 4 4
3 4 4
3 4 4
4 4 5
4 4 5
4 4 5
3 4 4
3 4 4
4 4 5
4 4 5
3 3 4
5 6 6
6 6 7
5 6 7
6 6 7
5 6 7
6 6 7
6 6 7
5 6 7
6 6 7
5 6 7
5 6 7
5 6 7
6 6 7
5 6 7
5 6 7
5 6 7
6 6 7
5 6 7
6 6 7
6 6 7
6 6 7
6 6 8
5 6 7
6 6 7
6 6 8
6 6 7
6 6 8
6 6 7
6 6 7
5 6 7
5 6 7
6 6 7
6 6 7
6 6 8
6 6 8
6 6 7
6 6 8
6 6 8
6 6 8
6 6 8
6 6 8
6 6 8
6 6 8
6 6 7
6 6 8
6 6 8
6 6 8
6 6 7
6 7 8
6 7 8
6 6 7
6 6 8
6 6 8
6 6 7
6 6 8
6 6 8
6 6 8
6 6 8
6 6 7
6 6 8
6 6 7
6 6 8
6 6 8
6 6 8
6 6 8
6 7 8
6 7 8
6 6 8
6 6 7
6 7 8
6 7 8
6 6 7
6 6 8
6 6 8
6 6 7
6 6 8
6 6 8
6 6 8
6 7 8
6 6 8
6 6 7
6 7 8
6 7 8
6 7 8
6 7 8
6 7 8
6 6 8
6 6 8
6 6 8
6 6 8
6 6 7
6 6 8
6 7 8
6 6 8
6 6 8
6 6 8
6 7 8
6 6 8
6 7 8
6 6 8
6 6 8
6 6 8
6 7 8
6 6 8
6 6 8
6 7 8
6 7 8
6 6 7
6 6 8
6 7 8
6 7 8
6 6 8
6 7 8
6 6 8
6 7 8
6 6 8
6 6 8
6 6 8
6 7 8
6 6 8
6 6 8
6 6 8
6 7 8
6 7 8
6 6 8
6 6 8
6 6 8
6 7 8
6 6 8
6 7 8
6 6 8
6 6 8
6 7 8
6 7 8
6 7 8
6 6 8
6 6 8
6 7 8
6 7 8
6 7 8
6 7 8
6 7 8
6 7 8
6 6 8
6 6 8
6 6 8
6 7 8
6 7 8
6 6 8
6 6 8
6 7 8
6 6 8
6 7 8
6 7 8
6 6 8
6 7 8
6 7 8
6 6 8
6 7 8
6 7 8
6 6 8
6 7 8
6 6 7
6 7 8
6 6 8
6 6 8
6 7 8
6 6 8
6 6 8
6 6 8
6 6 8
6 6 8
6 7 8
6 6 8
6 7 8
6 6 8
6 6 8
6 7 8
6 6 8
6 7 8
6 6 8
6 7 8
6 7 8
6 6 8
6 6 7
6 6 8
6 7 8
6 6 7
6 6 8
6 6 8
6 6 8
6 7 8
6 6 8
6 6 8
6 6 8
6 6 8
6 6 8
6 6 7
6 6 8
6 6 8
6 6 8
6 7 8
6 6 8
6 7 8
6 6 8
6 6 8
6 7 8
6 7 8
6 6 8
6 6 8
6 6 8
6 6 8
6 7 8
6 6 7
6 6 8
6 6 8
6 6 8
6 6 8
6 6 8
6 6 8
6 6 7
6 6 8
6 6 8
6 6 7
6 6 8
6 6 8
6 6 8
6 6 8
6 6 7
6 6 8
6 6 8
6 6 7
6 6 8
6 7 8
6 6 8
6 6 8
6 6 8
6 6 7
6 6 8
6 6 8
6 6 7
6 6 8
6 6 7
6 6 8
6 6 7
6 6 7
6 7 8
6 6 7
5 6 7
6 6 7
6 6 7
6 6 7
6 6 8
6 6 8
6 6 7
6 6 7
6 6 7
6 6 7
6 6 8
6 6 8
6 6 8
6 6 7
6 6 7
5 6 7
6 6 7
5 6 7
5 6 7
6 6 7
6 6 7
6 6 7
6 6 7
5 6 7
6 6 7
5 6 7
6 6 8
6 6 7
6 6 7
6 6 7
5 6 7
5 6 7
5 6 7
6 6 7
5 6 7
5 6 7
6 6 7
6 6 7
5 6 7
5 6 7
5 6 7
5 6 7
4 4 5
3 4 4
3 4 4
3 4 4
3 3 4
3 4 4
4 4 4
3 4 4
4 4 5
4 4 5
3 4 4
4 4 5
4 4 4
3 4 4
4 4 5
4 4 5
4 4 5
4 4 5
4 4 5
4 4 5
4 4 5
3 3 4
4 4 5
3 4 4
3 4 4
3 4 4
4 4 5
3 4 4
4 4 4
3 4 4
4 4 5
3 4 4
4 4 5
3 4 4
3 3 4
3 4 4
4 4 4
4 4 4
3 4 4
3 4 4
3 4 4
4 4 5
3 4 4
4 4 4
4 4 4
3 4 4
3 4 4
4 4 5
4 4 5
4 4 5
4 4 5
4 4 4
4 4 5
4 4 5
4 4 4
4 4 5
3 4 4
4 4 5
4 4 5
3 4 4
4 4 4
3 4 4
4 4 5
4 4 4
4 4 4
4 4 5
4 4 5
4 4 5
4 4 5
4 4 5
4 4 5
4 4 4
4 4 5
4 4 4
4 4 5
3 4 4
3 4 4
3 4 4
4 4 4
4 4 5
4 4 5
4 5 5
4 4 5
4 5 5
4 4 5
4 4 4
4 5 5
4 4 4
4 4 4
4 4 5
4 4 4
3 4 4
4 4 4
3 4 4
3 4 4
4 4 4
4 4 5
4 5 5
3 3 3
3 4 4
3 4 4
3 4 4
4 4 4
3 4 4
4 4 5
4 4 5
3 4 4
3 3 4
3 3 3
4 5 5
5 6 7
5 6 7
5 6 7
5 6 7
5 6 7
5 6 7
5 6 7
5 6 7
5 6 7
5 6 7
6 6 7
6 6 7
5 6 7
5 6 7
5 6 7
5 6 7
5 6 7
6 6 7
5 6 7
6 6 7
6 6 7
6 6 8
6 6 7
6 6 7
5 6 7
6 6 7
5 6 7
5 6 7
6 6 7
6 6 8
6 6 8
6 6 7
6 6 8
6 6 7
6 6 7
6 6 7
5 6 7
6 6 7
6 6 8
6 6 7
6 6 8
6 7 8
6 7 8
6 6 7
6 6 8
6 6 7
6 6 8
6 7 8
6 6 8
6 6 7
6 6 7
6 6 7
6 6 8
6 6 8
6 6 8
6 6 8
6 6 7
6 7 8
6 7 8
6 6 7
6 6 8
6 7 8
6 6 7
6 6 7
6 6 8
6 7 8
6 6 8
6 6 8
6 6 8
6 6 8
6 6 7
6 6 8
6 6 8
6 6 8
6 6 8
6 6 7
6 6 8
6 7 8
6 6 7
6 7 8
6 7 8
6 6 8
6 6 8
6 7 8
6 6 8
6 6 8
6 6 8
6 6 7
6 6 7
6 6 8
6 7 8
6 6 8
6 6 7
6 6 7
6 6 8
6 6 8
6 7 8
6 7 8
6 6 8
6 6 8
6 6 8
6 6 8
6 6 8
6 7 8
6 6 8
6 6 8
6 6 8
6 6 8
6 7 8
6 6 8
6 6 8
6 6 8
6 7 8
6 7 8
6 6 8
6 6 8
6 6 8
6 6 8
6 7 8
6 6 8
6 7 8
6 7 8
6 6 8
6 7 8
6 6 8
6 7 8
6 6 8
6 7 8
6 7 8
6 6 8
6 7 8
6 6 8
6 7 8
6 6 8
6 7 8
6 7 8
6 6 8
6 6 8
6 6 8
6 7 8
6 7 8
6 7 8
6 6 8
6 7 8
6 6 8
6 7 8
6 7 8
6 6 8
6 6 8
6 6 8
6 6 8
6 6 8
6 7 8
6 6 8
6 6 8
6 6 8
6 7 8
6 6 8
6 6 8
6 7 8
6 6 8
6 6 8
6 6 8
6 6 8
6 6 8
6 7 8
6 6 8
6 6 8
6 6 8
6 7 8
6 6 8
6 7 8
6 7 8
6 6 8
6 7 8
6 7 8
6 7 8
6 7 8
6 6 8
6 6 8
6 7 8
6 6 8
6 7 8
6 6 8
6 6 8
6 6 8
6 6 8
6 6 7
6 6 8
6 6 8
6 6 8
6 7 8
6 6 8
6 7 8
6 6 8
6 7 8
6 6 8
6 6 8
6 6 8
6 6 7
6 6 8
6 7 8
6 6 8
6 7 8
6 6 8
6 6 8
6 7 8
6 6 8
6 6 8
6 6 8
6 6 8
6 6 8
6 6 8
6 7 8
6 7 8
6 6 8
6 6 7
6 6 8
6 7 8
6 6 8
6 6 7
6 6 8
6 6 8
6 6 8
6 6 8
6 6 7
6 6 7
6 6 8
6 7 8
6 6 8
6 6 8
6 6 8
6 6 7
6 6 7
6 6 7
6 6 7
6 6 8
5 6 7
6 6 8
6 6 7
6 6 7
6 6 8
6 6 8
6 6 8
6 6 7
6 6 8
6 6 8
6 6 7
6 6 8
6 6 7
6 6 8
6 6 7
6 6 7
6 6 7
5 6 7
6 6 7
6 6 7
5 6 7
5 6 7
6 6 7
5 6 7
6 6 7
6 6 7
6 6 7
6 6 7
6 6 7
6 6 7
5 6 7
6 6 8
5 6 7
6 6 7
6 6 7
5 6 7
5 6 7
5 6 7
6 6 7
5 6 7
5 6 7
6 6 7
6 6 7
5 6 7
5 6 7
5 6 7
5 6 7
5 6 7
5 6 7
5 6 7
5 6 7
5 6 7
5 6 7
5 6 7
3 3 4
3 4 4
3 3 4
3 4 4
3 4 4
3 3 4
4 4 5
3 4 4
3 4 4
4 4 5
3 4 4
3 4 4
4 5 5
3 4 4
3 4 4
4 4 4
3 4 4
4 4 5
4 4 4
4 4 4
3 4 4
3 4 4
4 5 5
3 3 4
3 4 4
3 4 4
4 4 5
4 4 5
4 4 5
4 4 5
3 4 4
4 4 4
4 4 5
4 4 5
3 4 4
4 4 5
4 4 5
3 4 4
4 4 5
4 4 5
4 4 5
4 4 5
4 4 4
4 4 4
4 4 4
4 4 4
3 4 4
4 4 4
4 4 4
3 4 4
4 4 4
3 4 4
3 4 4
3 4 4
4 4 5
4 4 4
3 3 4
4 4 4
4 4 4
4 4 4
4 4 4
4 4 5
4 4 5
4 4 5
4 4 5
3 3 4
3 4 4
3 4 4
4 4 4
3 4 4
4 4 4
4 4 5
4 4 5
4 4 4
3 3 4
4 4 5
4 4 4
4 4 5
4 4 5
3 4 4
3 4 4
4 5 5
3 4 4
3 4 4
3 4 4
4 4 5
4 4 5
3 4 4
3 4 4
3 4 4
3 4 4
4 4 5
4 4 5
4 4 5
4 4 5
3 4 4
3 4 4
3 3 4
3 4 4
4 4 5
3 4 4
3 4 4
4 4 5
4 4 5
3 4 4
4 4 5
4 4 5
3 4 4
5 6 7
5 6 7
5 6 7
5 6 7
5 6 7
5 6 7
5 6 7
5 6 7
5 6 7
5 6 7
5 6 7
6 6 7
6 6 7
5 6 7
6 6 7
6 6 7
6 6 7
5 6 7
6 6 7
6 6 7
6 6 7
5 6 7
5 6 7
6 6 7
5 6 7
6 6 7
6 6 7
5 6 7
6 6 7
5 6 7
5 6 7
5 6 7
6 6 8
5 6 7
6 6 8
6 6 8
6 6 7
6 6 8
6 6 8
6 6 7
6 6 8
5 6 7
6 6 7
6 6 8
6 6 7
5 6 7
6 6 7
6 6 7
6 6 8
6 6 8
6 6 8
6 6 7
6 6 7
6 6 7
5 6 7
6 6 8
6 6 7
6 6 7
6 6 8
6 7 8
6 6 7
6 6 7
6 6 7
6 6 8
6 6 8
6 6 8
6 6 8
6 7 8
6 6 8
6 6 8
6 6 8
6 6 8
6 6 8
6 6 8
6 6 8
6 6 8
6 7 8
6 7 8
6 6 8
6 6 8
6 6 8
6 6 7
6 6 8
6 6 8
6 6 7
6 6 8
6 6 8
6 7 8
6 6 8
6 6 8
6 6 7
6 6 8
6 6 8
6 6 8
6 6 8
6 6 8
6 6 8
6 6 8
6 6 8
6 6 8
6 6 8
6 6 7
6 6 8
6 7 8
6 6 8
6 6 8
6 6 8
6 6 8
6 7 8
6 6 8
6 7 8
6 7 8
6 6 8
6 6 8
6 6 8
6 7 8
6 6 8
6 6 8
6 6 8
6 6 8
6 7 8
6 6 8
6 6 8
6 7 8
6 7 8
6 6 8
6 6 8
6 7 8
6 7 8
6 6 8
6 7 8
6 6 8
6 7 8
6 7 8
6 7 8
6 6 8
6 6 8
6 7 8
6 6 8
6 6 8
6 7 8
6 7 8
6 6 8
6 6 8
6 6 8
6 6 8
6 7 8
6 7 8
6 7 8
6 7 8
6 6 8
6 7 8
6 7 8
6 7 8
6 7 8
6 7 8
6 6 8
6 6 8
6 6 8
6 7 8
6 7 8
6 7 8
6 7 8
6 6 8
6 6 8
6 6 8
6 7 8
6 6 8
6 6 8
6 6 8
6 6 8
6 6 8
6 6 8
6 6 8
6 7 8
6 6 8
6 6 8
6 7 8
6 6 8
6 6 8
6 6 8
6 7 8
6 7 8
6 6 8
6 6 8
6 6 8
6 6 8
6 6 8
6 6 8
6 6 8
6 6 8
6 7 8
6 7 8
6 7 8
6 6 8
6 6 8
6 6 8
6 6 8
6 6 8
6 7 8
6 7 8
6 6 7
6 6 8
6 7 8
6 6 7
6 7 8
6 6 8
6 6 8
6 7 8
6 6 8
6 7 8
6 6 7
6 6 8
6 7 8
6 6 8
5 6 7
6 7 8
6 6 7
6 6 8
6 6 8
6 6 7
6 6 7
6 6 8
6 6 7
6 6 7
6 6 7
6 6 7
6 6 7
6 6 8
5 6 7
6 6 7
6 7 8
6 6 8
6 6 8
5 6 7
6 6 7
6 6 7
6 6 8
6 6 7
6 6 7
6 6 8
6 6 7
6 6 7
6 6 8
6 6 7
6 6 7
6 6 7
6 6 7
6 6 7
5 6 7
6 6 8
6 6 7
6 6 7
6 6 8
6 6 7
5 6 7
6 6 8
6 6 7
6 6 8
5 6 7
6 6 7
6 6 7
6 6 8
6 6 7
6 6 7
6 6 7
6 6 8
6 6 7
5 6 7
6 6 7
6 6 7
6 6 7
5 6 7
5 6 7
6 6 7
5 6 7
6 6 7
6 6 7
5 6 7
5 6 7
6 6 7
5 6 7
5 6 7
5 6 7
5 6 7
5 6 7
5 6 7
5 6 7
5 6 7
5 6 7
5 6 7
5 6 7
5 5 6
4 4 4
3 4 4
3 4 4
4 4 4
3 4 4
3 4 4
4 4 5
4 4 5
4 4 5
3 4 4
3 3 4
4 4 5
3 3 4
3 4 4
3 4 4
3 4 4
4 4 5
3 4 4
3 3 4
3 4 4
3 4 4
4 4 4
4 4 5
4 4 4
4 4 5
3 4 4
3 3 4
3 3 4
4 4 5
4 5 5
4 4 5
4 4 5
4 4 4
4 4 5
3 4 4
4 4 5
3 4 4
4 4 5
3 4 4
4 4 5
4 4 5
4 4 4
4 4 4
3 4 4
3 3 4
4 4 4
4 4 5
4 4 5
4 4 5
3 4 4
4 4 5
4 4 5
4 4 5
4 5 5
4 4 4
4 4 4
3 4 4
4 4 5
4 4 5
3 4 4
4 4 5
3 3 4
3 4 4
4 4 5
3 4 4
4 4 4
4 4 5
4 4 5
4 4 5
3 4 4
3 3 4
4 4 5
4 4 5
4 4 5
4 4 5
4 4 4
4 4 4
3 4 4
3 4 4
4 4 4
4 4 5
3 4 4
3 4 4
3 3 4
4 4 4
4 4 5
4 4 5
3 4 4
4 4 4
4 5 5
3 3 4
4 4 4
4 4 5
3 4 4
4 4 5
3 4 4
3 3 4
3 4 4
3 4 4
3 4 4
3 4 4
3 4 4
4 4 5
3 4 4
3 4 4
3 4 4
5 5 6
5 6 7
5 6 7
5 6 7
5 6 7
5 6 7
5 6 7
5 6 7
5 6 7
5 6 7
6 6 7
5 6 7
5 6 7
5 6 7
5 6 7
5 6 7
6 6 7
5 6 7
5 6 7
5 6 7
5 6 7
5 6 7
5 6 7
6 6 7
5 6 7
6 6 7
5 6 7
6 6 7
5 6 7
6 6 7
6 6 7
6 6 7
5 6 7
6 6 7
6 6 7
5 6 7
6 6 7
5 6 7
6 6 8
6 6 7
6 6 7
5 6 7
6 6 7
6 6 7
6 6 8
6 6 8
6 6 7
5 6 7
6 6 8
6 6 8
6 6 7
6 6 8
6 6 8
6 6 8
6 6 8
6 6 7
6 6 7
6 6 7
6 6 7
6 6 8
6 6 8
6 6 8
6 7 8
6 6 7
6 6 8
6 6 8
6 6 8
6 6 8
6 6 8
6 6 8
6 6 8
6 6 8
6 6 8
6 7 8
6 6 8
6 6 8
6 6 8
6 6 8
6 6 8
6 6 8
6 7 8
6 6 8
6 6 8
6 7 8
6 6 8
6 6 8
6 7 8
6 6 8
6 6 8
6 6 8
6 6 8
6 7 8
6 7 8
6 6 7
6 6 8
6 7 8
6 7 8
6 6 8
6 7 8
6 6 8
6 6 8
6 7 8
6 6 8
6 7 8
6 6 8
6 6 8
6 7 8
6 6 8
6 7 8
6 6 8
6 6 7
6 6 8
6 6 8
6 7 8
6 6 8
6 6 8
6 7 8
6 6 8
6 6 8
6 6 8
6 6 8
6 6 8
6 6 8
6 6 8
6 7 8
6 7 8
6 6 8
6 7 8
6 6 8
6 7 8
6 6 8
6 6 8
6 6 8
6 7 8
6 7 8
6 6 8
6 7 8
6 6 8
6 6 8
6 6 8
6 6 8
6 7 8
6 7 8
6 7 8
6 6 8
6 7 8
6 7 8
6 6 8
6 6 8
6 6 8
6 7 8
6 6 8
6 7 8
6 6 8
6 6 8
6 7 8
6 6 8
6 7 8
6 6 8
6 7 8
6 6 8
6 6 8
6 7 8
6 7 8
6 6 8
6 6 8
6 7 8
6 6 8
6 7 8
6 6 8
6 6 8
6 6 8
6 6 8
6 6 8
6 6 8
6 6 8
6 6 8
6 7 8
6 6 7
6 6 8
6 6 8
6 6 8
6 6 8
6 6 8
6 6 8
6 7 8
6 7 8
6 6 8
6 6 8
6 6 8
6 7 8
6 6 8
6 6 8
6 6 8
6 6 8
6 7 8
6 7 8
6 6 7
6 6 8
6 7 8
6 6 8
6 6 8
6 6 7
6 6 7
6 6 7
6 6 8
6 6 8
6 6 8
6 6 7
6 6 8
6 7 8
6 6 8
6 7 8
6 7 8
6 6 7
6 6 7
6 6 7
6 6 7
6 6 8
6 6 8
6 6 8
6 6 8
6 6 8
6 6 8
6 6 8
6 6 8
6 6 7
6 7 8
6 6 7
6 6 8
6 6 8
6 6 7
6 7 8
6 6 8
6 6 8
6 6 8
6 6 8
6 6 8
6 6 7
6 6 8
5 6 7
6 6 7
6 7 8
6 6 7
6 6 7
6 6 7
6 6 7
6 6 7
6 6 7
6 6 7
5 6 7
6 6 8
5 6 7
6 6 8
5 6 7
6 6 7
5 6 7
6 6 8
6 6 8
5 6 7
6 6 8
6 6 7
5 6 7
5 6 7
6 6 7
5 6 7
6 6 8
5 6 7
5 6 7
5 6 7
5 6 7
5 6 7
5 6 7
5 6 7
5 6 7
5 6 7
5 6 7
5 6 7
5 6 7
5 6 7
5 6 7
5 6 7
6 6 7
5 6 7
5 6 7
5 6 7
5 6 7
5 6 7
5 6 7
5 6 7
5 6 7
5 6 7
5 6 7
5 6 7
4 4 5
3 4 4
4 4 5
4 4 5
3 4 4
4 4 4
4 4 4
3 4 4
3 4 4
3 4 4
3 3 4
4 4 5
4 4 4
3 4 4
3 4 4
3 3 4
3 4 4
3 4 4
3 4 4
4 5 5
4 4 5
4 5 5
4 4 5
4 4 4
4 4 5
3 3 4
4 4 4
3 4 4
3 3 4
3 4 4
4 4 5
3 4 4
3 3 4
3 4 4
4 4 5
4 4 5
3 3 4
4 4 4
3 4 4
4 4 5
4 4 4
4 4 4
3 4 4
3 4 4
3 4 4
4 4 4
4 4 4
3 3 4
3 4 4
3 3 3
4 4 5
4 4 4
4 4 4
4 4 4
3 3 4
4 4 5
4 4 5
3 4 4
3 4 4
3 4 4
3 3 4
3 4 4
4 4 5
3 4 4
4 4 5
4 4 5
4 4 5
3 4 4
3 4 4
3 4 4
4 4 4
3 4 4
4 4 5
3 4 4
4 4 4
4 4 4
4 4 4
3 4 4
4 4 5
4 4 4
3 4 4
3 4 4
3 4 4
3 4 4
3 4 4
3 3 4
3 4 4
3 4 4
3 3 4
3 4 4
4 4 5
3 3 4
3 4 4
3 4 4
4 4 5
3 4 4
3 4 4
3 4 4
4 4 4
3 4 4
3 3 4
4 4 4
4 4 5
3 4 4
3 3 3
4 4 5
5 6 7
5 6 7
5 6 7
5 6 7
5 6 7
5 6 7
5 6 7
5 6 7
5 6 7
5 6 7
5 6 7
5 6 7
5 6 7
5 6 7
5 6 7
5 6 7
5 6 7
5 6 7
5 6 7
5 6 7
5 6 7
5 6 7
5 6 7
5 6 7
5 6 7
6 6 7
5 6 7
5 6 7
5 6 7
5 6 7
5 6 7
5 6 7
5 6 7
6 6 8
5 6 7
6 6 7
6 6 7
6 6 8
6 6 7
6 6 7
6 6 8
6 6 7
5 6 7
6 6 7
6 6 7
6 6 7
6 6 7
6 6 7
6 6 7
6 6 7
6 6 7
6 6 7
6 6 7
6 6 7
6 6 7
6 6 7
6 6 7
6 6 7
6 6 8
6 6 8
6 6 8
6 6 8
6 6 7
6 6 8
6 6 7
6 6 8
6 6 8
6 6 7
6 6 8
6 6 7
6 6 7
6 6 8
6 6 7
6 6 8
6 7 8
6 6 8
6 7 8
6 6 8
6 6 8
6 6 7
6 6 8
6 7 8
6 6 8
6 6 8
6 6 8
6 6 8
6 6 8
6 6 8
6 6 8
6 6 7
6 6 8
6 6 8
6 7 8
6 6 8
6 6 8
6 6 8
6 7 8
6 7 8
6 6 8
6 7 8
6 6 8
6 7 8
6 6 8
6 6 8
6 7 8
6 7 8
6 7 8
6 6 8
6 6 8
6 6 8
6 6 8
6 7 8
6 6 8
6 6 8
6 7 8
6 6 8
6 6 8
6 6 8
6 6 8
6 6 8
6 7 8
6 6 8
6 6 8
6 6 8
6 6 8
6 7 8
6 6 8
6 6 8
6 6 8
6 7 8
6 6 8
6 6 8
6 6 8
6 6 8
6 6 8
6 6 8
6 6 8
6 7 8
6 7 8
6 6 8
6 6 8
6 6 8
6 7 8
6 7 8
6 6 8
6 6 8
6 7 8
6 7 8
6 6 8
6 7 8
6 7 8
6 6 8
6 6 8
6 6 8
6 6 8
6 6 8
6 7 8
6 7 8
6 7 8
6 6 8
6 7 8
6 6 8
6 6 8
6 6 8
6 6 8
6 7 8
6 7 8
6 7 8
6 6 8
6 7 8
6 7 8
6 6 7
6 7 8
6 7 8
6 6 8
6 6 8
6 6 8
6 7 8
6 6 8
6 7 8
6 6 8
6 6 8
6 6 8
6 6 8
6 7 8
6 6 8
6 6 8
6 6 8
6 6 8
6 7 8
6 7 8
6 6 8
6 6 8
6 6 8
6 6 8
6 6 8
6 7 8
6 6 8
6 6 8
6 6 7
6 6 8
6 6 8
6 6 8
6 6 8
6 6 8
6 6 8
6 6 8
6 7 8
6 6 8
6 6 7
6 6 8
6 6 7
6 7 8
6 7 8
6 7 8
6 6 8
6 6 7
6 6 8
6 6 8
6 6 8
6 6 7
6 6 7
6 7 8
6 6 8
6 6 7
5 6 7
6 6 7
6 6 8
6 6 7
6 6 8
5 6 7
6 6 7
6 6 8
6 6 7
6 6 8
6 6 7
5 6 7
6 6 8
5 6 7
6 6 7
6 6 8
6 6 7
6 6 7
6 6 7
6 6 7
6 6 8
6 6 7
6 6 7
6 6 7
6 6 7
6 6 7
6 6 8
6 6 7
6 6 7
6 6 7
6 6 7
5 6 7
6 6 7
6 6 7
6 6 7
6 6 7
5 6 7
5 6 7
5 6 7
5 6 7
6 6 7
5 6 7
5 6 7
5 6 7
5 6 7
5 6 7
5 6 7
5 6 7
6 6 7
5 6 7
5 6 7
5 6 7
5 6 7
5 6 7
5 6 7
5 6 7
6 6 7
5 6 7
5 6 7
5 6 7
5 6 7
5 6 7
5 6 7
5 6 7
5 6 7
5 6 7
5 6 7
5 6 7
5 6 7
5 6 7
4 4 5
3 3 4
4 4 4
3 3 4
4 4 4
4 4 4
3 4 4
3 4 4
4 4 5
3 4 4
3 4 4
3 4 4
4 4 5
4 4 5
3 4 4
3 4 4
4 4 5
4 4 5
3 4 4
3 4 4
3 3 4
4 4 4
4 4 5
3 4 4
4 4 4
4 4 4
4 4 4
3 3 4
3 4 4
4 4 4
3 4 4
3 3 4
3 4 4
4 4 4
3 4 4
3 4 4
4 4 5
4 4 4
3 4 4
3 3 4
3 4 4
4 4 5
3 4 4
4 4 4
4 5 5
3 4 4
3 3 4
4 4 4
3 4 4
4 4 5
3 4 4
4 4 4
3 4 4
4 4 4
4 4 4
3 4 4
3 4 4
3 4 4
3 3 4
3 3 4
3 4 4
4 4 5
4 4 5
3 4 4
4 4 4
4 4 5
3 3 4
3 4 4
4 4 5
4 4 5
4 4 5
4 4 4
3 4 4
3 4 4
4 4 4
4 4 5
4 4 4
4 4 5
4 4 5
4 4 4
4 4 5
3 4 4
4 4 5
3 4 4
4 4 5
4 4 5
3 4 4
4 4 5
4 4 4
4 4 5
3 3 4
4 4 5
3 3 4
3 3 4
4 4 4
4 4 4
4 4 4
3 3 4
3 3 4
3 4 4
3 3 4
4 4 5
3 3 4
3 4 4
5 6 7
5 6 7
5 6 7
5 6 7
5 6 7
5 6 7
5 6 7
5 6 7
5 6 7
5 6 7
5 6 7
5 6 7
5 6 7
5 6 7
5 6 7
5 6 7
5 6 7
6 6 7
6 6 7
6 6 7
5 6 7
5 6 7
6 6 7
5 6 7
5 6 7
6 6 7
5 6 7
5 6 7
5 6 7
6 6 7
6 6 7
5 6 7
5 6 7
5 6 7
5 6 7
6 6 7
5 6 7
5 6 7
6 6 7
5 6 7
6 6 7
5 6 7
5 6 7
6 6 8
5 6 7
6 6 7
6 6 7
5 6 7
6 6 7
5 6 7
6 6 8
6 6 8
5 6 7
6 6 8
6 6 8
6 6 8
6 6 7
6 6 7
6 6 8
6 6 7
6 7 8
6 6 8
6 6 8
6 7 8
6 7 8
6 6 7
6 6 7
5 6 7
6 6 8
5 6 7
5 6 7
6 6 8
6 6 8
6 6 8
6 7 8
6 6 7
6 6 7
6 6 8
6 6 7
6 6 7
6 6 7
6 6 8
6 6 8
6 6 8
6 6 8
6 6 7
6 6 7
6 6 8
6 6 8
6 6 8
6 7 8
6 6 8
6 6 7
6 6 8
6 6 8
6 6 7
6 6 8
6 6 8
6 6 8
6 6 8
6 6 8
6 7 8
6 6 8
6 6 8
6 6 8
6 6 8
6 6 8
6 6 8
6 6 8
6 6 8
6 6 8
6 7 8
6 7 8
6 6 8
6 7 8
6 6 8
6 6 8
6 6 8
6 6 8
6 6 8
6 7 8
6 7 8
6 7 8
6 7 8
6 7 8
6 7 8
6 6 8
6 6 8
6 7 8
6 6 8
6 7 8
6 6 8
6 6 8
6 6 8
6 7 8
6 7 8
6 6 8
6 7 8
6 7 8
6 7 8
6 6 8
6 7 8
6 7 8
6 6 8
6 6 8
6 7 8
6 7 8
6 7 8
6 7 8
6 7 8
6 6 8
6 6 8
6 6 8
6 6 8
6 7 8
6 7 8
6 7 8
6 7 8
6 6 8
6 6 8
6 7 8
6 6 8
6 6 8
6 6 8
6 7 8
6 7 8
6 6 8
6 6 8
6 6 8
6 7 8
6 6 8
6 7 8
6 6 8
6 6 8
6 6 8
6 6 8
6 6 8
6 6 8
6 6 8
6 7 8
6 6 8
6 7 8
6 7 8
6 6 8
6 6 8
6 6 8
6 6 8
6 6 8
6 7 8
6 6 7
6 6 8
6 6 8
6 6 8
6 6 8
6 6 8
6 6 8
6 7 8
6 6 8
6 6 8
6 6 8
6 6 8
6 6 8
6 6 8
6 6 8
6 6 8
6 6 8
6 6 8
6 6 7
6 6 8
6 6 8
6 6 8
6 6 7
6 6 8
6 6 7
6 6 8
6 6 7
6 6 7
6 7 8
6 6 8
6 6 8
5 6 7
6 6 8
6 7 8
6 6 7
6 6 8
6 6 8
6 6 8
6 6 8
6 6 7
6 6 8
6 6 7
6 6 7
6 7 8
6 6 7
6 6 7
6 6 8
6 6 7
6 6 7
6 6 7
6 6 7
6 7 8
6 6 7
6 6 7
6 6 7
6 6 7
6 6 7
6 6 7
6 6 8
5 6 7
5 6 7
6 6 7
6 6 7
6 6 7
6 6 8
6 6 7
5 6 7
6 6 7
5 6 7
5 6 7
6 6 7
5 6 7
5 6 7
5 6 7
5 6 7
6 6 7
6 6 8
5 6 7
6 6 7
5 6 7
6 6 7
6 6 7
5 6 7
5 6 7
5 6 7
5 6 7
5 6 7
5 6 7
5 6 7
5 6 7
5 6 7
5 6 7
5 6 7
5 6 7
5 6 7
5 6 7
5 6 7
5 6 7
5 6 7
5 6 7
5 6 7
5 6 7
5 6 7
5 6 7
5 6 7
5 6 7
5 6 7
5 5 6
3 3 4
3 4 4
3 3 4
3 3 4
3 3 4
3 3 4
4 4 4
4 4 5
3 3 4
4 4 4
3 3 4
4 4 5
3 4 4
3 4 4
3 3 3
4 4 4
4 4 4
4 4 4
3 4 4
3 4 4
4 4 4
4 4 5
4 4 4
3 4 4
3 3 4
4 4 5
3 4 4
4 4 5
4 4 5
4 4 5
3 3 4
4 4 4
4 4 5
3 3 4
3 4 4
3 3 4
4 4 5
4 4 4
3 4 4
3 4 4
3 4 4
3 4 4
4 4 4
3 4 4
3 4 4
3 4 4
4 5 5
3 4 4
3 4 4
4 4 5
4 4 4
4 4 5
3 4 4
4 4 5
3 4 4
4 4 4
4 4 5
3 3 4
3 4 4
3 3 4
3 4 4
3 4 4
4 4 5
3 4 4
3 4 4
3 4 4
4 4 5
3 3 4
4 4 4
4 4 5
3 4 4
3 4 4
3 4 4
3 4 4
4 4 4
4 4 4
3 4 4
3 4 4
4 4 4
3 4 4
4 4 4
3 4 4
4 4 4
3 4 4
3 3 4
3 3 4
4 4 4
4 4 5
3 3 4
3 4 4
3 4 4
3 4 4
4 4 4
3 3 4
3 3 4
3 4 4
4 4 5
3 4 4
3 3 4
3 3 3
3 4 4
3 3 4
5 6 6
5 6 7
5 6 7
5 6 7
5 6 7
5 6 7
5 6 7
5 6 7
5 6 7
6 6 7
5 6 7
5 6 7
5 6 7
5 6 7
5 6 7
5 6 7
5 6 7
5 6 7
5 6 7
5 6 7
5 6 7
6 6 7
6 6 7
5 6 7
5 6 7
6 6 7
6 6 7
5 6 7
5 6 7
5 6 7
5 6 7
5 6 7
6 6 7
5 6 7
6 6 7
6 6 7
6 6 7
6 6 7
5 6 7
5 6 7
6 6 7
6 6 8
6 6 7
6 6 8
5 6 7
6 6 7
6 6 7
5 6 7
5 6 7
5 6 7
6 6 7
6 6 7
6 6 8
6 6 7
6 6 7
6 6 8
6 6 7
6 6 8
6 6 7
6 6 8
6 6 7
6 6 7
6 6 8
6 6 7
6 6 7
5 6 7
6 6 8
6 6 8
6 6 7
6 6 8
6 6 7
6 6 7
6 6 8
6 6 8
6 6 8
6 6 7
6 6 8
6 6 7
6 6 8
6 6 7
6 6 7
6 6 7
6 6 8
6 6 8
6 6 8
6 6 8
5 6 7
6 6 8
6 6 8
6 7 8
6 6 7
6 6 7
6 6 8
6 6 8
6 6 7
6 6 8
6 6 8
6 6 8
6 6 8
6 6 8
6 6 8
6 7 8
6 7 8
6 6 8
6 6 8
6 6 8
6 6 8
6 6 8
6 6 7
6 6 8
6 7 8
6 7 8
6 6 8
6 6 8
6 6 8
6 6 8
6 6 8
6 7 8
6 6 8
6 7 8
6 6 8
6 6 7
6 7 8
6 6 8
6 7 8
6 6 8
6 6 8
6 6 8
6 6 8
6 6 8
6 7 8
6 7 8
6 6 8
6 7 8
6 7 8
6 7 8
6 7 8
6 7 8
6 7 8
6 7 8
6 6 8
6 6 8
6 7 8
6 7 8
6 6 8
6 6 8
6 7 8
6 7 8
6 6 8
6 6 8
6 7 8
6 6 8
6 7 8
6 7 8
6 7 8
6 7 8
6 6 8
6 7 8
6 7 8
6 7 8
6 6 8
6 6 8
6 6 8
6 6 8
6 6 8
6 6 8
6 6 8
6 6 8
6 7 8
6 6 8
6 6 8
6 6 8
6 6 8
6 6 8
6 6 8
6 6 8
6 6 8
6 6 8
6 6 8
6 6 8
6 6 8
6 6 7
6 6 8
6 6 8
6 6 8
6 6 7
6 6 8
6 6 8
6 6 8
6 6 8
6 7 8
6 6 8
6 6 8
6 6 8
6 6 8
6 6 8
6 6 8
6 6 8
6 6 8
6 7 8
6 6 8
6 6 8
6 6 7
6 6 8
6 6 8
6 6 7
6 6 8
6 6 8
6 6 8
6 6 7
6 6 8
6 6 8
6 6 7
6 6 8
6 6 7
6 6 8
6 6 7
6 6 8
6 6 7
6 6 7
6 6 8
6 6 8
6 7 8
6 6 7
6 6 7
6 6 7
6 6 7
6 6 7
5 6 7
6 6 8
6 6 7
6 6 8
5 6 7
5 6 7
6 6 8
6 6 7
6 6 7
6 6 7
6 6 7
6 6 7
6 6 7
6 6 7
5 6 7
6 6 8
6 6 8
5 6 7
6 6 7
6 6 7
5 6 7
6 6 7
6 6 8
6 6 8
6 6 7
6 6 7
6 6 7
6 6 7
5 6 7
6 6 8
6 6 8
5 6 7
5 6 7
6 6 7
5 6 7
5 6 7
5 6 7
5 6 7
6 6 7
5 6 7
6 6 7
5 6 7
5 6 7
5 6 7
6 6 7
5 6 7
5 6 7
5 6 7
5 6 7
5 6 7
5 6 7
5 6 7
5 6 7
5 6 7
5 6 7
5 6 7
5 6 7
5 6 7
5 6 7
5 6 7
5 6 7
5 6 7
5 6 7
5 6 7
5 6 7
5 6 7
5 6 7
5 6 7
5 6 7
5 6 7
4 5 6
3 3 4
3 3 3
3 4 4
3 4 4
3 3 3
3 4 4
3 4 4
3 4 4
3 3 4
4 4 4
4 4 4
3 3 4
4 4 5
3 4 4
3 4 4
3 3 4
3 3 4
3 4 4
3 4 4
4 4 4
4 4 4
4 4 4
3 3 4
3 3 4
4 4 4
3 3 4
4 4 4
4 4 5
3 4 4
3 4 4
4 4 5
3 4 4
3 4 4
3 4 4
4 4 4
3 4 4
3 3 3
3 3 4
4 4 4
3 4 4
3 4 4
3 4 4
4 4 5
3 3 4
3 4 4
4 4 4
3 4 4
3 4 4
4 4 5
4 4 4
3 3 3
4 4 4
4 4 5
4 4 4
3 4 4
3 4 4
4 4 5
3 4 4
3 4 4
4 4 4
3 4 4
4 4 5
4 4 4
3 4 4
3 3 4
3 4 4
3 3 4
3 4 4
4 4 5
3 4 4
3 4 4
4 4 4
4 4 5
4 4 5
3 4 4
3 3 4
4 4 4
3 4 4
3 4 4
4 4 4
3 4 4
4 4 4
4 4 5
4 4 5
4 4 5
3 3 4
3 4 4
4 4 4
3 3 3
3 4 4
3 4 4
4 4 4
3 3 3
3 4 4
3 3 4
3 3 4
3 4 4
3 4 4
3 4 4
3 3 3
5 5 6
5 6 7
5 6 7
5 6 7
5 6 7
5 6 7
5 6 7
5 6 7
5 6 7
5 6 7
5 6 7
5 6 7
5 6 7
5 6 7
5 6 7
5 6 7
5 6 7
5 6 7
5 6 7
5 6 7
5 6 7
5 6 7
5 6 7
5 6 7
6 6 7
5 6 7
5 6 7
5 6 7
5 6 7
5 6 7
5 6 7
5 6 7
5 6 7
6 6 7
5 6 7
6 6 8
6 6 7
6 6 7
6 6 7
5 6 7
6 6 7
5 6 7
6 6 7
5 6 7
6 6 7
5 6 7
5 6 7
5 6 7
6 6 7
6 6 8
6 6 8
6 6 7
6 6 7
6 6 7
5 6 7
6 6 7
6 6 7
6 6 8
6 6 7
6 6 8
6 6 8
6 6 7
6 6 8
6 6 8
6 6 8
6 6 8
6 6 7
6 6 7
6 6 7
6 6 8
6 6 8
6 6 7
6 7 8
6 6 8
6 6 8
6 6 8
6 6 8
6 6 7
6 6 8
6 6 8
6 6 7
6 6 7
6 6 8
6 6 8
6 6 8
5 6 7
6 6 8
6 6 8
6 6 8
6 6 8
6 6 7
6 6 8
6 6 8
6 6 7
6 6 7
6 6 8
6 6 8
6 7 8
6 6 8
6 7 8
6 6 8
6 6 7
6 6 8
6 6 8
6 6 8
6 7 8
6 6 8
6 6 8
6 6 8
6 6 7
6 7 8
6 6 8
6 6 7
6 6 8
6 6 7
6 6 8
6 6 8
6 6 8
6 6 8
6 7 8
6 6 7
6 6 8
6 6 8
6 6 8
6 6 8
6 6 8
6 6 8
6 6 8
6 6 8
6 6 8
6 6 8
6 7 8
6 6 8
6 6 8
6 7 8
6 6 8
6 6 8
6 6 8
6 6 7
6 6 8
6 7 8
6 6 8
6 6 8
6 6 8
6 6 8
6 6 8
6 6 8
6 6 8
6 7 8
6 7 8
6 6 8
6 6 8
6 7 8
6 7 8
6 6 8
6 6 8
6 6 8
6 6 7
6 6 8
6 6 8
6 6 8
6 6 8
6 7 8
6 7 8
6 6 8
6 6 8
6 6 8
6 7 8
6 6 8
6 6 8
5 6 7
6 6 8
6 6 8
6 6 8
6 6 8
6 6 8
6 6 8
6 7 8
6 6 8
5 6 7
6 6 8
6 7 8
6 6 8
6 7 8
6 6 7
6 7 8
6 6 8
6 6 8
6 6 8
6 6 8
6 6 7
6 6 8
6 7 8
6 6 8
6 6 8
6 6 8
6 6 7
6 7 8
6 6 8
6 6 8
6 6 8
6 6 8
6 7 8
6 6 8
6 6 7
6 6 7
6 6 7
6 6 7
6 6 7
6 6 8
6 6 8
6 6 8
6 6 7
6 6 7
6 6 7
6 6 8
6 6 8
6 6 7
6 6 8
6 6 8
6 6 8
6 6 8
6 6 8
5 6 7
6 6 7
6 6 7
6 6 8
6 6 7
6 6 7
5 6 7
6 6 8
6 6 7
6 6 7
6 6 8
6 6 7
5 6 7
6 6 7
6 6 7
5 6 7
6 7 8
6 6 7
5 6 7
6 6 7
5 6 7
6 6 7
5 6 7
6 7 8
6 6 7
5 6 7
6 6 7
6 6 7
6 6 7
6 6 7
5 6 7
6 6 7
5 6 7
6 6 7
5 6 7
5 6 7
5 6 7
5 6 7
5 6 7
5 6 7
5 6 7
6 6 7
5 6 7
5 6 7
5 6 7
5 6 7
5 6 7
5 6 7
5 6 7
5 6 7
5 6 7
5 6 7
5 6 7
5 6 7
5 6 7
5 6 7
5 6 7
5 6 7
5 6 7
5 6 7
5 6 7
5 6 7
5 6 7
5 6 7
5 6 7
5 6 7
5 6 7
5 6 7
5 6 7
5 6 7
5 6 7
5 6 7
5 6 7
5 6 7
5 6 7
5 6 7
5 6 7
4 4 5
3 4 4
3 4 4
3 3 4
3 4 4
3 4 4
3 3 4
3 4 4
4 4 5
4 4 4
3 3 4
3 3 4
3 3 3
3 3 4
3 4 4
3 4 4
3 4 4
3 3 4
3 3 4
3 4 4
3 4 4
3 4 4
4 4 5
3 4 4
4 4 5
3 3 3
3 3 3
3 4 4
4 4 5
3 3 4
3 4 4
4 4 4
4 4 5
4 4 5
3 3 4
3 4 4
3 4 4
3 3 4
4 4 4
3 4 4
3 4 4
3 4 4
4 4 4
4 4 4
3 3 4
4 4 5
3 3 4
3 4 4
4 4 4
3 3 4
3 4 4
4 4 4
3 3 4
4 4 4
3 4 4
3 4 4
4 4 5
4 4 4
4 4 4
3 4 4
3 4 4
3 4 4
3 4 4
3 4 4
3 3 4
4 4 4
3 4 4
4 4 4
3 3 4
3 4 4
4 4 5
3 3 4
4 4 4
3 4 4
3 4 4
3 3 4
3 4 4
3 4 4
3 4 4
3 4 4
3 3 4
3 3 4
4 4 4
4 4 4
3 3 4
3 3 4
3 3 4
3 3 4
3 3 4
3 3 4
3 3 4
3 4 4
3 3 4
3 3 4
3 4 4
3 3 4
3 4 4
4 4 4
3 3 4
4 4 5
5 5 6
5 6 7
5 6 7
5 6 7
5 6 7
5 6 7
5 6 7
5 6 7
5 6 7
5 6 7
5 6 7
5 6 7
5 6 7
5 6 7
5 6 7
5 6 7
5 6 7
5 6 7
5 6 7
5 6 7
5 6 7
6 6 7
5 6 7
5 6 7
5 6 7
5 6 7
5 6 7
5 6 7
5 6 7
5 6 7
6 6 7
5 6 7
5 6 7
5 6 7
5 6 7
5 6 7
5 6 7
5 6 7
6 6 7
5 6 7
6 6 7
5 6 7
6 6 7
6 6 8
5 6 7
5 6 7
5 6 7
5 6 7
5 6 7
5 6 7
6 6 7
6 6 7
5 6 7
5 6 7
5 6 7
6 6 7
5 6 7
5 6 7
6 6 7
6 6 8
5 6 7
6 6 7
6 6 7
6 6 8
6 6 7
6 6 7
6 6 7
6 6 8
6 6 7
6 6 8
6 6 7
6 6 7
6 6 7
6 6 7
5 6 7
6 6 8
6 6 8
6 6 8
5 6 7
6 6 7
6 6 7
6 6 7
6 6 7
6 6 7
6 6 8
6 6 8
6 6 8
6 6 8
6 6 8
6 6 8
6 6 8
6 6 7
6 6 8
6 6 8
6 6 7
5 6 7
6 6 7
6 6 8
6 6 8
6 7 8
6 6 7
6 6 8
6 6 8
6 6 8
6 7 8
6 6 8
6 6 8
6 6 8
6 7 8
6 6 7
6 6 8
6 6 8
6 6 7
6 6 8
6 6 7
6 6 8
6 6 8
6 6 8
6 6 8
6 6 8
6 6 8
6 7 8
6 6 8
6 7 8
6 6 8
6 7 8
6 6 8
6 6 8
6 6 8
6 6 8
6 6 8
6 6 8
6 7 8
6 6 8
6 7 8
6 6 8
6 6 8
6 6 7
6 7 8
6 7 8
6 6 8
6 6 8
6 7 8
6 7 8
6 6 8
6 7 8
6 6 8
6 6 8
6 6 8
6 6 8
6 6 8
6 7 8
6 6 8
6 7 8
6 7 8
6 7 8
6 6 8
6 6 8
6 6 8
6 6 8
6 6 8
6 6 8
6 6 8
6 7 8
6 6 8
6 7 8
6 6 8
6 7 8
6 6 8
6 6 7
6 6 8
6 6 7
6 6 8
6 6 8
6 7 8
6 6 8
6 7 8
6 6 7
6 7 8
6 6 8
6 6 8
6 6 8
6 7 8
6 6 8
6 7 8
6 6 8
6 6 8
6 7 8
6 7 8
6 6 8
6 7 8
6 6 7
6 6 7
6 6 8
6 7 8
6 6 8
6 7 8
6 6 8
6 7 8
6 6 8
6 6 7
6 6 7
6 7 8
6 6 8
6 6 8
5 6 7
6 6 7
6 6 7
6 6 8
6 6 8
6 6 7
6 6 8
6 7 8
6 6 8
6 6 8
6 6 8
6 6 8
6 6 7
6 6 7
6 6 8
6 6 7
6 6 8
6 6 8
5 6 7
6 6 7
6 6 8
6 6 7
6 6 7
6 6 7
6 6 8
6 6 7
6 6 7
6 6 7
6 6 8
6 6 8
6 6 7
6 6 7
5 6 7
6 6 8
6 6 7
5 6 7
6 6 7
6 6 7
5 6 7
6 6 7
5 6 7
6 6 8
6 6 7
6 6 7
6 6 7
5 6 7
6 6 7
6 6 7
6 6 8
6 6 8
5 6 7
5 6 7
5 6 7
5 6 7
5 6 7
6 6 7
5 6 7
5 6 7
5 6 7
5 6 7
6 6 7
5 6 7
6 6 7
5 6 7
5 6 7
5 6 7
5 6 7
5 6 7
5 6 7
5 6 7
5 6 7
5 6 7
6 6 7
5 6 7
5 6 7
5 6 7
5 6 7
5 6 7
5 6 7
5 6 7
5 6 7
5 6 7
5 6 7
5 6 7
5 6 7
5 6 7
5 6 7
5 6 7
5 6 7
5 5 6
5 6 6
5 6 7
5 6 7
5 6 7
5 6 7
5 6 7
4 5 5
3 3 4
3 3 4
3 4 4
3 3 3
3 4 4
3 3 4
3 3 4
3 4 4
3 3 4
3 4 4
3 3 3
3 4 4
3 3 3
3 4 4
4 4 4
3 3 4
4 4 4
3 4 4
3 3 4
4 4 4
4 4 4
3 4 4
3 4 4
4 4 4
3 4 4
3 4 4
4 4 4
3 3 4
3 3 3
3 4 4
3 3 4
3 4 4
3 3 4
3 4 4
3 4 4
4 4 5
3 3 4
4 4 5
3 3 4
3 4 4
3 3 4
3 4 4
3 4 4
4 4 4
3 4 4
3 3 4
4 4 5
3 3 4
4 4 4
4 4 5
3 4 4
4 4 5
4 4 4
3 3 4
3 3 4
4 4 4
4 4 4
4 4 5
3 3 3
3 4 4
4 4 4
3 4 4
3 4 4
3 4 4
4 4 4
3 3 4
3 3 4
3 4 4
4 4 4
3 3 4
4 4 4
4 4 5
3 3 4
3 4 4
3 3 3
3 4 4
3 4 4
3 3 4
4 4 4
3 4 4
4 4 4
3 4 4
3 4 4
3 3 3
3 4 4
4 4 5
3 4 4
3 3 3
3 4 4
3 3 3
3 4 4
3 3 4
3 3 4
3 3 4
3 3 4
3 3 3
4 4 5
5 6 7
5 6 7
5 6 7
5 6 7
5 6 7
5 6 7
5 6 7
5 6 7
5 6 7
5 6 7
5 6 7
5 6 7
5 6 7
5 6 7
5 6 7
5 6 7
5 6 7
5 6 7
5 6 7
5 6 7
5 6 7
5 6 7
6 6 7
5 6 7
5 6 7
5 6 7
5 6 7
5 6 7
5 6 7
5 6 7
5 6 7
5 6 7
5 6 7
5 6 7
5 6 7
5 6 7
5 6 7
5 6 7
6 6 7
5 6 7
5 6 7
6 6 7
5 6 7
5 6 7
5 6 7
6 6 7
5 6 7
5 6 7
5 6 7
5 6 7
5 6 7
6 6 8
5 6 7
5 6 7
6 6 7
6 6 7
6 6 7
5 6 7
6 6 7
6 6 7
5 6 7
6 6 8
6 6 7
5 6 7
5 6 7
6 6 8
6 6 8
6 6 8
6 6 7
6 6 7
6 6 7
6 6 7
6 6 8
6 6 8
6 6 7
6 6 8
6 6 7
6 6 8
6 6 8
6 6 8
6 6 8
6 7 8
6 6 8
6 6 8
6 6 7
6 6 7
6 6 8
6 7 8
6 6 8
6 6 8
6 6 7
6 7 8
6 6 7
6 6 7
6 6 8
6 7 8
6 6 8
6 6 8
6 6 8
6 6 7
6 6 8
6 6 8
6 6 8
6 6 7
6 7 8
6 6 7
6 7 8
6 6 8
6 6 8
6 6 7
6 6 7
6 6 8
6 6 7
6 6 8
6 6 7
6 7 8
6 7 8
6 6 8
6 7 8
6 6 8
6 6 8
6 7 8
6 6 8
6 6 8
6 6 8
6 7 8
6 6 8
6 6 8
6 7 8
6 6 8
6 7 8
6 6 8
6 7 8
6 6 8
6 7 8
6 6 8
6 7 8
6 6 8
6 7 8
6 6 8
6 7 8
6 7 8
6 6 8
6 6 8
6 6 8
6 6 8
6 6 8
6 7 8
6 6 8
6 6 8
6 7 8
6 7 8
6 6 8
6 6 8
6 6 8
6 6 8
6 6 8
6 6 8
6 6 7
6 6 8
6 6 8
6 6 8
6 6 8
6 6 8
6 7 8
6 6 8
6 6 7
6 6 8
6 6 8
6 7 8
6 6 8
6 7 8
6 6 8
6 6 7
6 6 8
6 7 8
6 6 8
6 6 8
6 6 8
6 6 8
6 6 8
6 7 8
6 6 8
6 6 8
6 6 8
6 6 8
6 6 8
6 6 8
6 6 8
6 6 8
6 7 8
6 7 8
6 6 8
6 6 8
6 6 7
6 6 8
5 6 7
6 6 7
6 6 8
6 6 8
6 6 8
6 7 8
6 6 7
6 6 8
6 6 7
6 6 8
6 6 8
6 6 8
6 6 7
6 6 8
5 6 7
6 7 8
5 6 7
6 6 7
6 6 8
6 6 7
6 6 7
6 6 7
6 6 7
6 6 7
6 6 7
6 6 8
6 6 8
5 6 7
6 6 7
6 6 8
6 6 7
6 6 7
6 6 8
6 6 8
6 6 7
6 6 7
6 6 8
5 6 7
6 6 7
6 6 7
6 6 7
6 6 7
6 6 8
6 6 8
6 6 7
5 6 7
5 6 7
6 6 7
5 6 7
6 6 7
6 6 7
6 6 7
6 6 7
6 6 7
5 6 7
5 6 7
5 6 7
6 6 8
5 6 7
6 6 7
6 6 7
5 6 7
5 6 7
5 6 7
5 6 7
5 6 7
5 6 7
5 6 7
5 6 7
5 6 7
5 6 7
5 6 7
5 6 7
5 6 7
5 6 7
5 6 7
5 6 7
5 6 7
5 6 7
5 6 7
5 6 7
5 6 7
6 6 7
5 6 7
5 6 7
5 6 7
5 6 7
5 6 7
5 6 7
5 6 7
5 6 7
5 6 7
5 6 7
5 6 7
5 6 7
5 6 7
5 6 7
5 6 7
5 6 7
5 6 7
5 6 7
5 6 7
5 6 7
5 6 7
5 6 7
5 6 7
5 6 6
3 4 4
3 3 3
3 4 4
3 3 4
3 4 4
3 4 4
3 4 4
4 4 4
3 3 4
3 4 4
3 3 4
3 4 4
3 3 4
3 4 4
3 3 3
3 4 4
3 3 4
3 4 4
3 4 4
3 4 4
3 3 4
4 4 4
3 4 4
3 4 4
4 4 4
3 4 4
4 4 5
4 4 4
3 3 4
4 4 4
3 4 4
4 4 4
4 4 5
3 3 4
4 4 5
3 4 4
3 4 4
3 4 4
3 3 3
4 4 5
3 3 4
3 4 4
4 4 5
3 3 4
3 3 3
3 4 4
3 3 4
3 4 4
4 4 5
4 4 4
3 4 4
4 4 4
3 4 4
4 4 4
4 4 5
3 3 4
3 3 4
3 4 4
3 4 4
4 4 4
3 4 4
4 4 5
3 4 4
3 4 4
3 4 4
3 4 4
3 4 4
4 4 4
4 4 4
4 4 4
3 3 3
3 4 4
3 4 4
4 4 4
3 4 4
4 4 4
3 3 4
3 4 4
3 3 4
3 4 4
3 4 4
3 4 4
3 4 4
3 3 4
3 4 4
4 4 4
3 3 3
3 3 4
3 3 4
2 3 3
3 4 4
3 3 3
3 4 4
3 3 3
3 3 3
4 4 5
5 6 6
5 6 7
5 6 7
5 6 6
5 6 7
5 6 7
5 6 7
5 5 6
5 6 7
5 6 7
5 6 7
5 6 7
5 6 7
5 6 7
5 6 7
5 6 7
5 6 7
5 6 7
5 6 7
5 6 7
5 6 7
5 6 7
5 6 7
5 6 7
5 6 7
5 6 7
5 6 7
5 6 7
5 6 7
5 6 7
5 6 7
5 6 7
5 6 7
6 6 7
6 6 7
5 6 7
5 6 7
5 6 7
5 6 7
5 6 7
5 6 7
6 6 7
6 6 7
5 6 7
6 6 7
6 6 7
6 6 8
6 6 7
6 6 7
5 6 7
6 6 7
6 6 7
5 6 7
6 6 7
6 6 7
5 6 7
5 6 7
6 6 7
5 6 7
5 6 7
5 6 7
6 6 8
5 6 7
5 6 7
6 6 8
6 6 7
6 6 7
5 6 7
5 6 7
5 6 7
5 6 7
6 6 7
6 6 7
6 6 7
5 6 7
5 6 7
6 6 7
6 7 8
6 6 7
6 6 7
6 6 7
6 6 8
6 6 7
6 6 8
6 6 8
6 7 8
6 6 7
6 6 8
6 6 8
6 6 8
6 6 8
6 6 7
6 6 8
6 7 8
6 6 7
6 6 8
6 6 7
6 6 7
6 6 7
6 6 8
6 6 8
6 6 8
6 6 8
6 7 8
6 6 7
6 6 8
6 7 8
6 6 8
6 6 7
6 6 7
6 6 7
6 6 8
6 7 8
6 6 8
6 6 8
6 6 8
6 6 8
6 6 8
6 7 8
6 6 8
6 6 8
6 6 7
6 6 8
6 6 7
6 7 8
6 7 8
6 6 8
6 6 8
6 6 8
6 6 8
6 7 8
6 6 8
6 6 8
6 6 8
6 6 8
6 6 8
6 6 8
6 6 8
6 7 8
6 6 8
6 6 7
6 6 8
6 6 8
6 7 8
6 6 8
6 6 8
6 7 8
6 7 8
6 7 8
6 7 8
6 7 8
6 6 8
6 6 8
6 6 8
6 6 8
6 7 8
6 7 8
6 6 8
6 7 8
6 6 8
6 7 8
6 7 8
6 6 8
6 6 8
6 6 8
6 6 8
6 6 8
6 6 8
6 6 8
6 6 8
6 6 8
6 6 8
6 6 7
6 6 7
6 6 8
6 6 8
6 6 8
6 6 7
6 7 8
6 6 7
6 6 8
6 6 8
6 6 8
6 7 8
6 7 8
6 6 8
6 6 8
6 6 8
6 6 8
6 6 7
6 6 8
6 6 8
6 6 8
6 6 7
6 6 7
6 6 8
6 6 8
6 6 8
6 6 8
5 6 7
6 6 8
6 6 8
6 6 7
6 6 8
6 6 7
6 6 8
6 7 8
6 6 8
6 6 8
6 6 8
6 6 8
6 6 8
6 6 7
6 6 8
5 6 7
5 6 7
6 6 8
6 6 7
6 6 8
6 6 7
6 6 8
6 6 7
6 6 7
6 6 7
6 6 8
6 6 7
6 7 8
6 6 7
6 6 7
6 6 7
6 6 7
5 6 7
5 6 7
5 6 7
6 6 7
6 6 7
6 6 7
6 6 7
5 6 7
5 6 7
5 6 7
5 6 7
6 6 7
6 6 7
5 6 7
5 6 7
5 6 7
6 6 7
5 6 7
6 6 7
5 6 7
5 6 7
5 6 7
5 6 7
5 6 7
6 6 7
6 6 7
5 6 7
6 6 7
5 6 7
5 6 7
5 6 7
6 6 7
5 6 7
5 6 7
5 6 7
5 6 7
5 6 7
5 6 7
5 6 7
5 6 7
5 6 7
5 6 7
6 6 7
5 6 7
5 6 7
5 6 7
5 6 7
5 6 7
5 6 7
5 6 7
5 6 7
5 6 7
5 6 7
5 6 7
5 6 7
5 6 7
5 6 7
5 6 7
5 6 7
5 6 7
5 5 6
5 6 7
5 6 7
5 6 7
5 6 7
5 6 7
5 6 7
5 5 6
5 5 6
5 5 6
5 6 7
5 5 6
5 5 6
5 5 6
3 3 4
3 3 4
3 3 4
3 3 4
3 4 4
3 4 4
3 3 4
3 3 4
3 3 4
3 4 4
3 4 4
3 3 4
3 3 4
3 4 4
4 4 4
3 3 4
2 3 3
3 3 4
3 4 4
3 3 4
3 3 4
3 4 4
3 3 4
4 4 5
3 4 4
3 3 4
3 3 3
4 4 5
4 4 4
3 4 4
3 3 4
3 4 4
3 4 4
4 4 5
4 4 5
3 3 4
3 3 4
3 3 4
3 4 4
3 4 4
3 3 4
3 4 4
3 4 4
3 4 4
3 4 4
3 3 4
3 3 4
3 4 4
3 4 4
4 4 5
3 4 4
4 4 5
3 4 4
3 4 4
3 4 4
3 4 4
3 4 4
3 4 4
4 4 4
3 4 4
3 3 4
3 4 4
3 4 4
3 3 4
3 4 4
4 4 5
3 4 4
4 4 5
3 4 4
3 4 4
3 4 4
3 4 4
3 3 4
3 3 4
3 4 4
3 3 4
3 3 4
3 3 4
3 4 4
3 3 4
3 4 4
3 3 4
3 3 4
3 4 4
3 3 4
3 3 3
3 4 4
3 3 4
3 3 4
2 3 3
3 3 3
3 3 3
3 4 4
3 4 4
5 6 7
5 6 7
5 6 7
5 6 7
5 6 7
5 6 7
5 6 7
5 6 7
5 6 7
5 6 7
5 6 7
5 6 7
5 6 7
5 6 7
5 6 7
5 6 7
5 6 7
5 6 7
5 6 7
5 6 7
5 6 7
5 6 7
5 6 7
5 6 7
5 6 7
5 6 7
5 6 7
5 6 7
5 6 7
5 6 7
5 6 7
5 6 7
5 6 7
5 6 7
5 6 7
5 6 7
5 6 7
5 6 7
5 6 7
5 6 7
6 6 7
6 6 7
5 6 7
5 6 7
5 6 7
6 6 7
5 6 7
6 6 7
5 6 7
6 6 7
6 6 7
6 6 7
5 6 7
5 6 7
6 6 7
5 6 7
5 6 7
5 6 7
6 6 7
5 6 7
6 6 7
5 6 7
6 6 8
6 6 8
6 6 7
5 6 7
6 6 7
6 6 7
6 6 7
5 6 7
6 6 7
5 6 7
6 6 8
6 6 8
6 6 7
6 6 7
6 6 7
6 6 7
6 6 7
6 6 7
6 6 8
6 6 7
6 6 7
6 6 8
6 6 7
6 6 8
6 6 8
6 6 7
6 6 8
6 7 8
6 6 8
6 6 8
6 6 8
6 6 8
6 6 8
6 6 7
6 6 8
6 6 8
6 6 7
6 6 7
6 6 8
6 6 8
6 6 8
6 6 7
6 7 8
6 7 8
6 6 8
6 6 8
6 6 8
5 6 7
6 6 8
6 6 7
6 6 8
6 6 8
6 6 8
6 6 7
6 6 7
6 6 8
6 6 8
6 6 8
6 6 8
6 6 7
6 6 8
6 6 8
6 7 8
6 6 8
6 6 7
6 6 8
6 6 8
6 6 8
6 6 8
6 6 8
6 6 8
6 6 8
6 6 7
6 6 8
6 7 8
6 6 8
6 6 8
6 6 8
6 6 8
6 6 8
6 6 8
6 7 8
6 6 8
6 6 7
6 6 7
6 7 8
6 7 8
6 7 8
5 6 7
6 6 8
6 6 8
6 7 8
6 7 8
6 6 8
6 7 8
6 7 8
6 6 8
6 7 8
6 6 8
6 6 8
6 7 8
6 6 8
6 6 8
6 6 8
6 6 8
6 6 8
6 7 8
6 6 8
6 6 8
6 6 8
6 6 8
6 6 8
6 6 8
6 6 8
6 6 8
6 6 8
6 6 7
6 7 8
6 7 8
6 7 8
6 6 8
6 7 8
6 6 8
6 6 7
6 6 8
6 7 8
6 6 7
6 6 7
6 6 8
6 7 8
6 6 8
6 7 8
6 7 8
6 6 7
6 6 7
6 6 8
6 6 8
6 6 8
6 6 7
6 6 8
6 6 7
6 6 8
6 6 7
6 6 8
6 6 7
6 6 7
6 6 7
5 6 7
6 6 7
6 6 7
6 7 8
5 6 7
6 6 8
6 6 8
6 6 7
6 6 7
6 6 7
6 6 7
5 6 7
6 6 7
6 6 7
6 6 7
6 6 8
5 6 7
6 6 7
6 6 7
6 6 8
6 6 8
6 6 7
6 6 8
5 6 7
6 6 7
6 6 8
6 6 7
6 6 7
6 6 8
5 6 7
5 6 7
5 6 7
5 6 7
5 6 7
6 6 7
6 6 7
5 6 7
5 6 7
6 6 7
6 6 7
5 6 7
6 6 8
5 6 7
6 6 8
5 6 7
6 6 7
5 6 7
5 6 7
5 6 7
5 6 7
6 6 7
5 6 7
5 6 7
6 6 7
6 6 7
5 6 7
5 6 7
5 6 7
5 6 7
5 6 7
5 6 7
5 6 7
5 6 7
5 6 7
5 6 7
5 6 7
5 6 7
5 6 7
5 6 7
5 6 7
5 6 7
5 6 7
5 6 7
5 6 7
5 6 7
5 6 7
5 6 7
5 6 7
5 6 7
5 6 7
5 6 7
5 6 7
5 6 7
5 6 7
5 6 7
5 6 7
5 5 6
5 6 6
5 6 7
5 6 7
5 6 7
5 5 6
5 5 6
5 5 6
5 5 6
4 5 6
5 6 6
5 5 6
3 4 4
3 3 4
3 3 3
3 3 3
3 4 4
3 3 4
3 4 4
3 4 4
3 3 4
3 3 4
3 4 4
4 4 5
3 4 4
3 3 4
3 4 4
3 4 4
3 3 4
3 3 4
3 3 4
3 3 4
3 3 3
3 4 4
3 3 4
3 3 4
3 4 4
3 3 4
4 4 4
3 4 4
3 3 4
3 4 4
3 3 4
3 4 4
3 3 4
4 4 5
4 4 5
3 4 4
3 3 4
3 3 4
3 3 4
4 4 4
3 3 4
3 4 4
3 3 3
3 3 4
3 4 4
3 3 3
3 3 3
3 3 4
3 4 4
4 4 4
3 4 4
3 3 4
4 4 5
3 4 4
3 3 4
3 4 4
3 3 3
3 4 4
3 3 4
4 4 4
3 3 4
3 3 4
3 4 4
3 3 4
3 4 4
3 4 4
3 3 3
3 3 4
3 4 4
3 4 4
3 4 4
3 4 4
3 3 3
3 4 4
3 3 3
4 4 5
4 4 4
3 4 4
3 4 4
4 4 4
3 3 4
3 3 3
2 3 3
3 4 4
3 3 4
3 4 4
3 3 4
3 4 4
3 3 3
3 3 3
3 4 4
3 4 4
5 5 6
5 5 6
5 6 7
5 6 7
5 6 7
5 5 6
5 6 6
5 6 7
5 6 7
5 6 7
5 6 7
5 6 7
5 6 7
5 6 7
5 6 7
5 6 7
5 6 7
5 6 7
5 6 7
5 6 7
5 6 7
5 6 7
5 6 7
5 6 7
5 6 7
5 6 7
5 6 7
5 6 7
5 6 7
5 6 7
5 6 7
5 6 7
5 6 7
5 6 7
5 6 7
5 6 7
5 6 7
5 6 7
5 6 7
5 6 7
5 6 7
5 6 7
5 6 7
5 6 7
5 6 7
5 6 7
5 6 7
6 6 7
5 6 7
5 6 7
5 6 7
5 6 7
6 6 7
5 6 7
5 6 7
5 6 7
5 6 7
6 6 7
5 6 7
5 6 7
5 6 7
6 6 7
6 6 8
6 6 7
6 6 7
5 6 7
6 6 7
5 6 7
6 6 7
5 6 7
6 6 8
5 6 7
6 6 8
6 6 7
6 6 7
6 6 7
6 6 7
6 6 8
5 6 7
6 6 7
6 6 8
5 6 7
6 6 7
6 6 8
6 6 8
6 6 7
5 6 7
6 6 7
6 6 8
5 6 7
6 6 8
6 6 7
5 6 7
6 6 7
5 6 7
6 6 7
6 7 8
6 6 7
6 6 7
6 6 8
6 6 8
6 6 7
6 6 8
6 6 8
6 6 8
6 6 8
6 6 8
6 6 8
6 6 7
6 6 8
6 6 8
6 6 8
6 6 8
6 6 8
6 6 8
6 7 8
6 6 8
6 6 7
6 6 8
6 6 8
6 6 7
6 7 8
6 6 8
6 6 8
5 6 7
6 6 8
6 6 8
6 6 8
6 6 8
6 6 8
6 7 8
6 6 8
6 6 8
6 6 8
6 7 8
6 6 8
6 7 8
6 6 8
6 6 7
6 6 8
6 6 8
6 7 8
6 7 8
6 7 8
6 6 8
6 7 8
6 7 8
6 6 8
6 7 8
6 6 8
6 6 8
6 6 8
6 6 8
6 6 8
6 6 8
6 6 8
6 6 8
6 6 8
6 6 8
6 6 8
6 6 8
6 7 8
6 6 8
6 6 8
6 6 8
6 6 7
6 6 8
6 7 8
6 7 8
6 6 8
6 6 8
6 6 7
6 6 8
6 6 7
6 6 8
6 6 8
6 6 7
6 6 8
6 6 8
6 6 8
6 6 8
6 6 8
6 6 7
6 6 8
6 6 7
6 6 8
6 6 7
6 6 8
6 7 8
6 6 8
6 6 7
6 6 8
6 6 8
6 6 7
6 6 8
6 6 8
6 6 8
6 7 8
6 6 7
6 6 7
6 6 8
6 6 8
6 6 8
6 6 8
6 6 8
6 6 7
6 7 8
6 6 7
6 6 8
6 6 8
6 6 8
6 6 7
6 7 8
6 6 7
6 6 8
6 6 7
5 6 7
6 6 7
6 6 8
6 6 7
6 6 8
6 6 8
6 6 8
6 6 8
6 6 7
5 6 7
6 6 7
6 6 8
6 6 7
6 6 7
6 6 8
6 6 8
6 6 7
6 6 7
6 6 8
5 6 7
6 6 7
6 6 8
5 6 7
5 6 7
6 6 8
5 6 7
5 6 7
6 6 7
5 6 7
6 6 7
6 6 7
5 6 7
6 6 7
5 6 7
6 6 8
5 6 7
6 6 7
6 6 8
5 6 7
5 6 7
5 6 7
5 6 7
6 6 7
5 6 7
5 6 7
5 6 7
5 6 7
5 6 7
5 6 7
5 6 7
5 6 7
5 6 7
5 6 7
5 6 7
5 6 7
5 6 7
5 6 7
5 6 7
5 6 7
5 6 7
5 6 7
5 6 7
5 6 7
5 6 7
5 6 7
5 6 7
5 6 7
5 6 7
5 6 7
5 6 7
5 6 7
5 6 7
5 6 7
5 6 7
5 6 7
5 6 7
5 6 7
5 6 7
5 6 7
5 6 7
5 6 7
5 6 7
5 6 7
5 6 7
5 5 6
5 6 7
5 6 6
5 5 6
5 6 7
5 5 6
4 5 6
5 5 6
4 5 6
3 3 4
3 3 4
3 3 4
2 3 3
3 3 4
3 3 4
3 3 4
3 3 3
3 3 4
3 4 4
3 4 4
3 3 4
3 3 4
3 3 4
3 3 4
4 4 4
4 4 5
3 4 4
3 3 4
3 4 4
3 3 3
3 3 4
3 4 4
3 3 4
3 3 4
3 3 4
3 4 4
3 3 4
3 3 4
4 4 4
3 3 4
3 4 4
3 3 4
3 4 4
3 3 3
2 2 3
3 4 4
3 4 4
3 3 4
3 3 4
3 4 4
3 4 4
3 3 4
3 4 4
3 3 4
4 4 4
3 4 4
4 4 4
3 4 4
3 4 4
3 3 4
3 3 4
3 3 4
3 4 4
3 4 4
3 3 4
3 3 4
3 4 4
3 4 4
3 3 4
3 3 4
3 3 4
4 4 4
3 4 4
3 3 4
4 4 4
3 3 3
3 3 3
3 4 4
3 3 4
3 3 4
3 3 4
3 3 4
2 3 3
3 4 4
3 3 4
3 3 4
3 4 4
3 3 3
3 3 4
3 4 4
3 4 4
3 4 4
3 4 4
3 3 4
3 4 4
3 4 4
3 3 4
3 4 4
3 4 4
5 5 6
4 5 6
5 5 6
5 5 6
5 5 6
5 5 6
5 5 6
5 5 6
5 5 6
5 6 7
5 5 6
5 6 7
5 6 7
5 6 7
5 6 7
5 6 7
5 6 7
5 6 7
5 6 7
5 6 7
5 6 6
5 6 7
5 6 7
5 6 7
5 6 7
5 6 7
5 6 7
5 6 7
5 6 7
5 6 7
5 6 7
5 6 7
5 6 7
5 6 7
5 6 7
5 6 7
5 6 7
5 6 7
5 6 7
5 6 7
5 6 7
5 6 7
5 6 7
5 6 7
5 6 7
5 6 7
5 6 7
5 6 7
6 6 8
5 6 7
5 6 7
5 6 7
5 6 7
5 6 7
5 6 7
5 6 7
6 6 7
5 6 7
5 6 7
5 6 7
5 6 7
6 6 7
6 6 7
6 6 8
6 6 7
6 6 7
5 6 7
6 6 7
6 6 7
5 6 7
5 6 7
6 6 7
5 6 7
6 6 7
6 6 8
6 6 7
6 6 8
6 6 7
6 6 8
6 6 7
5 6 7
5 6 7
6 6 8
6 6 7
6 6 7
6 6 8
5 6 7
6 7 8
5 6 7
6 6 7
6 6 7
6 6 7
6 6 8
6 7 8
5 6 7
6 6 7
6 6 7
6 6 7
6 6 7
6 6 7
5 6 7
6 6 8
6 6 8
6 6 7
6 6 8
6 6 8
6 6 7
6 6 8
6 6 8
6 6 8
6 6 7
6 7 8
6 6 8
6 6 7
6 6 8
6 6 7
6 6 8
6 6 8
6 6 7
6 6 8
6 6 8
6 6 8
6 6 8
6 6 8
6 6 8
6 6 7
6 6 8
6 6 8
6 6 8
6 6 7
6 6 7
6 6 8
6 6 8
6 6 8
6 7 8
6 7 8
6 6 8
6 6 8
6 6 7
6 7 8
6 6 8
6 6 8
6 7 8
6 6 7
6 7 8
6 6 8
6 7 8
6 6 8
6 6 8
6 6 8
6 6 8
6 7 8
6 7 8
6 7 8
6 6 8
6 7 8
6 6 8
6 6 8
6 7 8
6 6 8
6 6 7
6 6 8
6 6 8
6 7 8
6 6 8
6 7 8
6 7 8
6 6 8
6 6 8
6 6 8
6 6 7
6 6 7
6 7 8
6 6 8
6 6 8
6 6 8
6 6 8
6 6 8
6 6 8
6 7 8
6 6 8
6 6 8
6 6 7
6 6 8
6 6 7
6 6 8
6 6 8
6 6 8
6 6 7
6 6 7
6 6 7
6 6 7
6 6 8
6 6 8
6 6 7
6 6 7
6 6 7
6 6 7
6 6 8
6 6 8
6 6 8
6 6 8
6 6 7
6 6 8
6 6 7
6 6 8
6 6 8
6 6 8
6 6 8
6 6 7
6 6 7
6 6 8
6 6 7
6 6 7
5 6 7
6 6 7
6 6 7
6 6 7
6 6 8
6 6 8
6 6 8
6 6 7
6 6 7
6 6 7
5 6 7
5 6 7
5 6 7
5 6 7
6 6 7
6 6 7
6 6 8
6 6 7
5 6 7
6 6 8
5 6 7
5 6 7
6 6 7
6 6 7
5 6 7
6 6 7
6 6 7
6 6 7
6 6 7
6 6 7
5 6 7
5 6 7
5 6 7
6 6 7
6 6 7
5 6 7
6 6 8
6 6 7
5 6 7
5 6 7
5 6 7
5 6 7
6 6 7
5 6 7
5 6 7
5 6 7
5 6 7
5 6 7
5 6 7
5 6 7
5 6 7
5 6 7
5 6 7
5 6 7
5 6 7
5 6 7
5 6 7
5 6 7
5 6 7
5 6 7
5 6 7
5 6 7
5 6 7
5 6 7
5 6 7
5 6 7
5 6 7
5 6 7
5 6 7
5 6 7
5 6 7
5 6 7
5 6 7
5 6 7
5 6 6
5 6 7
5 6 7
5 6 7
5 6 7
5 6 7
5 6 7
5 6 7
5 5 6
5 5 6
5 5 6
5 6 6
5 5 6
5 6 7
5 5 6
5 5 6
5 6 7
5 5 6
5 5 6
4 5 6
5 5 6
4 5 6
4 5 6
3 3 4
2 2 3
3 3 3
3 3 4
3 3 4
3 3 3
3 4 4
3 3 4
3 3 3
3 4 4
3 4 4
3 3 4
3 3 3
3 4 4
3 4 4
3 3 4
2 3 3
3 4 4
3 3 4
3 3 4
3 3 4
3 3 4
3 3 4
3 3 3
3 3 4
3 4 4
3 4 4
3 3 4
3 4 4
3 4 4
3 3 4
3 3 4
3 3 4
3 3 4
3 3 3
3 3 3
3 3 4
4 4 4
3 3 3
3 3 4
4 4 5
3 3 3
3 3 3
3 4 4
3 4 4
3 4 4
3 3 3
4 4 4
3 4 4
3 3 4
3 4 4
3 3 4
3 3 4
3 4 4
3 4 4
3 3 4
3 3 4
3 3 3
3 4 4
3 3 4
3 4 4
3 4 4
3 4 4
3 4 4
3 3 4
3 3 4
3 4 4
4 4 5
4 4 4
3 3 4
3 3 4
3 3 4
3 3 4
3 3 4
3 4 4
3 3 4
3 3 4
3 4 4
3 4 4
3 3 4
3 4 4
3 3 4
3 3 4
2 2 3
2 2 3
3 3 3
2 3 3
3 3 4
4 5 6
5 6 7
5 5 6
4 5 6
5 5 6
5 5 6
5 5 6
5 5 6
5 5 6
5 6 6
5 6 6
5 6 7
5 6 7
5 6 7
5 6 7
5 6 7
5 6 7
5 6 7
5 6 7
5 6 7
5 6 7
5 6 7
5 6 7
5 6 7
5 6 7
5 6 7
5 6 7
5 6 7
5 6 7
5 6 7
5 6 7
5 6 7
5 6 7
5 6 7
5 6 7
5 6 7
5 6 7
5 6 7
5 6 7
5 6 7
5 6 7
5 6 7
5 6 7
5 6 7
5 6 7
5 6 7
5 6 7
6 6 7
5 6 7
5 6 7
5 6 7
5 6 7
5 6 7
5 6 7
6 6 7
5 6 7
6 6 7
5 6 7
5 6 7
5 6 7
5 6 7
6 6 7
6 6 7
5 6 7
6 6 7
5 6 7
5 6 7
6 6 8
6 6 7
5 6 7
5 6 7
6 6 8
6 6 7
6 6 7
5 6 7
6 6 7
6 6 8
6 6 7
5 6 7
6 6 7
5 6 7
6 6 7
6 6 7
5 6 7
6 6 7
6 6 7
6 6 8
6 6 7
6 6 7
6 6 8
5 6 7
6 6 8
6 6 7
6 6 7
6 6 7
6 6 7
5 6 7
6 6 7
6 6 8
6 6 7
6 6 8
6 6 7
5 6 7
6 6 7
6 6 7
6 6 7
6 6 8
5 6 7
6 6 7
6 6 7
6 6 8
6 6 8
6 6 7
6 6 7
6 6 8
6 6 8
6 6 7
6 6 8
6 6 7
6 6 8
6 6 7
6 7 8
6 6 7
6 6 8
6 6 7
6 6 7
6 6 8
6 6 8
6 6 8
6 7 8
6 6 8
6 6 7
6 6 8
6 6 8
6 6 8
6 6 8
6 6 7
6 6 7
6 6 7
6 6 7
6 6 8
6 7 8
6 6 8
6 7 8
6 6 8
6 6 8
6 7 8
6 7 8
6 6 7
6 6 8
6 6 8
6 6 8
6 7 8
6 6 7
6 6 8
6 6 7
6 6 8
6 6 8
6 6 8
6 6 8
6 6 8
6 7 8
6 6 8
6 7 8
6 6 8
6 6 8
6 6 8
6 6 8
6 6 7
6 6 7
6 6 8
6 7 8
6 6 7
6 6 8
6 6 8
6 6 8
6 6 7
6 6 8
6 6 8
6 6 8
6 6 8
6 6 8
6 6 8
6 6 8
6 7 8
6 6 8
6 6 8
6 6 8
6 6 8
6 7 8
6 6 7
6 6 8
6 6 8
6 6 7
6 6 7
6 6 8
6 6 7
6 6 8
6 6 8
6 6 7
6 7 8
6 6 8
6 6 8
6 6 8
5 6 7
5 6 7
6 6 7
6 6 8
6 6 7
6 6 8
6 6 8
6 6 7
6 6 7
6 6 8
6 6 7
5 6 7
6 6 7
6 6 7
5 6 7
5 6 7
6 6 7
6 6 8
6 6 7
6 6 7
6 6 7
6 6 7
6 6 7
6 6 7
6 6 7
5 6 7
5 6 7
6 6 7
6 6 7
6 6 8
6 6 7
6 6 8
6 6 8
6 6 7
6 6 7
5 6 7
5 6 7
6 6 7
6 6 7
5 6 7
5 6 7
5 6 7
6 6 8
6 6 7
5 6 7
6 6 7
5 6 7
5 6 7
5 6 7
6 6 7
6 6 7
5 6 7
5 6 7
6 6 7
6 6 7
5 6 7
5 6 7
5 6 7
5 6 7
5 6 7
5 6 7
5 6 7
5 6 7
5 6 7
5 6 7
5 6 7
5 6 7
5 6 7
5 6 7
5 6 7
5 6 7
5 6 7
5 6 7
5 6 7
5 6 7
5 6 7
5 6 7
5 6 7
5 6 7
5 6 7
5 6 7
5 6 7
5 6 7
5 6 7
5 6 7
5 6 7
5 6 7
5 6 7
5 6 7
5 6 7
5 6 7
5 6 7
5 6 7
5 5 6
5 5 6
5 6 6
5 6 7
5 5 6
5 5 6
5 5 6
4 5 6
4 5 6
4 5 6
4 5 6
4 5 6
4 5 6
4 5 6
5 5 6
4 5 6
3 3 4
3 3 4
3 3 4
3 3 3
3 3 3
3 3 4
3 3 3
3 3 3
3 4 4
3 3 4
4 4 4
3 3 4
3 4 4
3 3 3
3 3 4
3 3 4
3 4 4
3 3 4
3 3 4
3 3 3
3 4 4
3 4 4
3 4 4
3 3 3
3 3 4
3 3 4
3 3 4
2 3 3
3 4 4
3 4 4
4 4 4
3 3 4
3 3 4
3 3 4
4 4 4
3 4 4
3 3 3
3 3 4
3 4 4
3 3 3
3 4 4
3 3 4
3 4 4
4 4 4
4 4 5
3 3 4
3 4 4
4 4 5
3 3 4
3 3 3
3 4 4
3 4 4
3 3 4
3 3 3
3 3 4
3 3 4
3 4 4
3 3 3
3 3 3
2 3 3
3 3 4
3 4 4
3 3 3
3 3 4
3 3 4
3 4 4
3 3 3
3 4 4
4 4 5
3 4 4
3 3 3
3 3 4
3 3 4
3 3 4
3 3 3
3 3 4
3 3 3
3 4 4
3 3 3
2 3 3
3 3 4
3 3 3
3 3 4
3 3 3
3 3 3
3 4 4
4 5 6
4 5 6
4 5 6
5 5 6
5 5 6
4 5 6
5 5 6
5 6 6
5 5 6
5 6 6
5 5 6
5 5 6
5 5 6
5 6 7
5 5 6
5 5 6
5 6 7
5 6 7
5 5 6
5 6 7
5 6 7
5 6 7
5 6 7
5 6 7
5 6 7
5 6 7
5 6 7
5 6 7
5 6 7
5 6 7
5 6 7
5 6 7
5 6 7
5 6 7
5 6 7
5 6 7
5 6 7
5 6 7
5 6 7
5 6 7
5 6 7
5 6 7
5 6 7
5 6 7
5 6 7
5 6 7
5 6 7
5 6 7
6 6 7
5 6 7
5 6 7
5 6 7
5 6 7
6 6 7
5 6 7
5 6 7
5 6 7
5 6 7
5 6 7
5 6 7
5 6 7
5 6 7
5 6 7
5 6 7
5 6 7
5 6 7
5 6 7
5 6 7
5 6 7
6 6 7
6 6 7
6 6 7
6 6 7
5 6 7
5 6 7
5 6 7
6 6 7
6 6 7
5 6 7
6 6 8
6 6 7
6 6 7
6 6 7
5 6 7
6 6 7
6 6 7
5 6 7
6 6 7
6 6 7
6 6 7
6 6 7
6 6 7
6 6 7
6 6 7
5 6 7
6 6 7
6 6 7
6 6 7
6 6 8
5 6 7
6 6 8
6 6 8
6 6 8
6 6 8
6 6 7
6 7 8
6 6 8
5 6 7
6 6 8
6 6 7
6 6 8
6 7 8
6 6 7
6 6 8
6 6 8
6 6 8
6 6 7
6 6 8
6 6 8
6 6 8
6 6 7
6 6 8
6 7 8
6 6 7
6 6 8
6 6 8
6 6 7
6 6 8
6 6 8
6 6 8
6 6 8
6 7 8
6 6 7
6 7 8
6 7 8
6 6 8
6 6 8
6 6 7
6 7 8
6 6 8
6 6 8
6 6 8
6 6 8
6 6 8
6 6 8
6 7 8
6 7 8
6 6 8
6 7 8
6 6 8
6 6 8
6 6 8
6 6 8
6 7 8
6 7 8
6 7 8
6 6 8
6 6 8
6 6 8
6 6 7
6 7 8
6 6 8
6 6 8
6 6 8
6 6 7
6 6 8
6 6 8
6 6 8
6 6 8
6 6 8
6 6 7
6 7 8
6 6 8
6 6 8
6 6 8
6 6 8
6 6 7
6 6 8
6 6 8
6 6 7
6 6 8
6 7 8
6 6 7
6 7 8
6 7 8
6 6 8
6 6 7
6 7 8
6 6 8
6 6 7
6 7 8
6 6 8
6 6 8
6 7 8
6 6 7
6 6 8
6 6 8
6 6 8
6 6 8
6 6 8
6 6 8
6 6 8
6 7 8
6 6 8
6 6 7
6 6 7
6 6 7
6 6 7
6 6 7
6 6 7
6 6 8
6 6 7
6 7 8
6 6 7
6 6 7
6 6 8
6 6 7
6 7 8
6 6 7
6 6 7
6 6 7
6 6 8
5 6 7
6 6 7
6 6 7
6 6 7
6 6 7
6 6 7
6 6 8
5 6 7
6 6 7
5 6 7
6 6 7
6 6 7
5 6 7
5 6 7
6 6 7
5 6 7
6 6 7
6 6 7
6 6 7
5 6 7
6 6 7
6 6 7
6 6 8
5 6 7
5 6 7
6 6 7
5 6 7
5 6 7
6 6 7
5 6 7
5 6 7
5 6 7
6 6 7
5 6 7
5 6 7
5 6 7
6 6 7
5 6 7
5 6 7
5 6 7
5 6 7
5 6 7
5 6 7
5 6 7
5 6 7
5 6 7
5 6 7
5 6 7
5 6 7
5 6 7
5 6 7
5 6 7
5 6 7
5 6 7
5 6 7
5 6 7
5 6 7
5 6 7
5 6 7
5 6 7
5 6 7
5 6 7
5 6 7
5 6 7
5 6 7
5 6 7
5 6 7
5 6 7
5 6 7
5 6 7
5 6 7
5 6 7
5 5 6
5 6 7
5 6 7
5 6 7
5 5 6
5 6 7
5 6 7
5 6 6
5 6 7
4 5 6
5 5 6
5 5 6
5 5 6
4 5 6
5 5 6
5 5 6
4 5 6
5 5 6
4 5 6
4 5 6
4 5 5
3 4 4
2 3 3
3 3 4
2 3 3
3 3 4
3 3 4
3 3 3
3 3 4
3 3 4
3 3 4
3 3 4
3 3 4
3 4 4
3 4 4
3 4 4
3 3 4
3 3 4
3 4 4
3 3 4
3 3 3
3 3 4
3 3 4
3 3 4
3 3 4
3 3 3
3 4 4
3 4 4
3 4 4
3 3 4
3 4 4
3 3 4
3 3 3
4 4 5
3 3 4
3 3 4
3 3 3
3 3 3
3 3 3
3 4 4
4 4 4
3 3 3
3 4 4
3 3 4
3 4 4
3 4 4
3 3 4
3 3 4
3 4 4
3 3 4
3 4 4
3 3 4
3 3 4
3 3 4
3 4 4
3 3 3
4 4 5
3 4 4
3 3 3
3 4 4
3 4 4
3 3 4
3 4 4
3 3 4
3 3 3
3 3 4
3 4 4
3 3 4
3 4 4
3 3 3
3 3 4
3 4 4
2 2 3
3 4 4
2 3 3
3 3 4
3 3 4
3 3 3
3 3 4
3 3 3
3 3 3
3 3 4
3 3 4
3 3 3
4 4 5
5 5 6
5 5 6
4 4 5
4 5 6
5 5 6
5 5 6
4 5 6
5 5 6
5 5 6
5 5 6
5 5 6
5 5 6
5 6 6
5 5 6
5 5 6
5 5 6
5 6 7
5 6 7
5 6 7
5 6 7
5 5 6
5 6 7
5 6 7
5 6 7
5 6 7
5 6 7
5 6 6
5 6 7
5 6 7
5 6 7
5 6 7
5 6 7
5 6 7
5 6 7
5 6 7
5 6 7
5 6 7
5 6 7
5 6 7
5 6 7
5 6 7
5 6 7
5 6 7
5 6 7
5 6 7
5 6 7
5 6 7
5 6 7
5 6 7
5 6 7
5 6 7
5 6 7
6 6 7
5 6 7
5 6 7
5 6 7
5 6 7
5 6 7
5 6 7
5 6 7
6 6 7
5 6 7
5 6 7
5 6 7
5 6 7
6 6 7
5 6 7
5 6 7
5 6 7
5 6 7
6 6 7
6 6 7
6 6 7
6 6 7
6 6 7
6 6 7
5 6 7
6 6 7
6 6 7
6 6 7
6 6 7
6 6 7
6 6 7
6 6 8
5 6 7
6 6 7
5 6 7
6 6 7
6 6 8
5 6 7
6 6 7
6 6 8
6 6 8
6 6 7
6 6 7
6 6 8
6 6 8
6 6 7
6 6 7
5 6 7
6 6 7
5 6 7
6 6 8
6 6 7
6 6 7
6 6 8
6 6 7
6 6 8
6 6 7
5 6 7
6 6 7
6 6 7
6 6 8
6 6 8
6 6 8
6 6 8
6 6 8
6 6 8
5 6 7
6 6 8
6 6 8
6 6 8
6 6 8
6 6 7
6 6 7
6 6 7
6 7 8
6 7 8
6 6 7
6 6 7
6 6 8
6 6 8
6 6 8
6 6 8
6 6 8
5 6 7
6 6 8
6 6 7
6 6 8
6 6 8
6 6 8
6 6 8
6 7 8
6 6 8
6 7 8
6 7 8
6 6 7
6 6 8
6 6 8
6 6 8
6 6 7
6 7 8
6 6 8
6 6 7
6 6 8
6 7 8
6 6 8
6 7 8
6 6 8
6 6 8
6 6 7
6 6 8
6 7 8
6 6 8
6 6 7
6 6 8
5 6 7
6 6 8
6 7 8
6 6 8
6 6 8
6 7 8
6 6 8
6 6 8
6 7 8
6 6 7
6 6 8
6 6 8
6 6 8
6 6 8
6 6 8
6 6 7
6 6 8
6 6 8
6 6 7
6 6 7
6 6 7
6 6 8
6 6 8
6 7 8
6 6 8
6 6 7
6 6 7
6 6 8
6 6 8
6 6 8
6 6 7
6 6 8
6 6 7
5 6 7
6 6 7
6 6 8
6 6 7
6 6 8
6 7 8
5 6 7
6 6 7
6 6 7
6 6 7
6 6 8
6 6 8
6 6 8
6 6 7
6 6 7
6 6 7
6 6 7
6 6 7
6 6 7
6 6 7
6 6 7
6 6 7
5 6 7
6 6 8
5 6 7
6 6 7
5 6 7
6 6 7
6 6 8
6 6 7
5 6 7
5 6 7
6 6 7
6 6 8
6 6 8
5 6 7
6 6 7
5 6 7
6 6 7
6 6 8
6 6 7
5 6 7
5 6 7
5 6 7
5 6 7
6 6 7
5 6 7
5 6 7
5 6 7
5 6 7
5 6 7
5 6 7
5 6 7
6 6 7
5 6 7
5 6 7
5 6 7
5 6 7
6 6 7
5 6 7
5 6 7
6 6 7
6 6 7
6 6 7
5 6 7
5 6 7
5 6 7
5 6 7
5 6 7
5 6 7
6 6 7
5 6 7
5 6 7
5 6 7
5 6 7
5 6 7
5 6 7
5 6 7
5 6 7
5 6 7
5 6 6
5 6 7
5 6 7
5 6 7
5 6 7
5 6 7
5 6 7
5 6 7
5 6 7
5 6 7
5 6 7
5 6 7
5 6 7
5 6 7
5 6 7
5 5 6
5 6 7
5 5 6
5 6 7
5 5 6
5 6 6
5 5 6
5 6 6
5 6 6
5 5 6
5 5 6
5 6 7
4 5 6
4 5 6
5 5 6
4 5 6
5 5 6
4 5 5
5 5 6
4 5 6
4 5 6
4 5 6
4 5 5
4 4 5
3 3 3
2 2 3
3 3 4
2 3 3
3 3 4
3 3 4
3 3 3
3 3 3
3 3 3
2 2 3
3 4 4
3 4 4
3 3 4
3 4 4
3 4 4
3 4 4
3 3 3
3 3 3
3 4 4
2 3 3
3 3 4
3 3 3
3 3 4
3 3 4
3 3 4
3 4 4
3 4 4
3 3 3
3 3 4
3 3 3
3 3 3
3 3 4
3 3 4
3 4 4
3 3 4
3 3 4
3 3 4
3 4 4
3 4 4
3 3 4
3 3 3
3 3 4
3 3 4
3 4 4
3 3 3
3 4 4
3 3 3
3 3 4
3 3 4
3 3 4
3 3 4
3 3 4
3 4 4
3 3 3
3 3 3
3 4 4
3 3 4
3 4 4
3 3 3
3 4 4
3 3 4
3 3 4
3 3 3
3 3 4
3 3 4
3 3 4
3 3 3
3 3 4
3 4 4
3 3 4
3 3 3
3 3 4
3 3 4
3 3 3
3 4 4
3 3 3
3 3 4
3 3 3
3 3 3
3 3 3
4 4 5
4 5 5
4 5 5
4 5 6
4 5 6
5 5 6
4 5 6
4 5 6
4 5 6
4 5 6
4 5 6
5 5 6
4 5 6
5 5 6
5 5 6
5 5 6
4 5 6
5 5 6
5 6 6
5 5 6
5 6 7
5 6 6
5 6 7
5 6 7
5 6 7
5 6 7
5 6 7
5 6 7
5 6 7
5 6 7
5 6 7
5 6 7
5 6 7
5 6 7
5 6 7
5 6 7
5 6 7
5 6 7
5 6 7
5 6 7
5 6 7
5 6 7
5 6 7
5 6 7
5 6 7
5 6 7
5 6 7
5 6 7
5 6 7
5 6 7
5 6 7
5 6 7
5 6 7
5 6 7
5 6 7
5 6 7
5 6 7
5 6 7
5 6 7
5 6 7
5 6 7
5 6 7
5 6 7
5 6 7
5 6 7
5 6 7
5 6 7
5 6 7
5 6 7
5 6 7
5 6 7
6 6 7
5 6 7
5 6 7
5 6 7
6 6 7
5 6 7
5 6 7
6 6 7
6 6 7
5 6 7
5 6 7
6 6 7
5 6 7
5 6 7
5 6 7
6 6 7
6 6 7
6 6 7
6 6 7
5 6 7
6 6 8
6 6 7
6 6 7
6 6 7
6 6 8
5 6 7
6 6 8
5 6 7
6 6 8
6 6 8
6 6 7
6 6 7
5 6 7
5 6 7
5 6 7
6 6 8
6 6 8
6 7 8
6 6 8
6 6 7
6 6 7
6 6 7
6 6 8
6 6 7
6 6 7
5 6 7
6 6 7
6 6 8
6 6 7
6 6 7
6 6 7
6 6 7
6 6 7
6 6 8
6 6 8
6 6 8
6 6 8
6 6 8
6 6 8
6 7 8
6 6 7
6 6 8
6 6 7
6 6 8
6 6 7
6 6 8
6 7 8
6 6 8
6 6 8
6 6 8
6 6 8
6 6 8
6 6 7
6 7 8
6 7 8
6 7 8
6 6 8
6 6 7
6 7 8
6 6 8
6 6 8
6 6 8
6 6 7
6 6 8
6 6 8
6 6 7
6 6 8
6 6 8
6 6 7
6 6 7
6 6 8
6 6 8
6 6 8
6 6 8
6 6 8
6 6 8
6 6 7
6 6 8
6 6 8
6 7 8
6 7 8
6 6 8
6 6 7
6 6 8
6 6 8
6 6 8
6 7 8
6 6 7
6 6 8
6 6 8
6 6 8
6 6 8
6 7 8
6 6 8
6 6 8
6 6 8
6 6 8
6 6 8
6 6 7
6 6 8
6 6 8
6 6 8
6 6 8
6 6 8
6 6 8
6 6 7
6 6 7
6 6 8
6 6 8
6 6 7
6 7 8
6 6 7
6 6 7
6 6 7
6 6 7
6 6 8
6 6 7
6 6 7
6 6 7
5 6 7
6 6 7
6 6 8
6 6 7
6 6 7
6 6 7
6 6 8
6 6 7
6 6 8
6 6 7
6 6 7
5 6 7
6 6 7
6 6 7
6 6 8
6 6 8
6 6 7
5 6 7
6 6 7
6 6 7
6 6 8
6 6 7
5 6 7
6 6 7
5 6 7
5 6 7
6 6 7
6 6 7
5 6 7
5 6 7
5 6 7
5 6 7
5 6 7
5 6 7
5 6 7
5 6 7
6 6 7
6 6 7
5 6 7
5 6 7
6 6 7
6 6 7
5 6 7
5 6 7
5 6 7
5 6 7
5 6 7
5 6 7
6 6 7
5 6 7
5 6 7
5 6 7
5 6 7
5 6 7
5 6 7
5 6 7
5 6 7
5 6 7
5 6 7
5 6 7
5 6 7
5 6 7
5 6 7
5 6 7
5 6 7
5 6 7
5 6 7
5 6 7
5 6 7
5 6 7
5 6 7
5 6 7
5 6 7
5 6 7
5 6 6
5 6 7
5 6 7
5 6 7
5 6 7
5 6 7
5 6 7
5 6 7
5 6 7
5 6 7
4 5 6
5 6 7
5 6 7
5 5 6
5 5 6
5 6 7
5 5 6
5 6 6
5 5 6
4 5 6
5 5 6
5 5 6
5 5 6
5 5 6
4 5 5
5 5 6
4 5 6
4 5 6
5 5 6
4 5 6
4 5 6
4 5 6
4 5 6
4 5 6
4 5 6
4 5 5
4 4 5
3 3 3
3 3 4
3 3 3
3 3 3
3 3 4
3 3 4
3 3 4
3 3 3
3 3 3
3 3 3
3 3 4
3 3 4
3 3 3
3 3 3
3 3 3
4 4 4
3 4 4
3 3 3
3 4 4
3 3 3
3 3 4
3 3 4
3 3 3
3 3 3
3 4 4
3 3 3
3 3 4
3 3 4
2 3 3
3 3 3
3 3 4
3 4 4
3 3 4
3 3 4
3 3 4
3 3 3
3 3 4
2 3 3
3 3 4
3 3 4
3 3 4
3 3 3
3 3 3
4 4 4
3 4 4
3 3 4
3 3 4
3 3 4
3 3 4
3 3 3
3 3 3
3 3 4
3 3 4
3 4 4
3 4 4
3 3 3
3 3 3
3 3 3
3 3 4
3 3 4
3 3 3
3 3 4
3 3 3
3 3 4
2 3 3
3 3 3
3 3 3
3 3 3
3 3 3
3 3 3
3 3 4
3 3 3
3 3 4
3 3 4
3 3 4
3 3 4
2 2 2
2 3 3
4 4 5
4 5 5
4 5 5
4 5 5
4 5 6
4 4 5
4 5 6
4 4 5
4 5 6
4 5 6
4 5 5
4 5 6
4 5 6
5 5 6
5 5 6
5 5 6
4 5 6
5 5 6
5 5 6
5 5 6
5 6 7
5 6 7
5 6 6
5 6 6
5 6 7
5 6 7
5 6 6
5 6 7
5 6 7
5 6 7
5 6 7
5 6 7
5 6 7
5 6 7
5 6 7
5 6 7
5 6 7
5 6 7
5 6 7
5 6 7
5 6 7
5 6 7
5 6 7
5 6 7
5 6 7
5 6 7
5 6 7
5 6 7
5 6 7
5 6 7
5 6 7
5 6 7
5 6 7
5 6 7
5 6 7
5 6 7
5 6 7
5 6 7
5 6 7
5 6 7
5 6 7
5 6 7
5 6 7
5 6 7
5 6 7
5 6 7
5 6 7
5 6 7
5 6 7
6 6 7
5 6 7
6 6 7
6 6 8
5 6 7
5 6 7
5 6 7
5 6 7
6 6 7
5 6 7
6 6 7
6 6 7
6 6 8
6 6 7
6 6 7
5 6 7
5 6 7
6 6 7
6 6 7
5 6 7
5 6 7
5 6 7
6 6 8
6 6 8
5 6 7
6 6 8
6 6 7
5 6 7
6 6 7
6 6 7
6 6 7
6 6 7
6 6 7
5 6 7
6 6 8
6 6 8
6 7 8
6 6 7
6 6 7
6 7 8
6 6 7
6 6 8
6 6 8
6 6 8
6 6 7
6 6 7
6 7 8
6 6 8
6 6 7
6 6 8
6 6 8
6 6 8
6 6 8
6 6 7
6 6 7
6 6 7
6 6 7
6 6 7
6 6 7
6 6 7
5 6 7
6 6 8
6 6 7
6 6 8
6 6 7
6 6 7
6 6 8
6 6 7
6 6 8
6 6 7
6 6 8
6 6 8
6 6 8
6 6 7
6 7 8
6 6 7
6 6 8
6 6 8
6 6 8
6 6 8
6 6 8
6 6 8
6 6 7
6 6 7
6 6 7
6 6 8
6 6 7
6 6 8
6 6 8
6 7 8
6 7 8
6 7 8
6 6 8
6 6 8
6 6 8
6 6 8
6 6 8
6 7 8
6 6 8
6 6 8
6 6 8
6 6 8
6 7 8
6 6 7
6 6 8
6 6 8
6 6 7
6 6 7
6 6 8
6 7 8
6 6 8
6 6 8
6 6 8
6 6 8
6 6 7
6 6 7
6 6 8
6 6 8
6 7 8
6 6 7
6 6 7
6 6 7
5 6 7
6 6 7
6 6 7
5 6 7
6 6 7
6 6 7
6 6 8
6 6 8
6 6 8
6 6 8
6 6 7
6 6 7
6 6 7
6 6 7
6 6 7
6 6 7
6 6 7
6 6 7
6 6 8
6 6 7
5 6 7
6 6 7
6 6 8
5 6 7
6 6 7
6 6 8
6 6 7
6 6 8
6 6 7
6 6 8
6 6 7
5 6 7
5 6 7
6 6 8
6 6 8
6 6 7
6 6 8
6 6 7
5 6 7
5 6 7
6 6 7
6 6 7
5 6 7
6 6 7
5 6 7
6 6 7
5 6 7
6 6 7
5 6 7
6 7 8
6 6 7
5 6 7
6 6 7
5 6 7
5 6 7
5 6 7
5 6 7
5 6 7
5 6 7
6 6 7
6 6 7
6 6 7
5 6 7
5 6 7
5 6 7
5 6 7
5 6 7
5 6 7
5 6 7
5 6 7
5 6 7
5 6 7
6 6 7
5 6 7
5 6 7
5 6 7
5 6 7
5 6 7
5 6 7
5 6 7
5 6 7
5 6 7
5 6 7
5 6 7
5 6 7
5 6 7
5 6 7
5 6 7
5 6 7
5 6 7
5 6 7
5 6 7
5 6 7
5 6 7
5 6 7
5 6 7
5 6 7
5 6 7
5 6 7
5 6 7
5 6 7
5 6 7
5 6 7
5 6 7
5 6 7
5 5 6
5 6 7
5 5 6
5 6 7
5 5 6
5 6 7
5 6 7
4 5 6
5 5 6
5 6 6
5 5 6
4 5 6
5 5 6
5 5 6
4 5 6
4 5 6
4 5 6
4 5 6
4 5 6
4 5 5
4 5 6
4 5 5
4 5 5
4 4 5
4 5 5
4 4 5
4 4 5
3 3 4
2 3 3
3 3 3
3 3 3
2 3 3
3 3 4
3 3 3
3 3 4
3 3 3
3 3 3
3 3 3
3 3 3
3 3 4
3 3 3
3 3 3
3 3 4
3 3 4
2 3 3
3 3 4
3 3 4
3 3 4
3 3 4
3 3 4
3 3 4
3 3 4
3 3 4
3 3 3
3 3 3
3 3 3
2 3 3
3 4 4
3 3 4
3 3 3
3 3 4
3 3 4
3 3 4
2 3 3
3 3 3
3 3 4
3 3 4
3 3 4
3 3 4
3 3 4
3 3 4
3 3 4
3 3 3
3 3 4
3 3 3
3 3 4
3 3 4
3 3 4
3 3 4
3 3 3
3 3 3
3 3 4
3 3 4
3 3 3
3 3 4
3 3 4
3 4 4
3 3 3
3 3 3
3 3 3
3 3 4
3 3 4
3 3 3
2 3 3
2 3 3
3 3 4
3 3 4
3 3 3
3 3 3
2 3 3
3 3 3
2 2 3
3 4 4
4 4 5
4 5 5
4 5 6
4 5 6
4 5 6
4 5 6
4 5 6
4 5 6
4 5 5
5 5 6
4 5 6
5 5 6
5 5 6
4 5 6
5 5 6
4 5 6
4 5 6
4 5 6
5 5 6
5 5 6
5 5 6
5 5 6
5 6 7
5 6 7
4 5 6
5 6 7
5 6 6
5 6 7
5 6 7
5 6 7
5 6 7
5 6 7
5 6 7
5 6 7
5 6 7
5 6 7
5 6 7
5 6 7
5 6 7
5 6 7
5 6 7
5 6 7
5 6 7
5 6 7
5 6 7
5 6 7
5 6 7
5 6 7
5 6 7
5 6 7
5 6 7
5 6 7
5 6 7
5 6 7
5 6 7
5 6 7
5 6 7
5 6 7
5 6 7
5 6 7
5 6 7
5 6 7
5 6 7
5 6 7
5 6 7
5 6 7
5 6 7
5 6 7
5 6 7
5 6 7
5 6 7
5 6 7
6 6 7
5 6 7
5 6 7
5 6 7
5 6 7
6 6 7
5 6 7
6 6 7
5 6 7
5 6 7
5 6 7
5 6 7
5 6 7
5 6 7
5 6 7
5 6 7
5 6 7
6 6 7
6 6 7
5 6 7
6 6 7
6 6 7
5 6 7
6 6 8
6 6 7
6 6 7
6 6 7
6 6 7
6 6 7
5 6 7
6 6 7
6 6 8
6 6 7
5 6 7
6 6 8
6 6 7
6 6 7
6 6 8
6 6 7
6 6 7
6 6 7
6 6 7
5 6 7
6 6 8
6 6 7
6 6 8
6 6 7
6 6 8
6 6 7
6 6 7
6 6 7
6 6 8
5 6 7
6 6 8
6 6 8
6 6 7
6 6 8
6 6 7
6 6 7
6 6 7
6 6 8
6 6 8
6 6 8
6 6 8
6 6 7
6 6 8
6 6 8
6 6 8
6 6 7
6 6 7
5 6 7
6 6 8
6 6 8
6 6 7
6 6 7
6 6 7
6 6 8
6 6 7
6 6 7
6 6 8
6 6 7
6 6 8
6 7 8
6 6 8
6 6 8
6 6 7
6 6 7
6 6 8
6 6 8
6 7 8
6 6 8
6 6 8
5 6 7
6 6 8
6 6 7
6 6 8
6 6 8
6 6 8
6 6 8
6 6 8
6 6 8
6 6 7
6 6 8
6 6 7
6 6 8
6 6 8
6 6 8
6 6 7
6 6 8
6 6 7
6 6 8
6 6 8
5 6 7
6 7 8
6 6 7
6 6 8
6 6 8
6 6 8
6 6 7
6 6 8
6 6 7
6 6 8
6 7 8
6 6 8
6 6 7
6 6 8
5 6 7
6 6 8
6 6 8
6 6 8
5 6 7
6 6 7
6 7 8
6 6 8
6 6 8
6 6 8
6 6 8
6 6 8
6 6 7
5 6 7
6 6 7
6 6 7
6 6 7
6 6 7
5 6 7
5 6 7
6 6 7
5 6 7
6 6 7
5 6 7
6 6 7
6 6 8
6 6 7
6 6 7
5 6 7
5 6 7
5 6 7
6 6 8
5 6 7
6 6 7
5 6 7
6 6 7
5 6 7
5 6 7
5 6 7
5 6 7
6 6 7
5 6 7
5 6 7
5 6 7
5 6 7
5 6 7
6 6 7
6 6 7
5 6 7
6 6 7
6 6 7
5 6 7
5 6 7
5 6 7
5 6 7
5 6 7
5 6 7
5 6 7
5 6 7
5 6 7
5 6 7
5 6 7
5 6 7
5 6 7
5 6 7
5 6 7
5 6 7
5 6 7
5 6 7
5 6 7
5 6 7
5 6 7
5 6 7
5 6 7
5 6 7
5 6 7
5 6 7
5 6 7
5 6 7
5 6 7
5 6 7
5 6 7
5 6 7
5 6 7
5 6 7
5 6 7
5 6 7
5 6 7
5 6 7
5 6 7
5 6 7
5 6 7
5 6 6
5 6 7
5 6 7
5 6 7
5 5 6
5 6 7
5 6 7
5 5 6
4 5 6
5 6 6
4 5 6
5 5 6
5 5 6
5 5 6
5 5 6
5 5 6
4 5 6
4 5 6
4 5 6
5 5 6
4 5 6
4 5 6
4 5 6
4 5 6
4 5 6
4 5 6
4 4 5
4 5 6
4 4 5
4 5 5
3 4 5
4 5 6
4 5 6
4 4 5
3 4 4
3 4 4
3 3 3
2 3 3
2 2 3
3 3 3
3 3 4
3 3 4
3 3 4
2 3 3
3 3 3
3 3 3
3 3 4
3 3 3
3 3 3
3 3 4
3 4 4
3 3 3
3 3 4
3 3 3
3 3 3
2 3 3
3 3 3
3 3 4
2 3 3
3 3 3
3 3 3
3 4 4
3 3 4
3 3 4
2 2 3
3 3 4
3 3 3
3 3 3
3 3 3
3 4 4
3 3 3
3 3 3
3 3 3
3 3 4
3 4 4
3 3 3
3 3 4
3 3 3
3 4 4
3 3 4
3 3 3
3 3 4
3 3 3
3 3 4
3 3 4
3 3 3
3 3 4
3 3 4
3 3 3
3 3 3
3 4 4
2 3 3
3 3 3
2 3 3
3 3 4
3 3 3
2 3 3
3 3 3
2 3 3
3 3 4
3 3 3
2 2 3
2 3 3
3 3 3
3 3 4
3 3 3
3 3 3
3 3 3
3 4 4
3 4 5
4 5 5
4 4 5
4 4 5
4 4 5
3 4 5
4 5 5
4 5 5
4 5 6
4 5 6
4 5 6
4 5 6
5 5 6
5 5 6
5 5 6
4 5 6
5 5 6
5 5 6
5 5 6
5 5 6
5 6 7
5 6 6
4 5 6
5 5 6
5 5 6
5 6 6
5 5 6
5 6 7
5 6 7
5 6 6
5 6 7
5 5 6
5 6 7
5 6 7
5 6 7
5 6 7
5 6 7
5 6 7
5 6 7
5 6 7
5 6 7
5 6 7
5 6 7
5 6 7
5 6 7
5 6 7
5 6 7
5 6 7
5 6 7
5 6 7
5 6 7
5 6 7
5 6 7
5 6 7
5 6 7
5 6 7
5 6 7
5 6 7
5 6 7
5 6 7
5 6 7
5 6 7
5 6 7
5 6 7
5 6 7
5 6 7
6 6 7
5 6 7
5 6 7
5 6 7
5 6 7
6 6 7
5 6 7
5 6 7
5 6 7
5 6 7
5 6 7
5 6 7
5 6 7
5 6 7
6 6 7
5 6 7
5 6 7
6 6 7
5 6 7
5 6 7
5 6 7
5 6 7
5 6 7
6 6 7
6 6 7
6 6 7
5 6 7
6 6 7
5 6 7
6 6 7
6 6 7
6 6 8
6 6 7
5 6 7
6 6 7
5 6 7
5 6 7
6 6 7
6 6 7
6 6 7
6 6 7
6 6 8
6 6 8
6 6 7
5 6 7
6 7 8
5 6 7
5 6 7
6 6 7
6 6 7
6 6 8
6 6 8
5 6 7
6 6 8
6 6 7
6 6 7
6 6 8
6 6 7
6 6 7
6 6 7
5 6 7
6 6 7
6 6 8
6 6 7
6 6 8
6 6 8
6 6 8
6 7 8
6 6 7
6 6 7
6 6 8
6 6 8
6 6 8
6 6 8
6 6 8
6 6 7
6 6 8
6 7 8
6 6 8
6 6 8
6 6 8
6 6 7
6 7 8
6 6 8
6 6 7
6 6 7
6 6 8
6 6 8
6 6 8
6 6 8
6 6 8
6 6 8
6 6 8
6 7 8
6 7 8
6 6 7
6 6 8
6 6 7
6 6 8
6 7 8
6 6 7
6 6 8
6 7 8
6 7 8
6 6 7
6 6 8
6 6 8
6 7 8
6 6 8
6 6 7
6 6 7
6 6 7
6 7 8
6 6 8
6 7 8
6 6 8
6 6 8
6 6 7
6 6 8
6 6 8
5 6 7
6 6 7
6 6 7
6 6 7
6 6 8
6 6 7
5 6 7
6 6 7
6 6 8
6 6 8
6 6 8
6 6 7
6 6 7
6 7 8
6 6 7
5 6 7
6 6 8
6 6 7
6 6 8
6 6 8
6 6 7
6 6 8
6 6 8
6 6 8
6 6 7
6 6 8
6 6 7
6 6 7
6 6 8
5 6 7
5 6 7
5 6 7
6 6 7
6 6 7
6 6 8
6 6 7
6 6 7
6 6 7
5 6 7
6 6 8
5 6 7
5 6 7
6 6 7
6 6 7
5 6 7
6 6 7
5 6 7
6 6 7
5 6 7
6 6 7
5 6 7
5 6 7
6 6 7
5 6 7
6 6 7
5 6 7
5 6 7
5 6 7
6 6 7
5 6 7
5 6 7
5 6 7
5 6 7
5 6 7
5 6 7
5 6 7
5 6 7
5 6 7
5 6 7
5 6 7
5 6 7
5 6 7
5 6 7
5 6 7
5 6 7
5 6 7
5 6 7
5 6 7
5 6 7
5 6 7
5 6 7
5 6 7
5 6 7
5 6 7
5 6 7
5 6 7
5 6 7
5 6 7
5 6 7
5 6 7
5 6 7
5 6 7
5 6 7
5 6 7
5 6 7
5 6 7
5 6 7
5 6 6
5 6 7
5 6 7
5 6 7
5 5 6
5 6 7
5 6 7
5 6 7
5 6 7
5 6 7
5 6 6
5 6 7
5 6 7
5 5 6
5 6 7
5 5 6
5 6 6
5 5 6
5 5 6
5 5 6
4 5 6
5 5 6
5 5 6
4 5 6
5 5 6
5 6 6
4 5 6
4 5 6
5 5 6
4 5 6
4 5 6
4 5 6
4 5 6
4 5 6
4 5 6
4 4 5
4 4 5
4 5 6
4 4 5
4 5 5
4 4 5
4 4 5
4 4 5
3 4 4
4 4 5
3 3 4
2 2 3
3 3 3
3 3 3
2 3 3
3 3 3
3 3 4
3 3 4
3 3 3
3 3 3
2 3 3
3 3 3
3 3 3
3 3 3
3 3 3
3 3 4
2 3 3
3 3 3
3 3 3
3 3 4
3 3 3
3 3 3
2 3 3
3 3 4
3 3 4
3 3 3
3 3 3
3 3 3
3 3 3
3 4 4
2 2 3
3 3 4
3 3 3
3 3 4
3 3 4
3 3 3
3 3 3
3 3 4
3 3 4
3 3 3
3 3 4
2 3 3
3 3 4
2 3 3
3 3 3
3 3 3
3 3 3
3 3 3
3 3 4
3 4 4
2 3 3
3 3 3
3 3 3
3 3 3
2 3 3
3 3 3
3 3 3
3 3 3
3 3 3
3 3 4
3 3 4
3 3 3
3 3 3
3 3 3
3 3 3
3 3 3
2 3 3
3 3 3
3 3 3
3 3 4
3 4 4
4 4 5
4 4 5
4 5 6
4 4 5
4 5 5
4 4 5
4 5 6
4 5 6
4 5 6
4 4 5
4 5 6
4 5 5
4 5 6
4 5 6
4 5 6
4 5 6
5 5 6
5 6 7
4 5 6
4 5 6
4 5 6
5 5 6
4 5 6
5 5 6
5 5 6
5 5 6
5 5 6
5 5 6
5 5 6
5 6 7
5 6 7
5 6 7
5 5 6
5 6 7
5 6 7
5 6 7
5 6 7
5 6 7
5 6 7
5 6 7
5 6 7
5 6 7
5 6 7
5 6 7
5 6 7
5 6 7
5 6 7
5 6 7
5 6 7
5 6 7
5 6 7
5 6 7
5 6 7
5 6 7
5 6 7
5 6 7
5 6 7
5 6 7
5 6 7
5 6 7
5 6 7
5 6 7
5 6 7
6 6 7
5 6 7
5 6 7
5 6 7
5 6 7
5 6 7
6 6 7
5 6 7
5 6 7
5 6 7
5 6 7
5 6 7
5 6 7
5 6 7
5 6 7
5 6 7
5 6 7
6 6 7
5 6 7
5 6 7
5 6 7
6 6 7
6 6 7
6 6 7
5 6 7
5 6 7
5 6 7
5 6 7
6 6 7
5 6 7
5 6 7
6 6 7
5 6 7
5 6 7
5 6 7
5 6 7
6 6 8
6 6 7
6 6 7
5 6 7
6 6 7
5 6 7
6 6 8
5 6 7
6 6 8
6 6 7
6 6 7
6 6 7
6 6 7
6 6 7
5 6 7
6 6 7
6 6 8
6 6 7
6 6 7
6 6 7
6 6 7
6 6 8
6 6 7
5 6 7
6 6 7
6 6 7
6 6 8
6 6 8
6 6 7
6 6 8
6 6 7
6 6 7
6 6 7
6 6 8
6 6 8
6 6 8
6 6 8
6 6 8
6 6 7
6 6 8
6 6 7
6 7 8
6 6 8
6 6 8
6 6 8
6 6 8
6 6 8
6 6 7
6 6 8
6 6 8
6 6 7
6 6 7
5 6 7
6 6 7
6 6 8
6 6 8
6 6 7
6 7 8
6 6 8
6 6 8
6 6 8
6 6 8
6 6 8
6 6 8
6 6 8
6 6 7
6 6 8
6 6 7
6 6 7
5 6 7
6 6 8
6 6 7
5 6 7
6 6 8
6 6 8
6 6 8
6 6 7
5 6 7
6 6 8
6 6 8
6 6 8
6 6 8
6 6 7
6 6 8
6 6 8
6 6 7
6 6 7
5 6 7
6 6 8
5 6 7
6 6 8
6 6 7
6 6 7
6 6 8
5 6 7
6 6 8
6 6 7
6 6 7
6 6 8
6 6 7
6 6 7
6 6 7
6 6 7
6 6 8
6 6 7
6 6 7
6 6 8
6 6 7
6 6 8
6 6 7
6 7 8
6 6 7
6 6 7
5 6 7
5 6 7
6 6 8
6 6 8
6 6 7
5 6 7
6 6 7
6 6 7
6 6 8
5 6 7
6 6 8
6 6 7
5 6 7
6 6 7
5 6 7
6 6 7
5 6 7
5 6 7
6 6 8
6 6 7
5 6 7
5 6 7
6 6 7
6 6 7
5 6 7
6 6 7
6 6 7
5 6 7
5 6 7
5 6 7
6 6 7
5 6 7
5 6 7
5 6 7
6 6 7
5 6 7
5 6 7
5 6 7
5 6 7
5 6 7
5 6 7
5 6 7
6 6 7
5 6 7
6 6 7
5 6 7
5 6 7
5 6 7
5 6 7
5 6 7
5 6 7
5 6 7
5 6 7
5 6 7
5 6 7
5 6 7
5 6 7
5 6 7
5 6 7
5 6 7
5 6 7
5 6 7
5 6 7
5 6 7
5 6 7
5 6 7
5 6 7
5 6 7
5 6 7
5 6 7
5 6 7
5 6 7
5 6 7
5 6 7
5 6 7
5 6 7
5 6 6
5 6 7
5 6 7
4 5 6
5 6 7
5 5 6
5 5 6
5 6 7
5 5 6
5 6 7
5 6 7
5 5 6
5 6 7
5 6 7
5 5 6
4 5 6
5 5 6
4 5 6
5 5 6
4 5 6
5 5 6
5 5 6
4 5 6
4 5 6
4 5 6
4 5 6
4 4 5
4 5 5
4 5 6
4 5 6
4 4 5
4 5 6
4 5 6
4 4 5
4 5 5
4 4 5
4 4 5
4 4 5
4 4 5
4 5 5
4 4 5
4 4 5
4 4 5
2 2 3
3 3 3
2 3 3
2 2 2
2 3 3
2 3 3
2 3 3
2 2 3
3 3 3
3 3 3
3 3 3
3 3 4
2 2 3
3 3 3
3 3 4
2 3 3
3 3 3
3 3 3
3 3 3
3 3 3
3 3 4
3 3 4
3 3 3
2 3 3
3 3 3
3 3 4
3 3 4
2 2 3
2 2 3
3 3 3
3 3 3
3 3 4
3 3 4
3 3 3
3 3 3
3 4 4
3 3 4
3 3 3
3 3 3
3 3 4
2 3 3
3 3 3
3 3 4
3 3 4
3 3 3
3 3 4
3 3 3
3 3 3
2 2 3
3 3 3
2 3 3
3 3 4
3 3 3
3 3 3
3 3 3
3 3 3
2 2 3
3 3 3
3 3 3
2 3 3
2 2 3
3 3 3
3 3 3
2 3 3
3 3 3
2 3 3
3 4 4
4 4 5
3 4 4
4 4 5
4 4 5
4 4 5
3 4 4
3 4 4
4 5 6
4 5 6
4 4 5
4 5 5
4 4 5
4 5 6
5 5 6
4 5 6
4 5 5
4 5 6
4 5 6
4 5 6
5 5 6
5 5 6
4 5 6
5 5 6
5 5 6
5 5 6
5 5 6
5 5 6
5 5 6
5 5 6
5 5 6
5 6 7
5 6 6
5 6 7
5 6 6
5 6 7
5 6 7
5 5 6
5 5 6
5 6 7
5 6 7
5 6 7
5 6 7
5 6 6
5 6 7
5 5 6
5 6 7
5 6 7
5 6 7
5 6 7
5 6 7
5 6 7
5 6 7
5 6 7
5 6 7
5 6 7
5 6 7
5 6 7
5 6 7
5 6 7
5 6 7
5 6 7
5 6 7
5 6 7
5 6 7
5 6 7
5 6 7
5 6 7
5 6 7
5 6 7
5 6 7
5 6 7
5 6 7
5 6 7
5 6 7
5 6 7
5 6 7
5 6 7
5 6 7
5 6 7
5 6 7
5 6 7
5 6 7
5 6 7
5 6 7
5 6 7
6 6 7
6 6 7
5 6 7
5 6 7
6 6 7
6 6 7
6 6 7
5 6 7
5 6 7
6 6 7
6 6 7
5 6 7
6 6 7
6 6 7
5 6 7
6 6 8
6 6 7
5 6 7
5 6 7
6 6 7
6 6 8
6 6 7
5 6 7
6 6 8
5 6 7
6 6 7
6 6 7
6 6 7
6 6 7
6 6 8
6 6 7
6 6 7
6 6 7
5 6 7
6 6 7
6 6 7
6 6 7
5 6 7
6 6 8
5 6 7
6 6 8
6 6 8
6 6 7
5 6 7
6 6 7
6 6 8
6 6 7
6 6 8
6 6 8
6 6 8
6 6 7
6 7 8
5 6 7
6 6 8
6 6 8
6 6 8
6 7 8
6 6 7
6 6 7
6 6 8
6 6 8
6 6 7
6 6 8
6 6 8
6 6 7
6 6 8
6 6 7
6 6 7
5 6 7
6 6 7
6 6 7
6 6 8
6 6 8
6 6 8
6 6 8
6 6 8
6 6 8
6 7 8
6 6 8
6 6 8
6 7 8
6 7 8
6 6 8
6 6 8
6 6 8
6 6 8
6 6 8
6 6 8
6 6 8
6 6 8
6 6 8
6 6 8
6 6 8
6 6 8
6 6 8
6 6 8
6 6 7
6 6 8
6 6 8
6 6 7
6 6 8
5 6 7
6 6 7
6 6 8
6 6 7
6 6 7
6 6 8
6 6 8
6 6 7
6 6 7
6 6 8
6 6 7
6 6 7
6 6 7
6 6 7
6 6 8
6 6 8
6 6 8
6 6 8
6 6 8
6 6 8
5 6 7
6 6 7
5 6 7
6 6 8
6 6 8
5 6 7
6 6 8
6 6 7
6 6 8
6 6 8
6 6 7
5 6 7
6 6 7
6 6 7
5 6 7
6 6 7
6 6 7
5 6 7
6 6 7
5 6 7
5 6 7
5 6 7
6 6 8
5 6 7
6 6 7
6 6 7
6 6 7
6 6 7
5 6 7
5 6 7
5 6 7
5 6 7
6 6 7
5 6 7
6 6 7
5 6 7
6 6 7
5 6 7
5 6 7
5 6 7
5 6 7
5 6 7
5 6 7
6 6 7
5 6 7
5 6 7
5 6 7
5 6 7
5 6 7
5 6 7
6 6 7
5 6 7
5 6 7
5 6 7
5 6 7
5 6 7
5 6 7
5 6 7
5 6 7
5 6 7
5 6 7
5 6 7
5 6 7
5 6 7
5 6 7
5 6 7
5 6 7
5 6 7
5 6 7
5 6 7
5 6 7
5 6 7
5 6 7
5 6 7
5 6 7
5 6 7
5 6 7
5 6 7
5 6 7
5 6 7
5 6 7
5 5 6
5 6 7
5 6 7
5 6 7
5 6 7
5 6 7
5 6 7
5 6 7
5 5 6
5 6 6
5 6 6
5 6 7
5 6 6
5 5 6
5 5 6
5 5 6
5 5 6
5 6 6
5 5 6
5 6 6
5 5 6
4 5 6
4 5 6
4 5 6
4 5 6
4 5 6
4 5 6
4 5 6
4 5 5
4 5 6
4 5 5
4 5 6
4 5 5
4 4 5
4 4 5
5 5 6
4 5 5
4 5 6
3 4 5
4 4 5
3 4 5
4 4 5
3 4 5
3 3 4
3 4 4
3 4 4
3 3 4
3 3 4
2 2 3
2 2 3
2 2 3
2 3 3
2 3 3
3 3 3
2 2 3
3 3 3
2 3 3
3 3 3
3 3 3
3 3 3
3 3 4
3 3 3
2 2 3
3 3 4
3 3 3
3 4 4
3 4 4
3 3 3
3 3 3
3 3 3
2 3 3
3 3 4
3 3 3
3 3 4
2 3 3
3 3 4
2 2 2
3 3 4
3 3 4
3 3 3
3 3 3
3 3 3
2 3 3
3 3 3
3 3 4
2 3 3
3 3 4
3 3 3
3 3 4
3 3 3
3 3 3
3 3 3
2 2 2
3 3 3
3 3 4
3 3 3
3 3 3
3 3 3
3 3 3
3 3 3
3 3 3
2 3 3
3 3 3
2 2 3
3 3 3
2 2 3
3 3 3
2 2 2
2 3 3
3 3 4
3 3 3
3 4 4
3 4 4
3 4 4
3 4 5
4 4 5
3 4 5
4 4 5
3 4 5
4 5 5
4 4 5
4 4 5
4 4 5
4 5 6
4 5 6
4 5 6
4 5 6
4 5 5
4 5 6
4 5 5
5 5 6
4 5 6
4 5 6
4 5 6
4 5 6
4 5 6
5 5 6
5 5 6
5 5 6
5 5 6
5 6 6
4 5 6
5 6 7
5 6 7
5 5 6
5 6 7
5 6 7
5 6 7
5 6 7
5 6 7
5 6 6
5 6 7
5 6 7
5 6 7
5 6 7
5 5 6
5 6 7
5 6 7
5 6 7
5 6 7
5 6 7
5 6 7
5 6 7
5 6 7
5 6 7
5 6 7
5 6 7
5 6 7
5 6 7
5 6 7
5 6 7
5 6 7
5 6 7
5 6 7
5 6 7
5 6 7
5 6 7
5 6 7
5 6 7
5 6 7
5 6 7
5 6 7
5 6 7
5 6 7
5 6 7
5 6 7
5 6 7
6 6 7
5 6 7
5 6 7
5 6 7
5 6 7
5 6 7
5 6 7
5 6 7
5 6 7
5 6 7
5 6 7
5 6 7
6 6 7
5 6 7
5 6 7
5 6 7
5 6 7
5 6 7
6 6 7
5 6 7
5 6 7
5 6 7
6 6 7
5 6 7
5 6 7
5 6 7
6 6 7
5 6 7
6 6 8
6 6 7
6 6 7
5 6 7
5 6 7
5 6 7
6 6 7
5 6 7
5 6 7
5 6 7
5 6 7
6 6 7
6 6 7
6 6 7
6 6 7
6 6 7
5 6 7
6 6 8
6 6 7
6 6 7
6 6 7
6 6 8
6 6 7
6 6 7
5 6 7
6 6 7
6 6 8
6 6 7
6 6 8
6 6 8
6 6 7
6 6 8
6 6 7
6 6 8
6 6 8
6 6 8
6 7 8
6 6 8
6 6 7
6 6 7
6 6 8
6 6 8
6 6 8
6 7 8
6 6 8
6 6 7
6 6 7
6 6 7
6 6 8
6 6 8
6 6 8
6 6 8
6 6 7
6 6 8
6 7 8
6 6 8
6 7 8
6 6 8
6 7 8
6 6 8
6 6 8
6 6 7
6 6 8
6 7 8
6 6 8
6 7 8
6 6 7
6 6 8
6 6 8
5 6 7
6 6 8
5 6 7
6 6 7
6 6 8
6 6 8
6 6 7
6 6 8
6 6 8
6 6 8
6 6 8
6 6 7
6 6 7
6 6 7
6 6 8
6 6 7
6 6 7
6 7 8
6 6 7
6 7 8
6 6 8
6 6 7
6 6 7
6 6 7
6 6 7
6 6 8
6 6 7
6 6 8
6 6 7
6 6 7
6 6 7
6 6 7
6 6 7
6 6 8
5 6 7
6 6 8
5 6 7
6 6 7
6 6 7
6 6 7
6 7 8
6 6 7
5 6 7
5 6 7
5 6 7
6 6 7
6 6 7
5 6 7
6 6 7
5 6 7
5 6 7
6 6 7
6 6 7
6 6 8
6 6 7
6 6 7
6 6 7
5 6 7
6 6 7
6 6 8
6 6 7
5 6 7
6 6 7
6 6 7
5 6 7
5 6 7
5 6 7
5 6 7
6 6 7
5 6 7
6 6 7
5 6 7
5 6 7
5 6 7
5 6 7
5 6 7
5 6 7
5 6 7
5 6 7
5 6 7
5 6 7
5 6 7
5 6 7
5 6 7
5 6 7
5 6 7
5 6 7
5 6 7
5 6 7
5 6 7
5 6 7
5 6 7
5 6 7
5 6 7
5 6 7
5 6 7
5 6 7
5 6 7
5 6 7
5 6 7
5 6 7
5 6 7
5 6 7
5 6 7
5 6 7
5 6 7
5 6 7
5 6 7
5 6 7
5 6 7
5 6 6
5 6 7
5 6 7
5 6 7
5 6 7
5 6 7
5 5 6
5 6 7
5 6 7
5 6 7
5 6 7
5 6 7
5 6 7
5 6 7
5 6 7
5 6 6
5 6 7
5 5 6
5 5 6
5 6 7
5 5 6
5 6 6
5 5 6
5 5 6
5 5 6
5 5 6
4 5 6
4 5 6
5 5 6
4 5 6
5 6 7
4 5 6
4 5 5
5 5 6
4 4 5
4 5 6
4 5 5
4 4 5
4 5 6
4 4 5
4 4 5
4 5 6
4 4 5
4 4 5
4 4 5
4 4 5
3 4 4
4 4 5
3 4 4
4 4 5
3 3 4
4 4 5
3 4 4
4 4 5
3 3 4
2 3 3
2 3 3
2 3 3
2 2 3
2 2 2
2 2 3
2 2 2
3 3 3
3 3 3
3 3 3
2 3 3
2 3 3
3 3 3
3 3 4
3 3 3
3 3 4
3 3 3
2 2 3
2 3 3
2 2 2
3 3 4
2 2 3
2 3 3
3 3 4
3 3 4
3 3 3
2 2 2
3 3 3
2 2 3
3 3 3
2 2 3
3 3 3
2 2 3
3 3 3
3 3 3
2 3 3
2 3 3
2 3 3
2 2 3
3 3 3
3 3 3
2 3 3
2 3 3
2 3 3
3 3 3
3 3 3
2 3 3
3 3 4
3 3 4
3 3 3
3 3 4
2 2 3
2 3 3
3 3 4
3 3 4
3 3 3
2 2 2
2 2 3
2 3 3
2 2 3
3 3 4
3 3 4
3 3 4
4 4 5
3 4 4
3 4 4
4 4 5
3 4 4
4 4 5
4 4 5
4 4 5
4 4 5
4 4 5
4 5 6
4 5 5
4 4 5
4 5 6
4 5 5
4 5 6
4 5 6
4 4 5
4 5 5
5 5 6
5 5 6
4 5 6
4 5 6
4 5 6
5 5 6
5 5 6
4 5 6
4 5 6
5 5 6
5 5 6
5 5 6
5 5 6
5 6 6
5 6 7
5 5 6
5 6 7
5 6 7
5 6 7
5 6 7
5 6 7
5 6 7
5 6 7
5 6 7
5 6 7
5 6 7
5 6 7
5 6 7
5 6 7
5 6 7
5 6 7
5 6 7
5 6 7
5 6 7
5 6 7
5 6 7
5 6 7
5 6 7
5 6 7
5 6 7
5 6 7
5 6 7
5 6 7
5 6 7
5 6 7
5 6 7
5 6 7
5 6 7
5 6 7
5 6 7
5 6 7
5 6 7
5 6 7
5 6 7
5 6 7
5 6 7
5 6 7
5 6 7
5 6 7
5 6 7
5 6 7
5 6 7
5 6 7
5 6 7
5 6 7
6 6 7
5 6 7
5 6 7
5 6 7
5 6 7
5 6 7
5 6 7
5 6 7
5 6 7
5 6 7
6 6 7
5 6 7
5 6 7
5 6 7
6 6 7
5 6 7
5 6 7
5 6 7
6 6 7
6 6 7
6 6 7
6 6 8
6 6 7
6 6 7
5 6 7
5 6 7
5 6 7
5 6 7
6 6 7
5 6 7
6 6 7
6 6 7
6 6 7
6 6 7
6 6 7
6 6 7
6 6 7
6 6 7
6 6 8
6 6 7
6 6 8
5 6 7
6 6 7
5 6 7
5 6 7
6 6 7
6 6 7
6 6 7
6 6 8
5 6 7
6 6 7
6 6 8
6 6 8
6 6 7
6 6 8
6 6 7
6 6 8
6 6 7
6 6 8
6 6 8
6 6 8
6 6 7
6 6 8
6 6 7
6 6 8
6 6 7
6 6 7
6 6 8
6 6 8
6 6 8
6 6 8
5 6 7
6 6 7
6 6 8
6 6 8
6 6 7
6 6 8
6 6 7
6 7 8
6 6 8
6 6 8
6 6 8
6 6 8
6 6 8
6 6 7
6 6 8
6 6 7
6 6 8
6 6 7
6 6 8
6 6 7
6 6 7
6 6 8
6 6 7
6 6 7
6 6 7
6 6 7
6 6 8
6 6 8
6 6 7
6 6 7
6 6 7
6 6 8
6 6 8
6 6 7
6 6 8
6 6 8
6 6 7
6 6 8
6 6 8
5 6 7
6 6 7
6 6 8
6 6 8
6 6 7
6 6 8
5 6 7
6 6 7
6 6 8
6 6 7
6 6 8
6 6 7
6 6 7
6 6 7
6 6 7
5 6 7
6 6 7
6 6 8
5 6 7
5 6 7
5 6 7
6 6 7
6 6 7
6 6 7
6 6 7
6 6 7
5 6 7
5 6 7
6 6 8
5 6 7
6 6 7
6 6 7
5 6 7
6 6 7
6 6 7
6 6 7
5 6 7
6 6 7
5 6 7
6 6 7
5 6 7
5 6 7
5 6 7
5 6 7
5 6 7
5 6 7
5 6 7
6 6 7
5 6 7
5 6 7
5 6 7
5 6 7
5 6 7
5 6 7
5 6 7
5 6 7
5 6 7
6 6 7
5 6 7
5 6 7
5 6 7
5 6 7
5 6 7
5 6 7
5 6 7
5 6 7
5 6 7
5 6 7
5 6 7
5 6 7
5 6 7
5 6 7
5 6 7
5 6 7
5 6 7
5 6 7
5 6 7
5 6 7
5 6 7
5 6 7
5 6 7
5 6 7
5 6 7
5 6 7
5 6 7
5 6 7
5 6 7
5 6 7
5 6 7
5 6 7
5 6 7
5 6 7
5 6 7
5 6 7
5 6 7
5 6 7
5 5 6
5 6 7
5 6 6
5 6 6
5 6 7
5 5 6
5 6 7
5 6 7
5 6 7
5 5 6
5 6 6
5 6 7
5 5 6
5 5 6
5 5 6
5 5 6
4 5 6
5 5 6
4 5 6
5 5 6
4 5 6
4 5 6
4 5 6
4 5 6
4 5 6
4 5 6
4 4 5
4 5 6
4 5 6
4 5 6
4 4 5
4 4 5
4 4 5
4 4 5
4 4 5
4 5 6
4 4 5
4 4 5
4 4 5
4 4 5
3 4 4
4 4 5
3 4 5
4 4 5
3 4 4
3 3 4
3 3 4
3 4 4
3 3 4
3 3 3
2 2 3
2 3 3
2 2 3
3 3 3
2 3 3
2 2 3
2 3 3
3 3 4
3 4 4
2 3 3
2 3 3
2 2 2
3 3 3
2 3 3
2 3 3
3 3 3
3 3 3
3 3 3
3 3 3
3 3 4
2 3 3
3 3 3
3 3 3
3 3 3
3 3 3
2 3 3
3 3 4
3 3 4
3 3 3
3 3 3
2 3 3
3 3 3
2 3 3
2 3 3
2 2 2
2 3 3
2 2 3
2 2 3
2 3 3
3 3 3
3 3 3
3 3 3
3 3 3
3 3 3
3 3 4
2 3 3
3 3 3
3 3 3
2 2 3
2 3 3
2 2 3
2 2 3
2 2 3
3 3 3
2 2 3
3 3 4
3 4 4
4 4 5
4 4 5
3 3 4
3 4 4
4 4 5
4 4 5
4 4 5
3 4 4
4 4 5
4 4 5
4 4 5
4 4 5
4 4 5
4 5 5
4 5 5
4 5 6
4 4 5
4 4 5
4 5 5
4 4 5
4 5 6
4 5 6
4 5 6
4 5 6
4 5 6
4 5 6
4 5 6
5 5 6
5 5 6
5 6 6
5 5 6
4 5 6
5 5 6
5 6 7
5 5 6
5 5 6
5 6 6
5 6 6
5 5 6
5 6 7
5 6 7
5 5 6
5 6 6
5 6 6
5 6 7
5 6 7
5 6 7
5 6 7
5 6 7
5 6 7
5 6 7
5 6 7
5 6 7
5 6 7
5 6 7
5 6 7
5 6 7
5 6 7
5 6 7
5 6 7
5 6 7
5 6 7
5 6 7
5 6 7
5 6 7
5 6 7
5 6 7
5 6 7
5 6 7
5 6 7
5 6 7
5 6 7
5 6 7
5 6 7
5 6 7
5 6 7
5 6 7
5 6 7
5 6 7
5 6 7
5 6 7
5 6 7
5 6 7
5 6 7
5 6 7
6 6 7
5 6 7
5 6 7
5 6 7
5 6 7
5 6 7
5 6 7
6 6 7
5 6 7
5 6 7
5 6 7
5 6 7
5 6 7
5 6 7
6 6 7
6 6 7
5 6 7
5 6 7
5 6 7
5 6 7
6 6 8
5 6 7
6 6 7
5 6 7
5 6 7
5 6 7
6 6 7
6 6 7
6 6 7
6 6 7
5 6 7
6 6 8
6 6 8
5 6 7
5 6 7
6 6 7
6 6 7
6 6 7
5 6 7
5 6 7
6 6 7
5 6 7
6 6 7
5 6 7
5 6 7
6 6 7
5 6 7
6 6 7
6 6 7
5 6 7
5 6 7
6 6 7
6 6 8
6 6 7
6 6 8
6 6 8
6 6 7
6 6 8
5 6 7
6 6 8
6 6 7
6 6 8
6 6 8
6 6 7
6 6 8
6 6 8
6 6 8
6 6 7
6 6 8
6 6 8
6 6 8
6 6 8
6 6 7
6 6 8
6 6 7
6 6 7
6 6 7
6 6 8
6 6 8
6 6 8
6 6 8
6 6 7
6 6 8
6 6 7
6 6 8
6 6 8
6 6 8
6 6 8
6 6 8
5 6 7
6 7 8
6 6 8
6 6 8
6 6 7
6 6 8
5 6 7
6 6 7
6 6 8
6 6 7
6 6 8
6 6 8
6 6 8
6 6 8
6 6 8
5 6 7
6 6 8
6 6 8
6 6 8
6 6 7
6 6 7
6 6 8
6 6 7
6 6 8
6 6 7
6 6 8
5 6 7
5 6 7
6 6 7
6 6 8
5 6 7
6 6 7
5 6 7
6 6 7
6 6 7
6 6 7
5 6 7
5 6 7
5 6 7
6 6 7
6 6 8
6 6 7
6 6 7
5 6 7
6 6 7
5 6 7
6 6 8
5 6 7
6 6 8
5 6 7
6 6 7
6 6 7
5 6 7
6 6 8
5 6 7
5 6 7
5 6 7
6 6 7
5 6 7
6 6 8
6 6 7
6 6 7
5 6 7
6 6 7
6 6 7
5 6 7
6 6 7
5 6 7
6 6 7
5 6 7
5 6 7
6 6 7
6 6 7
5 6 7
5 6 7
5 6 7
5 6 7
5 6 7
5 6 7
5 6 7
5 6 7
5 6 7
5 6 7
5 6 7
5 6 7
5 6 7
5 6 7
5 6 7
5 6 7
5 6 7
5 6 7
5 6 7
5 6 7
5 6 7
5 6 7
5 6 7
5 6 7
5 6 7
5 6 7
5 6 7
5 6 7
5 6 7
5 6 7
5 6 7
5 6 7
5 6 7
5 6 7
5 6 7
5 6 7
5 6 7
5 6 7
5 6 7
5 6 7
5 6 7
5 6 7
5 6 7
5 6 7
5 6 7
5 6 7
5 5 6
5 5 6
5 6 7
5 6 6
5 6 6
5 6 6
4 5 6
5 5 6
4 5 6
5 6 6
5 5 6
5 5 6
4 5 6
5 5 6
5 6 6
5 6 6
4 5 6
5 5 6
5 6 6
5 5 6
4 5 6
5 5 6
4 5 6
4 5 6
4 5 5
4 5 6
4 4 5
4 5 5
4 5 5
4 4 5
4 4 5
4 4 5
4 5 5
3 4 4
4 4 5
4 4 5
4 4 5
4 4 5
3 4 5
3 4 4
3 4 4
3 4 5
3 4 4
3 4 4
3 3 4
3 3 3
3 4 4
3 3 4
3 3 4
3 4 4
2 2 2
2 2 3
3 3 3
2 2 2
2 3 3
1 1 2
3 3 3
1 1 2
2 3 3
2 3 3
2 3 3
3 3 3
3 3 4
2 3 3
3 3 3
2 2 3
3 3 3
2 3 3
3 3 3
2 3 3
3 3 3
3 3 3
3 3 3
3 3 3
2 2 2
2 3 3
3 3 3
3 3 3
2 3 3
3 3 3
2 3 3
3 3 3
2 2 3
3 3 3
2 3 3
3 3 3
3 3 3
3 3 3
2 3 3
2 2 2
3 3 3
3 3 3
3 3 3
2 3 3
2 3 3
2 2 2
2 3 3
2 2 3
3 3 3
2 3 3
1 1 2
2 2 2
2 3 3
3 3 4
3 3 4
3 3 3
3 3 4
3 3 4
3 3 4
3 4 4
3 4 4
3 4 4
3 4 5
3 4 5
4 4 5
3 4 4
4 4 5
4 4 5
3 4 5
4 4 5
4 4 5
4 5 6
4 5 5
4 5 6
4 5 6
4 5 6
4 5 5
4 5 6
4 5 6
5 5 6
4 5 6
4 5 6
4 5 6
5 5 6
5 5 6
4 5 6
4 5 6
4 5 6
5 5 6
5 5 6
5 5 6
4 5 6
4 5 6
5 5 6
5 6 6
5 5 6
5 5 6
5 6 7
4 5 6
5 6 7
5 6 7
5 6 6
5 6 6
5 6 7
5 6 7
5 6 7
5 6 7
5 6 7
5 6 7
5 6 7
5 6 7
5 5 6
5 6 7
5 6 7
5 6 7
5 6 7
5 6 7
5 6 7
5 6 7
5 6 7
5 6 7
5 6 7
5 6 7
5 6 7
5 6 7
5 6 7
5 6 7
5 6 7
5 6 7
5 6 7
5 6 7
5 6 7
5 6 7
5 6 7
5 6 7
5 6 7
5 6 7
5 6 7
5 6 7
5 6 7
5 6 7
5 6 7
5 6 7
5 6 7
5 6 7
5 6 7
5 6 7
6 6 7
5 6 7
5 6 7
5 6 7
5 6 7
6 6 7
5 6 7
5 6 7
5 6 7
5 6 7
5 6 7
5 6 7
5 6 7
5 6 7
6 6 7
6 6 7
6 6 7
5 6 7
5 6 7
6 6 7
6 6 7
5 6 7
6 6 7
5 6 7
6 6 7
6 6 7
6 6 8
6 6 8
5 6 7
6 6 7
6 6 7
6 6 7
6 6 7
5 6 7
6 6 8
6 6 7
6 6 8
6 6 7
6 6 7
6 6 8
6 6 7
6 6 7
6 6 8
5 6 7
6 6 7
6 6 8
6 6 7
6 6 7
6 6 8
5 6 7
6 6 7
6 6 8
6 6 8
6 6 7
6 6 8
6 6 8
6 6 7
6 6 8
6 6 7
6 6 8
5 6 7
6 6 7
6 6 8
6 6 7
6 6 7
6 6 7
6 6 8
5 6 7
6 6 8
6 6 8
6 6 8
6 6 8
6 6 7
6 7 8
6 6 8
6 6 8
6 6 8
6 6 8
6 6 7
6 6 8
6 6 8
6 6 8
6 6 8
6 6 8
6 6 8
6 6 7
6 7 8
6 6 8
6 6 7
6 6 7
5 6 7
6 6 7
6 6 8
6 6 8
6 6 8
6 6 7
6 6 8
6 6 8
6 6 8
6 6 8
6 6 8
6 6 7
6 7 8
6 6 7
6 6 7
6 6 7
5 6 7
6 6 7
6 6 7
6 6 7
6 6 7
6 7 8
6 6 7
6 6 7
6 6 8
6 6 7
5 6 7
6 6 8
6 6 7
6 6 7
5 6 7
5 6 7
6 6 7
6 6 7
5 6 7
5 6 7
5 6 7
5 6 7
6 6 7
5 6 7
5 6 7
6 6 7
6 6 7
5 6 7
6 6 7
6 6 8
5 6 7
5 6 7
5 6 7
5 6 7
5 6 7
5 6 7
6 6 7
6 6 7
5 6 7
6 6 7
5 6 7
5 6 7
5 6 7
6 6 7
5 6 7
6 6 7
6 6 7
5 6 7
5 6 7
5 6 7
5 6 7
6 6 7
5 6 7
6 6 7
5 6 7
5 6 7
5 6 7
5 6 7
5 6 7
5 6 7
5 6 7
5 6 7
6 6 7
5 6 7
5 6 7
5 6 7
5 6 7
5 6 7
5 6 7
5 6 7
5 6 7
5 6 7
5 6 7
5 6 7
5 6 7
5 6 7
5 6 7
5 6 7
5 6 7
5 6 7
5 6 7
5 6 7
5 6 7
5 6 7
5 6 7
5 6 7
5 6 7
5 6 7
5 6 7
5 6 7
5 6 7
5 6 7
5 6 7
5 6 7
5 6 7
5 6 7
5 6 7
5 5 6
5 5 6
5 6 7
5 5 6
5 6 6
5 6 7
5 6 6
5 6 7
5 6 7
5 5 6
5 5 6
5 5 6
5 5 6
5 5 6
5 5 6
5 5 6
5 5 6
4 5 6
4 5 6
5 5 6
4 5 6
4 5 6
4 5 6
4 5 6
4 5 6
4 5 6
4 5 6
4 4 5
4 4 5
4 4 5
4 5 6
4 5 5
4 5 5
4 5 6
4 4 5
4 4 5
4 4 5
4 4 5
4 4 5
4 4 5
3 4 4
3 4 4
3 4 4
3 4 4
3 3 4
3 3 4
3 4 4
3 3 4
2 3 3
2 3 3
3 3 3
2 3 3
3 3 3
2 2 3
3 3 3
2 2 2
2 2 3
2 2 3
2 2 2
2 2 3
2 2 2
3 3 3
2 2 3
2 3 3
2 2 3
2 3 3
3 3 3
2 2 3
2 3 3
2 2 3
2 3 3
2 2 3
2 2 3
3 3 3
2 3 3
2 3 3
3 3 3
2 2 3
2 2 2
3 3 3
3 3 3
2 2 3
2 2 3
3 3 3
2 3 3
2 3 3
2 3 3
2 3 3
2 2 3
2 2 3
2 2 2
2 3 3
2 2 3
2 2 3
2 3 3
2 2 2
2 3 3
3 3 3
2 3 3
2 2 3
3 3 3
3 3 4
3 4 4
2 3 3
3 3 4
3 3 4
3 4 4
3 3 4
3 3 4
3 3 4
3 4 4
3 3 4
3 4 4
3 4 4
3 4 5
3 4 4
4 4 5
4 4 5
4 4 5
4 4 5
3 4 5
4 4 5
4 4 5
4 5 5
4 4 5
4 5 5
4 5 6
4 5 6
4 5 6
4 5 6
5 5 6
4 5 6
4 5 5
4 5 6
4 5 6
4 5 6
5 5 6
5 5 6
5 6 7
5 5 6
4 5 6
5 5 6
4 5 6
5 5 6
5 5 6
5 5 6
5 5 6
5 5 6
5 6 6
5 6 7
5 6 7
5 5 6
5 5 6
5 6 7
5 6 7
5 6 7
5 6 7
5 6 7
5 6 7
5 6 7
5 6 7
5 6 7
5 6 7
5 6 7
5 6 7
5 6 7
5 6 7
5 6 7
5 6 7
5 6 7
5 6 7
5 6 7
5 6 7
5 6 7
5 6 7
5 6 7
5 6 7
5 6 7
5 6 7
5 6 7
5 6 7
5 6 7
5 6 7
5 6 7
5 6 7
5 6 7
5 6 7
5 6 7
5 6 7
5 6 7
5 6 7
5 6 7
5 6 7
6 6 7
5 6 7
5 6 7
5 6 7
5 6 7
5 6 7
6 6 8
5 6 7
5 6 7
5 6 7
5 6 7
5 6 7
5 6 7
5 6 7
5 6 7
6 6 7
5 6 7
5 6 7
5 6 7
5 6 7
5 6 7
6 6 7
6 6 7
5 6 7
5 6 7
6 6 7
6 6 7
5 6 7
5 6 7
6 6 7
6 6 7
6 6 7
6 6 7
6 6 8
6 6 7
6 6 7
6 6 7
6 6 8
5 6 7
6 6 7
6 6 7
5 6 7
6 6 7
6 6 8
6 6 7
5 6 7
6 6 7
6 6 7
6 6 7
6 6 7
5 6 7
6 6 7
6 6 8
6 6 7
6 6 7
6 6 7
6 6 7
6 6 7
6 6 8
6 6 8
5 6 7
6 6 7
5 6 7
6 6 7
6 6 7
6 6 8
5 6 7
6 6 8
6 6 8
6 6 8
5 6 7
6 6 7
6 6 7
6 6 7
6 6 7
6 6 7
5 6 7
6 6 8
6 6 7
6 6 8
6 6 8
6 7 8
6 6 8
6 6 8
6 6 8
5 6 7
6 6 8
6 6 7
6 7 8
6 6 8
6 6 8
6 6 8
6 6 7
6 6 8
6 6 8
5 6 7
6 6 7
6 6 8
6 6 8
6 6 8
6 6 8
6 6 8
6 6 8
6 6 7
6 6 8
6 7 8
5 6 7
6 7 8
6 6 7
6 6 7
6 6 7
6 6 7
5 6 7
5 6 7
6 6 7
6 6 7
6 6 7
5 6 7
6 6 8
6 6 7
6 6 7
6 6 7
6 6 7
5 6 7
6 6 7
6 7 8
5 6 7
6 6 7
5 6 7
5 6 7
6 6 8
5 6 7
5 6 7
6 6 7
6 6 7
6 6 7
6 6 7
6 6 7
6 6 7
5 6 7
6 6 7
5 6 7
5 6 7
5 6 7
5 6 7
5 6 7
5 6 7
6 6 7
5 6 7
5 6 7
5 6 7
5 6 7
6 6 7
5 6 7
6 6 7
5 6 7
5 6 7
5 6 7
5 6 7
5 6 7
5 6 7
5 6 7
5 6 7
5 6 7
5 6 7
5 6 7
5 6 7
5 6 7
5 6 7
5 6 7
5 6 7
5 6 7
5 6 7
5 6 7
5 6 7
5 6 7
5 6 7
5 6 7
5 6 7
5 6 7
5 6 7
5 6 7
5 6 7
5 6 7
5 6 7
5 6 7
5 6 7
5 6 7
5 6 7
5 6 7
5 6 7
5 6 7
5 6 7
5 6 7
5 6 7
5 6 7
5 6 7
5 6 7
5 6 7
5 6 7
5 6 7
5 6 7
5 6 7
5 6 7
5 6 7
5 6 7
5 6 7
5 6 7
5 6 6
5 6 7
5 5 6
5 6 6
5 6 6
5 6 7
4 5 6
5 6 7
5 6 7
5 6 7
5 5 6
5 5 6
5 5 6
4 5 6
5 5 6
5 5 6
4 5 6
4 5 6
5 5 6
4 5 6
4 5 6
4 5 6
4 5 6
4 5 5
4 5 6
4 5 6
4 5 6
4 5 6
4 5 5
4 4 5
4 5 5
4 4 5
4 4 5
4 4 5
4 4 5
4 4 5
4 5 5
4 4 5
4 4 5
4 4 5
4 4 5
4 4 5
3 3 4
3 4 4
3 4 4
4 4 5
3 4 4
3 4 4
3 3 4
3 4 4
3 3 4
3 3 3
3 3 3
3 3 4
2 3 3
2 2 3
2 3 3
3 3 3
1 1 1
2 2 2
2 2 3
3 3 3
2 2 2
2 2 2
2 2 3
2 2 3
2 2 3
2 2 3
2 3 3
2 2 3
2 3 3
2 2 3
2 2 2
2 2 3
3 3 3
2 2 3
2 2 3
2 2 3
2 2 3
2 3 3
3 3 3
2 3 3
2 2 2
2 2 3
2 2 3
2 2 3
3 3 3
2 3 3
2 3 3
2 2 2
2 2 3
2 3 3
2 2 3
2 2 3
2 2 3
2 2 2
2 2 3
2 2 3
2 3 3
3 3 3
2 3 3
3 3 3
3 3 3
3 3 3
3 3 4
3 4 4
3 3 4
4 4 5
3 4 4
3 4 4
3 4 4
3 4 4
3 4 5
4 4 5
4 4 5
4 5 5
4 4 5
4 4 5
4 4 5
4 4 5
4 4 5
4 4 5
4 4 5
4 5 6
4 5 6
4 5 6
4 5 6
4 4 5
4 5 6
4 5 6
4 5 6
4 5 6
5 5 6
4 5 6
4 5 6
5 5 6
5 5 6
5 5 6
4 5 6
5 5 6
5 5 6
5 5 6
5 5 6
4 5 6
5 6 6
4 5 6
5 5 6
5 5 6
5 5 6
5 5 6
5 6 7
5 6 7
5 6 7
5 6 7
5 6 7
5 5 6
5 6 7
5 6 7
5 6 7
5 5 6
5 6 7
5 6 7
5 6 7
5 6 7
5 6 7
5 6 7
5 6 7
5 6 7
5 6 7
5 6 7
5 6 7
5 6 7
5 6 7
5 6 7
5 6 7
5 6 7
5 6 7
5 6 7
5 6 7
5 6 7
5 6 7
5 6 7
5 6 7
5 6 7
5 6 7
5 6 7
5 6 7
5 6 7
5 6 7
5 6 7
5 6 7
5 6 7
5 6 7
5 6 7
5 6 7
5 6 7
6 6 7
5 6 7
5 6 7
5 6 7
6 6 7
5 6 7
5 6 7
5 6 7
5 6 7
5 6 7
5 6 7
5 6 7
6 6 7
5 6 7
5 6 7
5 6 7
5 6 7
5 6 7
5 6 7
5 6 7
6 6 7
5 6 7
6 6 7
5 6 7
5 6 7
5 6 7
6 6 7
5 6 7
6 6 7
6 6 7
6 6 8
6 6 8
5 6 7
6 6 7
6 6 7
6 6 7
5 6 7
6 6 8
6 6 7
6 6 8
5 6 7
6 6 7
6 6 7
6 6 7
6 6 7
6 7 8
6 6 8
6 6 8
6 6 7
6 6 7
6 6 7
6 6 7
5 6 7
6 6 7
6 6 7
6 6 7
6 6 8
6 6 8
6 6 8
6 6 8
6 6 7
6 6 7
5 6 7
6 6 7
6 6 8
5 6 7
6 6 8
6 6 8
6 6 7
6 6 7
6 6 8
5 6 7
6 6 8
6 6 7
6 6 8
6 6 8
6 6 7
6 6 8
5 6 7
6 7 8
6 6 7
6 6 7
6 6 8
6 6 7
6 6 7
6 6 7
6 7 8
5 6 7
6 6 7
6 6 7
6 6 7
6 6 8
6 6 8
6 6 7
6 6 8
6 6 7
5 6 7
6 6 8
6 6 7
6 6 7
6 6 7
6 6 7
6 6 7
6 6 7
6 6 7
5 6 7
6 6 7
6 6 7
5 6 7
6 6 7
6 6 8
6 6 8
6 6 8
6 6 7
6 6 7
6 6 7
6 6 8
5 6 7
6 6 7
5 6 7
6 6 8
6 6 8
6 6 8
6 6 7
6 6 7
5 6 7
6 6 7
6 6 8
5 6 7
5 6 7
5 6 7
6 6 7
6 6 7
5 6 7
6 6 7
6 6 7
5 6 7
6 6 8
5 6 7
5 6 7
6 6 7
5 6 7
5 6 7
5 6 7
6 6 7
5 6 7
5 6 7
6 6 7
5 6 7
6 6 7
5 6 7
5 6 7
5 6 7
5 6 7
5 6 7
5 6 7
5 6 7
5 6 7
5 6 7
5 6 7
5 6 7
5 6 7
6 6 7
5 6 7
5 6 7
5 6 7
5 6 7
5 6 7
5 6 7
5 6 7
5 6 7
5 6 7
5 6 7
5 6 7
5 6 7
5 6 7
5 6 7
5 6 7
5 6 7
5 6 7
5 6 7
5 6 7
5 6 7
5 6 7
5 6 7
5 6 7
5 6 7
5 6 7
5 6 7
5 6 7
5 5 6
5 6 7
5 6 7
5 6 7
5 6 7
5 6 7
5 6 7
5 6 7
5 6 7
5 5 6
5 6 7
5 6 7
5 5 6
5 6 6
5 5 6
5 6 7
5 5 6
5 6 6
5 5 6
4 5 6
5 6 7
5 6 6
5 6 6
5 5 6
5 6 6
5 5 6
5 6 7
4 5 6
4 5 6
5 5 6
4 5 6
4 5 6
4 5 6
5 5 6
5 5 6
5 5 6
5 5 6
4 5 6
4 4 5
4 5 6
4 5 5
4 4 5
4 5 5
4 5 6
4 5 6
4 4 5
4 4 5
4 5 5
4 5 5
4 4 5
4 4 5
4 4 5
3 4 4
3 4 4
4 4 5
3 4 4
3 4 4
3 4 4
3 3 4
3 4 4
3 3 4
2 3 3
3 3 4
3 3 4
3 3 4
3 3 4
3 3 3
3 3 3
3 3 3
2 2 3
2 2 2
3 3 3
2 2 3
2 3 3
3 3 3
2 2 2
2 2 2
2 2 2
2 2 3
1 1 1
2 2 2
2 2 2
2 2 2
2 2 2
2 2 3
2 2 2
2 3 3
2 2 2
2 2 3
2 2 2
2 2 2
2 3 3
1 2 2
2 2 3
2 3 3
2 2 2
2 2 3
2 2 2
2 2 2
2 2 2
2 2 2
2 3 3
1 1 1
2 3 3
2 2 2
2 2 2
2 2 2
2 2 3
2 2 3
3 3 3
2 2 2
2 2 3
3 3 3
2 3 3
3 3 4
3 3 4
2 3 3
3 3 3
3 3 4
3 4 4
2 3 3
3 3 4
3 4 4
3 4 4
3 3 4
3 4 5
4 4 5
4 4 5
4 4 5
3 3 4
4 4 5
4 4 5
4 4 5
4 4 5
4 4 5
4 5 5
4 5 5
4 4 5
4 5 5
4 5 5
4 4 5
4 5 6
4 5 6
5 5 6
4 5 6
4 5 6
4 5 6
4 5 6
4 5 6
4 5 6
4 5 6
5 5 6
5 5 6
5 6 7
5 5 6
5 5 6
5 5 6
5 5 6
5 5 6
4 5 6
5 5 6
5 5 6
5 6 7
5 5 6
5 5 6
5 5 6
5 6 7
5 5 6
4 5 6
5 6 6
5 5 6
5 6 7
5 6 7
5 6 7
5 6 7
5 6 7
5 5 6
5 6 7
5 6 7
5 6 7
5 6 7
5 6 7
5 6 7
5 6 7
5 6 7
5 6 7
5 6 7
5 6 7
5 6 7
5 6 7
5 6 7
5 6 7
5 6 7
5 6 7
5 6 7
5 6 7
5 6 7
5 6 7
5 6 7
5 6 7
5 6 7
5 6 7
5 6 7
5 6 7
5 6 7
5 6 7
5 6 7
6 6 7
5 6 7
5 6 7
6 6 7
6 6 7
6 6 7
5 6 7
6 6 7
5 6 7
6 6 7
5 6 7
5 6 7
5 6 7
5 6 7
5 6 7
5 6 7
6 6 7
5 6 7
6 6 7
5 6 7
6 6 7
5 6 7
6 6 8
6 6 7
6 6 7
5 6 7
5 6 7
5 6 7
5 6 7
6 6 7
5 6 7
5 6 7
5 6 7
6 6 7
5 6 7
5 6 7
6 6 7
6 6 7
5 6 7
6 6 7
5 6 7
5 6 7
6 6 7
5 6 7
6 6 7
6 6 7
5 6 7
6 6 7
5 6 7
5 6 7
6 6 7
6 6 8
6 6 7
6 6 8
6 6 7
6 6 8
5 6 7
6 7 8
6 6 8
6 6 7
6 6 8
6 6 8
6 6 7
6 6 7
6 6 7
6 6 7
5 6 7
6 6 7
6 6 8
6 6 7
6 6 7
6 6 8
6 6 8
6 6 7
6 6 7
6 6 8
6 6 7
6 6 8
6 7 8
6 6 7
6 6 7
6 6 8
6 6 7
6 6 7
6 6 7
6 7 8
6 6 8
6 6 8
6 6 7
6 6 7
5 6 7
6 7 8
5 6 7
5 6 7
6 6 7
6 6 7
6 6 7
6 6 7
6 6 7
6 6 7
6 6 7
6 6 7
6 6 7
6 6 8
5 6 7
5 6 7
6 6 7
6 6 7
6 6 7
6 6 8
6 6 7
6 6 8
6 6 7
6 6 7
6 6 7
6 6 7
6 6 8
5 6 7
6 6 7
5 6 7
5 6 7
6 6 7
6 6 7
6 6 7
5 6 7
6 6 8
6 6 8
5 6 7
5 6 7
6 6 7
6 6 7
5 6 7
5 6 7
5 6 7
6 6 7
6 6 8
6 6 7
5 6 7
6 6 7
5 6 7
5 6 7
5 6 7
6 6 7
5 6 7
5 6 7
5 6 7
5 6 7
5 6 7
5 6 7
5 6 7
5 6 7
6 6 7
5 6 7
6 6 7
5 6 7
5 6 7
5 6 7
5 6 7
5 6 7
5 6 7
5 6 7
5 6 7
5 6 7
5 6 7
5 6 7
5 6 7
5 6 7
5 6 7
5 6 7
5 6 7
5 6 7
5 6 7
5 6 7
5 6 7
5 6 7
5 6 7
5 6 7
5 6 7
5 6 7
5 6 7
5 6 7
5 6 7
5 6 7
5 6 7
5 6 7
5 6 7
5 6 7
5 6 7
5 6 7
5 6 7
5 6 7
5 6 7
5 6 6
5 6 7
5 6 7
5 6 7
5 6 7
5 6 7
5 6 7
5 6 7
5 6 7
5 6 6
5 6 7
5 6 7
5 6 7
5 6 7
5 6 7
5 5 6
5 5 6
5 5 6
5 6 7
5 6 6
5 6 6
4 5 6
4 5 6
4 5 6
5 5 6
5 5 6
4 5 6
5 5 6
5 5 6
5 5 6
4 5 6
4 5 6
4 5 6
4 5 5
4 5 6
4 5 5
5 5 6
4 5 6
4 5 6
4 4 5
4 4 5
4 5 6
4 5 6
4 5 5
4 4 5
4 5 5
4 4 5
4 4 5
4 5 5
4 4 5
3 4 5
4 4 5
3 3 4
4 4 5
3 4 4
3 4 4
3 4 4
3 4 4
3 4 4
3 4 4
3 3 4
3 3 4
3 3 4
2 3 3
3 3 4
3 3 3
3 3 3
2 3 3
3 3 3
3 3 4
3 3 3
2 3 3
2 2 2
2 2 2
2 2 3
2 3 3
2 2 3
2 2 2
2 2 2
2 2 2
2 2 2
1 2 2
2 2 2
2 2 2
2 2 3
2 2 3
2 2 3
2 2 2
2 2 3
2 3 3
2 2 2
2 2 2
2 2 2
2 2 3
2 2 2
2 2 2
2 2 2
1 1 1
1 1 1
2 2 2
1 2 2
2 2 2
2 2 2
1 2 2
2 2 2
1 2 2
2 2 2
2 2 3
3 3 3
2 3 3
2 3 3
3 3 3
3 3 3
3 3 3
3 3 4
2 3 3
3 4 4
3 3 3
3 3 4
3 3 4
3 3 4
3 3 4
3 3 4
3 4 4
3 3 3
3 4 4
3 4 4
3 4 4
3 4 4
3 4 4
4 4 5
4 5 5
3 4 4
4 4 5
4 5 6
4 4 5
4 4 5
4 4 5
4 4 5
4 4 5
5 5 6
4 5 6
4 4 5
4 5 5
4 5 5
4 5 6
4 5 6
4 5 6
4 5 5
4 5 6
5 5 6
5 5 6
4 5 6
5 5 6
5 5 6
4 5 6
5 6 7
5 5 6
5 5 6
5 6 6
5 5 6
4 5 6
5 5 6
5 5 6
5 6 7
5 6 7
5 5 6
5 5 6
5 6 7
5 5 6
5 5 6
5 6 7
5 6 7
5 6 7
5 6 7
5 6 7
5 6 7
5 6 7
5 6 7
5 6 7
5 6 7
5 6 7
5 6 7
5 6 7
5 6 7
5 6 7
5 6 7
5 6 7
5 6 7
5 6 7
5 6 7
5 6 7
5 6 7
5 6 7
5 6 7
5 6 7
5 6 7
5 6 7
5 6 7
5 6 7
5 6 7
5 6 7
5 6 7
5 6 7
5 6 7
5 6 7
5 6 7
5 6 7
5 6 7
5 6 7
5 6 7
5 6 7
5 6 7
5 6 7
5 6 7
5 6 7
5 6 7
5 6 7
5 6 7
5 6 7
5 6 7
5 6 7
6 6 7
5 6 7
5 6 7
5 6 7
6 6 7
5 6 7
5 6 7
6 6 7
5 6 7
5 6 7
6 6 7
6 6 7
5 6 7
5 6 7
6 6 7
6 6 8
6 6 7
5 6 7
5 6 7
6 7 8
5 6 7
6 6 8
5 6 7
6 6 7
6 6 7
5 6 7
6 6 7
5 6 7
6 6 7
6 6 7
5 6 7
5 6 7
5 6 7
6 6 7
6 6 8
6 6 7
6 6 8
6 6 7
6 6 7
6 6 7
6 6 7
6 6 7
6 6 7
6 6 7
6 6 7
5 6 7
5 6 7
6 6 7
6 6 7
6 6 7
6 6 8
6 6 7
6 6 8
6 6 7
6 6 7
6 6 8
6 7 8
6 6 8
6 6 7
6 6 7
6 6 7
6 6 7
6 6 8
6 6 8
6 6 8
5 6 7
6 6 8
6 6 7
6 7 8
6 6 8
6 7 8
6 6 8
6 6 8
6 6 8
6 6 7
6 6 7
6 6 8
6 6 7
5 6 7
5 6 7
6 6 8
6 6 7
6 6 7
6 6 7
6 6 7
6 6 7
6 6 7
6 6 7
5 6 7
6 6 7
6 6 7
6 6 8
6 6 7
6 6 7
6 6 7
5 6 7
6 6 8
5 6 7
5 6 7
5 6 7
5 6 7
6 6 8
6 6 7
6 6 7
6 6 8
5 6 7
6 6 7
6 6 8
6 6 7
6 6 7
6 6 7
5 6 7
5 6 7
6 6 8
6 6 8
5 6 7
6 6 7
5 6 7
6 6 7
5 6 7
6 6 7
5 6 7
6 6 7
5 6 7
5 6 7
5 6 7
5 6 7
5 6 7
5 6 7
6 6 8
5 6 7
5 6 7
5 6 7
5 6 7
5 6 7
5 6 7
5 6 7
5 6 7
5 6 7
5 6 7
5 6 7
5 6 7
5 6 7
6 6 7
5 6 7
5 6 7
5 6 7
5 6 7
5 6 7
5 6 7
5 6 7
5 6 7
5 6 7
5 6 7
5 6 7
5 6 7
5 6 7
5 6 7
5 6 7
5 6 7
5 6 7
5 6 7
5 6 7
5 6 7
5 6 7
5 6 7
5 6 7
5 6 7
5 6 7
5 6 7
5 6 7
5 6 7
5 6 7
5 6 7
5 6 7
5 6 7
5 6 7
5 6 7
5 6 7
5 6 7
5 6 7
5 5 6
5 6 7
5 6 7
5 6 7
5 6 7
5 6 7
5 5 6
5 6 7
5 6 6
5 6 6
5 6 6
5 6 7
5 6 7
5 6 7
5 5 6
5 6 6
5 5 6
5 6 6
5 5 6
5 6 6
5 6 6
5 6 6
5 5 6
5 6 7
5 5 6
4 5 5
4 5 6
4 5 6
4 5 6
5 5 6
4 5 6
4 5 6
5 5 6
5 5 6
4 5 5
4 5 5
4 5 6
4 4 5
4 4 5
4 4 5
4 5 5
4 4 5
4 5 5
4 4 5
4 4 5
3 4 5
4 4 5
4 4 5
4 4 5
4 4 5
3 4 5
3 4 4
3 4 4
3 4 4
3 4 4
3 4 4
3 4 4
3 3 4
3 4 4
3 3 4
3 3 4
3 3 4
3 3 4
3 3 4
3 4 4
2 3 3
2 3 3
2 3 3
3 3 4
3 4 4
3 3 3
3 3 3
2 2 2
3 3 3
2 2 3
2 2 3
2 2 3
2 2 2
2 2 2
2 2 2
2 2 3
2 2 2
2 3 3
2 2 3
2 2 2
2 2 2
2 2 3
2 2 3
1 2 2
2 2 2
2 2 2
2 2 2
2 2 2
2 2 2
2 2 3
2 3 3
2 2 2
1 1 2
2 2 2
2 2 3
2 2 3
2 2 2
2 2 3
2 2 3
2 2 3
2 2 2
2 2 3
2 3 3
2 2 3
2 3 3
2 3 3
2 3 3
3 3 4
3 3 4
3 3 4
2 3 3
3 4 4
3 3 4
3 4 4
3 3 4
3 4 4
3 4 4
4 4 5
4 4 5
3 4 4
4 4 5
4 5 5
3 4 4
4 4 5
4 5 5
4 5 5
4 4 5
4 5 6
4 4 5
4 5 5
4 4 5
4 5 6
4 5 5
4 4 5
4 5 6
4 4 5
4 5 6
4 5 5
5 5 6
4 5 6
5 5 6
4 5 6
5 5 6
5 5 6
5 5 6
5 5 6
5 6 6
5 5 6
5 5 6
5 5 6
5 5 6
4 5 6
4 5 6
5 6 7
5 6 7
5 5 6
5 5 6
5 5 6
5 6 7
5 6 7
5 6 7
5 6 7
5 6 6
5 6 7
5 6 7
5 6 7
5 6 7
5 6 7
5 6 7
5 6 7
5 6 7
5 6 7
5 6 7
5 6 7
5 6 7
5 6 7
5 6 7
5 6 7
5 6 7
5 6 7
5 6 7
5 6 7
5 6 7
5 6 7
5 6 7
5 6 7
5 6 7
5 6 7
5 6 7
5 6 7
5 6 7
5 6 7
5 6 7
5 6 7
5 6 7
5 6 7
5 6 7
5 6 7
5 6 7
5 6 7
5 6 7
5 6 7
5 6 7
5 6 7
5 6 7
5 6 7
5 6 7
5 6 7
5 6 7
5 6 7
5 6 7
5 6 7
5 6 7
5 6 7
5 6 7
5 6 7
5 6 7
5 6 7
5 6 7
5 6 7
6 6 7
6 6 7
5 6 7
5 6 7
6 6 7
6 6 8
6 6 7
6 6 7
6 6 7
5 6 7
6 6 7
5 6 7
5 6 7
5 6 7
5 6 7
5 6 7
6 6 7
5 6 7
6 6 7
5 6 7
5 6 7
6 6 7
5 6 7
5 6 7
6 6 8
5 6 7
5 6 7
6 6 8
6 6 8
6 6 7
6 6 7
6 6 7
6 6 7
5 6 7
6 6 7
6 6 7
5 6 7
6 6 7
5 6 7
5 6 7
6 6 7
6 6 7
6 6 7
6 6 7
6 6 8
6 6 7
6 6 7
6 6 7
5 6 7
5 6 7
6 6 8
6 6 7
6 7 8
6 6 7
6 6 8
6 6 7
6 6 8
6 6 7
6 6 8
6 6 7
5 6 7
6 6 8
6 6 8
6 6 8
6 6 7
6 6 8
6 6 7
6 6 7
6 6 8
6 6 8
5 6 7
6 6 8
6 6 7
6 6 7
5 6 7
6 6 7
6 6 8
6 6 7
6 6 7
6 6 7
6 6 7
6 6 8
6 6 7
5 6 7
6 7 8
5 6 7
6 6 7
6 6 8
5 6 7
6 6 7
5 6 7
6 6 7
6 6 7
5 6 7
6 6 7
6 6 7
6 6 7
5 6 7
6 6 7
6 6 7
6 6 7
6 6 7
5 6 7
5 6 7
6 6 7
6 6 7
6 6 7
6 6 7
5 6 7
5 6 7
5 6 7
6 6 7
5 6 7
5 6 7
5 6 7
6 6 8
5 6 7
5 6 7
6 6 7
6 6 7
5 6 7
5 6 7
6 6 7
5 6 7
5 6 7
5 6 7
6 6 8
5 6 7
5 6 7
5 6 7
5 6 7
5 6 7
5 6 7
5 6 7
5 6 7
5 6 7
5 6 7
5 6 7
5 6 7
5 6 7
6 6 7
5 6 7
5 6 7
5 6 7
5 6 7
6 6 8
5 6 7
5 6 7
5 6 7
5 6 7
5 6 7
5 6 7
5 6 7
5 6 7
5 6 7
5 6 7
5 6 7
5 6 7
5 6 7
5 6 7
5 6 7
5 6 7
5 6 7
5 6 7
5 6 7
5 6 7
5 6 7
5 6 7
5 6 7
5 6 7
5 6 7
5 6 7
5 6 7
5 6 7
5 6 7
5 6 7
5 6 6
5 6 7
5 6 7
5 6 7
5 5 6
5 5 6
5 6 7
5 5 6
5 6 7
5 5 6
5 6 7
5 5 6
5 6 7
5 5 6
5 6 6
5 6 6
5 5 6
4 5 6
4 5 6
5 5 6
5 5 6
5 5 6
5 5 6
4 5 6
4 5 6
5 5 6
4 5 6
4 5 6
5 5 6
4 5 6
4 5 6
5 5 6
4 5 6
4 5 6
4 5 6
4 5 6
4 5 6
4 5 6
4 4 5
4 5 5
4 5 6
4 4 5
4 4 5
4 4 5
3 4 4
4 4 5
4 4 5
4 4 5
4 4 5
3 4 5
4 4 5
4 4 5
4 4 5
3 3 4
3 4 5
3 4 4
3 4 4
3 4 4
3 3 4
3 3 3
3 3 4
3 4 4
3 4 4
3 3 4
2 3 3
2 3 3
3 3 4
2 2 3
2 2 3
2 3 3
2 2 3
2 2 3
3 3 3
2 2 3
3 3 3
2 2 3
2 2 2
2 2 3
2 2 3
2 2 3
2 2 2
2 2 3
2 2 2
1 2 2
2 2 2
2 2 3
2 2 2
1 1 2
1 2 2
1 1 1
2 3 3
2 2 2
2 2 2
2 2 3
2 2 2
2 2 3
2 2 3
2 2 3
3 3 3
2 3 3
2 2 3
2 2 3
1 2 2
2 3 3
2 2 3
2 2 2
3 3 3
2 2 3
3 3 4
3 3 3
3 3 4
3 3 3
3 3 4
3 4 4
3 3 4
3 4 4
3 3 4
3 3 4
3 3 4
4 4 5
3 3 4
4 4 5
4 4 5
3 4 4
4 4 5
4 4 5
3 3 4
3 4 4
4 4 5
4 4 5
4 4 5
4 4 5
4 4 5
4 4 5
4 5 6
4 4 5
4 5 6
4 5 5
4 5 5
4 5 6
4 5 6
4 5 5
4 5 6
4 5 5
4 5 6
5 6 7
4 5 6
4 5 6
5 5 6
4 5 5
5 5 6
4 5 6
5 5 6
5 5 6
5 5 6
4 5 6
5 5 6
5 6 7
5 5 6
5 5 6
5 5 6
5 6 7
5 5 6
5 6 7
5 5 6
5 6 6
5 5 6
5 6 7
5 5 6
5 6 6
5 6 7
5 6 7
5 6 7
5 6 7
5 6 7
5 6 7
5 6 7
5 6 7
5 6 7
5 6 7
5 6 7
5 6 7
5 6 7
5 6 7
5 6 7
5 5 6
5 6 7
5 6 7
5 6 7
5 6 7
5 6 7
5 6 7
5 6 7
5 6 7
5 6 7
5 6 7
5 6 7
5 6 7
5 6 7
5 6 7
5 6 7
5 6 7
5 6 7
5 6 7
5 6 7
5 6 7
5 6 7
5 6 7
5 6 7
5 6 7
5 6 7
5 6 7
5 6 7
5 6 7
6 6 7
5 6 7
5 6 7
5 6 7
5 6 7
5 6 7
5 6 7
5 6 7
6 6 7
5 6 7
5 6 7
5 6 7
5 6 7
5 6 7
5 6 7
6 6 7
5 6 7
5 6 7
6 7 8
5 6 7
5 6 7
5 6 7
5 6 7
5 6 7
5 6 7
5 6 7
5 6 7
5 6 7
5 6 7
5 6 7
5 6 7
6 7 8
5 6 7
6 6 7
5 6 7
6 6 7
5 6 7
6 6 7
6 6 7
6 6 7
6 6 7
5 6 7
6 6 8
6 6 7
6 6 7
6 6 7
6 6 8
6 6 7
6 6 8
6 6 7
6 6 7
6 6 7
6 6 7
6 6 7
5 6 7
6 6 7
6 6 8
6 6 7
6 6 8
6 6 8
6 6 8
6 6 7
6 6 7
6 6 7
6 6 8
6 6 8
6 6 8
6 6 7
6 6 7
6 6 7
6 6 8
6 6 8
6 6 7
6 6 7
6 6 7
5 6 7
6 6 8
6 6 7
5 6 7
6 6 7
6 6 7
5 6 7
6 6 7
6 6 7
6 6 8
6 7 8
6 6 7
5 6 7
6 6 8
6 6 8
6 6 7
6 6 7
6 6 7
6 6 7
5 6 7
6 6 7
5 6 7
5 6 7
6 6 8
6 6 8
5 6 7
6 6 7
5 6 7
6 6 7
6 6 7
5 6 7
6 6 7
5 6 7
5 6 7
5 6 7
5 6 7
5 6 7
6 6 8
6 6 7
5 6 7
5 6 7
6 6 7
6 6 7
5 6 7
5 6 7
6 6 7
5 6 7
5 6 7
6 6 7
5 6 7
5 6 7
5 6 7
6 6 8
5 6 7
6 6 7
5 6 7
5 6 7
5 6 7
5 6 7
5 6 7
5 6 7
5 6 7
5 6 7
5 6 7
5 6 7
5 6 7
5 6 7
5 6 7
5 6 7
6 6 7
5 6 7
5 6 7
5 6 7
5 6 7
5 6 7
5 6 7
5 6 7
5 6 7
5 6 7
5 6 7
5 6 7
5 6 7
5 6 7
5 6 7
5 6 7
5 6 7
5 6 7
5 6 7
5 6 7
5 6 7
5 6 7
5 6 7
5 6 7
6 6 7
5 6 7
5 6 7
5 6 7
5 6 7
5 6 7
5 6 7
5 6 7
5 6 7
5 6 7
5 6 7
5 6 7
5 6 7
5 6 7
5 6 7
5 6 7
5 6 7
5 6 7
5 6 7
5 6 7
5 6 7
5 6 7
5 6 7
5 5 6
5 5 6
5 6 7
5 5 6
5 6 7
5 6 7
5 6 6
5 6 7
5 6 7
5 6 7
5 6 7
5 5 6
5 5 6
5 5 6
4 5 6
5 5 6
5 5 6
5 5 6
5 5 6
5 5 6
4 5 6
5 5 6
4 5 6
4 5 6
4 5 5
4 5 5
4 5 6
4 5 6
4 5 6
4 5 6
4 5 6
5 5 6
4 5 5
4 5 6
4 4 5
4 4 5
4 4 5
4 4 5
4 4 5
4 4 5
4 4 5
4 4 5
3 4 4
4 4 5
4 4 5
3 3 4
4 4 5
3 4 4
4 4 5
4 4 5
3 4 4
3 3 4
3 3 4
3 3 4
3 3 4
3 3 4
3 4 4
3 3 3
3 4 4
3 3 4
3 4 4
3 3 3
2 3 3
3 3 3
3 3 3
3 3 4
3 3 4
2 2 3
3 3 3
2 2 3
2 2 3
3 3 3
2 2 3
2 3 3
3 3 3
2 3 3
2 3 3
2 2 2
2 3 3
2 2 2
2 2 2
2 3 3
2 2 2
3 3 3
3 3 4
2 2 3
2 3 3
2 2 2
2 2 2
2 2 3
2 2 2
2 3 3
2 2 3
2 2 3
3 3 3
3 3 3
2 3 3
2 2 3
2 3 3
2 3 3
3 3 4
3 3 4
3 3 4
3 3 3
3 4 4
3 3 4
3 3 4
3 3 3
3 3 4
3 4 4
3 4 4
3 4 4
3 3 4
4 4 5
3 3 4
4 4 5
3 3 4
3 4 4
3 3 4
4 4 5
4 5 5
4 4 5
4 4 5
4 4 5
4 4 5
4 4 5
4 5 5
4 4 5
4 5 5
4 4 5
4 5 6
4 4 5
4 4 5
4 4 5
4 5 5
4 5 6
4 5 6
4 5 6
4 5 6
4 5 6
4 5 6
4 5 6
5 5 6
5 5 6
4 5 6
5 5 6
4 5 6
5 5 6
5 5 6
4 5 6
5 6 7
5 5 6
5 5 6
5 6 7
5 5 6
5 6 7
5 6 6
5 5 6
5 5 6
5 6 7
5 6 7
5 6 7
5 5 6
5 6 7
5 6 7
5 6 6
5 6 7
5 6 7
5 6 7
5 6 7
5 6 7
5 6 7
5 6 7
5 5 6
5 6 7
5 6 7
5 6 7
5 6 7
5 6 7
5 6 7
5 6 7
5 6 7
5 6 7
5 6 7
5 6 7
5 6 7
5 6 7
5 6 7
5 6 7
5 6 7
5 6 7
5 6 7
5 6 7
5 6 7
5 6 7
5 6 7
5 6 7
5 6 7
5 6 7
5 6 7
5 6 7
5 6 7
5 6 7
5 6 7
5 6 7
5 6 7
5 6 7
6 6 8
5 6 7
5 6 7
5 6 7
5 6 7
5 6 7
5 6 7
5 6 7
6 6 7
5 6 7
5 6 7
5 6 7
5 6 7
5 6 7
5 6 7
5 6 7
5 6 7
5 6 7
5 6 7
5 6 7
6 6 7
5 6 7
5 6 7
5 6 7
5 6 7
5 6 7
5 6 7
6 6 7
5 6 7
5 6 7
5 6 7
5 6 7
5 6 7
6 6 8
5 6 7
6 6 7
6 6 7
5 6 7
6 6 7
6 6 7
6 6 8
6 6 7
6 6 7
6 6 7
6 6 7
6 6 7
6 6 7
6 6 7
6 6 8
6 6 7
5 6 7
6 6 7
5 6 7
6 6 7
6 6 7
6 6 7
5 6 7
6 6 8
6 6 7
6 6 8
6 6 7
6 6 7
6 6 8
6 6 7
6 6 7
6 6 7
6 6 7
5 6 7
6 6 7
6 6 7
6 6 8
6 6 7
6 6 8
5 6 7
6 6 7
6 6 7
6 6 8
6 6 7
6 6 7
6 6 8
6 6 8
5 6 7
6 6 8
6 6 7
6 6 7
6 6 8
6 6 8
6 6 7
5 6 7
6 6 7
6 6 7
6 6 8
6 6 8
6 6 7
6 6 8
5 6 7
5 6 7
6 6 8
6 6 7
6 6 7
6 6 7
5 6 7
5 6 7
6 6 8
6 6 7
5 6 7
6 6 7
6 6 7
5 6 7
5 6 7
6 6 7
6 6 8
6 6 7
5 6 7
6 6 8
5 6 7
5 6 7
6 6 7
6 6 7
6 6 7
6 6 7
5 6 7
5 6 7
5 6 7
5 6 7
5 6 7
5 6 7
5 6 7
5 6 7
5 6 7
6 6 7
5 6 7
5 6 7
5 6 7
5 6 7
5 6 7
5 6 7
5 6 7
6 6 7
5 6 7
5 6 7
5 6 7
5 6 7
5 6 7
5 6 7
6 6 7
6 6 7
5 6 7
5 6 7
5 6 7
5 6 7
5 6 7
5 6 7
5 6 7
5 6 7
5 6 7
5 6 7
5 6 7
5 6 7
5 6 7
5 6 7
5 6 7
5 6 7
5 6 7
5 6 7
5 6 7
5 6 7
5 6 7
5 6 7
5 6 7
5 6 7
5 6 7
5 6 7
5 6 7
5 6 7
5 6 7
5 6 7
5 6 7
5 6 7
5 6 7
5 6 7
5 6 7
5 5 6
5 6 7
5 6 7
5 6 7
5 6 7
5 6 7
5 6 7
5 6 7
5 6 7
5 6 7
5 6 7
5 6 6
5 6 6
5 6 7
5 6 7
5 6 7
5 6 6
5 6 6
5 5 6
5 5 6
5 5 6
5 5 6
4 5 6
5 5 6
5 5 6
5 5 6
5 5 6
4 5 6
5 5 6
5 5 6
5 5 6
5 5 6
4 5 6
4 5 6
4 5 6
4 5 6
4 5 6
5 5 6
5 6 6
4 5 6
4 5 5
4 4 5
4 5 5
4 5 5
5 5 6
4 5 5
4 5 5
4 4 5
4 4 5
4 4 5
4 4 5
4 4 5
4 4 5
4 4 5
4 4 5
4 4 5
4 5 5
3 4 4
3 3 4
4 4 5
3 4 4
3 4 4
3 3 4
3 4 4
3 3 4
3 3 4
3 3 4
3 4 4
2 3 3
3 3 4
3 3 4
3 3 4
2 2 3
2 3 3
3 3 4
3 4 4
3 3 4
3 3 3
2 3 3
2 3 3
2 2 3
2 3 3
2 2 2
2 2 3
2 2 3
2 2 3
2 2 3
2 2 3
3 3 3
2 2 3
2 3 3
2 2 3
2 2 3
2 2 2
2 2 2
2 2 2
2 2 2
2 2 3
2 2 3
2 3 3
2 3 3
2 2 2
2 3 3
2 2 3
2 3 3
2 2 3
2 3 3
3 3 4
3 3 3
3 3 3
3 3 3
3 3 3
3 3 4
3 3 3
3 3 4
3 3 4
3 3 4
3 3 4
3 4 4
3 4 4
3 4 4
4 4 5
3 3 4
3 3 4
4 4 5
3 4 4
4 4 5
3 3 4
4 4 5
3 4 5
4 4 5
4 4 5
4 4 5
3 4 5
4 4 5
4 5 5
4 5 5
4 4 5
4 5 5
4 5 6
4 5 5
4 5 5
4 5 5
4 5 6
4 5 5
4 5 6
4 5 6
4 4 5
4 5 5
4 5 6
5 5 6
4 5 6
4 5 6
5 5 6
4 5 6
5 5 6
4 5 6
4 5 6
5 5 6
5 5 6
5 5 6
5 6 7
5 5 6
5 5 6
5 5 6
5 6 6
5 6 7
5 6 7
5 5 6
5 6 6
5 6 7
5 6 6
5 6 7
5 6 7
5 5 6
5 6 7
5 6 7
5 6 7
5 6 7
5 6 6
5 6 7
5 6 7
5 6 7
5 6 7
5 6 6
5 6 7
5 6 7
5 6 7
5 6 7
5 6 7
5 6 7
5 6 7
5 6 7
5 6 7
5 6 7
5 6 7
5 6 7
5 6 7
5 6 7
5 6 7
5 6 7
5 6 7
5 6 7
5 6 7
5 6 7
5 6 7
5 6 7
5 6 7
5 6 7
5 6 7
5 6 7
5 6 7
5 6 7
5 6 7
5 6 7
5 6 7
5 6 7
5 6 7
5 6 7
5 6 7
6 6 7
5 6 7
5 6 7
5 6 7
5 6 7
5 6 7
6 6 7
5 6 7
5 6 7
5 6 7
5 6 7
6 6 7
5 6 7
6 6 7
5 6 7
6 6 7
5 6 7
5 6 7
5 6 7
5 6 7
5 6 7
6 6 7
5 6 7
5 6 7
5 6 7
5 6 7
5 6 7
5 6 7
5 6 7
5 6 7
5 6 7
6 6 7
5 6 7
6 6 7
5 6 7
6 6 7
6 6 7
5 6 7
6 6 8
6 6 7
6 6 7
5 6 7
6 6 8
5 6 7
6 6 7
6 6 8
5 6 7
6 6 7
6 6 8
6 6 7
5 6 7
5 6 7
6 6 7
6 6 8
5 6 7
6 6 7
6 6 7
6 6 8
6 6 8
6 6 7
6 6 7
5 6 7
6 6 7
6 6 7
6 6 8
6 6 7
6 6 7
6 6 8
6 6 7
5 6 7
6 6 7
6 6 8
6 6 7
6 6 7
6 6 7
5 6 7
6 6 7
5 6 7
6 6 7
6 6 7
6 6 7
6 6 8
6 6 7
5 6 7
5 6 7
6 6 8
6 6 7
6 6 7
6 6 7
5 6 7
6 6 7
5 6 7
6 6 7
6 6 8
5 6 7
6 6 7
6 6 7
6 6 7
5 6 7
6 6 8
5 6 7
5 6 7
6 6 8
5 6 7
5 6 7
6 6 7
5 6 7
6 6 7
6 6 7
5 6 7
6 6 7
6 6 7
5 6 7
5 6 7
5 6 7
5 6 7
5 6 7
5 6 7
6 6 7
5 6 7
5 6 7
5 6 7
5 6 7
5 6 7
5 6 7
5 6 7
6 6 7
5 6 7
5 6 7
5 6 7
5 6 7
5 6 7
6 6 7
6 6 7
5 6 7
5 6 7
5 6 7
5 6 7
5 6 7
5 6 7
5 6 7
5 6 7
5 6 7
5 6 7
5 6 7
5 6 7
5 6 7
5 6 7
5 6 7
5 6 7
5 6 7
5 6 7
5 6 7
5 6 7
5 6 7
5 6 7
5 6 7
5 6 7
5 6 7
5 6 7
5 6 7
5 6 7
5 6 7
5 6 7
5 6 7
5 6 7
5 6 7
5 6 7
5 6 7
5 6 7
5 6 7
5 6 7
5 6 7
5 6 7
5 6 7
5 6 7
5 6 7
5 6 7
5 6 7
5 6 7
5 6 7
5 6 7
5 5 6
5 6 7
5 6 7
5 6 7
5 6 6
5 6 7
5 5 6
5 6 7
5 6 7
5 6 6
4 5 6
5 5 6
5 5 6
5 6 7
5 5 6
5 6 6
5 5 6
5 6 6
5 5 6
5 5 6
5 5 6
5 6 7
5 5 6
5 6 6
5 5 6
4 5 6
4 5 6
5 5 6
5 5 6
4 5 6
4 5 6
4 5 6
4 5 6
4 5 6
4 5 5
4 5 6
4 5 5
4 5 6
4 4 5
4 5 6
4 5 6
4 5 6
4 5 6
4 4 5
4 5 6
4 5 5
4 4 5
4 5 5
4 4 5
4 4 5
4 4 5
4 4 5
4 4 5
4 4 5
4 4 5
3 3 4
3 4 4
3 4 4
3 3 4
3 4 4
4 4 5
3 4 4
3 4 4
3 3 4
3 4 4
3 3 3
3 3 4
3 3 4
3 3 3
2 2 2
3 3 4
3 4 4
3 3 3
3 3 3
3 3 4
2 2 3
2 3 3
3 3 3
2 3 3
3 3 3
2 2 3
2 2 3
2 2 3
2 3 3
2 2 3
3 3 3
3 3 3
2 3 3
2 3 3
2 2 3
2 3 3
2 2 3
2 2 2
2 2 3
3 3 3
2 3 3
2 3 3
3 3 4
3 3 3
3 3 3
2 3 3
2 2 3
2 3 3
3 3 3
2 2 3
3 3 3
2 3 3
3 3 4
3 3 4
3 4 4
3 3 4
2 3 3
3 4 4
3 4 4
2 3 3
3 3 4
3 4 4
3 3 4
3 4 4
4 4 5
3 4 4
3 4 4
4 4 5
4 4 5
3 3 4
3 4 4
3 3 4
4 4 5
3 4 4
4 5 5
4 4 5
4 5 5
3 4 5
3 4 4
4 5 5
3 4 4
4 4 5
4 5 5
4 4 5
4 5 6
4 5 6
4 5 6
4 5 6
4 5 6
4 5 6
4 5 6
5 5 6
4 5 6
5 5 6
4 5 6
4 5 6
5 5 6
4 5 6
4 5 6
4 5 6
5 5 6
5 6 7
5 5 6
5 5 6
5 5 6
5 5 6
5 5 6
5 5 6
4 5 6
5 5 6
5 5 6
5 6 6
5 5 6
5 5 6
5 5 6
5 6 7
5 5 6
5 6 7
5 6 7
5 5 6
5 5 6
5 6 7
5 6 7
5 6 7
5 6 7
5 6 7
5 6 7
5 6 7
5 6 7
5 6 7
5 6 7
5 6 7
5 6 7
5 5 6
5 6 7
5 6 7
5 6 7
5 6 7
5 6 7
5 6 7
5 6 7
5 6 7
5 6 7
5 6 7
5 6 7
5 6 7
5 6 7
5 6 7
5 6 7
5 6 7
5 6 7
5 6 7
5 6 7
5 6 7
5 6 7
5 6 7
5 6 7
5 6 7
5 6 7
5 6 7
5 6 7
5 6 7
5 6 7
5 6 7
5 6 7
5 6 7
5 6 7
5 6 7
5 6 7
5 6 7
5 6 7
5 6 7
6 6 7
5 6 7
5 6 7
5 6 7
5 6 7
5 6 7
6 6 8
5 6 7
5 6 7
5 6 7
6 6 7
5 6 7
6 6 7
5 6 7
6 6 7
5 6 7
6 6 8
5 6 7
5 6 7
5 6 7
5 6 7
5 6 7
5 6 7
5 6 7
5 6 7
5 6 7
5 6 7
5 6 7
6 6 7
6 6 8
5 6 7
6 6 7
5 6 7
5 6 7
6 6 7
5 6 7
6 6 8
6 6 7
5 6 7
6 6 7
5 6 7
6 6 8
6 6 7
6 6 7
6 6 7
5 6 7
6 6 8
6 6 7
6 6 7
6 6 8
6 6 8
6 6 8
6 6 7
6 6 7
6 6 7
6 6 7
6 6 7
6 6 8
6 7 8
5 6 7
6 6 7
6 6 8
6 6 7
6 6 8
6 6 8
6 6 7
6 6 7
6 6 7
6 6 7
6 6 8
6 6 7
6 6 8
6 6 8
6 6 8
6 6 7
6 7 8
6 6 7
5 6 7
5 6 7
6 6 8
6 6 7
6 6 7
6 6 8
6 6 7
5 6 7
6 7 8
6 6 7
6 6 7
6 6 7
5 6 7
6 6 7
5 6 7
5 6 7
5 6 7
5 6 7
6 6 7
6 6 7
6 6 7
5 6 7
5 6 7
6 6 7
6 6 7
5 6 7
6 6 7
6 6 7
6 6 7
5 6 7
5 6 7
5 6 7
5 6 7
5 6 7
5 6 7
5 6 7
6 6 7
5 6 7
5 6 7
5 6 7
6 6 7
5 6 7
5 6 7
5 6 7
5 6 7
5 6 7
5 6 7
5 6 7
6 6 7
5 6 7
5 6 7
5 6 7
5 6 7
5 6 7
5 6 7
5 6 7
5 6 7
5 6 7
5 6 7
5 6 7
5 6 7
5 6 7
5 6 7
5 6 7
5 6 7
5 6 7
5 6 7
5 6 7
5 6 7
5 6 7
5 6 7
5 6 7
5 6 7
5 6 7
5 6 7
5 6 7
5 6 7
5 6 7
5 6 7
5 6 7
5 6 7
5 6 7
5 6 7
5 6 7
5 6 7
5 6 7
5 6 7
5 6 7
5 6 7
5 6 7
5 6 7
5 6 7
5 6 7
5 6 7
5 6 7
5 6 7
5 6 7
5 6 7
5 6 7
5 6 7
4 5 6
5 5 6
5 6 7
5 6 7
5 6 7
5 6 7
5 6 7
5 6 7
5 6 7
5 5 6
5 6 7
5 5 6
5 5 6
5 5 6
5 6 7
5 6 6
4 5 6
5 5 6
5 5 6
5 5 6
4 5 6
5 5 6
5 6 6
5 5 6
5 5 6
4 5 6
4 5 6
4 5 5
4 5 6
4 5 6
4 5 6
4 5 6
4 5 6
4 5 6
4 5 6
4 5 6
4 5 6
4 4 5
4 5 5
4 5 5
4 4 5
4 5 5
4 4 5
4 4 5
4 4 5
4 4 5
4 4 5
4 4 5
4 4 5
4 4 5
4 4 5
4 4 5
4 4 5
3 4 4
4 4 5
3 4 4
3 4 5
3 3 4
3 3 4
3 4 4
3 4 4
3 4 4
3 3 4
3 3 4
3 3 4
3 4 4
3 3 4
3 3 4
3 3 4
3 3 3
2 2 3
3 4 4
2 2 3
2 3 3
3 3 4
3 3 3
3 3 3
3 3 3
2 2 3
2 3 3
2 3 3
3 3 3
3 3 3
2 2 3
3 3 3
3 3 3
3 3 3
3 3 3
2 3 3
3 3 3
2 2 3
3 3 3
2 3 3
3 3 3
1 2 2
3 3 3
3 3 4
3 3 4
2 2 3
2 3 3
3 3 4
2 3 3
3 3 4
3 3 3
3 4 4
3 4 4
3 3 3
3 4 4
3 4 4
3 3 3
3 3 4
3 4 4
3 4 4
3 3 4
3 4 4
3 4 4
3 4 4
4 4 5
3 3 4
4 4 5
3 4 4
4 4 5
4 4 5
3 4 4
4 5 5
4 5 5
4 4 5
4 4 5
4 4 5
3 4 5
4 4 5
4 5 5
4 5 6
3 4 5
4 4 5
4 4 5
4 5 5
4 5 6
4 5 6
4 4 5
4 4 5
4 5 6
4 5 5
4 5 6
4 5 6
4 5 6
4 5 5
5 5 6
5 5 6
4 5 6
4 5 6
4 5 6
5 5 6
4 5 6
5 5 6
5 5 6
5 5 6
5 6 7
5 5 6
5 5 6
5 5 6
5 6 7
4 5 6
5 6 7
5 6 7
5 6 6
5 6 7
5 6 7
5 5 6
5 6 7
5 5 6
5 6 7
5 6 7
5 6 7
5 6 7
5 5 6
5 6 7
5 6 7
5 6 7
5 6 7
5 6 7
5 6 7
5 6 6
5 6 7
5 6 7
5 6 7
5 6 7
5 6 7
5 6 7
5 6 7
5 6 7
5 6 7
5 6 7
5 6 7
5 6 7
5 6 7
5 6 7
5 6 7
5 6 7
5 6 7
5 6 7
5 6 7
5 6 7
5 6 7
5 6 7
5 6 7
5 6 7
5 6 7
5 6 7
5 6 7
5 6 7
5 6 7
5 6 7
5 6 7
5 6 7
5 6 7
5 6 7
5 6 7
5 6 7
5 6 7
5 6 7
5 6 7
5 6 7
5 6 7
5 6 7
5 6 7
5 6 7
5 6 7
5 6 7
6 6 7
5 6 7
5 6 7
5 6 7
5 6 7
5 6 7
5 6 7
5 6 7
6 6 7
5 6 7
5 6 7
6 6 7
5 6 7
6 6 7
5 6 7
6 6 7
6 6 7
6 6 7
6 6 7
5 6 7
6 6 7
5 6 7
6 6 7
5 6 7
6 6 8
6 6 7
5 6 7
6 6 8
5 6 7
5 6 7
6 6 7
5 6 7
5 6 7
5 6 7
5 6 7
5 6 7
5 6 7
5 6 7
5 6 7
6 6 7
6 6 7
6 6 8
6 6 7
6 6 7
6 6 8
6 6 8
5 6 7
6 6 8
6 6 7
6 6 8
6 6 7
6 6 7
6 6 8
5 6 7
6 6 8
6 6 7
6 6 7
6 6 7
6 6 8
6 6 7
6 6 7
6 6 7
6 6 7
6 6 8
5 6 7
6 6 8
5 6 7
5 6 7
5 6 7
6 6 8
6 6 8
6 6 7
6 6 7
6 6 7
6 6 7
6 6 8
5 6 7
5 6 7
6 6 7
5 6 7
5 6 7
6 7 8
6 6 7
6 6 7
6 6 7
6 6 8
6 6 7
6 6 7
6 6 7
6 6 7
6 6 7
6 6 7
6 6 7
6 6 7
6 6 7
5 6 7
6 6 7
6 6 7
5 6 7
6 6 7
5 6 7
5 6 7
5 6 7
5 6 7
5 6 7
6 6 7
6 6 7
5 6 7
5 6 7
5 6 7
5 6 7
6 6 7
6 6 7
5 6 7
5 6 7
5 6 7
5 6 7
6 6 7
5 6 7
5 6 7
5 6 7
5 6 7
5 6 7
5 6 7
5 6 7
5 6 7
5 6 7
5 6 7
5 6 7
5 6 7
5 6 7
6 6 8
5 6 7
5 6 7
5 6 7
5 6 7
5 6 7
5 6 7
5 6 7
5 6 7
5 6 7
5 6 7
5 6 7
5 6 7
5 6 7
5 6 7
5 6 7
5 6 7
5 6 7
5 6 7
5 6 7
5 6 7
5 6 7
5 6 7
5 6 7
5 6 7
5 6 7
5 6 7
5 6 7
5 6 7
5 6 7
5 6 7
5 6 7
5 6 7
5 6 7
5 6 7
5 6 7
5 6 7
5 6 6
5 6 7
5 6 7
5 5 6
5 6 7
5 5 6
5 6 7
5 6 7
5 5 6
5 5 6
5 5 6
5 6 7
5 5 6
5 6 7
5 6 7
4 5 6
5 6 7
5 5 6
5 5 6
5 5 6
5 5 6
5 5 6
4 5 6
5 5 6
5 5 6
5 5 6
5 5 6
5 5 6
5 5 6
5 5 6
4 5 5
4 5 6
4 5 6
4 4 5
4 5 6
4 5 6
4 5 6
4 5 5
4 5 5
5 5 6
4 5 6
4 4 5
4 5 5
4 4 5
4 4 5
4 4 5
5 5 6
4 4 5
4 4 5
4 4 5
4 4 5
4 4 5
4 4 5
4 4 5
4 4 5
3 4 4
4 4 5
4 4 5
3 4 4
3 4 4
4 4 5
3 4 4
4 4 5
3 4 4
3 4 4
4 4 5
3 4 4
3 3 4
3 3 4
3 3 4
3 3 4
2 3 3
3 3 4
3 3 3
3 3 3
3 4 4
2 3 3
3 3 3
3 3 3
3 3 4
2 3 3
2 3 3
3 3 4
3 3 3
3 3 4
2 3 3
3 3 4
3 3 4
3 3 3
2 3 3
2 2 3
3 3 3
2 2 3
2 2 3
3 3 3
3 3 4
3 3 3
3 3 3
2 3 3
3 3 4
2 2 3
3 3 4
2 3 3
2 3 3
3 3 4
3 3 4
3 3 4
3 3 4
3 4 4
3 3 3
3 3 4
3 4 4
3 3 4
3 4 4
3 4 4
3 4 4
3 4 4
3 4 5
3 3 4
3 4 4
3 4 5
4 4 5
3 4 5
3 4 4
4 4 5
3 4 4
3 4 4
4 4 5
4 4 5
4 4 5
4 4 5
4 4 5
4 4 5
4 5 5
4 5 5
4 4 5
4 4 5
4 5 5
4 5 6
4 5 6
4 5 6
4 5 6
4 5 6
4 5 6
4 4 5
4 5 6
4 5 6
4 5 5
4 5 5
4 5 6
5 5 6
5 5 6
4 5 6
4 5 6
5 5 6
4 5 6
4 5 6
4 5 6
5 5 6
5 5 6
5 5 6
5 5 6
5 5 6
5 5 6
4 5 6
5 5 6
5 6 7
5 6 7
5 6 7
5 6 7
5 6 7
5 5 6
5 6 7
5 6 6
5 6 6
5 6 6
5 5 6
5 6 7
5 6 7
5 6 7
5 6 7
5 6 7
5 6 7
5 6 7
5 6 7
5 6 7
5 6 7
5 6 7
5 6 7
5 6 7
5 6 7
5 6 7
5 6 7
5 6 7
5 6 7
5 6 7
5 6 7
5 6 7
5 6 7
5 6 7
5 6 7
5 6 7
5 6 7
5 6 7
5 6 7
5 6 7
5 6 7
5 6 7
5 6 7
5 6 7
5 6 7
5 6 7
5 6 7
5 6 7
5 6 7
5 6 7
5 6 7
5 6 7
5 6 7
5 6 7
5 6 7
5 6 7
5 6 7
5 6 7
5 6 7
5 6 7
5 6 7
5 6 7
5 6 7
5 6 7
5 6 7
5 6 7
5 6 7
5 6 7
5 6 7
5 6 7
5 6 7
6 6 7
5 6 7
6 6 7
5 6 7
5 6 7
5 6 7
6 6 7
5 6 7
5 6 7
6 6 7
5 6 7
6 6 7
5 6 7
5 6 7
5 6 7
5 6 7
5 6 7
5 6 7
6 6 8
6 6 7
5 6 7
5 6 7
6 6 7
5 6 7
6 6 7
5 6 7
6 6 8
5 6 7
6 6 7
6 6 8
6 6 7
6 6 8
6 6 8
6 6 8
6 6 7
5 6 7
6 6 8
5 6 7
6 6 8
5 6 7
6 6 7
5 6 7
5 6 7
6 6 7
6 6 8
6 6 7
6 6 7
5 6 7
6 6 7
6 6 7
5 6 7
6 6 7
6 6 7
6 6 7
6 6 7
6 6 7
6 6 7
6 6 7
6 6 7
6 6 8
6 7 8
6 6 8
6 6 8
6 6 7
6 6 7
6 6 7
5 6 7
5 6 7
5 6 7
5 6 7
5 6 7
5 6 7
6 6 7
5 6 7
6 6 7
6 6 7
5 6 7
5 6 7
5 6 7
6 6 7
5 6 7
6 6 7
6 6 8
5 6 7
6 6 7
5 6 7
6 6 8
5 6 7
6 6 7
5 6 7
6 6 7
6 6 7
6 6 7
5 6 7
6 6 8
6 6 7
6 6 7
6 6 7
5 6 7
6 6 7
5 6 7
6 6 7
5 6 7
5 6 7
5 6 7
5 6 7
5 6 7
5 6 7
6 6 7
5 6 7
5 6 7
5 6 7
5 6 7
5 6 7
5 6 7
5 6 7
5 6 7
5 6 7
5 6 7
5 6 7
5 6 7
5 6 7
5 6 7
5 6 7
5 6 7
5 6 7
5 6 7
5 6 7
5 6 7
5 6 7
5 6 7
5 6 7
5 6 7
5 6 7
5 6 7
5 6 7
5 6 7
5 6 7
5 6 7
5 6 7
5 6 7
5 6 7
5 6 7
5 6 7
5 6 7
5 6 7
5 6 7
5 6 7
5 6 7
5 6 7
5 6 7
5 6 7
5 6 7
5 6 7
5 6 7
5 6 7
5 6 7
5 6 7
5 6 7
5 6 7
5 6 7
5 6 7
5 6 7
5 5 6
5 6 7
5 5 6
5 6 7
5 6 7
5 6 7
5 6 6
5 6 7
5 6 7
5 6 6
5 5 6
5 6 7
4 5 6
5 6 7
5 5 6
5 5 6
5 5 6
5 5 6
5 5 6
5 5 6
4 5 6
5 5 6
5 5 6
4 5 6
4 5 6
5 6 7
5 5 6
5 5 6
4 5 6
4 5 6
4 5 6
4 5 6
4 5 6
4 5 6
4 5 6
4 5 5
4 5 6
4 5 6
4 5 6
4 5 6
4 4 5
4 5 5
4 4 5
4 5 6
4 4 5
3 4 5
4 4 5
4 4 5
4 4 5
4 4 5
4 4 5
4 4 5
4 5 5
4 4 5
3 4 5
3 4 5
4 4 5
3 4 4
3 4 4
3 4 4
3 4 4
3 4 4
3 4 4
3 4 4
3 3 4
3 3 4
3 4 4
3 4 4
3 4 4
3 4 4
3 4 4
3 3 4
3 3 4
3 3 3
3 3 4
3 4 4
3 3 4
3 4 4
3 3 3
3 4 4
3 3 4
3 3 4
3 3 3
3 3 3
3 3 4
3 3 4
3 3 3
3 3 4
2 3 3
2 2 3
3 3 4
3 3 3
2 3 3
3 3 4
2 2 3
2 3 3
3 3 3
3 4 4
2 3 3
3 3 3
3 3 4
3 3 3
3 3 4
3 3 4
3 3 4
3 3 3
3 4 4
3 3 4
3 3 4
3 3 4
3 4 4
3 3 4
3 4 4
3 4 4
3 3 4
3 4 4
3 4 4
4 4 5
3 4 5
4 4 5
3 4 4
3 4 4
4 4 5
4 4 5
4 4 5
4 4 5
4 4 5
4 4 5
4 4 5
4 5 5
4 4 5
4 5 5
4 4 5
4 4 5
4 5 5
4 5 6
4 5 5
4 5 5
4 5 6
4 5 6
4 5 5
4 5 6
4 5 6
4 5 6
4 5 6
5 5 6
4 5 6
4 5 5
4 5 6
4 5 6
4 5 6
4 5 6
4 5 6
4 5 6
4 5 6
4 5 6
4 5 6
4 5 6
4 5 6
5 5 6
5 5 6
5 5 6
5 5 6
4 5 6
4 5 6
5 6 6
4 5 6
5 6 7
5 6 7
5 5 6
5 6 7
5 5 6
5 5 6
5 6 7
5 5 6
5 6 7
5 5 6
5 6 7
5 6 7
5 6 7
5 6 7
5 6 7
5 6 7
5 6 7
5 6 7
5 6 7
5 6 7
5 6 7
5 6 7
5 6 7
5 6 7
5 6 7
5 6 7
5 6 7
5 6 7
5 6 7
5 6 7
5 6 7
5 6 7
5 6 7
5 6 7
5 6 7
5 6 7
5 6 7
5 6 7
5 6 7
5 6 7
5 6 7
5 6 7
5 6 7
5 6 7
5 6 7
5 6 7
5 6 7
5 6 7
5 6 7
5 6 7
5 6 7
5 6 7
5 6 7
5 6 7
5 6 7
5 6 7
5 6 7
6 6 7
5 6 7
5 6 7
5 6 7
5 6 7
5 6 7
6 6 7
5 6 7
6 6 7
6 6 7
6 6 7
6 6 7
5 6 7
5 6 7
6 6 7
5 6 7
5 6 7
6 6 7
5 6 7
5 6 7
5 6 7
6 6 8
5 6 7
5 6 7
5 6 7
5 6 7
5 6 7
5 6 7
6 6 8
6 6 8
5 6 7
5 6 7
6 6 7
6 6 7
5 6 7
5 6 7
6 6 7
6 6 7
6 6 7
6 6 7
6 6 7
6 6 7
6 6 7
6 6 7
5 6 7
5 6 7
6 6 7
6 6 7
5 6 7
5 6 7
6 6 7
6 6 7
6 6 7
6 6 8
6 6 7
5 6 7
6 6 7
5 6 7
6 6 7
5 6 7
6 6 7
6 6 7
6 6 7
5 6 7
6 6 7
6 6 7
6 6 7
6 6 8
6 6 7
6 6 8
6 6 7
6 6 7
6 6 8
6 6 8
6 6 8
5 6 7
6 6 8
6 6 7
5 6 7
6 6 7
6 6 8
6 6 8
6 6 7
6 6 7
6 6 7
5 6 7
6 6 7
6 6 7
6 6 7
6 6 8
6 6 7
5 6 7
6 6 8
6 6 7
5 6 7
5 6 7
5 6 7
6 6 7
5 6 7
5 6 7
5 6 7
6 6 7
5 6 7
5 6 7
5 6 7
5 6 7
6 6 8
6 6 8
5 6 7
5 6 7
5 6 7
5 6 7
5 6 7
6 6 7
6 6 7
5 6 7
5 6 7
5 6 7
5 6 7
5 6 7
5 6 7
5 6 7
5 6 7
5 6 7
5 6 7
5 6 7
5 6 7
5 6 7
5 6 7
5 6 7
5 6 7
5 6 7
5 6 7
5 6 7
5 6 7
5 6 7
5 6 7
5 6 7
5 6 7
5 6 7
5 6 7
5 6 7
5 6 7
5 6 7
5 6 7
5 6 7
5 6 7
5 6 7
5 6 7
5 6 7
5 6 7
5 6 7
5 6 7
5 6 7
5 6 7
5 6 7
5 6 7
5 6 7
5 6 7
5 6 7
5 6 7
5 6 7
5 6 7
5 6 7
5 6 7
5 6 7
5 6 7
5 6 7
5 6 7
5 5 6
5 6 7
5 6 7
5 6 7
5 6 7
5 6 7
5 6 7
5 6 7
5 6 7
5 6 7
5 5 6
5 6 6
5 6 7
5 6 6
5 6 7
5 6 7
5 6 6
5 6 7
5 5 6
5 6 6
5 5 6
5 5 6
5 5 6
5 6 7
5 5 6
5 5 6
5 6 7
5 5 6
5 5 6
4 5 6
5 5 6
5 5 6
5 5 6
4 5 6
5 5 6
5 5 6
5 5 6
4 5 5
5 5 6
4 5 6
4 5 6
4 5 6
4 5 6
4 5 6
4 5 6
4 5 6
4 5 6
4 5 6
4 5 6
4 5 5
4 5 5
4 5 6
4 5 6
4 4 5
4 5 6
4 4 5
4 4 5
4 5 6
4 5 5
4 4 5
4 4 5
4 5 5
3 4 5
3 4 4
3 3 4
3 3 4
4 4 5
3 4 4
3 4 4
4 4 5
3 3 4
3 4 4
3 3 4
3 4 4
3 4 4
3 3 4
3 4 4
3 3 4
3 3 4
3 4 4
3 3 4
3 3 3
3 3 4
3 3 4
3 3 3
3 4 4
3 3 3
3 3 4
3 4 4
3 3 4
2 3 3
3 3 4
3 3 4
2 2 3
3 3 4
3 3 3
3 3 4
2 3 3
2 3 3
3 3 3
3 4 4
3 3 3
3 3 4
3 3 4
3 3 3
3 3 3
3 4 4
3 3 3
3 3 4
3 3 3
3 3 3
3 3 4
3 3 4
3 3 4
3 3 4
3 3 4
3 4 4
3 4 4
3 4 4
4 4 5
3 4 4
3 4 4
3 4 4
3 3 4
3 4 4
3 4 4
4 4 5
3 3 4
4 4 5
3 3 4
3 4 4
4 4 5
4 4 5
4 4 5
4 4 5
4 5 5
4 5 5
3 4 5
4 4 5
4 4 5
3 4 5
4 5 5
4 4 5
4 5 5
4 4 5
4 4 5
4 5 6
4 5 6
4 5 6
4 5 6
4 5 6
4 5 6
5 5 6
4 5 6
4 5 6
4 4 5
5 5 6
4 5 6
4 5 6
4 5 6
5 5 6
5 5 6
5 5 6
4 5 6
5 5 6
5 5 6
5 6 6
5 5 6
5 6 7
5 6 6
5 5 6
5 6 7
5 5 6
5 5 6
4 5 6
5 6 7
5 6 7
5 6 7
5 6 6
5 6 7
5 6 7
5 6 7
5 6 6
5 6 7
5 6 7
5 6 6
5 5 6
5 6 7
5 6 7
5 6 7
5 6 7
5 6 7
5 6 7
5 6 7
5 6 7
5 6 7
5 6 7
5 6 7
5 6 7
5 6 7
5 6 7
5 6 7
5 6 7
5 6 7
5 6 7
5 6 7
5 6 7
5 6 7
5 6 7
5 6 7
5 6 7
5 6 7
5 6 7
5 6 7
5 6 7
5 6 7
5 6 7
5 6 7
5 6 7
5 6 7
5 6 7
5 6 7
5 6 7
5 6 7
5 6 7
5 6 7
5 6 7
5 6 7
5 6 7
5 6 7
5 6 7
5 6 7
5 6 7
5 6 7
5 6 7
5 6 7
5 6 7
5 6 7
5 6 7
5 6 7
5 6 7
5 6 7
5 6 7
5 6 7
6 6 7
5 6 7
5 6 7
6 6 7
5 6 7
5 6 7
5 6 7
5 6 7
6 6 7
6 6 7
6 6 7
6 6 7
5 6 7
6 6 7
5 6 7
5 6 7
5 6 7
5 6 7
5 6 7
5 6 7
5 6 7
5 6 7
5 6 7
6 6 7
6 6 7
6 6 7
6 6 7
6 6 8
6 6 7
6 6 7
6 6 7
5 6 7
5 6 7
6 6 7
5 6 7
5 6 7
6 6 7
6 6 7
5 6 7
6 6 7
6 6 7
6 6 7
6 6 7
5 6 7
5 6 7
6 6 7
6 6 8
6 6 8
6 6 7
6 6 8
6 6 7
6 6 8
5 6 7
6 6 7
5 6 7
5 6 7
6 6 7
5 6 7
6 6 7
6 6 7
5 6 7
6 6 7
5 6 7
6 6 8
6 6 7
5 6 7
6 6 7
5 6 7
6 6 8
5 6 7
5 6 7
6 6 7
5 6 7
6 6 8
5 6 7
6 6 7
5 6 7
6 6 8
6 6 7
5 6 7
5 6 7
5 6 7
6 6 8
5 6 7
5 6 7
6 6 7
6 6 7
5 6 7
5 6 7
6 6 7
5 6 7
5 6 7
5 6 7
5 6 7
5 6 7
5 6 7
5 6 7
5 6 7
5 6 7
6 6 7
5 6 7
6 6 7
5 6 7
5 6 7
6 6 7
5 6 7
5 6 7
5 6 7
5 6 7
5 6 7
5 6 7
5 6 7
5 6 7
5 6 7
5 6 7
5 6 7
5 6 7
5 6 7
5 6 7
5 6 7
5 6 7
5 6 7
5 6 7
5 6 7
5 6 7
5 6 7
5 6 7
5 6 7
5 6 7
5 6 7
5 6 7
5 6 7
5 6 7
5 6 7
5 6 7
5 6 7
5 6 7
5 6 7
5 6 7
5 6 7
5 6 7
5 6 7
5 6 7
5 6 7
5 6 7
5 6 7
5 6 7
5 6 7
5 6 7
5 6 7
5 6 7
5 6 7
5 6 7
5 6 7
5 5 6
5 6 7
5 6 7
5 6 7
5 6 7
5 6 7
5 6 7
5 6 7
5 6 7
5 6 7
5 6 7
5 6 7
5 6 7
5 5 6
5 6 7
5 6 7
5 5 6
4 5 6
5 6 7
5 5 6
5 6 7
4 5 6
4 5 6
5 5 6
5 5 6
5 5 6
5 5 6
4 5 6
5 5 6
5 6 6
4 5 6
5 5 6
5 5 6
5 5 6
5 5 6
5 5 6
4 5 6
4 5 5
4 5 6
4 5 5
5 5 6
5 5 6
4 5 5
4 5 6
4 5 6
4 5 5
4 5 6
4 5 6
4 5 5
4 5 5
4 5 6
4 4 5
4 4 5
4 4 5
4 4 5
4 4 5
4 5 6
4 4 5
4 5 5
4 4 5
4 4 5
4 4 5
4 4 5
4 4 5
4 4 5
4 4 5
3 4 4
4 4 5
4 4 5
4 5 5
4 4 5
4 4 5
3 4 4
3 4 4
3 4 4
4 4 5
3 3 4
3 4 4
3 4 4
3 3 4
3 4 4
3 4 4
3 4 4
3 4 4
3 3 3
3 4 4
3 4 4
3 4 4
3 3 3
3 4 4
3 3 4
3 3 4
3 3 4
3 3 3
3 3 4
3 3 4
3 3 4
3 3 4
3 3 3
3 3 3
3 3 4
3 3 4
3 3 4
3 3 3
3 3 4
3 3 4
3 3 4
3 3 4
3 4 4
3 3 3
3 4 4
3 4 4
3 3 4
3 4 4
3 3 3
3 4 4
3 3 4
3 4 4
3 4 4
3 3 4
3 4 4
3 4 4
3 4 4
3 4 4
3 4 4
4 4 5
3 4 4
4 4 5
3 4 4
4 4 5
3 4 4
4 4 5
4 4 5
4 4 5
4 4 5
4 5 5
4 5 6
4 5 5
4 4 5
4 5 6
4 4 5
4 4 5
4 5 5
4 5 6
4 4 5
4 4 5
5 5 6
4 4 5
4 4 5
4 5 5
5 5 6
4 5 6
4 4 5
5 5 6
4 5 6
4 5 6
4 5 6
4 5 6
4 5 6
4 5 6
4 5 6
4 5 6
5 5 6
5 5 6
5 5 6
5 5 6
5 5 6
5 5 6
5 5 6
4 5 6
5 5 6
5 6 6
5 5 6
5 5 6
4 5 6
5 6 7
5 6 7
5 5 6
5 5 6
5 5 6
5 5 6
5 6 7
5 6 7
5 6 6
5 6 7
5 6 7
5 6 7
5 6 7
5 5 6
5 6 7
5 5 6
5 6 7
5 6 7
5 6 7
5 6 7
5 6 7
5 6 7
5 6 7
5 6 7
5 6 7
5 6 7
5 6 7
5 6 7
5 6 7
5 6 7
5 6 7
5 6 7
5 6 7
5 6 7
5 6 7
5 6 7
5 6 7
5 6 7
5 6 7
5 6 7
5 6 7
5 6 7
5 6 7
5 6 7
5 6 7
5 6 7
5 6 7
5 6 7
5 6 7
5 6 7
5 6 7
5 6 7
5 6 7
5 6 7
5 6 7
5 6 7
5 6 7
5 6 7
5 6 7
5 6 7
5 6 7
5 6 7
5 6 7
5 6 7
5 6 7
5 6 7
6 6 7
5 6 7
5 6 7
5 6 7
5 6 7
5 6 7
5 6 7
5 6 7
5 6 7
5 6 7
6 6 7
5 6 7
6 6 7
5 6 7
5 6 7
6 6 7
5 6 7
5 6 7
5 6 7
5 6 7
6 6 7
5 6 7
6 6 7
5 6 7
5 6 7
5 6 7
6 6 7
5 6 7
5 6 7
6 6 7
6 6 7
6 6 7
5 6 7
6 6 7
6 6 8
5 6 7
6 6 7
6 6 8
5 6 7
6 6 7
5 6 7
5 6 7
6 6 8
6 6 7
6 6 8
6 6 7
6 6 8
6 6 8
5 6 7
6 6 7
6 6 8
6 6 7
6 6 7
6 6 8
6 6 7
5 6 7
5 6 7
5 6 7
6 6 7
6 6 8
6 6 8
6 6 7
5 6 7
6 6 7
6 6 7
6 6 8
6 6 7
5 6 7
6 6 7
6 6 7
6 6 7
5 6 7
5 6 7
6 6 7
6 6 8
5 6 7
6 6 7
5 6 7
5 6 7
6 6 7
6 6 7
5 6 7
5 6 7
5 6 7
6 6 7
5 6 7
5 6 7
5 6 7
5 6 7
5 6 7
6 6 7
5 6 7
5 6 7
5 6 7
6 6 7
5 6 7
6 6 7
5 6 7
6 6 7
6 6 7
5 6 7
5 6 7
5 6 7
5 6 7
6 6 8
5 6 7
5 6 7
6 6 7
5 6 7
5 6 7
5 6 7
6 6 7
6 6 7
6 6 7
5 6 7
5 6 7
5 6 7
5 6 7
5 6 7
5 6 7
5 6 7
5 6 7
5 6 7
5 6 7
5 6 7
5 6 7
6 6 7
5 6 7
5 6 7
5 6 7
5 6 7
5 6 7
5 6 7
5 6 7
5 6 7
5 6 7
5 6 7
5 6 7
5 6 7
5 6 7
5 6 7
5 6 7
5 6 7
5 6 7
5 6 7
5 6 7
5 6 7
5 6 7
5 6 7
5 6 7
5 6 7
5 6 7
5 6 7
5 6 7
5 6 7
5 6 7
5 6 7
5 6 7
5 6 7
5 6 7
5 6 7
5 6 7
5 6 7
5 6 7
5 6 7
5 6 7
5 6 7
5 6 7
5 6 6
5 6 6
5 6 7
5 6 7
5 6 6
5 6 6
5 6 7
5 6 7
5 5 6
5 6 7
5 6 7
5 6 7
5 6 7
5 5 6
4 5 6
5 5 6
4 5 6
5 5 6
5 6 6
5 5 6
4 5 6
5 5 6
4 5 6
5 5 6
4 5 6
5 5 6
4 5 6
5 6 7
5 5 6
4 5 6
5 5 6
4 5 6
4 5 6
4 5 6
4 5 6
4 4 5
4 5 5
4 5 6
4 4 5
4 5 5
4 4 5
4 5 5
4 4 5
4 5 6
4 4 5
4 4 5
4 5 5
4 5 5
4 4 5
4 4 5
4 4 5
4 4 5
4 4 5
4 4 5
4 4 5
4 4 5
4 4 5
4 4 5
4 5 5
3 4 4
3 4 4
3 4 4
3 4 4
3 4 4
3 4 4
3 4 4
3 3 4
3 4 4
3 3 4
3 4 4
3 3 3
3 4 4
3 3 4
3 3 4
3 3 4
3 4 4
3 4 4
3 4 4
3 3 4
3 4 4
3 3 4
3 3 4
3 4 4
3 4 4
3 3 3
3 3 3
3 3 4
2 3 3
3 3 4
3 3 4
3 3 4
3 3 4
3 4 4
3 4 4
3 4 4
3 4 4
3 3 4
3 3 4
3 4 4
3 4 4
3 3 4
3 4 4
3 3 3
3 3 4
3 4 4
3 3 4
3 4 4
3 4 4
3 4 4
4 4 5
4 4 5
3 3 4
4 4 5
3 3 4
3 3 4
4 4 5
4 4 5
3 4 5
3 4 4
4 4 5
4 4 5
4 4 5
4 5 5
3 3 4
3 4 4
3 4 5
4 4 5
4 4 5
4 4 5
4 4 5
3 4 5
4 4 5
4 5 5
4 4 5
4 5 6
4 4 5
4 5 5
4 4 5
4 4 5
4 5 6
4 5 6
4 5 6
4 5 6
5 5 6
4 5 6
4 5 5
4 5 6
4 5 5
4 5 6
5 5 6
5 5 6
4 5 6
4 5 6
4 5 6
5 5 6
5 5 6
4 5 6
5 5 6
5 5 6
5 5 6
4 5 6
5 5 6
5 6 7
5 6 7
5 5 6
5 5 6
5 5 6
5 5 6
5 6 6
5 5 6
5 6 7
5 5 6
5 6 6
5 6 6
5 6 7
5 6 7
5 6 7
5 6 7
5 6 7
5 6 7
5 6 7
5 6 7
5 6 6
5 6 7
5 6 7
5 6 7
5 6 7
5 6 7
5 6 7
5 6 7
5 6 7
5 6 7
5 6 7
5 6 7
5 6 7
5 6 7
5 6 7
5 6 7
5 6 7
5 6 7
5 6 7
5 6 7
5 6 7
5 6 7
5 6 7
5 6 7
5 6 7
5 6 7
5 6 7
5 6 7
5 6 7
5 6 7
5 6 7
5 6 7
5 6 7
5 6 7
5 6 7
5 6 7
5 6 7
5 6 7
5 6 7
5 6 7
5 6 7
5 6 7
5 6 7
5 6 7
5 6 7
5 6 7
5 6 7
5 6 7
5 6 7
5 6 7
6 6 7
5 6 7
5 6 7
5 6 7
5 6 7
5 6 7
5 6 7
5 6 7
5 6 7
5 6 7
6 6 7
5 6 7
6 6 7
5 6 7
5 6 7
6 6 8
5 6 7
5 6 7
5 6 7
5 6 7
5 6 7
5 6 7
5 6 7
6 6 7
5 6 7
5 6 7
5 6 7
5 6 7
6 6 7
5 6 7
5 6 7
6 6 7
6 6 7
6 6 7
6 6 7
6 6 7
6 6 7
5 6 7
5 6 7
5 6 7
6 6 7
6 6 7
6 6 7
6 6 7
6 6 7
6 6 8
6 6 8
6 6 8
6 6 7
5 6 7
6 6 7
6 6 7
6 6 7
6 6 8
6 6 7
5 6 7
6 6 8
6 6 8
6 6 7
6 6 7
6 6 7
6 6 7
6 6 7
6 6 7
6 6 7
6 6 7
6 6 8
6 6 7
6 6 8
6 6 8
6 6 8
6 6 8
6 6 8
5 6 7
5 6 7
6 6 7
5 6 7
6 6 7
6 6 7
5 6 7
6 6 7
6 6 7
5 6 7
5 6 7
6 6 7
6 6 7
6 6 7
6 6 7
6 6 7
5 6 7
6 6 7
5 6 7
5 6 7
5 6 7
5 6 7
5 6 7
5 6 7
5 6 7
5 6 7
6 6 8
5 6 7
6 6 7
5 6 7
6 6 8
5 6 7
5 6 7
5 6 7
5 6 7
5 6 7
5 6 7
6 6 7
5 6 7
5 6 7
5 6 7
5 6 7
5 6 7
5 6 7
6 6 7
5 6 7
5 6 7
5 6 7
5 6 7
5 6 7
6 6 7
5 6 7
5 6 7
5 6 7
5 6 7
5 6 7
5 6 7
5 6 7
5 6 7
5 6 7
5 6 7
5 6 7
5 6 7
5 6 7
5 6 7
5 6 7
5 6 7
5 6 7
5 6 7
5 6 7
5 6 7
5 6 7
5 6 7
5 6 7
5 6 7
5 6 7
5 6 7
5 6 7
5 6 7
5 6 7
5 6 7
5 6 7
5 6 7
5 6 7
5 6 7
5 6 7
5 5 6
5 6 7
5 6 7
5 6 6
5 6 7
5 5 6
5 6 7
5 6 7
5 6 7
5 5 6
5 6 7
5 5 6
5 6 7
5 6 6
5 6 7
5 6 7
5 6 7
5 6 7
5 5 6
5 5 6
5 6 7
5 5 6
5 5 6
5 5 6
5 5 6
5 5 6
5 5 6
5 5 6
5 5 6
5 5 6
4 5 6
4 5 6
4 5 6
5 5 6
4 5 6
4 5 6
4 5 6
5 5 6
4 5 6
4 5 5
4 5 6
4 5 6
4 5 6
4 5 6
5 5 6
4 5 6
4 5 6
4 4 5
4 5 6
4 5 6
4 4 5
4 4 5
4 5 5
4 5 6
4 4 5
4 5 6
4 5 6
4 4 5
4 4 5
4 5 5
4 4 5
4 4 5
3 4 4
3 4 5
4 4 5
4 4 5
4 4 5
4 4 5
3 4 4
4 4 5
3 4 5
4 4 5
4 4 5
3 4 4
3 4 4
4 4 5
4 4 5
3 4 4
3 4 4
3 4 4
3 4 4
3 4 4
3 4 4
3 4 4
3 4 4
4 4 5
3 4 4
3 4 4
3 3 4
3 4 4
3 3 4
3 4 4
3 4 4
3 4 4
3 3 3
3 3 4
3 4 4
3 3 4
3 3 4
3 4 4
2 3 3
3 3 4
3 3 4
3 3 4
4 4 5
3 3 4
3 3 4
3 4 4
3 4 4
3 3 4
3 3 4
3 3 4
3 4 4
3 4 4
3 3 4
3 3 4
4 4 5
3 4 4
3 4 4
3 4 4
4 4 5
3 4 4
4 4 5
4 4 5
3 3 4
4 4 5
3 4 4
4 4 5
4 4 5
4 4 5
3 4 5
4 4 5
4 4 5
4 5 5
4 4 5
3 4 5
4 4 5
4 4 5
4 5 6
4 5 6
4 5 5
4 4 5
4 4 5
4 5 6
4 4 5
4 4 5
4 4 5
4 5 6
4 5 5
4 4 5
4 5 6
4 5 6
4 4 5
5 5 6
4 5 5
4 5 6
5 5 6
4 5 6
5 5 6
4 5 6
4 5 6
4 5 5
4 5 5
4 5 6
5 5 6
5 5 6
5 5 6
5 6 7
5 5 6
5 5 6
5 5 6
5 5 6
5 5 6
5 5 6
4 5 6
5 5 6
5 5 6
5 6 6
4 5 6
5 6 7
5 5 6
5 5 6
5 6 7
5 6 6
5 6 7
5 6 7
5 6 7
5 6 7
5 6 7
5 6 7
5 6 7
5 6 7
5 6 7
5 6 7
5 6 7
5 6 7
5 6 7
5 6 7
5 6 7
5 6 7
5 6 7
5 6 7
5 6 7
5 6 7
5 6 6
5 6 7
5 6 7
5 6 7
5 6 7
5 6 7
5 6 7
5 6 7
5 6 7
5 6 7
5 6 7
5 6 7
5 6 7
5 6 7
5 6 7
5 6 7
5 6 7
5 6 7
5 6 7
5 6 7
5 6 7
5 6 7
5 6 7
5 6 7
5 6 7
5 6 7
5 6 7
5 6 7
5 6 7
6 6 7
6 6 7
5 6 7
5 6 7
5 6 7
5 6 7
5 6 7
5 6 7
5 6 7
6 6 7
5 6 7
5 6 7
5 6 7
5 6 7
5 6 7
6 6 7
5 6 7
6 6 7
5 6 7
5 6 7
5 6 7
5 6 7
5 6 7
6 6 8
5 6 7
5 6 7
5 6 7
5 6 7
5 6 7
6 6 7
6 6 8
5 6 7
5 6 7
5 6 7
6 6 7
5 6 7
6 6 7
5 6 7
5 6 7
5 6 7
6 6 7
5 6 7
6 6 7
5 6 7
6 6 7
5 6 7
5 6 7
6 6 7
6 6 7
5 6 7
6 6 7
6 6 7
5 6 7
5 6 7
6 6 8
5 6 7
6 6 8
6 6 7
5 6 7
5 6 7
6 6 8
5 6 7
6 6 7
6 6 7
5 6 7
5 6 7
6 6 7
6 6 7
6 6 7
5 6 7
6 6 8
5 6 7
5 6 7
5 6 7
5 6 7
6 6 7
5 6 7
5 6 7
6 6 7
5 6 7
5 6 7
5 6 7
5 6 7
5 6 7
6 6 7
6 6 7
5 6 7
6 6 7
5 6 7
6 6 7
6 6 7
5 6 7
6 6 7
5 6 7
6 6 7
5 6 7
5 6 7
5 6 7
5 6 7
5 6 7
5 6 7
5 6 7
5 6 7
5 6 7
5 6 7
6 6 7
5 6 7
6 6 7
5 6 7
6 6 7
6 6 7
5 6 7
5 6 7
5 6 7
5 6 7
5 6 7
5 6 7
5 6 7
5 6 7
5 6 7
5 6 7
5 6 7
5 6 7
6 6 7
5 6 7
5 6 7
5 6 7
5 6 7
5 6 7
5 6 7
5 6 7
5 6 7
5 6 7
5 6 7
5 6 7
5 6 7
5 6 7
6 6 7
5 6 7
5 6 7
5 6 7
5 6 7
5 6 7
5 6 7
5 6 7
5 6 7
5 6 7
5 6 7
5 6 7
5 6 7
5 6 7
5 6 7
5 6 7
5 6 7
5 6 7
5 6 7
5 6 7
5 6 7
5 6 7
5 6 7
5 6 7
5 6 7
5 6 7
5 6 7
5 6 7
5 6 7
5 6 7
5 5 6
5 6 7
5 6 7
5 6 7
5 6 7
5 5 6
5 6 7
5 6 7
5 6 7
5 6 7
5 5 6
5 6 6
5 6 7
5 6 6
5 5 6
5 5 6
5 5 6
5 6 6
5 6 7
5 6 7
5 5 6
4 5 6
5 6 6
5 5 6
4 5 6
4 5 6
5 5 6
5 5 6
5 5 6
4 5 6
5 5 6
5 5 6
4 5 6
5 5 6
4 5 6
4 5 6
5 5 6
5 5 6
4 5 6
4 5 6
4 5 6
4 5 6
4 5 6
5 5 6
4 5 6
4 5 6
4 5 6
4 5 6
4 5 6
4 5 5
4 4 5
4 5 6
4 5 6
3 4 4
4 5 5
4 5 5
4 4 5
4 5 6
4 5 5
4 4 5
4 4 5
4 4 5
3 4 5
3 4 4
4 5 6
4 4 5
4 4 5
4 4 5
4 4 5
4 4 5
4 5 5
4 4 5
3 4 4
4 4 5
3 4 4
4 4 5
3 4 4
3 4 4
3 4 4
3 4 4
3 4 4
4 4 5
3 4 4
3 3 4
4 4 5
3 4 4
3 3 4
3 4 4
4 4 5
3 4 4
3 4 4
4 4 5
3 3 4
3 4 4
3 4 4
3 4 4
3 4 4
4 4 5
3 4 4
3 3 4
3 3 4
3 4 4
3 3 4
3 3 4
3 3 4
3 4 4
3 3 4
3 3 3
3 3 3
3 3 4
3 4 4
3 3 4
3 4 4
3 3 4
3 4 4
3 4 4
3 4 4
3 3 4
3 3 4
3 4 4
3 3 4
3 4 5
3 4 4
4 4 5
3 4 5
4 4 5
4 4 5
4 4 5
4 4 5
3 4 4
4 5 5
4 4 5
4 4 5
4 4 5
4 4 5
4 4 5
4 4 5
4 4 5
4 4 5
4 4 5
4 4 5
4 5 5
4 4 5
4 4 5
5 5 6
4 4 5
4 5 6
4 5 5
4 5 5
4 5 5
4 5 6
4 5 6
4 5 6
4 5 5
4 4 5
5 5 6
5 5 6
4 5 6
4 5 6
4 5 6
4 5 6
4 5 6
4 5 6
5 5 6
5 6 6
4 5 6
4 5 6
5 5 6
4 5 6
4 5 6
5 5 6
5 5 6
5 6 7
5 6 7
5 5 6
5 5 6
5 5 6
5 5 6
5 6 6
5 6 7
5 6 6
5 5 6
5 6 7
5 6 6
5 5 6
5 5 6
5 5 6
5 5 6
5 6 7
5 5 6
5 6 7
5 6 7
5 6 7
5 6 7
5 6 7
5 6 7
5 6 7
5 6 7
5 6 7
5 6 7
5 6 7
5 6 7
5 6 7
5 6 7
5 6 7
5 6 7
5 6 7
5 6 7
5 6 7
5 6 7
5 6 7
5 6 7
5 6 7
5 6 7
5 6 7
5 6 7
5 6 7
5 6 7
5 6 7
5 6 7
5 6 7
5 6 7
5 6 7
5 6 7
5 6 7
5 6 7
5 6 7
5 6 7
5 6 7
5 6 7
5 6 7
5 6 7
5 6 7
5 6 7
6 6 7
5 6 7
5 6 7
5 6 7
6 6 7
5 6 7
5 6 7
5 6 7
5 6 7
5 6 7
5 6 7
6 6 7
5 6 7
5 6 7
5 6 7
5 6 7
6 6 7
5 6 7
6 6 7
5 6 7
5 6 7
5 6 7
6 6 7
5 6 7
5 6 7
6 6 7
5 6 7
6 6 7
6 6 7
5 6 7
5 6 7
5 6 7
5 6 7
6 6 7
6 6 7
5 6 7
5 6 7
5 6 7
6 6 7
6 6 7
5 6 7
5 6 7
6 6 7
5 6 7
5 6 7
5 6 7
5 6 7
5 6 7
6 6 7
6 6 7
6 6 8
5 6 7
6 6 7
5 6 7
6 6 7
5 6 7
6 6 7
6 6 7
5 6 7
6 6 7
5 6 7
6 6 8
6 6 7
6 6 8
6 6 7
6 6 7
6 6 7
6 6 7
6 6 8
5 6 7
6 6 8
6 6 8
6 6 7
6 6 7
6 6 7
6 6 7
6 6 7
6 6 7
5 6 7
6 6 7
6 6 8
6 6 7
5 6 7
6 6 8
6 6 7
5 6 7
5 6 7
5 6 7
6 6 7
5 6 7
5 6 7
5 6 7
6 6 7
6 6 7
5 6 7
5 6 7
5 6 7
6 6 8
5 6 7
6 6 7
6 6 7
5 6 7
5 6 7
5 6 7
5 6 7
5 6 7
6 6 7
5 6 7
6 6 7
6 6 7
5 6 7
5 6 7
5 6 7
5 6 7
5 6 7
5 6 7
5 6 7
5 6 7
5 6 7
5 6 7
5 6 7
6 6 7
5 6 7
5 6 7
5 6 7
5 6 7
5 6 7
5 6 7
5 6 7
5 6 7
5 6 7
5 6 7
5 6 7
5 6 7
5 6 7
5 6 7
5 6 7
5 6 7
5 6 7
5 6 7
5 6 7
5 6 7
5 6 7
5 6 7
5 6 7
5 6 7
5 6 7
5 6 7
5 6 7
5 6 7
5 6 7
5 6 7
5 6 7
5 6 7
5 6 7
5 6 7
5 6 7
5 6 7
5 6 7
5 6 7
5 6 7
5 6 7
5 6 7
5 6 7
5 6 7
5 6 7
5 6 7
5 6 7
5 6 7
5 6 7
5 6 7
5 6 7
5 6 7
5 6 7
5 6 7
5 6 7
5 6 7
5 6 7
5 5 6
5 6 6
5 6 7
5 6 7
5 5 6
5 5 6
5 6 7
5 6 6
5 6 7
5 6 6
4 5 6
5 5 6
5 5 6
5 5 6
5 5 6
4 5 6
4 5 6
5 5 6
5 5 6
5 5 6
4 5 6
4 5 6
4 5 6
5 5 6
4 5 6
4 5 6
5 6 7
5 5 6
4 5 6
4 5 6
4 5 6
4 5 6
5 5 6
4 5 6
4 5 5
4 4 5
4 4 5
4 5 6
4 5 6
4 5 6
4 5 5
4 5 6
4 5 5
4 5 5
4 5 6
4 5 5
4 4 5
4 5 5
4 5 5
4 5 6
4 4 5
4 5 6
4 4 5
4 4 5
4 4 5
4 4 5
4 4 5
4 4 5
4 4 5
4 4 5
4 4 5
4 4 5
4 4 5
4 4 5
3 4 4
3 3 3
4 4 5
4 5 5
4 4 5
4 4 5
3 4 4
4 4 5
3 4 4
3 3 4
3 4 4
3 3 4
3 4 4
3 4 4
3 3 4
3 4 4
3 4 4
4 4 5
4 4 5
3 4 4
3 3 4
3 3 4
3 4 4
3 3 4
3 4 4
3 4 4
3 4 4
3 3 4
3 3 4
3 4 4
4 4 5
4 4 5
4 4 5
3 4 4
3 4 4
3 3 4
4 4 5
3 4 4
3 3 4
3 4 4
3 4 4
3 4 4
3 4 4
4 4 5
3 3 4
4 4 5
4 4 5
4 4 5
3 4 4
4 4 5
4 4 5
4 4 5
4 4 5
4 4 5
4 4 5
4 4 5
4 4 5
4 5 5
4 4 5
4 4 5
4 4 5
4 4 5
4 4 5
4 4 5
4 5 5
4 4 5
4 4 5
4 5 6
4 5 5
4 4 5
4 5 5
4 5 6
4 5 6
4 5 5
4 5 5
4 5 6
4 5 6
5 5 6
4 5 5
4 5 6
4 5 6
4 5 6
4 5 6
5 5 6
5 5 6
5 5 6
4 5 6
5 5 6
5 5 6
5 5 6
5 5 6
5 5 6
5 5 6
5 5 6
4 5 6
5 5 6
5 5 6
5 5 6
5 5 6
5 5 6
5 6 6
5 6 7
5 5 6
5 6 7
5 6 7
5 6 7
4 5 6
5 6 7
5 5 6
5 6 6
5 6 7
5 5 6
5 5 6
5 6 7
5 6 6
5 6 7
5 5 6
5 6 7
5 6 7
5 6 7
5 6 7
5 6 7
5 6 7
5 6 7
5 6 7
5 6 7
5 6 7
5 6 7
5 6 7
5 6 7
5 6 7
5 6 7
5 6 7
5 6 7
5 6 7
5 6 7
5 6 7
5 6 7
5 6 7
5 6 7
5 6 7
5 6 7
5 6 7
5 6 7
5 6 7
5 6 7
5 6 7
5 6 7
5 6 7
5 6 7
5 6 7
5 6 7
5 6 7
5 6 7
5 6 7
5 6 7
5 6 7
5 6 7
5 6 7
5 6 7
5 6 7
5 6 7
5 6 7
5 6 7
5 6 7
5 6 7
5 6 7
5 6 7
6 6 7
5 6 7
5 6 7
5 6 7
5 6 7
6 6 7
5 6 7
5 6 7
5 6 7
6 6 8
5 6 7
5 6 7
6 6 7
5 6 7
6 6 7
5 6 7
5 6 7
5 6 7
6 6 7
6 6 8
5 6 7
6 6 8
6 6 7
5 6 7
5 6 7
5 6 7
6 6 8
6 6 7
5 6 7
5 6 7
5 6 7
5 6 7
5 6 7
5 6 7
6 6 7
5 6 7
6 7 8
5 6 7
6 6 7
5 6 7
5 6 7
6 6 7
6 6 8
6 6 7
5 6 7
5 6 7
6 6 7
6 6 7
6 6 7
5 6 7
6 6 7
6 6 7
6 6 7
6 6 7
6 6 7
6 6 7
5 6 7
6 6 7
5 6 7
5 6 7
6 6 8
6 6 8
6 6 7
5 6 7
6 6 7
6 6 7
6 6 8
5 6 7
6 6 7
6 6 7
6 6 7
5 6 7
5 6 7
5 6 7
6 6 7
5 6 7
6 6 7
5 6 7
5 6 7
5 6 7
5 6 7
5 6 7
5 6 7
5 6 7
5 6 7
6 6 7
5 6 7
5 6 7
5 6 7
6 6 7
5 6 7
5 6 7
5 6 7
6 6 7
5 6 7
6 6 8
6 6 7
6 6 7
5 6 7
5 6 7
5 6 7
5 6 7
5 6 7
5 6 7
5 6 7
5 6 7
6 6 7
5 6 7
5 6 7
5 6 7
6 6 7
5 6 7
6 6 7
5 6 7
5 6 7
5 6 7
5 6 7
5 6 7
5 6 7
5 6 7
5 6 7
5 6 7
5 6 7
5 6 7
5 6 7
5 6 7
5 6 7
5 6 7
5 6 7
5 6 7
5 6 7
5 6 7
5 6 7
5 6 7
5 6 7
5 6 7
5 6 7
5 6 7
5 6 7
5 6 7
5 6 7
5 6 7
5 6 7
5 6 7
5 6 7
5 6 7
5 6 7
5 6 7
5 6 7
5 6 7
5 6 7
5 6 7
5 6 7
5 6 7
5 6 7
5 6 7
5 6 7
5 6 7
5 6 7
5 6 7
5 6 6
5 5 6
5 6 7
5 6 7
5 5 6
5 6 7
5 5 6
5 6 7
5 6 7
5 5 6
5 6 7
5 6 7
5 6 7
5 6 7
5 6 7
5 5 6
5 6 7
5 5 6
5 5 6
5 5 6
4 5 6
5 5 6
4 5 6
5 6 7
4 5 6
5 5 6
4 5 6
5 5 6
4 5 6
5 5 6
4 5 6
5 5 6
5 5 6
5 5 6
4 5 6
4 5 6
4 5 6
5 5 6
4 4 5
4 5 6
5 5 6
4 4 5
4 5 6
4 5 5
4 5 6
4 5 6
4 5 5
4 5 6
4 5 6
4 5 6
4 5 6
4 4 5
4 5 5
4 4 5
4 5 5
3 4 4
4 5 5
4 4 5
4 5 6
4 4 5
4 5 5
4 5 5
4 5 5
4 4 5
4 4 5
3 4 5
4 5 5
4 4 5
4 5 5
3 4 4
4 4 5
3 4 5
4 4 5
4 4 5
4 4 5
3 4 4
3 4 4
4 4 5
3 4 4
4 4 5
4 4 5
3 4 4
3 4 4
3 4 4
4 4 5
3 3 3
3 4 4
3 4 4
3 4 4
3 4 4
3 3 4
3 3 4
3 4 4
3 3 4
3 4 4
3 4 4
3 3 4
3 3 4
4 4 5
3 4 4
3 3 4
3 3 4
3 4 4
3 4 4
4 4 5
4 4 5
3 4 4
3 4 4
4 4 5
3 4 4
3 4 4
4 4 5
4 4 5
4 4 5
3 4 4
4 4 5
4 4 5
3 4 4
4 4 5
3 4 4
3 4 4
3 4 4
3 4 4
4 4 5
4 4 5
4 4 5
4 4 5
4 5 5
4 4 5
4 4 5
4 4 5
3 4 4
4 4 5
4 5 5
4 4 5
4 5 5
4 5 5
4 4 5
4 5 5
4 5 6
4 5 6
4 5 6
4 5 5
4 5 6
4 5 5
4 5 6
4 5 6
4 5 6
4 4 5
4 5 6
4 5 6
4 5 6
4 5 6
4 5 6
5 5 6
5 5 6
5 5 6
5 5 6
4 5 6
4 5 6
5 5 6
4 5 6
4 5 6
5 5 6
5 5 6
5 5 6
5 5 6
5 5 6
5 5 6
4 5 6
5 5 6
5 5 6
5 6 7
5 5 6
5 6 7
5 6 6
5 5 6
5 5 6
5 6 7
5 5 6
5 5 6
5 5 6
5 6 7
5 6 6
5 5 6
5 6 7
5 6 6
5 5 6
5 6 6
5 6 7
5 6 7
5 6 7
5 5 6
5 6 7
5 6 7
5 6 7
5 6 7
5 6 7
5 6 7
5 6 7
5 6 7
5 6 7
5 6 7
5 6 7
5 6 7
5 6 7
5 6 7
5 6 7
5 6 7
5 6 7
5 6 7
5 6 7
5 6 7
5 6 7
5 6 7
5 6 7
5 6 7
5 6 7
5 6 7
5 6 7
5 6 7
5 6 7
5 6 7
5 6 7
5 6 7
5 6 7
5 6 7
5 6 7
5 6 7
5 6 7
5 6 7
5 6 7
5 6 7
5 6 7
5 6 7
5 6 7
5 6 7
5 6 7
5 6 7
5 6 7
5 6 7
5 6 7
5 6 7
5 6 7
5 6 7
5 6 7
5 6 7
5 6 7
5 6 7
5 6 7
5 6 7
5 6 7
6 6 7
5 6 7
5 6 7
5 6 7
5 6 7
5 6 7
5 6 7
5 6 7
5 6 7
5 6 7
6 6 7
5 6 7
6 6 7
5 6 7
6 6 8
5 6 7
5 6 7
5 6 7
6 6 7
6 6 7
6 6 7
5 6 7
6 6 7
6 6 7
5 6 7
6 6 7
5 6 7
5 6 7
5 6 7
5 6 7
6 6 7
5 6 7
6 6 7
6 6 7
6 6 7
6 6 7
6 6 7
6 6 7
6 6 7
5 6 7
5 6 7
6 6 8
5 6 7
6 6 8
5 6 7
6 6 7
5 6 7
5 6 7
5 6 7
6 6 7
6 6 7
6 6 8
5 6 7
6 6 7
5 6 7
6 6 7
5 6 7
5 6 7
5 6 7
6 6 7
5 6 7
6 6 7
6 6 7
6 6 7
5 6 7
5 6 7
5 6 7
6 6 7
5 6 7
6 6 7
5 6 7
5 6 7
5 6 7
5 6 7
5 6 7
5 6 7
5 6 7
5 6 7
6 6 7
5 6 7
5 6 7
5 6 7
5 6 7
5 6 7
5 6 7
5 6 7
5 6 7
5 6 7
6 6 7
6 6 7
6 6 7
5 6 7
6 6 7
5 6 7
5 6 7
5 6 7
5 6 7
5 6 7
5 6 7
5 6 7
5 6 7
5 6 7
5 6 7
5 6 7
5 6 7
5 6 7
5 6 7
5 6 7
5 6 7
5 6 7
5 6 7
5 6 7
5 6 7
5 6 7
5 6 7
5 6 7
5 6 7
5 6 7
5 6 7
5 6 7
5 6 7
5 6 7
5 6 7
5 6 7
5 6 7
5 6 7
5 6 7
5 6 7
5 6 7
5 6 7
5 6 7
5 6 7
5 6 7
5 6 7
5 5 6
5 6 7
5 6 7
5 6 7
5 6 7
5 6 7
5 6 7
5 6 7
5 6 7
5 6 7
5 6 7
5 5 6
5 6 7
5 6 7
5 6 7
5 6 7
5 5 6
5 6 7
5 6 7
5 6 7
5 6 7
5 6 7
5 5 6
5 6 7
5 6 7
5 5 6
5 6 7
5 5 6
5 6 7
5 6 7
5 5 6
5 5 6
5 5 6
5 6 6
5 5 6
5 6 6
5 5 6
4 5 6
4 5 6
5 5 6
5 6 7
5 5 6
5 5 6
5 6 6
4 5 6
5 5 6
4 5 6
4 5 6
4 5 6
4 5 6
5 5 6
4 5 6
4 5 6
5 5 6
4 5 6
4 5 6
4 5 6
4 4 5
5 5 6
4 5 6
4 5 6
4 5 6
4 4 5
4 5 6
3 4 5
4 4 5
4 5 5
4 4 5
4 5 5
4 4 5
4 5 6
4 5 6
4 5 5
4 4 5
4 4 5
4 4 5
4 5 5
4 4 5
4 5 6
4 4 5
4 4 5
4 5 5
4 4 5
4 4 5
4 4 5
4 4 5
3 4 4
4 4 5
4 4 5
4 4 5
4 4 5
3 4 4
4 4 5
3 4 5
4 4 5
3 4 4
3 4 5
3 4 4
4 4 5
4 4 5
3 4 4
3 4 4
3 4 4
4 4 5
3 4 4
4 4 5
3 4 4
4 4 5
3 4 4
3 4 4
3 4 4
4 4 5
4 4 5
3 3 4
3 4 4
3 4 5
3 4 4
3 3 4
4 4 5
4 4 5
4 4 5
3 4 4
4 4 5
3 4 4
3 4 4
3 4 5
4 4 5
3 4 4
4 4 5
4 4 5
4 4 5
3 4 5
4 4 5
4 5 5
3 4 5
4 4 5
4 4 5
4 4 5
3 4 5
4 5 5
4 4 5
4 5 6
4 4 5
4 4 5
4 4 5
4 4 5
4 5 5
4 4 5
4 4 5
4 5 5
4 5 6
4 5 5
4 5 6
4 5 5
4 4 5
4 5 5
4 5 6
4 5 6
4 5 6
4 4 5
4 4 5
4 5 6
4 5 6
4 5 6
4 5 6
4 5 5
5 5 6
5 5 6
4 5 6
4 5 5
4 5 6
4 5 6
5 5 6
4 5 6
4 5 6
4 5 6
5 5 6
5 5 6
4 5 6
4 5 6
5 5 6
5 6 7
5 5 6
5 5 6
5 5 6
5 6 6
5 5 6
4 5 6
5 6 6
5 6 6
5 5 6
5 5 6
5 6 6
5 6 7
5 6 7
5 6 7
5 6 6
5 5 6
5 6 7
5 6 7
5 6 7
5 6 7
5 6 7
5 6 7
5 6 7
5 6 7
5 6 7
5 6 7
5 6 7
5 6 7
5 6 7
5 6 7
5 5 6
5 6 7
5 6 7
5 6 7
5 6 7
5 6 7
5 6 7
5 6 7
5 6 7
5 6 7
5 6 7
5 6 7
5 6 7
5 6 7
5 6 7
5 6 7
5 6 7
5 6 7
5 6 7
5 6 7
5 6 7
5 6 7
5 6 7
5 6 7
5 6 7
5 6 7
5 6 7
5 6 7
5 6 7
5 6 7
5 6 7
5 6 7
5 6 7
5 6 7
5 6 7
5 6 7
6 6 7
5 6 7
5 6 7
5 6 7
5 6 7
5 6 7
5 6 7
5 6 7
5 6 7
5 6 7
5 6 7
5 6 7
5 6 7
6 6 8
5 6 7
6 6 7
5 6 7
5 6 7
5 6 7
5 6 7
5 6 7
5 6 7
5 6 7
6 6 7
5 6 7
5 6 7
5 6 7
5 6 7
5 6 7
6 6 7
5 6 7
5 6 7
5 6 7
5 6 7
5 6 7
6 6 7
6 6 7
6 6 7
5 6 7
6 6 8
5 6 7
6 6 7
5 6 7
6 6 7
6 6 7
6 6 7
5 6 7
6 6 7
5 6 7
5 6 7
5 6 7
6 6 7
5 6 7
6 6 7
5 6 7
6 6 8
5 6 7
6 6 7
5 6 7
5 6 7
6 6 7
5 6 7
6 6 7
6 6 8
6 6 7
6 6 8
6 6 7
6 6 8
5 6 7
5 6 7
5 6 7
5 6 7
5 6 7
5 6 7
6 6 7
5 6 7
5 6 7
5 6 7
6 6 7
5 6 7
5 6 7
5 6 7
5 6 7
6 6 7
5 6 7
6 6 7
6 6 7
5 6 7
5 6 7
6 6 8
5 6 7
5 6 7
5 6 7
5 6 7
5 6 7
5 6 7
5 6 7
5 6 7
5 6 7
5 6 7
5 6 7
5 6 7
5 6 7
6 6 7
5 6 7
6 6 7
5 6 7
5 6 7
5 6 7
5 6 7
5 6 7
5 6 7
5 6 7
5 6 7
6 6 7
5 6 7
5 6 7
5 6 7
6 6 7
5 6 7
5 6 7
5 6 7
5 6 7
5 6 7
5 6 7
5 6 7
5 6 7
5 6 7
5 6 7
5 6 7
5 6 7
5 6 7
5 6 7
5 6 7
5 6 7
5 6 7
5 6 7
5 6 7
5 6 7
5 6 7
5 6 7
5 6 7
5 6 7
5 6 7
5 6 7
5 6 7
5 6 7
5 6 7
5 6 7
5 6 7
5 5 6
5 6 7
5 6 7
5 6 7
5 6 7
5 5 6
5 6 7
5 6 7
5 6 7
5 6 7
5 6 7
5 6 7
5 5 6
5 6 7
5 5 6
5 5 6
5 6 7
5 6 7
5 6 7
5 6 7
5 6 7
5 5 6
5 6 7
5 6 7
5 6 7
4 5 6
5 6 7
5 6 7
5 6 7
5 5 6
5 5 6
5 5 6
5 5 6
5 6 6
5 6 7
5 5 6
5 5 6
5 5 6
5 5 6
4 5 6
5 5 6
4 5 6
4 5 6
4 5 6
4 5 6
5 5 6
5 6 6
4 5 6
4 5 6
4 5 5
5 5 6
5 5 6
4 5 6
4 5 6
5 5 6
4 5 5
4 5 6
4 5 6
4 5 6
4 5 6
5 5 6
4 5 6
4 5 6
4 5 6
4 5 6
4 5 5
4 4 5
4 5 5
4 5 5
4 5 6
4 5 6
4 5 6
4 4 5
4 4 5
4 5 5
4 4 5
4 4 5
4 5 5
4 4 5
4 5 5
4 5 5
4 4 5
4 4 5
3 4 4
4 4 5
4 4 5
4 4 5
4 4 5
4 4 5
4 4 5
4 4 5
4 4 5
4 4 5
4 4 5
3 4 5
3 4 4
4 4 5
3 4 4
3 4 4
3 3 4
4 4 5
3 4 4
4 4 5
4 4 5
3 4 4
4 4 5
4 4 5
4 4 5
4 4 5
3 4 4
3 4 4
3 4 4
4 4 5
3 4 4
3 3 4
4 4 5
4 4 5
4 4 5
4 4 5
3 4 4
4 4 5
3 4 4
4 4 5
4 4 5
4 4 5
4 5 5
4 4 5
4 4 5
3 4 4
4 4 5
3 4 4
3 4 5
3 4 4
3 4 4
3 4 4
4 4 5
3 4 4
4 4 5
4 5 5
4 5 5
4 4 5
4 4 5
3 4 5
4 4 5
4 5 5
4 4 5
4 4 5
4 4 5
4 5 6
4 4 5
4 4 5
4 5 6
4 5 6
4 4 5
4 5 5
4 5 6
4 5 6
4 4 5
4 5 5
4 4 5
4 5 5
4 5 6
4 5 6
4 5 6
5 5 6
4 5 6
4 5 6
4 5 6
4 5 6
4 5 6
4 5 6
4 5 6
5 5 6
4 5 6
4 5 6
4 5 6
4 5 6
5 5 6
5 5 6
5 6 7
5 5 6
5 5 6
5 6 6
4 5 6
5 5 6
5 6 6
5 6 7
5 5 6
5 6 7
5 5 6
4 5 6
5 5 6
5 5 6
5 6 6
5 5 6
5 6 7
5 6 7
5 5 6
5 5 6
5 6 7
5 6 7
5 5 6
5 6 7
5 6 7
5 6 7
5 6 7
5 6 7
5 6 7
5 6 7
5 6 7
5 6 7
5 6 7
5 6 7
5 6 7
5 6 7
5 6 7
5 6 7
5 6 7
5 6 7
5 6 7
5 6 7
5 6 7
5 6 7
5 6 7
5 6 7
5 6 7
5 6 7
5 6 7
5 6 7
5 6 7
5 6 7
5 6 7
5 6 7
5 6 7
5 6 7
5 6 7
5 6 7
5 6 7
5 6 7
5 6 7
5 6 7
5 6 7
5 6 7
5 6 7
5 6 7
5 6 7
5 6 7
5 6 7
5 6 7
5 6 7
5 6 7
5 6 7
5 6 7
5 6 7
5 6 7
5 6 7
6 6 7
5 6 7
5 6 7
5 6 7
5 6 7
6 6 7
5 6 7
5 6 7
5 6 7
5 6 7
6 6 7
5 6 7
5 6 7
5 6 7
5 6 7
5 6 7
5 6 7
5 6 7
5 6 7
5 6 7
6 6 7
5 6 7
5 6 7
5 6 7
5 6 7
5 6 7
5 6 7
5 6 7
6 6 8
5 6 7
5 6 7
5 6 7
5 6 7
5 6 7
6 6 7
6 6 7
5 6 7
6 6 7
6 6 7
5 6 7
6 6 7
5 6 7
5 6 7
6 6 7
6 6 7
5 6 7
6 6 7
6 6 7
6 6 7
6 6 7
6 6 7
6 6 7
6 6 7
6 6 7
5 6 7
5 6 7
5 6 7
6 6 7
6 6 7
5 6 7
6 6 7
6 6 7
5 6 7
6 6 7
5 6 7
5 6 7
6 6 7
5 6 7
6 6 7
6 6 7
6 6 7
5 6 7
6 6 7
5 6 7
6 6 7
5 6 7
5 6 7
6 6 7
6 6 7
5 6 7
6 6 7
5 6 7
5 6 7
5 6 7
5 6 7
5 6 7
5 6 7
5 6 7
6 6 8
5 6 7
5 6 7
6 6 7
6 6 7
5 6 7
5 6 7
5 6 7
6 6 7
6 6 7
5 6 7
5 6 7
5 6 7
5 6 7
5 6 7
5 6 7
5 6 7
5 6 7
5 6 7
5 6 7
5 6 7
5 6 7
5 6 7
5 6 7
5 6 7
6 6 7
5 6 7
5 6 7
5 6 7
5 6 7
5 6 7
5 6 7
5 6 7
5 6 7
5 6 7
5 6 7
5 6 7
5 6 7
6 6 7
5 6 7
5 6 7
5 6 7
5 6 7
5 6 7
5 6 7
5 6 7
5 6 7
5 6 7
5 6 7
5 5 6
5 6 7
5 6 7
5 6 7
5 6 7
5 6 7
5 6 7
5 6 7
5 5 6
5 6 7
5 6 7
5 6 7
5 6 7
5 5 6
5 6 7
5 6 7
5 6 7
5 6 7
5 6 7
5 6 7
5 6 7
5 6 7
5 6 6
5 6 7
5 5 6
5 6 7
5 6 7
5 6 7
5 6 7
5 5 6
5 6 7
5 6 7
5 6 6
5 6 7
5 6 7
5 6 6
5 5 6
5 6 7
5 5 6
5 5 6
5 6 6
5 5 6
4 5 6
5 5 6
5 5 6
5 5 6
5 6 7
5 5 6
4 5 6
5 6 6
5 5 6
5 5 6
5 5 6
4 5 6
4 5 6
5 5 6
4 5 6
4 5 6
5 5 6
5 5 6
5 5 6
4 5 6
5 5 6
4 5 6
4 5 5
5 5 6
4 5 6
4 5 6
4 5 5
4 5 6
4 5 6
4 5 5
4 5 6
4 5 6
4 4 5
4 5 6
4 5 6
4 5 6
4 5 6
4 5 6
4 4 5
4 5 5
4 4 5
4 4 5
4 4 5
4 5 5
4 5 5
4 4 5
4 5 6
3 4 5
4 4 5
4 4 5
4 5 6
4 4 5
4 4 5
4 4 5
4 4 5
4 4 5
4 4 5
4 5 5
3 4 4
4 4 5
3 4 4
4 4 5
4 4 5
4 4 5
3 4 4
4 4 5
4 4 5
4 4 5
4 4 5
3 4 4
3 4 4
3 4 4
4 4 5
3 4 4
3 4 4
3 4 4
3 4 5
4 4 5
4 4 5
3 4 4
4 4 5
4 4 5
3 4 4
4 4 5
4 4 5
4 4 5
3 4 4
4 4 5
3 4 4
4 4 5
4 4 5
4 4 5
4 4 5
4 4 5
3 4 5
4 4 5
3 4 4
4 4 5
4 4 5
4 4 5
4 4 5
4 4 5
4 4 5
4 4 5
4 5 6
4 4 5
4 4 5
4 4 5
4 4 5
4 5 5
4 4 5
4 5 5
4 5 5
4 4 5
4 4 5
4 4 5
4 5 5
4 5 5
4 5 6
4 5 6
5 5 6
4 5 6
4 5 6
4 4 5
4 4 5
4 5 6
4 5 6
4 5 6
4 5 6
4 5 6
4 5 6
5 5 6
4 5 5
4 5 6
4 5 5
5 5 6
4 5 6
4 5 6
4 5 6
5 5 6
4 5 6
4 5 6
4 5 6
5 5 6
5 5 6
5 5 6
5 5 6
5 5 6
5 5 6
5 5 6
5 5 6
5 5 6
5 5 6
5 5 6
5 5 6
5 6 6
5 5 6
5 5 6
5 5 6
5 6 7
5 5 6
4 5 6
5 6 7
5 6 7
5 5 6
5 5 6
5 6 7
5 6 7
5 6 7
5 6 7
5 6 7
5 6 7
5 6 7
5 6 7
5 6 7
5 6 7
5 6 7
5 6 7
5 6 7
5 6 7
5 6 7
5 6 7
5 6 7
5 6 7
5 6 7
5 6 7
5 6 7
5 6 7
5 6 7
5 6 7
5 6 7
5 6 7
5 6 7
5 6 7
5 6 7
5 6 7
5 6 7
5 6 7
5 6 7
5 6 7
5 6 7
5 6 7
5 6 7
5 6 7
5 6 7
5 6 7
5 6 7
6 6 7
5 6 7
5 6 7
5 6 7
5 6 7
5 6 7
5 6 7
5 6 7
5 6 7
5 6 7
5 6 7
5 6 7
5 6 7
5 6 7
5 6 7
6 6 7
5 6 7
5 6 7
5 6 7
5 6 7
5 6 7
5 6 7
5 6 7
5 6 7
5 6 7
5 6 7
5 6 7
5 6 7
5 6 7
6 6 7
5 6 7
5 6 7
5 6 7
5 6 7
5 6 7
5 6 7
5 6 7
6 6 7
5 6 7
5 6 7
5 6 7
5 6 7
6 6 8
5 6 7
6 6 7
5 6 7
6 6 7
6 6 7
5 6 7
6 6 7
5 6 7
6 6 8
5 6 7
6 6 8
6 6 8
5 6 7
6 6 7
6 6 7
6 6 7
5 6 7
5 6 7
6 6 7
5 6 7
6 6 7
6 6 7
5 6 7
6 6 8
5 6 7
5 6 7
6 6 7
5 6 7
6 6 8
5 6 7
6 6 8
5 6 7
5 6 7
5 6 7
5 6 7
6 6 7
6 6 7
6 6 8
5 6 7
6 6 7
5 6 7
6 6 8
5 6 7
5 6 7
5 6 7
5 6 7
6 6 7
6 6 7
5 6 7
5 6 7
5 6 7
5 6 7
5 6 7
5 6 7
5 6 7
5 6 7
6 6 7
5 6 7
5 6 7
5 6 7
5 6 7
5 6 7
5 6 7
5 6 7
5 6 7
5 6 7
5 6 7
6 6 7
6 6 7
5 6 7
5 6 7
6 6 7
5 6 7
5 6 7
5 6 7
5 6 7
5 6 7
5 6 7
5 6 7
5 6 7
5 6 7
5 6 7
5 6 7
5 6 7
5 6 7
5 6 7
5 6 7
5 6 7
5 6 7
5 6 7
5 6 7
5 6 7
5 6 7
5 6 7
5 6 7
5 6 7
5 6 7
5 6 7
5 6 7
5 6 7
5 6 7
5 6 7
5 6 7
5 6 7
5 6 7
5 6 7
5 6 7
5 6 7
5 6 7
5 6 7
5 6 7
5 6 7
5 6 7
5 6 7
5 6 7
5 6 7
5 6 7
5 6 7
5 6 7
5 6 7
5 6 7
5 5 6
5 6 7
5 6 7
5 5 6
5 6 7
5 6 7
5 5 6
5 6 7
5 6 7
5 6 7
5 6 7
5 6 7
5 6 7
5 6 7
5 6 7
5 6 7
5 6 6
5 6 7
5 5 6
5 6 7
5 5 6
5 5 6
5 5 6
5 5 6
5 5 6
5 5 6
5 6 7
4 5 6
5 5 6
4 5 6
5 5 6
5 6 6
5 5 6
5 5 6
4 5 6
5 5 6
4 5 6
5 5 6
5 5 6
4 5 6
5 6 6
5 5 6
5 5 6
4 5 6
5 5 6
4 5 6
4 5 5
4 5 5
4 5 6
5 5 6
5 5 6
4 5 6
4 5 6
5 5 6
4 5 6
4 5 6
5 5 6
5 5 6
4 5 6
4 5 6
4 5 6
4 5 6
4 5 5
4 4 5
4 5 6
4 5 6
4 5 6
4 5 6
4 5 5
4 5 5
4 4 5
4 4 5
4 4 5
4 4 5
4 4 5
4 5 5
4 5 6
4 5 5
4 5 5
4 4 5
3 4 4
4 4 5
4 4 5
4 4 5
4 5 5
4 4 5
4 5 5
4 4 5
4 4 5
4 5 6
4 4 5
4 4 5
3 4 5
4 4 5
3 4 5
3 4 4
4 4 5
3 4 4
3 4 4
3 4 4
4 4 5
4 4 5
3 4 5
3 4 4
4 4 5
4 4 5
3 4 5
3 3 4
4 4 5
4 4 5
3 4 4
4 5 5
4 4 5
4 4 5
4 5 5
4 4 5
3 4 4
4 4 5
4 4 5
4 4 5
4 4 5
4 4 5
4 4 5
4 4 5
4 4 5
3 4 5
4 4 5
4 4 5
4 5 5
4 5 6
4 4 5
4 4 5
4 4 5
4 4 5
4 4 5
4 4 5
4 5 6
4 4 5
4 4 5
4 4 5
4 4 5
4 5 5
4 4 5
4 5 6
4 5 6
4 5 5
4 5 6
4 5 6
4 5 6
4 4 5
4 5 6
5 5 6
4 5 6
4 5 6
4 5 5
4 5 6
5 5 6
4 5 6
4 5 6
5 5 6
4 5 5
5 5 6
5 5 6
5 5 6
5 5 6
5 6 6
5 5 6
5 5 6
4 5 5
5 5 6
5 5 6
5 5 6
5 5 6
5 5 6
5 6 7
5 6 7
5 5 6
5 5 6
5 5 6
5 5 6
5 5 6
5 6 7
5 6 7
5 5 6
5 5 6
5 5 6
5 5 6
5 5 6
5 6 6
5 5 6
5 6 7
5 5 6
5 6 6
5 5 6
5 5 6
5 6 7
5 6 7
5 5 6
5 6 7
5 6 7
5 6 7
5 6 7
5 6 7
5 6 7
5 6 7
5 6 7
5 6 7
5 6 7
5 6 7
5 6 7
5 6 7
5 6 7
5 6 7
5 6 7
5 6 7
5 6 7
5 6 7
5 6 7
5 6 7
5 6 7
5 6 7
5 6 7
5 6 7
5 6 7
5 6 7
5 6 7
5 6 7
5 6 7
5 6 7
5 6 7
5 6 7
5 6 7
5 6 7
5 6 7
5 6 7
5 6 7
5 6 7
5 6 7
5 6 7
5 6 7
5 6 7
5 6 7
5 6 7
5 6 7
5 6 7
5 6 7
5 6 7
5 6 7
5 6 7
5 6 7
6 6 7
5 6 7
5 6 7
5 6 7
5 6 7
5 6 7
5 6 7
5 6 7
5 6 7
5 6 7
5 6 7
5 6 7
5 6 7
5 6 7
5 6 7
5 6 7
5 6 7
5 6 7
6 6 7
5 6 7
5 6 7
5 6 7
5 6 7
5 6 7
5 6 7
5 6 7
6 6 7
5 6 7
5 6 7
6 6 7
6 6 8
5 6 7
6 6 8
5 6 7
5 6 7
5 6 7
6 6 8
5 6 7
5 6 7
5 6 7
5 6 7
5 6 7
5 6 7
6 6 7
6 6 7
5 6 7
5 6 7
6 6 7
6 6 8
6 6 7
6 6 7
6 6 7
6 6 7
6 6 7
6 6 7
6 6 7
5 6 7
6 6 7
5 6 7
5 6 7
5 6 7
5 6 7
5 6 7
5 6 7
5 6 7
5 6 7
6 6 7
5 6 7
6 6 7
5 6 7
5 6 7
5 6 7
6 6 7
5 6 7
5 6 7
5 6 7
5 6 7
6 6 7
5 6 7
5 6 7
5 6 7
5 6 7
6 6 7
5 6 7
5 6 7
5 6 7
5 6 7
5 6 7
5 6 7
5 6 7
5 6 7
5 6 7
5 6 7
5 6 7
5 6 7
5 6 7
5 6 7
5 6 7
5 6 7
5 6 7
5 6 7
5 6 7
5 6 7
5 6 7
5 6 7
5 6 7
5 6 7
5 6 7
5 6 7
5 6 7
5 6 7
5 6 7
5 6 7
5 6 7
5 6 7
5 6 7
5 6 7
5 6 7
5 6 7
5 6 7
5 6 7
5 6 7
5 6 7
5 6 7
5 6 7
5 6 7
5 6 7
5 6 7
5 6 7
5 6 7
5 6 7
5 6 7
5 6 7
5 6 7
5 6 7
5 6 7
5 6 7
5 6 7
5 6 7
5 6 7
5 6 7
5 6 7
5 6 7
5 6 7
5 6 7
5 6 7
5 6 7
5 6 7
5 6 7
5 6 7
5 6 7
5 6 7
5 5 6
5 6 7
5 6 7
5 6 7
5 6 7
5 5 6
5 6 7
5 6 6
5 6 6
5 6 7
5 6 7
5 6 7
5 5 6
5 5 6
5 6 7
5 6 7
5 6 7
5 6 7
5 6 7
5 6 6
5 6 7
5 5 6
5 6 7
5 5 6
5 5 6
5 5 6
5 6 6
4 5 6
5 5 6
4 5 6
5 5 6
5 6 6
5 5 6
5 5 6
5 5 6
5 5 6
5 5 6
5 5 6
5 5 6
4 5 6
5 5 6
5 5 6
5 5 6
5 5 6
5 5 6
4 5 6
5 5 6
4 5 6
5 5 6
5 5 6
4 5 6
4 5 6
4 5 6
4 5 6
4 5 5
4 5 5
4 5 6
4 5 6
4 5 5
4 5 5
4 5 5
4 5 6
4 5 6
4 4 5
4 4 5
4 5 6
4 5 6
4 5 6
4 5 6
4 5 5
4 5 5
4 4 5
4 4 5
4 4 5
4 4 5
4 5 5
4 4 5
4 4 5
4 4 5
4 4 5
4 4 5
4 4 5
4 4 5
4 4 5
4 4 5
4 4 5
3 4 5
4 4 5
4 4 5
4 4 5
4 4 5
3 4 4
4 5 5
4 4 5
3 4 4
4 4 5
3 4 4
4 4 5
4 4 5
3 4 4
4 4 5
4 4 5
3 4 4
4 5 5
3 4 5
4 4 5
4 4 5
3 4 4
3 4 4
4 4 5
3 4 4
3 3 4
3 4 4
3 4 4
4 4 5
4 4 5
4 5 5
4 4 5
4 4 5
4 4 5
4 4 5
4 4 5
3 4 5
4 4 5
4 4 5
4 4 5
4 4 5
4 4 5
4 4 5
4 4 5
4 5 5
4 5 5
4 4 5
4 5 5
4 5 6
4 5 6
4 5 5
4 4 5
4 5 5
4 5 6
4 5 6
4 5 5
4 5 5
4 5 5
4 5 5
4 5 6
4 5 5
4 5 6
4 5 5
4 5 6
4 5 6
4 5 6
4 5 6
5 5 6
4 5 6
4 5 6
4 5 6
4 5 6
5 5 6
5 5 6
4 5 6
4 5 5
4 5 6
5 6 6
5 5 6
4 5 6
5 5 6
4 5 6
5 5 6
5 6 6
5 5 6
5 5 6
5 6 7
5 5 6
5 6 7
5 5 6
5 6 6
4 5 6
5 5 6
5 6 7
5 6 7
5 6 7
5 5 6
5 5 6
4 5 6
5 5 6
5 6 7
5 6 7
5 6 7
5 5 6
5 6 6
5 6 6
5 6 7
5 6 7
5 5 6
5 6 7
5 6 7
5 6 7
5 6 7
5 6 7
5 6 7
5 6 7
5 6 7
5 6 7
5 6 7
5 6 7
5 6 7
5 5 6
5 6 7
5 6 7
5 6 7
5 6 7
5 6 7
5 6 7
5 6 7
5 6 7
5 6 7
5 6 7
5 6 7
5 6 7
5 6 7
5 6 7
5 6 7
5 6 7
5 6 7
5 6 7
5 6 7
5 6 7
5 6 7
5 6 7
5 6 7
5 6 7
5 6 7
5 6 7
5 6 7
5 6 7
5 6 7
6 6 7
5 6 7
5 6 7
5 6 7
5 6 7
5 6 7
5 6 7
5 6 7
5 6 7
5 6 7
6 6 7
5 6 7
5 6 7
5 6 7
5 6 7
5 6 7
5 6 7
5 6 7
5 6 7
5 6 7
5 6 7
5 6 7
6 6 8
5 6 7
5 6 7
5 6 7
5 6 7
5 6 7
5 6 7
5 6 7
5 6 7
5 6 7
5 6 7
5 6 7
6 6 7
6 6 7
5 6 7
5 6 7
5 6 7
5 6 7
6 6 7
5 6 7
6 6 7
6 6 7
5 6 7
5 6 7
5 6 7
5 6 7
5 6 7
6 6 7
5 6 7
5 6 7
6 6 7
5 6 7
5 6 7
5 6 7
5 6 7
6 6 7
6 6 7
6 6 7
5 6 7
6 6 7
6 6 7
6 6 7
6 6 7
5 6 7
5 6 7
5 6 7
5 6 7
6 6 7
6 6 8
6 6 7
6 6 7
5 6 7
6 6 7
5 6 7
6 6 7
6 6 7
5 6 7
5 6 7
5 6 7
5 6 7
5 6 7
6 6 7
6 6 7
5 6 7
5 6 7
6 6 7
5 6 7
5 6 7
6 6 7
6 6 7
5 6 7
5 6 7
5 6 7
5 6 7
5 6 7
6 6 7
5 6 7
6 6 7
5 6 7
5 6 7
5 6 7
5 6 7
6 6 7
5 6 7
5 6 7
5 6 7
5 6 7
5 6 7
5 6 7
5 6 7
5 6 7
5 6 7
5 6 7
5 6 7
5 6 7
5 6 7
5 6 7
5 6 7
5 6 7
5 6 7
5 6 7
5 6 7
5 6 7
5 6 7
5 6 7
5 6 7
5 6 7
5 6 7
5 6 7
5 6 7
5 6 7
5 6 7
5 6 7
5 6 7
5 6 7
5 6 7
5 6 7
5 6 7
5 6 7
5 6 7
5 6 7
5 6 7
5 6 7
5 6 7
5 6 7
5 6 7
5 6 7
5 6 7
5 6 7
5 6 7
5 6 7
5 6 7
5 6 7
5 6 7
5 6 7
5 6 7
5 6 7
5 6 7
5 6 7
5 6 7
5 6 7
5 6 7
5 5 6
5 6 7
5 6 7
5 6 7
5 6 7
5 6 7
5 6 6
5 6 7
5 6 7
5 5 6
5 6 7
5 6 7
5 5 6
5 6 7
5 6 7
5 6 7
5 5 6
5 6 7
5 5 6
5 5 6
5 6 6
5 5 6
5 6 7
5 5 6
5 5 6
5 5 6
5 5 6
5 5 6
5 5 6
4 5 6
5 5 6
5 5 6
5 6 7
5 5 6
4 5 6
5 5 6
5 5 6
5 5 6
5 5 6
4 5 6
4 5 6
4 5 6
4 5 6
4 5 6
5 5 6
4 5 5
4 5 6
4 5 6
4 5 6
4 5 6
4 5 6
5 5 6
4 5 5
4 5 5
4 5 5
4 5 6
4 5 6
4 5 5
4 5 5
4 5 6
4 4 5
4 5 6
4 4 5
4 5 6
4 5 5
4 5 6
4 4 5
4 5 6
4 5 5
4 4 5
4 4 5
4 5 5
4 4 5
4 4 5
4 4 5
4 5 5
4 5 5
4 4 5
4 4 5
4 4 5
4 4 5
4 5 6
4 4 5
4 4 5
4 4 5
4 4 5
4 4 5
4 4 5
4 4 5
4 4 5
4 4 5
3 4 4
4 4 5
4 4 5
4 4 5
4 4 5
4 4 5
3 4 5
3 4 5
4 4 5
3 4 4
4 4 5
4 4 5
4 4 5
4 4 5
4 4 5
4 4 5
4 4 5
4 4 5
4 4 5
4 4 5
4 4 5
3 4 4
4 4 5
3 4 4
4 4 5
3 4 4
4 4 5
4 4 5
4 4 5
4 4 5
3 4 5
4 4 5
4 4 5
4 4 5
4 4 5
4 4 5
4 4 5
4 4 5
3 4 5
4 4 5
4 5 6
4 4 5
4 5 6
4 5 5
4 4 5
4 4 5
4 4 5
4 4 5
4 5 6
4 5 6
4 5 5
4 5 6
4 5 6
4 5 6
4 5 6
4 5 5
4 5 6
4 5 6
4 5 5
4 5 6
4 5 6
4 5 6
4 5 5
4 5 6
5 5 6
5 5 6
4 5 6
4 5 5
4 5 6
4 5 6
5 5 6
5 6 7
4 5 6
5 5 6
5 5 6
4 5 6
5 5 6
4 5 6
4 5 6
5 5 6
5 5 6
5 6 6
4 5 6
5 6 7
5 6 7
5 5 6
5 5 6
5 6 7
5 5 6
5 5 6
5 6 6
5 5 6
5 6 7
5 5 6
5 5 6
5 6 7
4 5 6
5 6 7
5 6 7
5 5 6
5 6 7
5 5 6
5 6 7
5 5 6
5 5 6
5 6 7
5 6 7
5 6 7
5 6 7
5 6 7
5 6 7
5 5 6
5 6 7
5 6 7
5 6 7
5 6 7
5 6 7
5 5 6
5 6 7
5 6 7
5 6 7
5 6 7
5 6 7
5 6 7
5 6 7
5 6 7
5 6 7
5 6 7
5 6 7
5 6 7
5 6 7
5 6 7
5 6 7
5 6 7
5 6 7
5 6 7
5 6 7
5 6 7
5 6 7
5 6 7
5 6 7
5 6 7
5 6 7
5 6 7
5 6 7
5 6 7
5 6 7
5 6 7
5 6 7
5 6 7
5 6 7
5 6 7
5 6 7
5 6 7
5 6 7
5 6 7
5 6 7
5 6 7
5 6 7
5 6 7
5 6 7
5 6 7
5 6 7
5 6 7
6 6 7
5 6 7
5 6 7
5 6 7
5 6 7
5 6 7
5 6 7
5 6 7
5 6 7
5 6 7
5 6 7
5 6 7
5 6 7
5 6 7
5 6 7
5 6 7
5 6 7
6 6 7
5 6 7
5 6 7
5 6 7
5 6 7
6 6 8
5 6 7
5 6 7
5 6 7
6 6 7
5 6 7
5 6 7
5 6 7
5 6 7
5 6 7
6 6 7
5 6 7
5 6 7
6 6 7
6 6 7
6 6 8
5 6 7
6 6 7
6 6 7
6 6 7
6 6 7
6 6 7
6 6 7
6 6 8
5 6 7
5 6 7
5 6 7
6 6 7
5 6 7
5 6 7
6 6 7
5 6 7
6 6 7
6 6 7
6 6 8
6 6 7
6 6 7
6 6 8
5 6 7
5 6 7
6 6 7
6 6 7
5 6 7
6 6 7
5 6 7
6 6 7
6 6 7
5 6 7
5 6 7
5 6 7
5 6 7
5 6 7
5 6 7
6 6 7
6 6 7
5 6 7
5 6 7
6 6 7
5 6 7
6 6 7
5 6 7
5 6 7
5 6 7
6 6 7
5 6 7
5 6 7
5 6 7
5 6 7
5 6 7
5 6 7
5 6 7
5 6 7
5 6 7
5 6 7
5 6 7
5 6 7
5 6 7
5 6 7
5 6 7
5 6 7
5 6 7
5 6 7
5 6 7
5 6 7
5 6 7
5 6 7
5 6 7
5 6 7
5 6 7
5 6 7
5 6 7
5 6 7
5 6 7
5 6 7
5 6 7
5 6 7
5 6 7
5 6 7
5 6 7
6 6 7
5 6 7
5 6 7
5 6 7
5 6 7
5 6 7
5 6 7
5 6 7
5 6 7
5 6 7
5 6 7
5 5 6
5 6 7
5 6 7
5 6 7
5 5 6
5 6 7
5 6 7
5 6 7
5 6 7
5 6 7
5 6 7
5 5 6
5 6 7
5 6 7
5 6 7
5 6 7
5 6 7
5 6 7
5 6 7
5 6 7
5 6 7
5 6 6
5 6 7
5 6 7
5 6 7
5 5 6
5 6 7
5 6 7
5 5 6
5 6 7
5 5 6
5 6 7
5 6 7
5 5 6
5 5 6
5 5 6
5 6 6
5 5 6
5 5 6
5 5 6
5 6 7
4 5 6
5 6 7
5 5 6
5 5 6
5 5 6
5 5 6
5 5 6
5 5 6
4 5 6
4 5 6
5 5 6
4 5 5
4 5 6
5 5 6
4 5 6
4 5 6
4 5 6
4 5 6
4 5 6
4 4 5
4 5 6
4 5 6
4 5 6
4 5 6
5 5 6
4 5 5
4 4 5
4 5 6
4 5 6
4 5 6
4 5 6
4 5 6
4 5 5
4 5 5
4 5 5
4 5 6
4 5 6
4 4 5
4 5 5
4 5 6
4 4 5
4 4 5
4 4 5
4 4 5
4 4 5
4 4 5
4 4 5
4 4 5
3 4 5
4 5 5
4 4 5
3 4 4
4 4 5
4 5 5
4 5 6
4 4 5
4 5 5
4 5 5
3 4 4
4 4 5
4 4 5
4 5 5
4 4 5
4 4 5
4 4 5
4 5 5
4 5 6
4 4 5
4 4 5
4 4 5
4 4 5
3 4 5
4 4 5
4 4 5
4 5 5
4 4 5
4 4 5
4 4 5
4 5 5
3 4 4
4 4 5
4 4 5
4 4 5
3 4 4
4 4 5
4 4 5
4 4 5
4 5 5
4 4 5
4 4 5
4 5 6
4 5 6
4 4 5
4 4 5
4 5 5
4 5 5
3 4 4
4 4 5
4 4 5
4 5 5
4 5 5
4 5 5
4 5 5
4 5 5
4 5 5
4 5 5
4 5 5
4 5 6
4 5 5
4 5 6
4 5 6
4 5 6
4 5 5
4 5 6
4 5 5
4 5 6
4 5 6
4 5 6
4 5 6
4 5 6
4 5 6
4 5 6
5 5 6
4 5 6
5 5 6
5 5 6
4 5 6
5 5 6
5 5 6
5 5 6
4 5 6
4 5 6
5 5 6
4 5 6
5 5 6
4 5 6
5 5 6
5 5 6
5 5 6
5 5 6
5 5 6
4 5 6
5 5 6
5 5 6
5 5 6
5 5 6
4 5 6
5 5 6
5 5 6
5 6 7
5 5 6
5 5 6
4 5 6
5 6 6
5 6 7
5 6 7
5 5 6
5 6 7
5 6 7
5 6 7
5 6 7
5 6 7
5 6 7
5 6 7
5 6 6
5 6 7
5 6 6
5 6 7
5 6 7
5 6 7
5 6 7
5 6 7
5 6 7
5 6 7
5 6 7
5 6 7
5 6 7
5 6 7
5 6 7
5 6 7
5 6 7
5 6 7
5 6 7
5 6 7
5 6 7
5 6 7
5 6 7
5 6 7
5 6 7
5 6 7
5 6 7
5 6 7
5 6 7
5 6 7
5 6 7
5 6 7
5 6 7
5 6 7
5 6 7
5 6 7
5 6 7
5 6 7
5 6 7
5 6 7
5 6 7
5 6 7
5 6 7
5 6 7
5 6 7
5 6 7
5 6 7
5 6 7
5 6 7
5 6 7
5 6 7
5 6 7
5 6 7
5 6 7
5 6 7
5 6 7
5 6 7
5 6 7
5 6 7
5 6 7
5 6 7
5 6 7
5 6 7
5 6 7
6 6 7
5 6 7
5 6 7
5 6 7
5 6 7
5 6 7
5 6 7
5 6 7
6 6 7
5 6 7
5 6 7
5 6 7
6 6 8
6 6 7
5 6 7
5 6 7
5 6 7
5 6 7
5 6 7
5 6 7
6 6 7
5 6 7
5 6 7
5 6 7
5 6 7
5 6 7
5 6 7
6 6 7
5 6 7
5 6 7
5 6 7
5 6 7
5 6 7
6 6 7
5 6 7
5 6 7
5 6 7
5 6 7
5 6 7
5 6 7
6 6 7
6 6 7
5 6 7
5 6 7
6 6 7
6 6 7
6 6 7
5 6 7
5 6 7
5 6 7
6 6 7
6 6 8
6 6 7
5 6 7
6 6 7
6 6 7
5 6 7
6 6 7
5 6 7
5 6 7
6 6 7
6 6 7
5 6 7
6 6 7
6 6 7
6 6 7
5 6 7
5 6 7
5 6 7
5 6 7
6 6 7
5 6 7
5 6 7
5 6 7
5 6 7
5 6 7
6 6 7
5 6 7
6 6 7
5 6 7
6 6 7
5 6 7
5 6 7
5 6 7
5 6 7
5 6 7
5 6 7
5 6 7
5 6 7
5 6 7
5 6 7
6 6 7
5 6 7
5 6 7
5 6 7
5 6 7
5 6 7
5 6 7
5 6 7
5 6 7
5 6 7
5 6 7
5 6 7
5 6 7
5 6 7
5 6 7
5 6 7
5 6 7
5 6 7
5 6 7
5 6 7
5 6 7
5 6 7
5 6 7
5 6 7
5 6 7
5 6 7
5 6 7
5 6 7
5 6 7
5 6 7
5 6 7
5 6 7
5 6 7
5 6 7
5 6 7
5 6 7
5 6 7
5 6 7
5 6 7
5 6 7
5 6 7
5 6 7
5 6 7
5 6 7
5 6 7
5 6 7
5 6 7
5 6 7
5 6 7
5 6 7
5 6 7
5 6 7
5 6 7
5 6 7
5 6 7
5 6 7
5 6 7
5 6 7
5 6 7
5 5 6
5 6 7
5 5 6
5 6 7
5 5 6
5 5 6
5 6 7
5 5 6
5 6 7
5 6 7
4 5 6
5 5 6
5 6 6
5 5 6
5 6 7
5 6 7
5 6 7
5 6 6
5 5 6
5 5 6
5 5 6
5 5 6
4 5 6
5 5 6
4 5 6
5 5 6
5 5 6
5 5 6
5 5 6
5 5 6
5 5 6
4 5 6
5 5 6
5 5 6
4 5 6
5 5 6
4 5 6
4 5 6
5 5 6
4 5 6
4 5 6
4 5 6
5 5 6
4 5 6
5 5 6
4 5 6
4 5 6
5 5 6
4 5 6
4 5 6
4 5 6
4 5 6
4 5 6
4 5 6
4 4 5
4 5 6
4 5 6
4 5 6
4 5 6
4 5 6
4 5 5
4 5 5
4 5 6
4 5 5
4 4 5
4 5 6
4 5 6
4 4 5
4 4 5
4 4 5
4 4 5
4 4 5
4 5 5
4 4 5
4 4 5
4 4 5
4 4 5
3 4 4
4 4 5
4 5 5
4 4 5
4 5 6
3 4 5
4 4 5
4 4 5
4 4 5
4 4 5
4 4 5
4 4 5
4 5 5
4 4 5
4 4 5
4 5 5
4 4 5
4 5 5
4 4 5
4 4 5
4 4 5
4 4 5
4 4 5
4 4 5
4 4 5
4 4 5
4 4 5
4 4 5
4 4 5
4 4 5
4 5 5
4 4 5
4 4 5
4 4 5
3 4 4
4 5 5
4 4 5
4 5 6
4 4 5
4 5 6
4 5 5
4 4 5
5 5 6
4 4 5
4 4 5
4 4 5
4 5 6
4 4 5
4 4 5
4 5 6
4 4 5
4 5 6
4 5 6
4 5 5
4 5 6
4 5 6
4 4 5
4 5 6
4 5 5
4 5 6
4 5 6
4 5 6
4 5 6
4 5 6
4 5 5
4 5 6
4 5 5
4 5 6
4 5 6
4 5 6
4 5 6
4 5 6
5 5 6
4 5 6
4 5 5
4 5 6
5 5 6
5 5 6
5 5 6
4 5 6
5 5 6
5 5 6
5 5 6
4 5 6
4 5 6
5 5 6
4 5 6
4 5 6
5 5 6
5 5 6
5 5 6
5 5 6
5 6 7
5 5 6
4 5 6
5 5 6
5 6 6
5 6 7
5 6 7
5 5 6
5 6 7
5 6 7
5 6 6
5 6 7
5 5 6
5 5 6
5 6 7
5 6 6
5 6 7
5 6 7
5 6 6
5 6 7
5 5 6
5 6 7
5 6 6
5 6 7
5 5 6
5 6 7
5 6 7
5 6 7
5 6 7
5 6 7
5 6 7
5 6 7
5 6 7
5 6 7
5 6 7
5 6 7
5 6 7
5 6 7
5 6 7
5 6 7
5 6 7
5 6 7
5 6 7
5 6 7
5 6 7
5 6 7
5 6 7
5 6 7
5 6 7
5 6 7
5 6 7
5 6 7
5 6 7
5 6 7
5 6 7
5 6 7
5 6 7
5 6 7
5 6 7
5 6 7
5 6 7
5 6 7
5 6 7
5 6 7
5 6 7
5 6 7
5 6 7
5 6 7
5 6 7
5 6 7
5 6 7
5 6 7
5 6 7
5 6 7
5 6 7
5 6 7
5 6 7
5 6 7
5 6 7
5 6 7
5 6 7
5 6 7
5 6 7
5 6 7
5 6 7
5 6 7
5 6 7
5 6 7
5 6 7
5 6 7
5 6 7
5 6 7
5 6 7
5 6 7
5 6 7
6 6 7
5 6 7
5 6 7
5 6 7
6 6 7
5 6 7
5 6 7
5 6 7
6 6 7
5 6 7
5 6 7
5 6 7
5 6 7
5 6 7
6 6 7
6 6 7
5 6 7
5 6 7
6 6 7
5 6 7
6 6 7
6 6 7
5 6 7
6 6 7
5 6 7
5 6 7
5 6 7
5 6 7
6 6 7
6 6 7
6 6 7
5 6 7
5 6 7
6 6 7
6 6 7
6 6 7
6 6 7
6 6 7
6 6 8
6 6 7
5 6 7
5 6 7
5 6 7
5 6 7
6 6 7
5 6 7
5 6 7
6 6 7
5 6 7
5 6 7
6 6 7
5 6 7
5 6 7
6 6 7
5 6 7
5 6 7
6 6 7
5 6 7
5 6 7
5 6 7
5 6 7
5 6 7
5 6 7
6 6 7
5 6 7
5 6 7
5 6 7
5 6 7
5 6 7
5 6 7
5 6 7
5 6 7
5 6 7
5 6 7
5 6 7
5 6 7
6 6 7
5 6 7
5 6 7
5 6 7
5 6 7
5 6 7
5 6 7
5 6 7
5 6 7
5 6 7
5 6 7
5 6 7
5 6 7
5 6 7
5 6 7
5 6 7
5 6 7
5 6 7
5 6 7
5 6 7
5 6 7
5 6 7
5 6 7
5 6 7
5 6 7
5 6 7
5 6 7
5 6 7
5 6 7
5 6 7
5 6 7
5 6 7
5 6 7
5 6 7
5 6 7
5 6 7
5 6 7
5 6 7
5 6 7
5 6 7
5 6 7
5 6 7
5 6 7
5 6 7
5 6 7
5 6 7
5 6 7
5 6 7
5 6 7
5 6 7
5 6 7
5 6 7
5 5 6
5 6 7
5 6 7
5 6 7
5 6 7
5 6 7
5 5 6
5 6 7
5 6 7
5 6 7
5 6 7
5 6 7
5 6 7
5 5 6
5 5 6
5 5 6
5 6 7
5 5 6
5 6 7
5 6 7
5 5 6
5 6 6
5 5 6
5 5 6
4 5 6
4 5 6
5 5 6
5 5 6
5 6 6
5 5 6
5 5 6
4 5 6
5 6 6
5 5 6
4 5 6
5 5 6
5 5 6
4 5 6
4 5 6
5 5 6
5 5 6
5 5 6
4 5 6
4 5 6
5 5 6
4 5 6
4 5 6
4 5 6
4 5 6
4 5 6
4 5 6
4 5 6
4 5 6
4 4 5
4 5 6
4 5 6
4 5 5
4 5 6
4 4 5
4 5 5
4 5 5
4 4 5
4 5 6
4 5 5
4 5 6
5 5 6
4 5 5
4 5 6
4 4 5
4 5 6
4 5 6
4 5 5
4 4 5
4 5 5
4 5 6
4 5 6
4 5 6
4 5 5
4 5 6
4 4 5
4 4 5
4 4 5
4 4 5
4 5 6
4 5 6
4 4 5
4 5 5
4 4 5
4 5 6
4 5 6
3 4 5
4 4 5
4 5 5
4 4 5
4 5 5
4 4 5
4 5 5
4 4 5
4 4 5
4 5 5
4 4 5
4 4 5
4 4 5
4 4 5
4 4 5
4 4 5
4 5 6
4 5 5
4 5 5
4 4 5
4 4 5
4 4 5
4 4 5
4 4 5
3 4 4
4 4 5
4 4 5
4 5 6
4 4 5
4 4 5
4 4 5
4 5 6
4 4 5
4 5 5
4 5 5
4 5 5
4 4 5
4 4 5
4 4 5
4 4 5
4 5 5
4 5 6
4 5 6
4 4 5
4 5 6
4 4 5
4 4 5
4 5 5
5 5 6
4 5 6
4 5 6
4 4 5
4 5 5
4 5 6
4 5 6
4 5 5
4 5 6
4 5 6
4 5 6
4 5 6
5 5 6
5 5 6
4 5 6
4 5 6
4 5 6
5 5 6
4 5 6
4 5 6
4 5 5
5 5 6
4 5 6
5 6 6
4 5 6
4 5 6
5 5 6
5 5 6
5 5 6
5 5 6
5 5 6
5 5 6
5 5 6
5 5 6
4 5 6
5 5 6
5 5 6
5 5 6
5 6 7
5 5 6
5 5 6
5 5 6
5 6 6
5 5 6
5 6 7
5 6 7
5 5 6
5 5 6
5 5 6
5 5 6
5 5 6
5 6 7
5 6 7
5 6 6
5 5 6
5 6 7
5 5 6
5 6 7
5 6 7
5 6 7
5 6 7
5 6 7
5 6 7
5 6 6
5 6 7
5 6 7
5 6 7
5 6 7
5 6 7
5 5 6
5 6 7
5 6 7
5 6 7
5 6 7
5 6 7
5 6 7
5 6 7
5 6 7
5 6 7
5 6 7
5 6 7
5 6 7
5 6 7
5 6 7
5 6 7
5 6 7
5 6 7
5 6 7
5 6 7
5 6 7
5 6 7
5 6 7
5 6 7
5 6 7
5 6 7
5 6 7
5 6 7
5 6 7
5 6 7
5 6 7
5 6 7
5 6 7
5 6 7
5 6 7
5 6 7
5 6 7
5 6 7
5 6 7
5 6 7
5 6 7
5 6 7
5 6 7
5 6 7
5 6 7
5 6 7
5 6 7
5 6 7
5 6 7
5 6 7
5 6 7
5 6 7
5 6 7
5 6 7
5 6 7
5 6 7
5 6 7
5 6 7
5 6 7
5 6 7
5 6 7
5 6 7
5 6 7
5 6 7
5 6 7
5 6 7
5 6 7
5 6 7
5 6 7
5 6 7
5 6 7
5 6 7
6 6 7
5 6 7
5 6 7
5 6 7
5 6 7
5 6 7
5 6 7
5 6 7
5 6 7
5 6 7
6 6 7
6 6 7
5 6 7
6 6 7
5 6 7
5 6 7
5 6 7
6 6 7
5 6 7
6 6 7
5 6 7
5 6 7
6 6 8
6 6 7
5 6 7
5 6 7
5 6 7
6 6 7
5 6 7
5 6 7
5 6 7
5 6 7
6 6 7
6 6 7
5 6 7
5 6 7
6 6 7
5 6 7
5 6 7
5 6 7
5 6 7
5 6 7
5 6 7
5 6 7
5 6 7
5 6 7
5 6 7
6 6 7
5 6 7
5 6 7
5 6 7
6 6 7
6 6 7
5 6 7
6 6 7
5 6 7
5 6 7
5 6 7
5 6 7
5 6 7
5 6 7
5 6 7
5 6 7
5 6 7
5 6 7
5 6 7
5 6 7
5 6 7
5 6 7
5 6 7
5 6 7
5 6 7
5 6 7
5 6 7
5 6 7
5 6 7
5 6 7
5 6 7
5 6 7
5 6 7
5 6 7
5 6 7
5 6 7
5 6 7
5 6 7
5 6 7
5 6 7
5 6 7
5 6 7
5 6 7
5 6 7
5 6 7
5 6 7
5 6 7
5 6 7
5 6 7
5 6 7
5 6 7
5 6 7
5 6 7
5 6 7
5 6 7
5 6 7
5 6 7
5 6 7
5 6 7
5 6 7
5 6 7
5 6 7
5 6 7
5 6 7
5 6 7
5 6 7
5 6 7
5 6 7
5 6 7
5 6 6
5 6 7
5 6 7
5 6 7
5 6 7
5 6 7
5 6 7
5 6 7
5 5 6
5 5 6
5 6 7
5 6 7
5 6 7
5 6 7
5 6 7
5 6 7
5 5 6
5 6 7
5 6 7
5 6 7
5 5 6
5 6 6
5 5 6
5 5 6
5 6 6
5 6 6
5 5 6
5 6 6
5 5 6
5 5 6
5 6 7
5 5 6
5 5 6
5 5 6
5 5 6
5 5 6
5 5 6
5 5 6
5 6 6
5 6 7
5 5 6
4 5 6
5 5 6
5 5 6
5 5 6
4 5 6
5 5 6
5 5 6
4 5 6
5 5 6
5 5 6
4 4 5
4 5 6
4 5 6
5 5 6
4 5 6
5 5 6
5 6 6
5 5 6
4 4 5
4 5 6
4 5 6
4 5 6
4 5 6
5 5 6
4 5 5
4 5 6
4 5 6
4 5 6
4 5 6
4 5 6
4 5 6
4 5 5
4 5 5
4 5 5
4 5 6
4 5 5
4 5 6
4 5 6
4 5 5
4 5 6
4 4 5
4 4 5
4 5 5
4 5 6
4 4 5
4 4 5
4 5 5
4 4 5
4 4 5
4 5 5
4 4 5
4 4 5
4 4 5
4 4 5
4 5 6
4 5 5
4 5 5
4 4 5
4 4 5
4 5 6
4 5 5
4 4 5
4 4 5
4 4 5
4 4 5
4 4 5
4 4 5
4 4 5
4 5 5
4 4 5
4 4 5
4 4 5
4 5 6
4 5 5
4 5 6
3 4 5
4 4 5
4 5 6
4 5 5
4 4 5
4 5 6
4 4 5
4 4 5
4 4 5
4 4 5
4 4 5
4 4 5
4 5 5
4 5 5
4 5 6
4 5 5
4 5 5
4 4 5
4 5 6
4 5 6
4 5 5
4 5 6
4 5 5
4 5 5
4 5 6
4 5 6
4 5 5
5 5 6
4 5 6
4 5 5
4 5 6
4 5 5
4 5 6
4 5 6
5 5 6
4 5 5
4 5 5
4 5 6
4 5 5
4 5 6
5 5 6
5 5 6
4 5 6
4 5 6
5 5 6
5 5 6
5 5 6
5 5 6
5 5 6
4 5 6
5 5 6
5 5 6
5 5 6
4 5 6
5 5 6
5 5 6
5 5 6
5 5 6
5 5 6
5 5 6
5 5 6
5 5 6
5 5 6
5 5 6
5 5 6
5 5 6
5 6 6
5 5 6
5 5 6
5 6 7
5 6 6
5 6 6
5 6 6
5 6 7
5 6 6
5 6 7
4 5 6
4 5 6
5 6 6
5 5 6
5 6 6
5 6 6
5 6 7
5 6 7
5 5 6
5 6 7
5 6 7
5 6 7
5 6 7
5 6 7
5 5 6
5 5 6
5 6 6
5 6 7
5 6 7
5 6 7
5 6 7
5 5 6
5 6 7
5 6 6
5 6 7
5 6 7
5 6 7
5 6 7
5 6 7
5 6 7
5 6 7
5 6 7
5 6 7
5 6 7
5 6 7
5 6 7
5 6 7
5 6 7
5 6 7
5 6 7
5 6 7
5 6 7
5 6 7
5 6 7
5 6 7
5 6 7
5 6 7
5 6 7
5 6 7
5 6 7
5 6 7
5 6 7
5 6 7
5 6 7
5 6 7
5 6 7
5 6 7
6 6 7
5 6 7
5 6 7
5 6 7
5 6 7
5 6 7
5 6 7
5 6 7
5 6 7
5 6 7
5 6 7
5 6 7
5 6 7
5 6 7
5 6 7
5 6 7
5 6 7
5 6 7
6 6 7
5 6 7
6 6 7
5 6 7
5 6 7
5 6 7
6 6 7
5 6 7
5 6 7
5 6 7
6 6 7
6 6 7
5 6 7
6 6 7
5 6 7
5 6 7
5 6 7
5 6 7
5 6 7
5 6 7
5 6 7
5 6 7
5 6 7
5 6 7
5 6 7
6 6 7
5 6 7
5 6 7
6 6 7
6 6 7
6 6 7
5 6 7
6 6 7
5 6 7
5 6 7
6 6 7
6 6 7
5 6 7
6 6 7
6 6 8
5 6 7
6 6 7
6 6 7
5 6 7
5 6 7
6 6 7
5 6 7
6 6 7
5 6 7
6 6 7
6 6 7
6 6 7
5 6 7
5 6 7
5 6 7
5 6 7
6 6 8
6 6 7
5 6 7
5 6 7
5 6 7
5 6 7
6 6 7
5 6 7
5 6 7
5 6 7
5 6 7
5 6 7
5 6 7
6 6 7
5 6 7
5 6 7
5 6 7
5 6 7
5 6 7
5 6 7
5 6 7
5 6 7
5 6 7
5 6 7
5 6 7
5 6 7
5 6 7
5 6 7
5 6 7
5 6 7
5 6 7
6 6 7
5 6 7
6 6 7
5 6 7
5 6 7
5 6 7
5 6 7
5 6 7
5 6 7
5 6 7
5 6 7
5 6 7
5 6 7
5 6 7
5 6 7
5 6 7
5 6 7
5 6 7
5 6 7
5 6 7
5 6 7
5 6 7
5 6 7
5 6 7
5 6 7
5 6 7
5 6 7
5 6 7
5 6 7
5 6 7
5 6 7
5 6 7
5 6 7
5 6 7
5 6 7
5 6 7
5 6 7
5 6 7
5 6 7
5 6 7
5 6 7
5 6 7
5 6 7
5 6 7
5 6 7
5 6 7
5 6 7
5 6 7
5 6 7
5 6 7
5 5 6
5 6 7
5 6 7
5 6 7
5 5 6
5 6 7
5 6 7
5 5 6
5 6 7
5 6 7
5 6 7
5 6 7
5 6 7
5 6 7
5 5 6
5 6 7
5 6 7
5 5 6
5 6 7
5 5 6
5 6 7
5 5 6
5 5 6
5 6 7
5 5 6
5 5 6
5 5 6
5 6 7
5 6 6
5 6 7
5 5 6
5 5 6
5 5 6
5 5 6
5 5 6
5 5 6
4 5 6
5 5 6
5 5 6
5 5 6
5 5 6
5 5 6
5 5 6
5 5 6
4 5 6
5 5 6
4 5 6
4 5 6
4 5 6
5 5 6
4 5 6
4 5 6
5 5 6
4 5 6
4 5 6
5 5 6
4 5 6
4 5 6
4 4 5
4 5 5
4 5 6
4 5 6
4 5 6
4 5 6
4 5 5
4 5 5
4 5 6
5 5 6
4 5 6
4 4 5
4 5 6
4 5 5
4 5 6
4 5 6
4 4 5
4 5 6
4 5 6
4 5 5
4 5 5
4 4 5
4 5 5
4 5 6
4 4 5
4 5 6
4 5 5
4 4 5
4 5 5
4 4 5
4 5 6
4 5 5
4 5 6
4 5 5
4 4 5
4 4 5
4 4 5
4 5 5
4 4 5
4 5 6
4 5 5
4 5 5
4 4 5
4 5 5
4 4 5
3 3 4
4 4 5
4 5 5
3 4 5
4 5 5
4 4 5
4 4 5
4 5 5
4 5 6
4 5 6
4 4 5
4 4 5
4 4 5
4 4 5
4 5 5
4 5 5
4 5 5
4 5 5
4 4 5
4 4 5
4 5 5
4 5 5
4 5 5
4 4 5
4 4 5
4 5 5
4 4 5
4 5 5
4 4 5
4 5 6
4 5 6
4 4 5
4 5 6
4 5 6
4 5 6
4 4 5
4 5 5
4 5 6
4 5 6
4 4 5
4 5 6
5 5 6
4 5 5
4 5 6
5 5 6
4 5 6
4 5 5
4 5 6
4 5 5
5 5 6
4 5 6
4 5 6
5 5 6
4 5 6
5 5 6
4 5 6
5 5 6
5 5 6
4 5 6
5 5 6
4 5 6
5 5 6
5 5 6
4 5 6
4 5 6
5 5 6
5 5 6
5 5 6
5 5 6
5 5 6
5 5 6
5 5 6
5 5 6
5 5 6
4 5 6
5 5 6
5 5 6
5 5 6
5 5 6
5 6 7
5 5 6
5 6 7
5 5 6
5 5 6
5 5 6
5 5 6
5 6 7
5 6 7
5 6 7
5 5 6
5 5 6
5 6 7
5 6 7
5 6 7
5 6 7
5 6 7
5 6 7
5 6 7
5 6 6
5 6 7
5 6 7
5 6 7
5 6 6
5 6 7
5 6 6
5 6 7
5 6 7
5 6 7
5 6 7
5 6 7
5 6 7
5 6 7
5 6 7
5 6 7
5 6 7
5 6 7
5 6 7
5 6 7
5 6 7
5 6 7
5 6 7
5 6 7
5 6 7
5 6 7
5 6 7
5 6 7
5 6 7
5 6 7
5 6 7
5 6 7
5 6 7
5 6 7
5 6 7
5 6 7
5 6 7
5 6 7
5 6 7
5 6 7
5 6 7
5 6 7
5 6 7
5 6 7
5 6 7
5 6 7
5 6 7
5 6 7
5 6 7
5 6 7
5 6 7
5 6 7
5 6 7
5 6 7
5 6 7
5 6 7
5 6 7
5 6 7
5 6 7
5 6 7
5 6 7
5 6 7
5 6 7
5 6 7
5 6 7
5 6 7
5 6 7
5 6 7
5 6 7
5 6 7
6 6 7
5 6 7
5 6 7
5 6 7
6 6 7
5 6 7
6 6 7
5 6 7
5 6 7
5 6 7
5 6 7
6 6 7
6 6 7
5 6 7
5 6 7
5 6 7
6 6 7
5 6 7
5 6 7
5 6 7
6 6 7
5 6 7
6 6 8
5 6 7
5 6 7
5 6 7
5 6 7
6 6 7
5 6 7
6 6 7
5 6 7
6 6 7
5 6 7
6 6 7
5 6 7
6 6 7
6 6 7
6 6 7
5 6 7
5 6 7
6 6 7
5 6 7
6 6 7
5 6 7
6 6 7
5 6 7
6 6 7
5 6 7
5 6 7
5 6 7
6 6 7
5 6 7
5 6 7
5 6 7
5 6 7
5 6 7
5 6 7
5 6 7
5 6 7
5 6 7
5 6 7
5 6 7
5 6 7
5 6 7
5 6 7
5 6 7
5 6 7
5 6 7
5 6 7
5 6 7
5 6 7
5 6 7
6 6 7
5 6 7
5 6 7
5 6 7
5 6 7
6 6 7
5 6 7
5 6 7
5 6 7
5 6 7
5 6 7
5 6 7
5 6 7
5 6 7
5 6 7
5 6 7
5 6 7
5 6 7
5 6 7
5 6 7
5 6 7
5 6 7
5 6 7
5 6 7
5 6 7
5 6 7
5 6 7
5 6 7
5 6 7
5 6 7
5 6 7
5 6 7
5 6 7
5 6 7
5 6 7
5 6 7
5 6 7
5 6 7
5 6 7
5 6 7
5 5 6
5 6 7
5 6 7
5 6 7
5 6 7
5 6 7
5 6 7
5 6 7
5 6 7
5 6 7
5 6 7
5 6 7
5 6 7
5 6 7
5 6 7
5 6 7
5 6 7
5 6 7
5 6 7
5 6 7
5 6 7
5 6 7
5 6 6
5 6 7
5 6 7
5 6 7
5 6 7
5 6 7
5 6 7
5 6 7
5 6 7
5 5 6
5 5 6
5 5 6
5 6 6
5 6 7
5 6 6
5 6 7
5 6 7
5 6 6
5 5 6
5 5 6
5 5 6
5 6 7
5 6 7
5 5 6
5 5 6
5 6 7
4 5 6
5 5 6
4 5 6
5 5 6
5 5 6
5 5 6
5 6 6
5 5 6
4 5 6
5 5 6
5 5 6
5 5 6
4 5 6
4 5 6
5 6 7
5 5 6
4 5 6
4 5 6
4 5 6
4 5 6
5 5 6
5 5 6
5 5 6
4 5 6
4 5 6
4 5 6
5 5 6
4 5 6
4 5 6
4 5 6
4 5 6
4 5 6
4 5 6
5 5 6
4 5 5
4 5 6
4 5 5
4 5 6
4 5 5
4 5 5
4 5 6
4 5 5
4 5 5
4 5 6
4 4 5
4 5 6
4 5 5
4 5 6
4 4 5
4 5 6
4 5 6
4 5 5
4 5 6
4 4 5
4 4 5
4 5 6
4 5 6
4 5 5
4 5 6
4 4 5
4 4 5
4 4 5
4 4 5
5 5 6
4 5 5
4 5 6
4 5 6
4 5 6
4 4 5
4 5 5
4 5 5
4 5 6
4 4 5
5 5 6
4 4 5
4 4 5
4 5 5
4 5 5
4 4 5
4 5 6
4 4 5
4 5 5
4 5 5
4 4 5
4 5 5
4 5 5
4 5 5
4 5 6
4 5 5
4 5 5
4 4 5
4 4 5
4 4 5
4 5 5
4 4 5
4 5 5
4 4 5
4 5 6
4 5 5
4 5 6
4 5 5
4 5 5
4 5 5
4 5 6
4 4 5
4 5 6
4 4 5
4 5 5
4 5 6
4 5 6
4 5 6
4 5 6
4 5 6
4 5 6
4 5 6
4 5 6
4 5 6
4 5 6
4 5 6
4 5 6
4 5 6
5 5 6
4 5 6
5 5 6
4 5 6
5 5 6
5 5 6
4 5 6
5 5 6
4 5 6
4 5 6
4 5 6
5 5 6
5 5 6
5 5 6
4 5 6
4 5 6
4 5 6
4 5 6
5 5 6
5 5 6
5 5 6
5 5 6
4 5 6
5 5 6
4 5 6
5 5 6
5 5 6
5 5 6
5 5 6
5 5 6
5 5 6
5 6 7
5 5 6
5 5 6
5 6 7
5 6 7
5 6 7
5 6 7
5 6 7
5 6 7
5 5 6
5 5 6
5 6 7
5 5 6
5 6 7
5 5 6
5 6 7
5 5 6
5 6 7
5 5 6
5 6 7
5 6 7
5 6 7
5 6 7
5 5 6
5 6 7
5 6 7
5 5 6
5 6 7
5 6 7
5 6 7
5 6 7
5 6 7
5 6 7
5 6 7
5 6 7
5 6 7
5 6 7
5 6 7
5 6 7
5 6 7
5 6 7
5 6 7
5 6 7
5 6 7
5 6 7
5 6 7
5 6 7
5 6 7
5 6 7
5 6 7
5 6 7
5 6 7
5 6 7
5 6 7
5 6 7
5 6 7
5 6 7
5 6 7
5 6 7
5 6 7
5 6 7
5 6 7
5 6 7
5 6 7
5 6 7
5 6 7
5 6 7
5 6 7
5 6 7
5 6 7
5 6 7
5 6 7
5 6 7
5 6 7
5 6 7
5 6 7
5 6 7
5 6 7
5 6 7
5 6 7
5 6 7
5 6 7
5 6 7
5 6 7
5 6 7
5 6 7
5 6 7
5 6 7
5 6 7
5 6 7
5 6 7
5 6 7
6 6 7
5 6 7
5 6 7
5 6 7
5 6 7
5 6 7
6 6 7
5 6 7
5 6 7
5 6 7
5 6 7
6 6 7
5 6 7
5 6 7
5 6 7
5 6 7
5 6 7
5 6 7
5 6 7
5 6 7
6 6 7
6 6 7
6 6 7
6 6 7
6 6 7
6 6 7
5 6 7
6 6 7
6 6 7
6 6 7
6 6 7
6 6 7
5 6 7
5 6 7
6 6 7
5 6 7
5 6 7
6 6 7
5 6 7
5 6 7
5 6 7
5 6 7
6 6 7
5 6 7
6 6 7
5 6 7
5 6 7
5 6 7
5 6 7
5 6 7
5 6 7
6 6 7
5 6 7
5 6 7
5 6 7
5 6 7
5 6 7
5 6 7
5 6 7
5 6 7
5 6 7
5 6 7
5 6 7
5 6 7
5 6 7
5 6 7
5 6 7
5 6 7
5 6 7
5 6 7
5 6 7
5 6 7
5 6 7
6 6 7
5 6 7
5 6 7
5 6 7
5 6 7
5 6 7
5 6 7
5 6 7
5 6 7
5 6 7
5 6 7
5 6 7
5 6 7
5 6 7
5 6 7
5 6 7
5 6 7
5 6 7
5 6 7
5 6 7
5 6 7
5 6 7
5 6 7
5 6 7
5 6 7
5 6 7
5 6 7
5 6 7
5 6 7
5 6 7
5 6 7
5 6 7
5 6 7
5 6 7
5 6 7
5 6 7
5 6 7
5 6 7
5 6 7
5 6 7
5 6 7
5 6 7
5 6 7
5 6 7
5 6 7
5 6 7
5 6 7
5 6 7
5 6 7
5 6 7
5 6 7
5 6 6
5 6 7
5 5 6
5 6 7
5 6 7
5 6 7
5 6 7
5 6 7
5 5 6
5 6 7
5 6 7
5 6 7
5 6 7
5 6 6
5 6 7
5 6 6
5 5 6
5 6 7
5 6 7
5 6 7
5 6 7
5 6 7
5 5 6
5 5 6
5 6 6
5 6 7
5 5 6
5 6 7
5 5 6
5 6 6
5 5 6
5 6 7
5 5 6
5 5 6
5 5 6
5 5 6
5 6 7
5 6 6
5 5 6
5 5 6
4 5 6
5 5 6
5 5 6
5 5 6
4 5 6
5 6 7
5 5 6
5 5 6
5 5 6
5 5 6
4 5 6
5 6 6
5 5 6
5 5 6
4 5 6
5 5 6
4 5 6
4 5 6
4 5 6
5 5 6
5 5 6
4 5 6
4 5 6
4 5 5
4 4 5
4 5 5
4 5 6
4 5 6
4 5 6
4 5 6
4 5 5
4 5 6
4 5 5
4 5 6
4 5 5
4 5 5
4 5 6
4 5 5
4 5 6
4 5 6
4 5 6
4 4 5
4 5 5
4 5 6
4 5 6
4 5 5
4 5 6
4 5 6
4 5 6
4 5 6
4 4 5
4 5 6
4 5 6
4 5 5
4 5 5
4 5 5
4 5 5
4 4 5
4 5 5
4 4 5
4 4 5
4 5 6
4 4 5
4 5 6
4 5 5
4 5 5
4 5 5
4 5 6
4 4 5
4 4 5
4 5 6
4 5 6
4 5 5
4 4 5
4 5 6
4 5 6
4 5 5
4 5 5
4 5 6
4 4 5
4 5 6
4 5 6
4 4 5
4 4 5
4 5 6
3 4 5
4 5 5
4 5 6
4 5 5
4 5 5
4 5 5
4 4 5
4 5 6
4 5 5
4 5 5
4 5 6
4 5 5
4 5 5
4 5 6
4 5 6
4 5 6
4 5 6
4 5 6
5 5 6
4 5 6
4 5 6
5 5 6
5 5 6
4 5 5
4 5 6
4 5 6
4 5 6
4 5 6
4 5 6
5 5 6
4 5 6
4 5 6
5 5 6
4 5 6
4 5 6
4 5 6
5 5 6
5 5 6
4 5 6
4 5 6
5 5 6
5 5 6
5 5 6
4 5 6
4 5 6
5 5 6
5 5 6
5 5 6
5 5 6
5 5 6
5 6 7
5 5 6
5 6 7
5 5 6
5 5 6
5 5 6
5 5 6
5 5 6
5 6 7
5 5 6
5 5 6
5 6 7
4 5 6
5 6 7
5 6 6
5 6 7
4 5 6
5 5 6
5 5 6
5 5 6
5 6 7
5 6 7
5 5 6
5 5 6
5 6 7
5 6 7
5 6 7
5 5 6
5 6 7
5 6 7
5 6 7
5 6 7
5 6 7
5 6 7
5 5 6
5 6 7
5 6 7
5 6 7
5 6 7
5 6 7
5 6 7
5 6 7
5 6 7
5 6 7
5 6 7
5 6 7
5 6 7
5 6 7
5 6 7
5 6 7
5 6 7
5 6 7
5 6 7
5 6 7
5 6 7
5 6 7
5 6 7
5 6 7
5 6 7
5 6 7
5 6 7
5 6 7
5 6 7
5 6 7
5 6 7
5 6 7
5 6 7
5 6 7
5 6 7
5 6 7
5 6 7
5 6 7
5 6 7
5 6 7
5 6 7
5 6 7
5 6 7
5 6 7
5 6 7
5 6 7
5 6 7
5 6 7
5 6 7
5 6 7
5 6 7
5 6 7
5 6 7
5 6 7
5 6 7
5 6 7
5 6 7
5 6 7
5 6 7
5 6 7
5 6 7
5 6 7
6 6 7
5 6 7
5 6 7
5 6 7
5 6 7
5 6 7
6 6 7
5 6 7
6 6 7
5 6 7
5 6 7
5 6 7
5 6 7
5 6 7
5 6 7
5 6 7
5 6 7
6 6 7
5 6 7
5 6 7
6 6 7
5 6 7
5 6 7
5 6 7
5 6 7
6 6 7
6 6 7
6 6 7
6 6 7
6 6 7
6 6 7
5 6 7
5 6 7
6 6 7
6 6 7
5 6 7
6 6 7
6 6 8
5 6 7
6 6 7
6 6 8
5 6 7
6 6 7
5 6 7
5 6 7
5 6 7
5 6 7
5 6 7
6 6 7
5 6 7
6 6 8
5 6 7
5 6 7
5 6 7
5 6 7
5 6 7
6 6 8
5 6 7
6 6 7
5 6 7
5 6 7
5 6 7
5 6 7
5 6 7
5 6 7
5 6 7
6 6 7
5 6 7
5 6 7
5 6 7
5 6 7
5 6 7
5 6 7
5 6 7
5 6 7
5 6 7
5 6 7
5 6 7
5 6 7
5 6 7
5 6 7
5 6 7
5 6 7
5 6 7
5 6 7
5 6 7
5 6 7
5 6 7
5 6 7
5 6 7
5 6 7
5 6 7
5 6 7
5 6 7
5 6 7
5 6 7
5 6 7
5 6 7
5 6 7
5 6 7
5 6 7
5 6 7
5 6 7
5 6 7
6 6 7
5 6 7
5 6 7
5 6 7
5 6 7
5 6 7
5 6 7
5 6 7
5 6 7
5 6 7
5 6 7
5 6 7
5 6 7
5 6 7
5 6 7
5 6 7
5 6 7
5 6 7
5 6 7
5 6 7
5 6 7
5 6 7
5 6 7
5 6 7
5 6 7
5 6 7
5 6 7
5 6 7
5 6 7
5 6 7
5 6 7
5 6 7
5 6 6
5 6 7
5 6 7
5 6 7
5 6 7
5 5 6
5 6 7
5 6 7
5 6 7
5 6 7
5 6 7
5 6 7
5 6 7
5 6 7
5 6 7
5 5 6
5 6 7
4 5 6
5 6 7
5 5 6
5 6 6
5 5 6
5 5 6
5 6 6
5 6 7
4 5 6
5 5 6
5 5 6
5 5 6
5 5 6
5 5 6
5 5 6
4 5 6
5 6 7
4 5 6
5 5 6
4 5 6
5 5 6
5 5 6
5 5 6
4 5 6
4 5 6
4 5 6
4 5 6
5 6 7
4 5 6
4 5 6
4 5 6
4 5 6
4 5 5
4 5 6
4 5 6
4 5 6
4 5 6
4 5 6
5 5 6
4 5 6
4 5 5
4 5 6
4 5 6
4 5 6
3 4 5
4 5 5
4 5 6
4 5 6
4 5 5
4 5 6
5 5 6
4 5 6
5 5 6
4 4 5
4 5 6
4 5 6
4 5 5
4 5 6
4 5 6
4 5 6
4 5 6
4 4 5
4 5 5
4 5 6
4 4 5
4 5 6
4 5 5
4 5 5
4 5 5
4 5 6
4 4 5
4 5 5
4 4 5
4 4 5
4 5 5
4 4 5
4 5 5
4 4 5
4 4 5
4 4 5
4 5 6
4 5 6
4 5 6
4 5 6
4 5 5
4 5 6
4 5 5
4 4 5
4 5 6
4 4 5
4 4 5
4 5 5
4 5 5
4 5 6
4 4 5
4 5 6
4 5 5
4 5 6
4 5 6
4 5 6
4 5 5
4 5 5
4 4 5
4 5 6
4 5 5
4 5 6
4 4 5
4 4 5
4 4 5
4 5 6
4 5 5
4 4 5
4 5 5
4 5 6
4 5 6
4 5 5
4 5 6
4 5 6
4 5 6
5 5 6
4 5 5
4 5 5
5 5 6
4 5 6
4 5 6
4 5 6
4 5 6
4 5 6
4 5 6
4 5 5
4 5 6
4 5 6
5 5 6
5 5 6
4 5 6
5 5 6
4 5 6
4 5 6
4 5 6
4 5 6
4 5 6
4 5 6
5 5 6
5 5 6
4 5 6
5 5 6
4 5 6
4 5 6
4 5 6
5 5 6
4 5 6
4 5 6
4 5 6
5 5 6
5 6 6
4 5 6
5 5 6
5 6 7
5 6 6
5 5 6
5 5 6
5 5 6
5 6 7
5 5 6
5 6 7
5 5 6
5 6 7
5 6 7
5 5 6
5 5 6
5 6 7
5 6 6
5 6 7
5 6 7
5 6 7
5 6 7
5 6 7
5 6 7
5 6 7
5 6 6
5 6 7
5 6 7
5 6 7
5 6 7
5 6 7
5 6 7
5 6 7
5 6 7
5 6 6
5 6 7
5 6 7
5 6 7
5 6 7
5 6 7
5 6 7
5 6 7
5 6 7
5 6 7
5 6 7
5 6 7
5 6 7
5 6 7
5 6 7
5 6 7
5 6 7
5 6 7
5 6 7
5 6 7
5 6 7
5 6 7
5 6 7
5 6 7
5 6 7
5 6 7
5 6 7
5 6 7
5 6 7
5 6 7
5 6 7
5 6 7
5 6 7
5 6 7
5 6 7
5 6 7
5 6 7
5 6 7
5 6 7
5 6 7
5 6 7
5 6 7
5 6 7
5 6 7
5 6 7
5 6 7
5 6 7
5 6 7
5 6 7
5 6 7
6 6 7
5 6 7
5 6 7
5 6 7
5 6 7
5 6 7
5 6 7
5 6 7
5 6 7
5 6 7
5 6 7
5 6 7
5 6 7
5 6 7
6 6 7
5 6 7
5 6 7
5 6 7
6 6 7
5 6 7
5 6 7
5 6 7
6 6 7
5 6 7
5 6 7
5 6 7
5 6 7
5 6 7
5 6 7
6 6 7
5 6 7
5 6 7
5 6 7
5 6 7
5 6 7
5 6 7
5 6 7
6 6 8
5 6 7
5 6 7
5 6 7
5 6 7
5 6 7
5 6 7
6 7 8
6 6 7
5 6 7
6 6 7
6 6 7
6 6 7
5 6 7
6 6 8
5 6 7
6 6 7
5 6 7
5 6 7
5 6 7
5 6 7
5 6 7
5 6 7
6 6 7
5 6 7
5 6 7
5 6 7
5 6 7
5 6 7
6 6 7
6 6 7
5 6 7
5 6 7
6 6 7
6 6 7
5 6 7
5 6 7
5 6 7
6 6 7
5 6 7
5 6 7
5 6 7
5 6 7
5 6 7
6 6 7
5 6 7
5 6 7
6 6 7
5 6 7
5 6 7
5 6 7
5 6 7
6 6 7
5 6 7
5 6 7
5 6 7
5 6 7
5 6 7
5 6 7
5 6 7
5 6 7
5 6 7
5 6 7
5 6 7
5 6 7
5 6 7
5 6 7
5 6 7
6 6 7
5 6 7
5 6 7
5 6 7
5 6 7
5 6 7
5 6 7
5 6 7
5 6 7
5 6 7
5 6 7
5 6 7
5 6 7
5 6 7
5 6 7
5 6 7
5 6 7
5 6 7
5 6 7
5 6 7
5 6 7
5 6 7
5 6 7
5 6 7
5 6 7
5 6 7
5 6 7
5 6 7
5 6 7
5 6 7
5 6 7
5 6 7
5 6 7
5 6 7
5 6 7
5 6 7
5 6 7
5 5 6
5 6 7
5 6 7
5 6 7
5 5 6
5 6 6
5 5 6
5 6 7
5 6 7
5 6 7
5 5 6
5 6 7
5 5 6
5 6 6
5 6 7
5 6 7
5 6 7
5 5 6
5 5 6
5 6 7
5 6 7
5 6 7
5 6 7
5 5 6
5 6 7
4 5 6
5 5 6
5 5 6
5 5 6
5 5 6
5 5 6
5 5 6
5 6 6
5 5 6
5 5 6
5 5 6
5 5 6
5 5 6
4 5 6
5 5 6
4 5 6
5 5 6
4 5 6
5 5 6
5 5 6
5 5 6
4 5 6
4 5 6
4 5 5
5 5 6
5 5 6
5 5 6
5 5 6
5 5 6
4 5 6
4 5 6
4 5 6
4 5 6
4 5 5
4 5 6
5 5 6
5 5 6
4 5 6
4 5 6
5 5 6
4 5 6
4 5 6
4 5 6
4 5 5
4 5 6
5 5 6
4 4 5
4 5 6
4 4 5
4 5 5
4 5 5
4 5 6
5 5 6
4 5 6
4 5 6
4 5 5
4 4 5
4 5 6
4 5 5
4 5 6
5 5 6
4 5 6
4 5 5
4 4 5
4 5 5
4 5 6
4 5 6
4 5 5
4 4 5
4 4 5
4 5 5
4 4 5
4 5 6
4 4 5
4 4 5
4 5 6
4 5 6
4 4 5
4 5 5
4 4 5
4 5 6
4 5 6
4 5 6
4 4 5
4 4 5
3 3 4
4 5 6
4 5 5
4 5 5
4 5 6
4 5 6
4 5 6
4 4 5
4 5 6
4 5 5
4 5 5
4 5 6
4 5 6
4 4 5
4 4 5
4 5 6
4 5 5
4 4 5
4 5 6
4 5 5
4 5 5
4 5 6
4 5 5
4 5 6
4 5 6
4 5 6
4 5 6
4 5 6
4 5 6
4 5 6
5 5 6
4 5 6
4 4 5
4 5 6
4 4 5
5 5 6
4 5 6
4 5 6
4 5 5
5 5 6
4 5 6
5 6 7
5 5 6
4 5 6
4 5 6
5 5 6
4 5 6
5 5 6
5 5 6
4 5 6
5 5 6
5 5 6
5 5 6
5 5 6
5 5 6
4 5 6
5 5 6
5 5 6
5 5 6
5 6 7
5 5 6
5 6 7
5 6 7
5 6 7
5 5 6
5 5 6
5 5 6
5 6 7
4 5 6
5 5 6
5 5 6
5 5 6
5 5 6
5 5 6
5 6 7
5 6 7
5 5 6
5 6 6
5 6 7
5 6 7
5 6 7
5 6 7
5 6 7
5 5 6
5 6 7
5 6 6
5 6 7
5 6 6
5 6 7
5 6 7
5 6 7
5 6 7
5 6 7
5 6 7
5 6 7
5 6 7
5 6 7
5 6 7
5 6 7
5 6 7
5 6 7
5 6 7
5 6 7
5 6 7
5 6 7
5 6 7
5 6 7
5 6 7
5 6 7
5 6 7
5 6 7
5 6 7
5 6 7
5 6 7
5 6 7
5 6 7
5 6 7
5 6 7
5 6 7
5 6 7
5 6 7
5 6 7
5 6 7
5 6 7
5 6 7
5 6 7
5 6 7
5 6 7
5 6 7
5 6 7
5 6 7
6 6 7
5 6 7
5 6 7
5 6 7
5 6 7
5 6 7
5 6 7
5 6 7
5 6 7
5 6 7
5 6 7
5 6 7
5 6 7
5 6 7
5 6 7
5 6 7
5 6 7
5 6 7
5 6 7
5 6 7
5 6 7
5 6 7
5 6 7
5 6 7
5 6 7
6 6 7
5 6 7
5 6 7
5 6 7
5 6 7
5 6 7
5 6 7
5 6 7
5 6 7
5 6 7
6 6 7
5 6 7
5 6 7
5 6 7
5 6 7
5 6 7
5 6 7
5 6 7
5 6 7
5 6 7
5 6 7
5 6 7
5 6 7
5 6 7
5 6 7
5 6 7
5 6 7
5 6 7
5 6 7
5 6 7
5 6 7
5 6 7
5 6 7
5 6 7
6 6 7
5 6 7
6 6 7
6 6 7
5 6 7
5 6 7
5 6 7
5 6 7
6 6 7
5 6 7
5 6 7
5 6 7
5 6 7
5 6 7
5 6 7
5 6 7
5 6 7
5 6 7
5 6 7
5 6 7
5 6 7
5 6 7
5 6 7
5 6 7
5 6 7
5 6 7
5 6 7
5 6 7
5 6 7
5 6 7
5 6 7
5 6 7
5 6 7
5 6 7
5 6 7
5 6 7
6 6 7
5 6 7
5 6 7
5 6 7
5 6 7
5 6 7
5 6 7
5 6 7
6 6 7
5 6 7
5 6 7
6 6 7
5 6 7
5 6 7
5 6 7
5 6 7
5 6 7
5 6 7
5 6 7
5 6 7
5 6 7
5 6 7
5 6 7
5 6 7
5 6 7
5 6 7
5 6 7
5 6 7
5 6 7
5 6 7
5 6 7
5 6 7
5 6 7
5 6 7
5 6 7
5 6 7
5 6 7
5 6 7
5 6 7
5 6 7
5 6 7
5 6 7
5 6 7
5 6 7
5 6 7
5 6 7
5 6 7
5 6 7
5 6 7
5 6 7
5 6 7
5 6 7
5 6 7
5 6 7
5 6 7
5 6 7
5 6 7
5 6 7
5 6 7
5 6 7
5 6 7
5 6 7
5 6 7
5 6 7
5 6 7
5 5 6
5 6 7
5 6 7
5 6 7
5 5 6
5 6 7
5 6 7
5 6 7
5 6 7
5 6 7
5 6 7
5 6 6
5 5 6
5 6 7
5 6 7
5 5 6
5 6 7
5 6 7
5 5 6
5 6 7
5 5 6
5 5 6
5 5 6
5 6 7
5 5 6
5 5 6
5 5 6
5 5 6
5 5 6
5 6 7
5 5 6
5 5 6
5 6 6
5 6 6
5 5 6
5 5 6
4 5 6
4 5 6
5 5 6
5 5 6
5 5 6
5 5 6
5 5 6
4 5 6
5 5 6
5 5 6
5 5 6
4 5 6
5 5 6
4 5 6
5 5 6
4 5 6
4 5 6
4 5 6
4 5 6
4 5 6
4 4 5
4 5 6
4 5 6
4 5 6
4 5 6
4 5 6
5 5 6
4 5 6
5 5 6
5 5 6
4 5 6
4 5 5
4 5 6
4 4 5
4 5 5
4 5 6
4 5 6
4 5 5
4 5 6
4 5 6
4 5 5
4 5 6
4 5 6
4 5 6
4 5 6
4 4 5
4 4 5
4 5 5
4 5 6
4 4 5
4 4 5
4 4 5
4 5 6
4 5 6
4 5 5
4 4 5
4 5 5
4 4 5
4 5 6
4 4 5
4 5 5
4 5 6
5 5 6
4 4 5
4 5 5
4 5 5
4 5 6
4 5 6
4 5 5
4 5 5
4 5 6
4 5 6
4 5 6
4 4 5
4 5 5
4 5 5
4 4 5
4 5 6
4 4 5
4 5 6
4 5 5
4 5 6
4 5 6
4 5 6
4 5 5
4 5 5
4 5 5
4 4 5
4 5 5
4 5 6
4 5 6
4 5 5
4 5 6
4 4 5
4 5 5
4 5 5
4 5 6
4 5 6
4 5 6
4 5 6
5 5 6
5 5 6
4 5 6
4 5 6
4 5 6
4 5 6
5 5 6
4 5 5
4 5 6
4 5 6
4 5 6
5 5 6
4 5 6
5 5 6
5 5 6
4 5 6
5 5 6
5 5 6
5 5 6
4 5 6
4 5 6
4 5 6
4 5 6
5 5 6
4 5 6
4 5 6
5 5 6
5 5 6
5 6 6
4 5 6
5 5 6
5 5 6
5 5 6
5 5 6
5 5 6
5 5 6
5 5 6
5 6 6
4 5 6
5 5 6
5 5 6
5 5 6
5 5 6
5 5 6
5 5 6
4 5 6
5 6 7
5 6 7
5 5 6
5 5 6
5 6 7
5 5 6
5 5 6
5 5 6
5 5 6
5 6 7
5 6 7
5 6 6
5 6 7
5 6 7
5 6 7
5 6 7
5 5 6
5 6 7
5 6 7
5 6 7
5 6 7
5 6 7
5 6 7
5 6 7
5 6 7
5 6 7
5 6 7
5 6 7
5 6 6
5 6 7
5 6 7
5 6 7
5 6 7
5 6 7
5 6 7
5 6 7
5 6 7
5 6 7
5 6 7
5 6 7
5 6 7
5 6 7
5 6 7
5 6 7
5 6 7
5 6 7
5 6 7
5 6 7
5 6 7
5 6 7
5 6 7
5 6 7
5 6 7
5 6 7
5 6 7
5 6 7
5 6 7
5 6 7
5 6 7
5 6 7
5 6 7
5 6 7
5 6 7
5 6 7
5 6 7
5 6 7
5 6 7
5 6 7
5 6 7
5 6 7
5 6 7
5 6 7
5 6 7
5 6 7
5 6 7
5 6 7
5 6 7
5 6 7
5 6 7
5 6 7
5 6 7
5 6 7
5 6 7
5 6 7
6 6 7
6 6 7
5 6 7
6 6 7
5 6 7
5 6 7
5 6 7
5 6 7
5 6 7
5 6 7
5 6 7
6 6 7
5 6 7
5 6 7
5 6 7
5 6 7
5 6 7
5 6 7
5 6 7
5 6 7
6 6 7
5 6 7
5 6 7
5 6 7
5 6 7
5 6 7
5 6 7
6 6 7
5 6 7
5 6 7
5 6 7
5 6 7
5 6 7
5 6 7
5 6 7
5 6 7
6 6 7
5 6 7
6 6 7
6 7 8
5 6 7
5 6 7
5 6 7
5 6 7
5 6 7
6 6 7
5 6 7
5 6 7
5 6 7
5 6 7
5 6 7
5 6 7
5 6 7
5 6 7
5 6 7
6 6 8
5 6 7
5 6 7
5 6 7
5 6 7
6 6 7
6 6 7
5 6 7
5 6 7
5 6 7
5 6 7
5 6 7
5 6 7
6 6 8
5 6 7
6 6 7
5 6 7
5 6 7
5 6 7
5 6 7
5 6 7
5 6 7
5 6 7
6 6 7
5 6 7
5 6 7
5 6 7
5 6 7
5 6 7
5 6 7
5 6 7
5 6 7
5 6 7
5 6 7
5 6 7
5 6 7
5 6 7
5 6 7
5 6 7
5 6 7
6 6 7
5 6 7
5 6 7
5 6 7
5 6 7
5 6 7
5 6 7
5 6 7
5 6 7
5 6 7
5 6 7
5 6 7
5 6 7
5 6 7
5 6 7
5 6 7
5 6 7
5 6 7
5 6 7
5 6 7
5 6 7
5 6 7
5 6 7
5 6 7
5 6 7
5 6 7
5 6 7
5 6 7
5 5 6
5 6 7
5 6 7
5 6 7
5 6 7
5 6 7
5 6 7
5 5 6
5 6 7
5 6 7
5 6 7
5 6 7
5 6 7
5 6 7
5 5 6
5 6 7
5 5 6
5 6 7
5 6 7
5 6 7
5 6 7
5 6 7
5 6 7
5 5 6
5 5 6
5 6 7
5 6 7
5 5 6
5 6 7
5 6 6
5 5 6
5 6 7
5 6 7
5 5 6
5 6 7
4 5 6
5 5 6
5 6 6
5 5 6
4 5 6
4 5 6
5 5 6
5 5 6
5 5 6
4 5 6
5 5 6
5 5 6
4 5 6
4 5 6
5 5 6
5 5 6
5 5 6
5 6 7
5 5 6
5 5 6
4 5 6
4 5 6
4 5 6
5 5 6
4 5 6
4 5 6
4 5 5
5 5 6
5 5 6
4 5 6
4 5 6
4 5 5
5 5 6
5 5 6
5 5 6
5 5 6
4 5 6
4 5 6
4 5 6
4 5 6
4 5 6
4 5 6
4 5 6
4 5 6
4 5 6
4 5 6
4 5 6
4 5 6
4 5 6
4 5 5
4 5 6
4 4 5
4 5 5
4 4 5
4 4 5
4 5 6
4 5 6
4 5 6
4 5 5
4 5 6
4 5 6
4 4 5
4 5 6
4 5 6
5 5 6
4 5 5
4 5 5
4 5 5
4 5 6
4 5 6
4 5 6
4 5 6
4 4 5
4 4 5
4 5 6
4 5 6
4 4 5
4 5 6
4 5 5
4 5 5
4 4 5
4 4 5
4 4 5
4 5 6
4 5 6
4 4 5
4 5 6
4 5 6
4 4 5
4 5 6
4 5 6
4 5 6
4 5 6
4 5 5
4 5 6
4 5 6
4 5 6
4 5 6
4 5 6
4 5 5
4 4 5
4 5 5
4 5 6
5 5 6
4 5 5
4 5 6
4 5 6
4 5 5
4 5 6
4 5 6
4 5 6
4 5 5
4 5 6
4 5 6
4 5 6
4 5 6
4 5 6
4 5 6
4 5 6
4 5 6
4 5 6
4 5 6
5 5 6
4 5 5
4 5 6
5 5 6
5 5 6
5 5 6
4 5 6
5 5 6
4 5 6
4 5 6
4 5 6
4 5 6
5 5 6
4 5 6
5 5 6
4 5 6
5 5 6
5 5 6
5 5 6
5 5 6
5 5 6
5 5 6
4 5 6
5 6 7
5 5 6
5 5 6
5 5 6
4 5 6
5 5 6
5 5 6
5 6 7
5 6 7
5 5 6
5 6 6
5 5 6
5 5 6
5 5 6
5 5 6
5 6 6
5 6 7
5 6 7
5 5 6
5 6 6
5 5 6
5 5 6
5 6 7
5 6 7
5 6 6
5 6 6
5 6 7
5 6 7
5 6 7
5 6 7
5 6 7
5 5 6
5 6 7
5 6 7
5 5 6
5 6 7
5 5 6
5 6 7
5 5 6
5 6 7
5 6 7
5 6 7
5 6 7
5 6 7
5 6 7
5 6 7
5 6 7
5 6 7
5 6 7
5 6 7
5 6 7
5 6 7
5 6 7
5 6 7
5 6 7
5 6 7
5 6 7
5 6 7
5 6 7
5 6 7
5 6 7
5 6 7
5 6 7
5 6 7
5 6 7
5 6 7
5 6 7
5 6 7
5 6 7
5 6 7
5 6 7
5 6 7
5 6 7
5 6 7
5 6 7
5 6 7
5 6 7
5 6 7
5 6 7
5 6 7
5 6 7
5 6 7
5 6 7
5 6 7
5 6 7
5 6 7
5 6 7
5 6 7
5 6 7
5 6 7
5 6 7
5 6 7
5 6 7
5 6 7
5 6 7
5 6 7
5 6 7
5 6 7
5 6 7
5 6 7
5 6 7
5 6 7
5 6 7
5 6 7
5 6 7
6 6 7
5 6 7
5 6 7
5 6 7
5 6 7
6 6 8
5 6 7
5 6 7
5 6 7
5 6 7
5 6 7
5 6 7
5 6 7
5 6 7
5 6 7
5 6 7
5 6 7
6 6 7
5 6 7
5 6 7
5 6 7
5 6 7
5 6 7
5 6 7
5 6 7
5 6 7
5 6 7
5 6 7
5 6 7
5 6 7
5 6 7
5 6 7
5 6 7
6 6 7
5 6 7
5 6 7
5 6 7
5 6 7
5 6 7
6 6 7
5 6 7
5 6 7
5 6 7
5 6 7
5 6 7
5 6 7
5 6 7
5 6 7
5 6 7
5 6 7
5 6 7
5 6 7
5 6 7
5 6 7
5 6 7
5 6 7
5 6 7
5 6 7
5 6 7
6 6 7
5 6 7
6 6 7
5 6 7
5 6 7
5 6 7
5 6 7
5 6 7
5 6 7
5 6 7
5 6 7
5 6 7
5 6 7
5 6 7
5 6 7
5 6 7
5 6 7
5 6 7
5 6 7
5 6 7
5 6 7
5 6 7
5 6 7
5 6 7
5 6 7
5 6 7
5 6 7
5 6 7
5 6 7
5 6 7
5 6 7
5 6 7
5 6 7
5 6 7
5 6 7
5 6 7
5 6 7
5 6 7
5 6 7
5 6 7
5 6 7
5 6 7
5 6 7
5 6 7
5 6 7
5 6 7
5 6 7
5 6 7
5 6 7
5 6 7
5 6 7
5 6 7
5 6 7
5 6 7
5 6 7
5 6 7
5 6 7
5 6 7
5 6 7
5 6 7
5 6 7
5 6 7
5 6 7
5 6 7
5 6 7
5 5 6
5 6 7
5 6 7
5 6 7
5 6 7
5 5 6
5 6 7
5 6 7
5 6 7
5 6 7
5 6 7
5 5 6
5 6 7
5 5 6
5 6 7
5 6 7
5 6 7
5 6 7
5 6 7
4 5 6
5 6 7
5 5 6
5 6 6
5 5 6
5 5 6
5 5 6
5 5 6
5 5 6
5 5 6
5 5 6
5 5 6
5 6 7
5 6 7
5 5 6
5 5 6
4 5 6
5 5 6
5 5 6
5 5 6
4 5 6
5 5 6
5 5 6
5 5 6
4 5 6
4 5 6
5 5 6
5 5 6
4 5 6
5 5 6
4 5 6
5 5 6
4 5 6
4 5 6
5 5 6
4 5 6
5 5 6
5 5 6
4 5 6
5 5 6
4 5 6
5 5 6
4 5 6
4 5 6
4 5 6
4 5 6
4 5 6
4 5 6
4 5 6
4 5 5
4 5 5
4 5 6
4 5 6
4 5 6
5 5 6
4 5 6
4 4 5
4 4 5
4 5 6
4 5 6
4 4 5
4 5 6
4 5 6
4 5 6
5 5 6
4 5 6
4 5 5
4 5 6
4 5 6
4 5 6
4 5 5
4 5 6
4 5 6
4 5 6
4 5 6
4 4 5
4 5 6
4 5 6
4 4 5
4 5 6
4 4 5
4 5 6
4 5 5
4 5 5
4 4 5
4 4 5
4 5 6
4 5 6
4 5 6
4 5 6
4 5 5
4 5 5
4 5 6
4 5 6
4 5 5
4 5 6
4 5 6
4 5 6
4 4 5
4 5 6
4 5 6
5 5 6
4 5 6
4 5 6
4 5 6
4 5 5
4 5 6
4 5 6
4 5 5
4 5 5
4 5 6
4 5 6
4 5 6
4 5 6
4 5 6
4 5 6
4 5 6
5 5 6
4 5 6
5 5 6
5 5 6
4 5 6
5 5 6
4 5 6
5 5 6
4 5 6
4 5 5
4 5 6
4 5 6
4 5 6
4 5 6
4 5 6
4 5 6
5 5 6
5 5 6
5 5 6
4 5 6
5 5 6
4 5 6
5 5 6
5 5 6
4 5 6
5 5 6
4 5 6
4 5 6
4 5 6
5 5 6
5 5 6
5 5 6
5 5 6
4 5 6
5 5 6
5 5 6
5 6 7
5 6 7
5 5 6
5 5 6
5 5 6
5 5 6
5 5 6
5 5 6
5 6 7
5 6 6
5 5 6
5 6 7
5 5 6
5 6 7
5 6 6
5 5 6
5 6 7
5 6 7
5 6 7
5 6 7
5 5 6
5 6 7
5 6 7
5 6 7
5 5 6
5 6 7
5 6 7
5 6 7
5 6 7
5 5 6
5 5 6
5 6 7
5 6 7
5 6 7
5 6 7
5 6 7
5 6 7
5 6 7
5 6 7
5 6 7
5 6 7
5 6 7
5 6 7
5 6 7
5 6 7
5 6 7
5 6 7
5 6 7
5 6 7
5 6 7
5 6 7
5 6 7
5 6 7
5 6 7
5 6 7
5 6 7
5 6 7
5 6 7
5 6 7
5 6 7
5 6 7
5 6 7
5 6 7
5 6 7
5 6 7
5 6 7
5 6 7
5 6 7
5 6 7
5 6 7
5 6 7
5 6 7
5 6 7
5 6 7
5 6 7
5 6 7
5 6 7
5 6 7
5 6 7
5 6 7
5 6 7
5 6 7
5 6 7
5 6 7
6 6 7
5 6 7
6 6 7
5 6 7
5 6 7
5 6 7
5 6 7
6 6 7
5 6 7
5 6 7
5 6 7
5 6 7
5 6 7
5 6 7
5 6 7
5 6 7
5 6 7
5 6 7
5 6 7
6 6 7
6 6 7
5 6 7
5 6 7
6 6 7
5 6 7
5 6 7
5 6 7
6 6 7
6 6 7
6 6 7
5 6 7
5 6 7
5 6 7
5 6 7
5 6 7
5 6 7
6 6 7
5 6 7
5 6 7
6 6 7
6 6 7
6 6 8
5 6 7
5 6 7
5 6 7
5 6 7
5 6 7
5 6 7
5 6 7
5 6 7
6 6 7
6 6 7
6 6 7
5 6 7
5 6 7
5 6 7
5 6 7
5 6 7
5 6 7
5 6 7
5 6 7
5 6 7
5 6 7
5 6 7
6 6 7
5 6 7
5 6 7
5 6 7
5 6 7
5 6 7
5 6 7
5 6 7
5 6 7
5 6 7
5 6 7
5 6 7
5 6 7
5 6 7
5 6 7
5 6 7
5 6 7
5 6 7
5 6 7
5 6 7
5 6 7
5 6 7
5 6 7
5 6 7
5 6 7
5 6 7
5 6 7
5 6 7
5 6 7
5 6 7
5 6 7
5 6 7
5 6 7
5 6 7
5 6 7
5 6 7
5 6 7
5 6 7
5 6 7
5 6 7
5 6 7
5 6 7
5 6 7
5 6 7
5 6 7
5 6 7
5 6 7
5 6 7
5 6 7
5 6 7
5 6 7
5 6 7
5 6 7
5 5 6
5 6 7
5 6 7
5 6 7
5 6 7
5 6 7
5 6 7
5 6 7
5 6 7
5 6 7
5 6 7
5 6 7
5 6 7
5 6 7
5 6 7
5 6 7
5 6 7
5 6 7
5 6 7
5 6 7
5 6 7
5 6 7
5 6 7
5 6 7
5 6 7
5 6 7
5 6 7
5 6 7
5 6 7
5 6 7
5 6 7
5 6 7
5 6 7
5 6 7
5 5 6
5 6 6
4 5 6
5 6 7
5 6 7
5 5 6
5 6 7
5 6 7
5 5 6
5 6 6
5 5 6
5 6 7
5 6 7
5 5 6
4 5 6
5 6 6
5 6 6
5 6 7
5 6 6
5 6 7
5 5 6
5 5 6
5 6 6
5 6 6
5 5 6
5 6 7
5 6 7
5 5 6
5 5 6
5 5 6
5 5 6
5 6 7
5 5 6
5 5 6
5 5 6
5 5 6
5 6 6
4 5 6
5 5 6
5 6 7
5 5 6
5 5 6
5 6 7
5 5 6
4 5 6
5 5 6
4 5 6
5 5 6
5 5 6
4 5 6
4 5 6
4 5 6
5 5 6
5 5 6
4 5 6
4 5 6
4 5 6
4 5 6
4 5 6
4 5 6
4 5 6
5 5 6
4 5 6
4 5 6
4 5 6
4 5 6
4 5 6
4 5 6
4 5 6
4 5 6
5 5 6
4 5 6
4 5 6
5 5 6
4 5 6
4 5 5
4 5 6
5 5 6
4 5 6
4 5 6
4 5 6
4 5 6
5 5 6
4 5 6
4 5 5
4 5 6
4 5 6
4 5 6
4 4 5
4 4 5
4 5 5
4 5 6
4 5 5
4 5 5
4 5 6
4 5 6
4 5 6
4 5 5
4 5 5
4 5 5
4 5 6
4 5 6
4 5 5
4 5 5
4 5 6
4 5 6
4 5 6
4 5 6
4 5 5
4 5 6
4 5 6
4 5 5
4 5 5
4 5 6
4 5 6
4 5 5
4 5 6
5 5 6
4 5 6
4 5 6
4 5 6
4 5 6
4 5 5
4 4 5
4 5 6
4 5 6
4 5 6
5 5 6
5 5 6
5 5 6
4 5 6
4 5 6
4 5 5
4 5 6
5 5 6
4 4 5
4 5 6
4 5 6
4 5 6
5 5 6
4 5 6
5 5 6
4 5 6
4 5 6
5 5 6
4 5 6
5 5 6
4 5 6
5 5 6
5 6 6
4 5 6
5 6 6
4 5 6
4 5 6
5 5 6
4 5 6
4 5 6
5 6 6
5 5 6
4 5 6
4 5 6
4 5 6
5 5 6
4 5 6
5 6 7
5 5 6
5 5 6
5 5 6
5 6 7
5 5 6
4 5 6
5 5 6
5 6 7
5 5 6
5 6 7
5 5 6
5 6 7
4 5 6
5 5 6
5 5 6
5 6 7
5 6 7
5 5 6
5 6 7
5 6 7
5 6 7
5 6 7
5 6 6
5 6 7
5 5 6
5 6 7
5 6 6
5 6 7
5 6 7
5 6 7
5 6 7
5 6 7
5 6 7
5 6 7
5 6 7
5 6 7
5 6 7
5 6 7
5 6 7
5 6 7
5 6 7
5 6 7
5 6 7
5 6 7
5 6 7
5 6 7
5 6 7
5 6 7
5 6 7
5 6 7
5 6 7
5 6 7
5 6 7
5 6 7
5 6 7
5 6 7
5 6 7
5 6 7
5 6 7
5 6 7
5 6 7
5 6 7
5 6 7
5 6 7
5 6 7
5 6 7
5 6 7
5 6 7
5 6 7
5 6 7
5 6 7
5 6 7
5 6 7
5 6 7
5 6 7
5 6 7
5 6 7
5 6 7
5 6 7
5 6 7
5 6 7
5 6 7
5 6 7
5 6 7
5 6 7
6 6 7
5 6 7
5 6 7
5 6 7
5 6 7
5 6 7
5 6 7
5 6 7
5 6 7
5 6 7
5 6 7
6 6 7
5 6 7
5 6 7
5 6 7
5 6 7
6 6 7
5 6 7
5 6 7
5 6 7
5 6 7
5 6 7
5 6 7
5 6 7
5 6 7
5 6 7
6 6 7
5 6 7
5 6 7
5 6 7
5 6 7
5 6 7
5 6 7
5 6 7
5 6 7
5 6 7
5 6 7
5 6 7
6 6 7
5 6 7
5 6 7
6 6 7
5 6 7
5 6 7
5 6 7
5 6 7
5 6 7
5 6 7
5 6 7
5 6 7
5 6 7
5 6 7
6 6 8
6 6 8
5 6 7
5 6 7
5 6 7
5 6 7
5 6 7
6 6 7
5 6 7
5 6 7
5 6 7
5 6 7
5 6 7
5 6 7
5 6 7
5 6 7
5 6 7
5 6 7
5 6 7
5 6 7
5 6 7
5 6 7
5 6 7
6 6 7
5 6 7
5 6 7
5 6 7
5 6 7
5 6 7
5 6 7
5 6 7
5 6 7
5 6 7
6 6 7
5 6 7
5 6 7
5 6 7
5 6 7
5 6 7
5 6 7
5 6 7
5 6 7
5 6 7
5 6 7
5 6 7
5 6 7
5 6 7
5 6 7
5 6 7
5 6 7
5 6 7
5 6 7
5 6 7
5 6 7
5 6 7
5 6 7
6 6 7
5 6 7
5 6 7
5 6 7
5 6 7
5 6 7
5 6 7
5 6 7
5 6 7
5 6 7
5 6 7
5 6 7
5 6 7
5 6 7
5 6 7
5 6 7
5 6 7
5 6 7
5 6 7
5 6 7
5 6 7
5 6 7
5 6 7
5 6 7
5 6 7
5 6 7
5 6 7
5 6 7
5 6 7
5 6 7
5 6 7
5 6 7
5 6 6
5 6 7
5 6 7
5 6 7
5 6 7
4 5 6
5 6 7
5 5 6
5 6 7
5 6 7
5 6 7
5 6 6
5 6 7
5 6 7
5 6 7
5 6 7
5 6 7
5 5 6
5 6 7
5 6 7
5 6 6
5 5 6
5 6 6
5 6 6
5 6 7
5 6 6
5 5 6
5 5 6
5 5 6
5 5 6
5 5 6
5 5 6
5 5 6
5 5 6
4 5 6
5 5 6
5 5 6
5 5 6
5 5 6
5 6 6
5 5 6
5 5 6
5 5 6
5 5 6
5 5 6
4 5 6
5 5 6
5 5 6
5 5 6
5 5 6
5 5 6
5 5 6
5 5 6
5 5 6
5 5 6
5 5 6
4 5 6
5 5 6
5 5 6
5 5 6
5 5 6
4 5 6
4 5 6
5 5 6
5 5 6
5 5 6
4 5 6
5 5 6
4 5 6
4 5 6
4 5 6
4 5 6
4 5 6
5 5 6
4 5 6
4 5 6
4 5 6
4 5 6
4 5 6
5 5 6
4 5 6
4 5 6
4 5 6
5 5 6
4 5 6
4 5 5
4 5 6
4 4 5
4 5 5
4 5 5
4 5 5
4 4 5
4 4 5
4 5 5
4 5 5
5 5 6
4 4 5
4 5 6
4 5 6
4 5 5
4 5 6
4 5 6
4 5 6
4 5 5
4 5 6
5 5 6
5 5 6
4 5 5
4 5 6
4 5 6
4 5 6
4 5 6
4 5 6
4 5 5
4 5 6
5 5 6
4 5 6
4 5 6
4 5 6
4 5 6
4 5 5
4 5 6
4 5 6
4 5 6
4 5 6
4 5 6
4 5 6
4 5 6
4 4 5
4 4 5
4 5 6
4 5 6
4 5 6
4 5 6
4 5 5
4 5 6
4 5 6
4 5 6
5 5 6
4 5 6
4 5 5
4 5 6
4 5 6
4 5 6
5 5 6
5 5 6
5 5 6
4 5 6
4 5 6
4 5 6
5 5 6
4 5 6
5 5 6
4 5 6
4 5 6
5 5 6
5 5 6
4 5 6
4 5 6
5 5 6
5 5 6
5 5 6
5 5 6
5 5 6
4 5 6
5 5 6
5 6 7
5 5 6
4 5 6
5 5 6
5 5 6
4 5 6
5 5 6
5 5 6
5 5 6
5 5 6
5 5 6
5 6 6
5 6 7
5 6 7
5 6 7
5 6 6
5 6 7
5 6 7
5 6 7
5 6 7
4 5 6
4 5 6
5 6 7
5 5 6
5 5 6
5 6 6
5 6 7
5 6 7
5 6 7
4 5 6
5 6 7
5 6 7
5 6 7
5 6 6
5 5 6
5 5 6
5 5 6
5 6 7
5 6 7
5 6 7
5 6 7
5 6 7
5 5 6
5 6 7
5 6 7
5 6 7
5 6 7
5 6 7
5 6 7
5 6 7
5 6 7
5 6 7
5 6 7
5 6 7
5 6 7
5 6 7
5 6 7
5 6 7
5 6 7
5 6 7
5 6 7
5 6 7
5 6 7
5 6 7
5 6 7
5 6 7
5 6 7
5 5 6
5 6 7
5 6 7
5 6 7
5 6 7
5 6 7
5 6 7
5 6 7
5 6 7
5 6 7
5 6 7
5 6 7
5 6 7
5 6 7
5 6 7
5 6 7
5 6 7
5 6 7
5 6 7
5 6 7
5 6 7
5 6 7
5 6 7
5 6 7
5 6 7
5 6 7
5 6 7
5 6 7
5 6 7
5 6 7
5 6 7
5 6 7
5 6 7
5 6 7
5 6 7
5 6 7
5 6 7
6 6 7
5 6 7
5 6 7
5 6 7
5 6 7
5 6 7
5 6 7
5 6 7
5 6 7
5 6 7
5 6 7
5 6 7
5 6 7
5 6 7
5 6 7
5 6 7
5 6 7
5 6 7
5 6 7
6 6 7
6 6 7
5 6 7
6 6 7
5 6 7
5 6 7
5 6 7
5 6 7
6 6 7
6 6 8
6 6 7
5 6 7
6 6 7
5 6 7
5 6 7
5 6 7
5 6 7
5 6 7
6 6 7
5 6 7
6 6 7
5 6 7
6 6 7
5 6 7
6 6 8
5 6 7
5 6 7
5 6 7
5 6 7
5 6 7
5 6 7
5 6 7
5 6 7
5 6 7
6 6 7
5 6 7
5 6 7
5 6 7
5 6 7
5 6 7
5 6 7
5 6 7
5 6 7
5 6 7
5 6 7
5 6 7
5 6 7
5 6 7
5 6 7
5 6 7
5 6 7
5 6 7
5 6 7
5 6 7
5 6 7
5 6 7
5 6 7
5 6 7
5 6 7
5 6 7
5 6 7
5 6 7
6 6 7
5 6 7
5 6 7
5 6 7
5 6 7
5 6 7
5 6 7
5 6 7
5 6 7
5 6 7
5 6 7
5 6 7
5 6 7
5 6 7
5 6 7
5 6 7
5 6 7
5 6 7
5 6 7
5 6 7
5 6 7
5 6 7
5 6 7
5 6 7
5 6 7
5 6 7
5 6 7
5 6 7
5 6 7
5 6 7
5 6 7
5 6 7
5 6 7
5 6 7
5 6 7
5 6 7
5 6 7
5 6 7
5 6 7
5 6 7
5 6 7
5 6 7
5 6 7
5 6 7
5 6 7
5 6 7
5 6 7
5 6 7
5 6 6
5 6 7
5 6 7
5 6 6
5 6 7
5 6 7
5 6 7
5 6 7
5 6 7
5 5 6
5 6 7
5 6 7
5 5 6
5 6 7
5 6 7
5 5 6
5 6 7
5 5 6
5 6 7
5 6 7
5 5 6
5 5 6
5 6 7
5 6 7
5 6 6
5 6 7
5 6 7
5 6 6
5 6 7
5 6 6
5 6 6
5 5 6
5 5 6
5 6 7
5 5 6
5 5 6
5 5 6
5 5 6
5 6 6
5 5 6
5 6 6
5 5 6
5 5 6
5 5 6
5 5 6
5 5 6
5 5 6
5 5 6
5 6 7
5 5 6
5 5 6
4 5 6
4 5 6
5 5 6
4 5 6
5 6 7
4 5 6
4 5 5
4 5 6
5 5 6
4 5 6
4 5 6
4 5 6
5 5 6
4 5 5
4 5 6
5 5 6
4 5 6
5 5 6
4 5 6
4 5 6
4 5 6
5 5 6
4 5 6
4 5 6
5 5 6
4 5 6
4 5 6
4 5 6
4 5 6
5 5 6
4 5 6
4 5 6
4 5 6
4 5 6
4 5 6
4 5 6
4 5 6
4 5 6
4 5 6
4 5 6
4 5 6
4 5 6
4 5 6
4 5 5
4 4 5
5 5 6
4 5 6
4 5 6
4 5 6
4 5 6
4 5 6
4 5 6
4 5 5
4 5 6
4 5 6
4 5 6
4 5 6
4 5 6
4 5 6
4 4 5
4 5 5
4 5 6
4 4 5
4 5 6
4 5 6
4 4 5
5 5 6
4 5 6
4 5 5
4 5 6
4 5 6
4 5 6
4 5 6
4 5 6
4 5 6
4 5 5
4 5 6
4 5 6
4 5 6
5 5 6
4 5 6
4 4 5
4 5 6
5 5 6
4 5 6
5 5 6
4 5 5
4 5 6
4 5 6
5 5 6
5 5 6
5 5 6
5 5 6
5 5 6
4 5 6
4 5 6
5 5 6
5 5 6
5 6 7
5 5 6
4 5 6
4 5 6
5 5 6
5 5 6
4 5 6
5 5 6
4 5 6
5 6 7
4 5 6
5 6 7
5 5 6
5 5 6
5 5 6
5 5 6
5 5 6
5 5 6
5 5 6
5 5 6
4 5 6
4 5 6
5 5 6
5 5 6
5 5 6
5 5 6
5 5 6
5 5 6
5 5 6
4 5 6
5 5 6
5 5 6
5 6 7
5 5 6
5 5 6
5 6 6
5 5 6
5 6 6
5 5 6
5 6 7
5 5 6
5 6 7
5 6 6
5 6 7
5 6 7
5 6 6
5 6 7
5 6 6
5 6 7
5 6 6
5 6 7
5 6 7
5 6 7
5 6 7
5 6 6
5 6 7
5 6 7
5 6 7
5 6 7
5 6 7
5 6 7
5 5 6
5 6 7
5 5 6
5 6 7
5 6 7
5 5 6
5 6 6
5 6 7
5 6 7
5 6 7
5 6 7
5 6 7
5 6 7
5 6 7
5 6 7
5 6 7
5 6 7
5 6 7
5 6 7
5 6 7
5 6 7
5 6 7
5 6 7
5 6 7
5 6 7
5 6 7
5 6 7
5 6 7
5 6 7
5 6 7
5 6 7
5 6 7
5 6 7
5 6 7
5 6 7
5 6 7
5 6 7
5 6 7
5 6 7
5 6 7
5 6 7
5 6 7
5 6 7
6 6 7
5 6 7
5 6 7
5 6 7
5 6 7
5 6 7
5 6 7
5 6 7
5 6 7
5 6 7
5 6 7
5 6 7
5 6 7
5 6 7
5 6 7
5 6 7
5 6 7
6 6 7
5 6 7
6 6 7
5 6 7
5 6 7
5 6 7
5 6 7
5 6 7
5 6 7
6 6 7
5 6 7
5 6 7
5 6 7
6 6 7
5 6 7
5 6 7
5 6 7
5 6 7
6 6 7
5 6 7
5 6 7
5 6 7
5 6 7
5 6 7
5 6 7
6 6 7
5 6 7
5 6 7
6 6 7
5 6 7
5 6 7
5 6 7
5 6 7
5 6 7
5 6 7
6 6 7
5 6 7
6 6 7
5 6 7
5 6 7
5 6 7
6 6 7
6 6 7
5 6 7
6 6 8
5 6 7
5 6 7
5 6 7
5 6 7
5 6 7
5 6 7
5 6 7
5 6 7
5 6 7
5 6 7
5 6 7
5 6 7
6 6 7
5 6 7
5 6 7
5 6 7
5 6 7
5 6 7
5 6 7
5 6 7
5 6 7
5 6 7
5 6 7
5 6 7
5 6 7
5 6 7
5 6 7
5 6 7
5 6 7
5 6 7
5 6 7
5 6 7
5 6 7
5 6 7
6 6 7
5 6 7
5 6 7
5 6 7
5 6 7
5 6 7
5 6 7
5 6 7
5 6 7
5 6 7
5 6 7
5 6 7
5 6 7
5 6 7
5 6 7
5 6 7
5 6 7
5 6 7
5 6 7
5 6 7
5 6 7
5 6 7
5 6 7
5 6 7
5 6 7
5 6 7
5 6 7
5 6 7
5 6 6
5 6 7
5 6 7
5 6 7
5 6 7
5 6 7
5 6 7
5 6 7
5 6 7
5 6 7
5 6 7
5 6 7
5 6 7
5 6 7
5 6 7
5 6 7
5 6 7
5 6 7
5 6 7
5 6 7
5 6 7
5 6 7
5 6 6
5 6 7
5 6 7
5 6 7
5 6 7
5 6 6
5 6 7
5 6 6
5 6 7
5 6 7
5 6 7
5 6 7
5 6 7
5 6 7
5 6 7
5 5 6
5 6 7
5 6 6
5 6 7
5 6 7
5 6 7
5 6 7
5 6 7
5 6 7
5 6 7
5 6 7
5 6 7
5 5 6
5 6 7
5 5 6
5 5 6
5 5 6
5 6 7
5 5 6
4 5 6
5 5 6
5 5 6
5 5 6
5 5 6
4 5 6
5 5 6
5 6 6
5 5 6
5 6 6
5 5 6
5 5 6
5 5 6
4 5 6
5 6 7
4 5 6
4 5 6
4 5 6
5 5 6
4 5 6
4 5 6
5 5 6
5 5 6
5 5 6
4 5 6
5 6 6
5 5 6
5 5 6
5 5 6
4 5 6
5 5 6
4 5 6
4 5 6
5 5 6
5 5 6
5 5 6
4 5 5
4 5 6
5 5 6
4 5 6
4 5 6
4 5 6
4 5 6
5 6 6
4 4 5
4 5 6
5 5 6
4 5 6
4 5 6
4 5 6
4 5 6
4 5 6
5 5 6
4 4 5
4 5 6
4 5 5
4 5 6
4 5 5
4 5 6
4 5 5
4 5 6
4 5 6
4 5 6
4 5 6
4 5 6
5 5 6
4 4 5
4 5 6
4 5 6
4 5 6
4 5 6
4 5 6
4 5 6
4 5 6
4 5 6
4 5 6
4 5 6
5 5 6
5 5 6
4 4 5
4 5 6
5 5 6
4 5 6
4 4 5
5 5 6
5 5 6
4 5 6
4 5 6
4 5 6
5 5 6
4 5 6
5 5 6
4 5 6
4 5 6
4 5 5
5 5 6
4 5 6
4 5 6
4 5 6
4 5 6
4 5 6
5 5 6
4 5 6
5 5 6
4 5 5
4 5 6
4 5 6
4 4 5
4 5 5
5 5 6
5 5 6
5 5 6
4 5 6
4 5 6
4 5 6
4 5 6
5 6 7
5 5 6
4 5 6
5 5 6
4 5 6
5 5 6
5 5 6
5 5 6
5 5 6
4 5 6
5 5 6
4 5 6
5 5 6
4 5 6
4 5 6
4 5 6
5 5 6
5 5 6
5 5 6
5 6 7
4 5 6
5 5 6
4 5 6
5 5 6
5 5 6
5 6 7
5 5 6
5 6 6
5 5 6
5 6 6
5 5 6
5 5 6
5 5 6
4 5 6
5 5 6
5 5 6
5 5 6
5 6 7
5 5 6
5 5 6
5 6 7
5 6 7
5 6 7
5 5 6
5 6 7
5 6 7
5 6 7
5 5 6
5 6 7
5 6 7
5 6 7
5 6 7
5 5 6
5 6 7
5 6 7
5 6 7
5 6 7
5 6 7
5 6 7
5 6 7
5 5 6
5 6 7
5 6 7
5 6 7
5 6 7
5 6 7
5 6 7
5 6 7
5 6 7
5 6 7
5 6 7
5 6 7
5 6 7
5 6 7
5 6 7
5 6 7
5 6 7
5 6 7
5 6 7
5 6 7
5 6 7
5 6 7
5 6 7
5 6 7
5 6 7
5 6 7
5 6 7
5 6 7
5 6 7
5 6 7
5 6 7
5 6 7
5 6 7
5 6 7
5 6 7
5 6 7
5 6 7
5 6 7
5 6 7
5 6 7
5 6 7
5 6 7
5 6 7
5 6 7
5 6 7
5 6 7
5 6 7
5 6 7
5 6 7
5 6 7
5 6 7
6 6 7
5 6 7
5 6 7
6 6 7
5 6 7
5 6 7
5 6 7
5 6 7
5 6 7
5 6 7
5 6 7
5 6 7
5 6 7
5 6 7
5 6 7
5 6 7
6 6 7
5 6 7
5 6 7
5 6 7
5 6 7
5 6 7
5 6 7
5 6 7
6 6 7
5 6 7
6 6 7
6 6 7
5 6 7
5 6 7
5 6 7
5 6 7
5 6 7
5 6 7
5 6 7
5 6 7
5 6 7
6 6 7
5 6 7
5 6 7
6 6 7
6 6 7
5 6 7
5 6 7
5 6 7
6 6 7
5 6 7
5 6 7
5 6 7
6 6 7
5 6 7
5 6 7
5 6 7
6 6 7
5 6 7
6 6 7
5 6 7
5 6 7
5 6 7
5 6 7
5 6 7
6 6 7
5 6 7
5 6 7
5 6 7
5 6 7
5 6 7
5 6 7
5 6 7
5 6 7
5 6 7
5 6 7
5 6 7
5 6 7
5 6 7
5 6 7
5 6 7
5 6 7
5 6 7
5 6 7
5 6 7
5 6 7
5 6 7
5 6 7
6 6 7
5 6 7
5 6 7
5 6 7
5 6 7
5 6 7
5 6 7
5 6 7
5 6 7
5 6 7
5 6 7
5 6 7
5 6 7
5 6 7
5 6 7
5 6 7
5 6 7
5 6 7
5 6 7
5 6 7
5 6 7
5 6 7
5 6 7
5 6 7
5 6 7
5 6 7
5 6 7
5 6 7
5 6 7
5 6 7
5 6 7
5 6 7
5 6 7
5 6 7
5 6 7
5 6 7
5 6 7
5 6 7
5 6 7
5 6 7
5 6 7
5 6 7
5 6 7
5 6 7
5 6 7
5 6 7
5 6 7
5 6 7
5 6 7
5 6 7
5 6 7
5 6 7
5 6 7
5 6 7
5 6 6
5 6 7
5 6 7
5 6 7
5 6 7
5 6 7
5 6 7
5 6 7
5 6 7
5 6 6
5 5 6
5 6 7
5 6 7
5 6 7
5 6 7
5 5 6
5 5 6
5 6 7
5 6 7
5 6 7
5 6 6
5 5 6
5 6 7
5 6 7
5 5 6
5 6 7
5 5 6
5 5 6
5 6 6
5 6 7
5 5 6
5 6 7
5 5 6
5 5 6
5 6 6
5 6 7
5 6 7
5 5 6
5 5 6
5 5 6
5 6 7
5 5 6
4 5 6
5 5 6
4 5 6
5 6 7
4 5 6
5 5 6
5 5 6
5 5 6
5 5 6
5 5 6
5 6 7
4 5 6
5 5 6
4 5 6
5 6 6
5 5 6
4 5 6
4 5 6
4 5 6
5 5 6
4 5 6
4 5 6
4 5 6
4 5 6
4 5 6
4 5 6
4 5 6
5 5 6
4 5 6
4 5 6
4 5 5
4 5 6
5 5 6
4 5 5
5 5 6
4 5 6
4 5 6
4 5 6
4 5 6
5 5 6
4 5 6
4 5 6
4 5 6
4 5 6
4 5 6
5 5 6
4 5 6
4 5 6
5 5 6
4 5 5
4 5 6
4 5 6
4 5 6
4 4 5
4 5 6
4 5 6
4 5 6
4 5 6
4 5 6
4 5 6
4 5 6
4 5 6
4 5 6
5 5 6
5 5 6
4 5 6
4 5 6
4 5 6
5 5 6
5 5 6
4 5 5
4 5 6
5 5 6
4 5 6
4 5 6
4 5 6
4 5 5
4 5 6
4 5 6
4 5 5
4 5 6
4 5 6
4 5 6
4 5 6
4 5 6
4 5 6
4 5 6
4 5 6
5 5 6
5 5 6
4 5 6
5 5 6
4 5 6
4 5 6
4 5 6
5 5 6
4 5 6
4 4 5
4 5 6
4 5 6
4 5 6
4 5 6
4 5 6
5 5 6
4 5 6
5 5 6
5 5 6
4 5 6
4 5 6
5 6 7
5 5 6
5 5 6
5 5 6
4 5 6
5 5 6
4 5 6
5 5 6
5 5 6
4 5 6
5 5 6
4 5 6
5 6 6
4 5 6
4 5 6
5 5 6
4 5 6
5 5 6
4 5 6
5 5 6
5 5 6
5 5 6
5 5 6
5 6 7
5 5 6
4 5 6
5 5 6
5 5 6
5 6 7
5 6 7
5 6 7
5 5 6
5 6 7
5 6 7
5 5 6
5 5 6
5 6 7
5 6 7
4 5 6
5 5 6
5 5 6
5 6 6
5 6 6
5 6 7
5 6 7
5 5 6
5 6 7
5 5 6
5 6 7
5 6 7
5 6 7
5 5 6
5 6 6
5 6 7
5 6 7
5 6 7
5 6 7
5 6 7
5 6 7
5 6 6
5 6 7
5 6 7
5 6 7
5 6 7
5 6 7
5 6 7
5 6 7
5 6 7
5 6 7
5 6 7
5 6 7
5 6 7
5 6 7
5 6 7
5 6 7
5 6 7
5 6 7
5 6 7
5 6 7
5 6 7
5 6 7
5 6 7
5 6 7
5 6 7
5 6 7
5 6 7
5 6 7
5 6 7
5 6 7
5 6 7
5 6 7
5 6 7
5 6 7
5 6 7
5 6 7
5 6 7
5 6 7
5 6 7
5 6 7
5 6 7
5 6 7
5 6 7
5 6 7
5 6 7
5 6 7
5 6 7
5 6 7
5 6 7
5 6 7
5 6 7
5 6 7
5 6 7
5 6 7
5 6 7
5 6 7
5 6 7
5 6 7
5 6 7
5 6 7
5 6 7
5 6 7
5 6 7
5 6 7
5 6 7
5 6 7
5 6 7
5 6 7
5 6 7
5 6 7
5 6 7
5 6 7
6 6 7
5 6 7
5 6 7
5 6 7
5 6 7
6 6 8
5 6 7
5 6 7
5 6 7
6 6 7
5 6 7
5 6 7
5 6 7
5 6 7
5 6 7
5 6 7
5 6 7
5 6 7
5 6 7
5 6 7
5 6 7
5 6 7
5 6 7
5 6 7
6 6 7
5 6 7
5 6 7
5 6 7
5 6 7
5 6 7
5 6 7
6 6 7
5 6 7
6 6 7
5 6 7
5 6 7
5 6 7
6 6 7
5 6 7
5 6 7
5 6 7
5 6 7
5 6 7
5 6 7
5 6 7
5 6 7
5 6 7
5 6 7
6 6 7
6 6 7
5 6 7
5 6 7
5 6 7
5 6 7
5 6 7
5 6 7
5 6 7
5 6 7
5 6 7
5 6 7
5 6 7
5 6 7
5 6 7
5 6 7
5 6 7
5 6 7
5 6 7
5 6 7
6 6 7
5 6 7
5 6 7
5 6 7
5 6 7
5 6 7
5 6 7
5 6 7
5 6 7
5 6 7
5 6 7
5 6 7
5 6 7
5 6 7
5 6 7
5 6 7
5 6 7
5 6 7
5 6 7
5 6 7
5 6 7
5 6 7
5 6 7
5 6 7
5 6 7
5 6 7
5 6 7
5 6 7
5 6 7
5 6 7
5 6 7
5 6 7
5 6 7
5 6 7
5 6 7
5 6 7
5 6 7
5 6 6
5 6 7
5 6 7
5 6 7
5 6 7
5 6 7
5 6 7
5 6 7
5 6 7
5 6 7
5 6 7
5 6 7
5 6 7
5 6 7
5 6 7
5 6 7
5 6 7
5 6 7
5 6 7
5 6 7
5 6 6
5 6 7
5 6 7
5 6 6
5 6 7
5 6 7
5 6 7
5 6 7
5 6 7
5 5 6
5 6 7
5 6 7
5 5 6
5 5 6
5 6 6
5 6 7
5 5 6
5 6 7
5 6 6
5 6 7
5 6 7
5 6 7
5 6 7
5 6 6
5 6 7
5 5 6
5 6 6
5 5 6
5 5 6
5 6 7
4 5 6
5 5 6
5 5 6
5 5 6
5 6 7
5 5 6
5 5 6
5 5 6
4 5 6
4 5 6
5 5 6
5 5 6
5 5 6
5 6 6
4 5 6
5 5 6
5 5 6
5 5 6
5 5 6
5 6 6
5 5 6
5 5 6
5 6 7
5 6 7
4 5 6
5 5 6
4 5 6
4 5 6
5 5 6
4 5 6
5 5 6
4 5 6
4 5 5
5 5 6
4 5 6
5 5 6
4 5 6
5 5 6
5 5 6
4 5 6
5 5 6
4 5 6
5 5 6
4 5 6
4 5 6
4 5 5
5 5 6
5 5 6
4 5 6
4 5 6
4 5 6
5 5 6
4 5 5
4 5 6
5 5 6
5 5 6
4 5 6
4 5 6
4 5 6
4 5 6
4 5 6
4 5 6
4 5 6
4 5 6
4 5 6
4 5 6
4 4 5
4 5 5
4 5 6
4 5 6
4 5 6
4 5 6
4 5 6
4 5 6
4 5 6
4 5 6
4 5 6
4 5 6
4 5 6
4 5 6
4 5 6
5 5 6
4 5 6
4 5 6
4 5 6
4 5 6
4 5 6
4 5 6
4 5 6
5 5 6
4 5 6
4 5 6
4 5 6
4 5 6
5 5 6
4 5 6
4 5 6
4 5 5
4 5 6
5 5 6
4 5 6
4 5 6
5 6 6
4 5 6
5 5 6
4 5 6
5 5 6
5 5 6
5 5 6
5 5 6
4 5 6
5 5 6
5 5 6
4 5 6
4 5 6
4 5 6
4 5 6
4 5 6
5 5 6
4 5 6
5 5 6
5 5 6
5 5 6
5 5 6
4 5 6
4 5 6
5 5 6
5 5 6
5 5 6
5 5 6
5 5 6
5 5 6
5 5 6
4 5 6
4 5 6
5 5 6
5 5 6
5 6 7
5 5 6
5 5 6
5 5 6
5 5 6
5 6 7
5 5 6
5 6 7
5 5 6
5 5 6
5 6 7
5 6 7
5 6 6
5 6 7
5 5 6
5 5 6
5 5 6
5 6 7
5 6 7
5 5 6
5 6 6
5 6 7
5 6 7
5 6 7
5 5 6
5 6 6
5 6 7
5 5 6
5 6 7
5 5 6
5 6 7
5 6 7
5 5 6
5 5 6
5 6 7
5 6 7
5 6 7
5 6 7
5 5 6
5 5 6
5 6 7
5 6 7
5 6 7
5 6 7
5 6 7
5 6 7
5 6 7
5 6 7
5 6 7
5 6 7
5 6 7
5 6 7
5 6 7
5 6 7
5 6 7
5 6 7
5 6 7
5 6 7
5 6 7
5 6 7
5 6 7
5 6 7
5 6 7
5 6 7
5 6 7
5 6 7
5 6 7
5 6 7
5 6 7
5 6 7
5 6 7
5 6 7
5 6 7
5 6 7
5 6 7
5 6 7
5 6 7
5 6 7
5 6 7
5 6 7
5 6 7
5 6 7
5 6 7
5 6 7
5 6 7
5 6 7
5 6 7
5 6 7
5 6 7
5 6 7
5 6 7
5 6 7
5 6 7
5 6 7
5 6 7
5 6 7
5 6 7
5 6 7
5 6 7
5 6 7
5 6 7
5 6 7
5 6 7
5 6 7
5 6 7
5 6 7
5 6 7
5 6 7
5 6 7
5 6 7
5 6 7
5 6 7
5 6 7
6 6 7
5 6 7
5 6 7
5 6 7
5 6 7
5 6 7
5 6 7
5 6 7
5 6 7
5 6 7
5 6 7
6 6 7
5 6 7
5 6 7
5 6 7
6 6 7
5 6 7
6 6 7
6 6 7
6 6 7
6 6 7
5 6 7
5 6 7
5 6 7
5 6 7
5 6 7
5 6 7
6 6 7
6 6 7
5 6 7
6 6 7
6 6 7
6 6 7
5 6 7
5 6 7
5 6 7
5 6 7
5 6 7
5 6 7
5 6 7
5 6 7
5 6 7
5 6 7
5 6 7
5 6 7
5 6 7
5 6 7
6 6 7
5 6 7
5 6 7
5 6 7
5 6 7
5 6 7
5 6 7
5 6 7
6 6 7
5 6 7
6 6 7
5 6 7
5 6 7
5 6 7
5 6 7
5 6 7
5 6 7
5 6 7
5 6 7
5 6 7
5 6 7
5 6 7
5 6 7
5 6 7
5 6 7
5 6 7
5 6 7
5 6 7
5 6 7
5 6 7
5 6 7
5 6 7
5 6 7
5 6 7
5 6 7
5 6 7
5 6 7
5 6 7
5 6 7
5 6 7
5 6 7
5 6 7
5 6 7
5 6 7
5 6 7
5 6 7
5 6 7
5 6 7
5 6 7
5 6 7
5 6 7
5 6 7
5 6 7
5 6 7
5 6 7
5 6 7
5 6 7
5 6 7
5 6 7
5 6 7
5 6 7
5 6 7
5 6 7
5 6 7
5 6 7
5 6 7
5 6 7
5 6 7
5 6 7
5 6 7
5 6 7
5 6 7
5 6 7
5 6 6
5 6 7
5 6 7
5 6 7
5 6 7
5 6 7
5 6 7
5 6 7
5 6 7
5 6 7
5 5 6
5 6 7
5 6 6
5 6 7
5 6 7
5 5 6
5 6 7
5 5 6
5 6 6
5 6 7
5 6 6
5 6 7
5 5 6
5 5 6
5 6 6
5 5 6
5 5 6
5 5 6
5 6 6
5 6 7
5 6 7
5 6 7
5 5 6
5 5 6
5 5 6
5 6 6
5 6 6
5 6 7
5 5 6
4 5 5
5 5 6
4 5 6
5 5 6
5 5 6
5 6 7
4 5 6
5 5 6
5 5 6
4 5 6
5 5 6
5 5 6
5 5 6
4 5 6
4 5 6
4 5 6
5 5 6
5 5 6
4 5 6
4 5 6
5 5 6
5 5 6
4 5 6
5 5 6
5 5 6
4 5 6
4 5 6
4 5 6
4 5 6
4 5 6
4 5 6
4 5 6
4 5 6
4 5 6
4 5 6
5 5 6
4 5 6
4 5 6
5 5 6
4 5 6
4 5 6
4 5 5
4 5 6
4 5 5
4 5 6
5 5 6
4 5 6
4 5 6
4 5 6
5 5 6
4 5 5
4 5 6
5 5 6
4 5 6
5 5 6
5 5 6
4 5 6
5 6 7
5 5 6
4 5 6
4 5 6
4 5 6
4 5 6
4 5 6
4 5 6
4 5 6
4 5 6
4 5 6
4 5 6
4 5 6
4 5 6
4 5 6
4 5 6
4 5 5
4 5 6
5 6 6
5 5 6
5 5 6
5 5 6
4 5 6
4 5 6
4 5 5
4 5 6
5 5 6
5 5 6
5 5 6
5 5 6
4 5 6
4 5 5
4 5 6
4 5 6
4 5 6
4 5 6
4 5 6
4 5 6
4 5 6
4 5 6
4 5 6
5 5 6
5 5 6
4 5 6
5 5 6
4 5 6
4 5 6
4 5 5
5 6 6
4 5 5
4 5 6
5 5 6
5 5 6
4 5 6
4 5 6
5 5 6
5 5 6
5 5 6
5 5 6
4 5 6
5 5 6
5 5 6
5 5 6
5 5 6
5 5 6
5 6 7
5 5 6
5 5 6
5 5 6
5 6 7
5 5 6
5 6 6
5 5 6
5 6 6
5 6 7
5 6 7
5 5 6
5 5 6
5 5 6
5 5 6
5 6 7
5 6 7
5 6 6
5 5 6
5 5 6
5 5 6
5 5 6
5 5 6
5 5 6
5 6 7
5 6 7
5 5 6
5 6 7
5 5 6
5 6 7
5 6 7
5 5 6
5 6 7
5 6 7
5 6 7
5 6 6
5 6 7
5 6 7
5 6 7
5 6 7
5 6 7
5 6 7
5 6 7
5 6 7
5 6 7
5 6 7
5 6 7
5 6 7
5 6 7
5 6 7
5 6 7
5 6 7
5 6 7
5 6 7
5 6 7
5 6 7
5 6 7
5 6 7
5 6 7
5 6 7
5 6 7
5 6 7
5 6 7
5 6 7
5 6 7
5 6 7
5 6 7
5 6 7
5 6 7
5 6 7
5 6 7
5 6 7
5 6 7
5 6 7
5 6 7
5 6 7
5 6 7
5 6 7
5 6 7
5 6 7
5 6 7
5 6 7
5 6 7
5 6 7
5 6 7
5 6 7
5 6 7
5 6 7
5 6 7
5 6 7
5 6 7
5 6 7
5 6 7
5 6 7
5 6 7
5 6 7
5 6 7
5 6 7
5 6 7
5 6 7
5 6 7
5 6 7
5 6 7
5 6 7
5 6 7
5 6 7
5 6 7
5 6 7
5 6 7
5 6 7
5 6 7
5 6 7
5 6 7
5 6 7
5 6 7
5 6 7
5 6 7
6 6 7
5 6 7
5 6 7
5 6 7
5 6 7
5 6 7
5 6 7
6 6 7
5 6 7
5 6 7
5 6 7
5 6 7
5 6 7
5 6 7
6 6 7
5 6 7
5 6 7
5 6 7
5 6 7
5 6 7
6 6 7
6 6 8
5 6 7
5 6 7
5 6 7
5 6 7
5 6 7
6 6 7
5 6 7
6 6 7
5 6 7
5 6 7
5 6 7
5 6 7
5 6 7
5 6 7
5 6 7
6 6 7
5 6 7
5 6 7
5 6 7
5 6 7
5 6 7
5 6 7
5 6 7
5 6 7
5 6 7
5 6 7
5 6 7
5 6 7
5 6 7
5 6 7
5 6 7
5 6 7
5 6 7
5 6 7
5 6 7
5 6 7
5 6 7
5 6 7
5 6 7
5 6 7
5 6 7
5 6 7
5 6 7
5 6 7
5 6 7
5 6 7
5 6 7
5 6 7
5 6 7
5 6 7
5 6 7
5 6 7
5 6 7
5 6 7
5 6 7
5 6 7
5 6 7
5 6 7
5 6 7
5 6 7
5 6 7
5 6 7
5 6 7
5 6 7
5 6 7
5 6 7
5 6 7
5 6 7
5 6 7
5 6 7
5 6 7
5 6 7
5 6 7
5 6 7
5 6 7
5 6 7
5 6 7
5 6 7
5 6 7
5 6 7
5 6 7
5 6 7
5 6 7
5 6 7
5 5 6
5 6 7
5 6 7
5 6 7
5 6 7
5 6 7
5 6 7
5 6 7
5 6 7
5 6 7
5 6 7
5 6 7
5 6 7
5 6 7
5 6 7
5 6 7
5 5 6
5 6 6
5 6 7
5 6 7
5 6 7
5 6 7
5 6 7
5 6 7
5 5 6
5 6 7
5 6 7
5 6 7
5 5 6
5 5 6
5 6 7
5 6 7
5 6 7
5 6 7
5 6 7
5 6 7
5 6 7
5 5 6
5 6 7
5 5 6
5 6 7
5 6 7
5 6 7
5 6 7
5 5 6
5 5 6
5 5 6
5 5 6
4 5 6
5 6 6
5 5 6
5 5 6
5 5 6
5 5 6
5 6 6
5 5 6
5 5 6
5 5 6
4 5 6
4 5 6
5 5 6
4 5 6
5 5 6
5 5 6
4 5 6
5 6 7
5 6 6
4 5 6
5 6 7
5 5 6
5 5 6
4 5 6
4 5 6
5 5 6
4 5 6
5 6 6
5 5 6
4 5 6
4 5 6
4 5 6
5 5 6
5 5 6
4 5 6
5 5 6
4 5 6
5 5 6
4 5 6
4 5 6
5 5 6
5 5 6
4 5 6
4 5 5
5 5 6
4 5 6
5 5 6
5 5 6
4 4 5
4 4 5
4 5 6
4 5 6
4 5 6
4 5 6
5 5 6
4 5 6
4 5 6
4 5 6
4 5 6
4 5 6
4 5 6
5 5 6
4 5 6
4 5 6
4 4 5
4 5 6
4 5 6
4 5 6
4 5 6
4 4 5
4 5 5
4 5 6
5 5 6
4 5 6
4 4 5
4 5 6
4 5 5
4 5 6
4 5 6
4 5 6
4 5 6
5 5 6
4 5 5
4 5 6
4 5 6
5 5 6
4 5 6
4 5 6
5 5 6
4 5 6
5 5 6
4 5 6
4 5 6
4 5 6
5 5 6
4 5 6
4 5 6
5 5 6
4 5 6
5 5 6
4 5 6
4 5 6
5 5 6
5 6 7
5 5 6
4 5 6
5 5 6
5 6 6
5 5 6
4 5 6
5 5 6
4 5 6
5 5 6
4 5 6
4 5 6
5 5 6
5 5 6
4 5 6
5 5 6
4 5 6
5 5 6
4 5 6
5 5 6
5 6 6
5 5 6
5 5 6
4 5 6
4 5 6
5 6 7
5 5 6
5 5 6
5 5 6
5 6 7
5 5 6
5 5 6
5 6 7
5 6 7
5 5 6
5 5 6
5 5 6
5 5 6
5 6 7
5 6 7
5 6 7
5 6 7
5 6 7
5 6 7
5 5 6
5 5 6
5 6 7
5 6 7
5 6 7
5 5 6
5 6 7
5 6 6
5 6 7
5 6 7
5 6 6
5 6 7
5 6 7
5 6 7
5 5 6
5 6 7
5 6 7
5 6 7
5 6 7
5 6 7
5 6 7
5 6 7
5 6 7
5 6 7
5 6 7
5 6 6
5 5 6
5 6 7
5 6 7
5 6 7
5 6 7
5 6 7
5 6 7
5 6 7
5 6 7
5 6 7
5 6 7
5 6 7
5 6 7
5 6 7
5 6 7
5 6 7
5 6 7
5 6 7
5 6 7
5 6 7
5 6 7
5 6 7
5 6 7
5 6 7
5 6 7
5 6 7
5 6 7
5 6 7
5 6 7
5 6 7
5 6 7
5 6 7
5 6 7
5 6 7
5 6 7
5 6 7
5 6 7
5 6 7
5 6 7
5 6 7
5 6 7
5 6 7
5 6 7
5 6 7
5 6 7
5 6 7
5 6 7
5 6 7
5 6 7
5 6 7
5 6 7
5 6 7
5 6 7
5 6 7
5 6 7
5 6 7
5 6 7
5 6 7
5 6 7
5 6 7
5 6 7
5 6 7
5 6 7
5 6 7
5 6 7
5 6 7
5 6 7
5 6 7
5 6 7
5 6 7
6 6 7
5 6 7
5 6 7
5 6 7
5 6 7
5 6 7
5 6 7
5 6 7
5 6 7
5 6 7
5 6 7
5 6 7
5 6 7
5 6 7
6 6 7
6 6 7
5 6 7
5 6 7
5 6 7
5 6 7
5 6 7
5 6 7
5 6 7
5 6 7
5 6 7
6 6 7
6 6 7
5 6 7
5 6 7
5 6 7
5 6 7
5 6 7
5 6 7
5 6 7
5 6 7
6 6 8
5 6 7
6 6 7
5 6 7
5 6 7
5 6 7
5 6 7
5 6 7
5 6 7
5 6 7
5 6 7
5 6 7
5 6 7
5 6 7
5 6 7
5 6 7
6 6 8
5 6 7
5 6 7
5 6 7
6 6 7
5 6 7
5 6 7
5 6 7
5 6 7
5 6 7
5 6 7
5 6 7
5 6 7
6 6 7
5 6 7
5 6 7
5 6 7
5 6 7
5 6 7
5 6 7
5 6 7
5 6 7
5 6 7
5 6 7
5 6 7
5 6 7
5 6 7
5 6 7
5 6 7
5 6 7
5 6 7
5 6 7
5 6 7
5 6 7
5 6 7
5 6 7
5 6 7
5 6 7
5 6 7
5 6 7
5 6 7
5 6 7
5 6 7
5 6 7
5 6 7
5 6 7
5 6 7
5 6 7
5 6 7
5 6 7
5 6 7
5 6 7
5 6 7
5 6 7
5 6 7
5 6 7
5 6 7
5 6 7
5 6 7
5 6 7
5 6 7
5 6 7
5 6 7
5 6 7
5 6 7
5 6 7
5 6 7
5 6 7
5 6 7
5 6 7
5 5 6
5 6 7
5 6 7
5 6 7
5 5 6
5 6 7
5 6 7
5 6 7
5 6 7
5 6 7
5 6 7
5 5 6
5 6 7
5 6 7
5 5 6
5 6 7
5 6 7
5 6 7
5 6 7
5 6 7
5 5 6
5 6 7
5 5 6
5 5 6
5 5 6
5 5 6
5 5 6
5 6 7
5 5 6
5 5 6
5 6 6
5 5 6
5 6 6
5 5 6
5 5 6
5 5 6
5 5 6
5 5 6
5 5 6
5 5 6
5 6 7
5 5 6
5 5 6
5 5 6
5 6 7
5 6 7
4 5 6
5 5 6
5 5 6
5 5 6
5 6 6
4 5 6
4 5 6
5 5 6
5 5 6
5 5 6
5 5 6
5 5 6
4 5 6
5 5 6
5 5 6
5 6 6
4 5 6
4 5 5
5 5 6
4 5 6
5 5 6
4 5 6
5 5 6
4 5 6
5 5 6
4 5 6
4 5 6
4 5 6
4 5 6
5 5 6
5 5 6
4 5 5
5 5 6
4 5 6
4 5 6
4 5 6
4 5 6
4 5 6
4 5 6
4 5 6
5 5 6
4 5 6
5 5 6
4 5 6
4 5 6
4 5 6
5 5 6
4 5 5
4 5 6
4 5 6
4 5 6
5 5 6
4 5 6
5 5 6
4 5 6
4 5 6
4 5 6
4 5 5
5 5 6
4 5 6
4 5 5
4 5 6
4 5 6
5 5 6
4 5 6
4 5 6
4 5 5
4 5 6
5 5 6
4 5 6
4 5 6
4 5 6
4 5 6
4 5 6
4 5 6
5 5 6
5 5 6
4 5 6
5 5 6
4 5 6
5 5 6
4 5 6
5 5 6
4 5 6
5 5 6
4 5 6
4 5 6
4 5 6
5 5 6
4 5 6
5 5 6
5 5 6
5 5 6
4 5 6
4 5 6
4 5 6
5 5 6
5 5 6
5 5 6
5 5 6
4 5 6
5 5 6
4 5 6
5 5 6
5 5 6
4 5 6
5 5 6
5 5 6
5 5 6
5 6 6
5 5 6
5 5 6
4 5 6
5 6 7
4 5 6
5 5 6
5 6 7
5 5 6
5 5 6
5 5 6
5 5 6
5 5 6
5 6 7
5 5 6
5 6 6
5 5 6
5 5 6
5 5 6
5 6 7
5 6 7
5 6 7
5 5 6
4 5 6
5 5 6
5 6 7
5 5 6
5 6 7
5 6 7
5 6 7
5 6 7
5 6 7
5 6 7
5 5 6
5 5 6
5 5 6
5 6 7
5 6 7
5 6 7
5 5 6
5 6 7
5 5 6
5 6 7
5 6 7
5 6 7
5 6 7
5 6 7
5 6 7
5 6 7
5 6 7
5 6 7
5 6 7
5 6 7
5 6 7
5 6 7
5 6 7
5 6 7
5 6 7
5 6 7
5 6 7
5 6 7
5 6 7
5 6 7
5 6 7
5 6 7
5 6 7
5 6 7
5 6 7
5 6 7
5 6 7
5 6 7
5 6 7
5 6 7
5 6 7
5 6 7
5 6 7
5 6 7
5 6 7
5 6 7
5 6 7
5 6 7
5 6 7
5 6 7
5 6 7
5 6 7
5 6 7
5 6 7
5 6 7
5 6 7
5 6 7
5 6 7
5 6 7
6 6 7
5 6 7
5 6 7
5 6 7
5 6 7
5 6 7
5 6 7
5 6 7
5 6 7
5 6 7
5 6 7
5 6 7
5 6 7
5 6 7
5 6 7
5 6 7
5 6 7
5 6 7
5 6 7
5 6 7
5 6 7
5 6 7
5 6 7
5 6 7
5 6 7
5 6 7
5 6 7
5 6 7
5 6 7
5 6 7
5 6 7
5 6 7
5 6 7
5 6 7
5 6 7
5 6 7
5 6 7
5 6 7
5 6 7
5 6 7
5 6 7
5 6 7
6 6 7
5 6 7
5 6 7
5 6 7
5 6 7
5 6 7
5 6 7
5 6 7
5 6 7
5 6 7
5 6 7
5 6 7
5 6 7
5 6 7
5 6 7
5 6 7
5 6 7
5 6 7
5 6 7
5 6 7
5 6 7
5 6 7
5 6 7
6 6 7
5 6 7
5 6 7
5 6 7
5 6 7
5 6 7
5 6 7
5 6 7
5 6 7
5 6 7
5 6 7
5 6 7
5 6 7
6 6 7
5 6 7
5 6 7
6 6 7
6 6 7
5 6 7
5 6 7
5 6 7
5 6 7
5 6 7
5 6 7
5 6 7
5 6 7
5 6 7
5 6 7
5 6 7
5 6 7
5 6 7
5 6 7
5 6 7
5 6 7
5 6 7
5 6 7
5 6 7
5 6 7
5 6 7
5 6 7
5 6 7
5 6 7
5 6 7
5 6 7
5 6 7
5 6 7
5 6 7
5 6 7
5 6 7
5 6 7
5 6 7
5 6 7
5 6 7
5 6 7
5 6 7
5 6 7
5 6 7
5 6 7
5 6 7
5 6 7
5 6 7
5 6 7
5 6 7
5 6 7
5 6 7
5 6 7
5 6 7
5 6 7
5 6 7
5 6 7
5 6 7
5 6 7
5 6 7
5 6 7
5 6 7
5 6 7
5 6 7
5 6 7
5 6 7
5 6 7
5 6 7
5 6 7
5 6 7
5 6 7
5 6 7
5 6 7
5 6 7
5 6 7
5 6 7
5 6 7
5 6 7
5 6 7
5 6 6
5 6 7
5 6 7
5 6 7
5 6 7
5 6 6
5 6 7
5 6 6
5 6 7
5 6 7
5 6 7
5 5 6
5 5 6
5 6 7
5 6 7
5 6 7
5 5 6
5 6 7
5 5 6
5 6 7
5 6 7
5 6 6
5 6 6
5 5 6
5 6 7
4 5 6
5 6 6
5 6 7
5 6 7
5 6 6
4 5 6
5 6 7
5 5 6
5 6 7
5 5 6
5 5 6
5 5 6
5 5 6
5 6 7
5 6 7
5 6 6
5 6 7
5 5 6
5 5 6
4 5 6
5 5 6
5 5 6
5 5 6
5 5 6
4 5 6
5 5 6
4 5 6
4 5 6
5 5 6
5 5 6
5 5 6
5 5 6
5 5 6
5 6 7
5 5 6
5 5 6
5 5 6
5 5 6
4 5 6
4 5 6
5 5 6
5 5 6
4 5 6
4 5 6
5 6 6
5 5 6
5 5 6
5 5 6
4 5 6
4 5 6
5 5 6
5 5 6
5 5 6
5 5 6
4 5 6
4 5 6
4 5 6
4 5 6
5 5 6
5 5 6
5 5 6
4 5 6
5 5 6
4 4 5
4 5 6
4 5 6
4 5 6
5 5 6
5 5 6
5 5 6
4 5 5
4 5 6
4 5 6
4 5 6
4 5 6
4 5 6
5 5 6
5 5 6
4 5 6
4 5 6
5 5 6
4 5 5
5 5 6
4 5 6
4 5 6
4 5 6
5 5 6
4 5 6
4 5 6
4 5 6
4 5 6
4 5 6
4 5 6
4 5 6
4 5 6
5 5 6
4 5 6
5 5 6
4 5 5
5 5 6
5 5 6
4 5 6
4 5 6
5 6 7
4 5 6
4 5 6
4 5 6
4 5 6
5 6 6
4 5 6
5 5 6
4 5 6
5 6 6
5 5 6
4 5 6
5 5 6
5 5 6
4 5 6
4 5 6
5 5 6
5 6 6
4 5 6
5 5 6
4 5 6
5 5 6
5 5 6
5 5 6
5 5 6
5 5 6
5 5 6
5 5 6
5 5 6
5 5 6
5 5 6
5 6 7
5 5 6
5 6 6
5 6 7
5 5 6
5 5 6
5 5 6
5 6 7
5 6 6
5 5 6
5 5 6
5 6 7
5 5 6
5 5 6
5 6 7
5 6 6
5 6 7
5 6 6
5 5 6
5 6 7
5 6 6
5 5 6
5 5 6
5 6 6
5 5 6
5 6 7
5 6 7
5 6 6
5 6 7
5 6 7
5 5 6
5 6 7
5 6 7
5 6 7
5 6 7
5 5 6
5 6 6
5 6 7
5 6 7
5 6 7
5 6 7
5 6 6
5 6 7
5 6 7
5 6 7
5 6 7
5 6 7
5 6 7
5 6 7
5 6 7
5 6 6
5 6 7
5 6 7
5 6 7
5 6 7
5 6 7
5 6 7
5 6 7
5 6 7
5 6 7
5 6 7
5 5 6
5 5 6
5 6 7
5 6 7
5 6 7
5 6 7
5 6 7
5 6 7
5 6 7
5 6 7
5 6 7
5 6 7
5 6 7
5 6 7
5 6 7
5 6 7
5 6 7
5 6 7
5 6 7
5 6 7
5 6 7
5 6 7
5 6 7
5 6 7
5 6 7
5 6 7
5 6 7
5 6 7
5 6 7
5 6 7
5 6 7
5 6 7
5 6 7
5 6 7
5 6 7
5 6 7
5 6 7
5 6 7
5 6 7
5 6 7
5 6 7
5 6 7
5 6 7
5 6 7
5 6 7
5 6 7
5 6 7
5 6 7
5 6 7
5 6 7
5 6 7
5 6 7
5 6 7
5 6 7
5 6 7
5 6 7
5 6 7
5 6 7
5 6 7
5 6 7
5 6 7
5 6 7
5 6 7
6 6 8
5 6 7
5 6 7
6 6 7
5 6 7
6 6 7
5 6 7
5 6 7
5 6 7
5 6 7
5 6 7
5 6 7
6 6 7
5 6 7
5 6 7
6 6 7
5 6 7
6 6 7
6 6 7
5 6 7
6 6 7
5 6 7
5 6 7
5 6 7
5 6 7
5 6 7
5 6 7
6 6 7
6 6 7
5 6 7
5 6 7
5 6 7
6 6 7
6 6 7
5 6 7
5 6 7
5 6 7
5 6 7
5 6 7
5 6 7
5 6 7
5 6 7
5 6 7
5 6 7
5 6 7
5 6 7
5 6 7
5 6 7
5 6 7
5 6 7
5 6 7
5 6 7
5 6 7
5 6 7
5 6 7
5 6 7
5 6 7
5 6 7
5 6 7
5 6 7
5 6 7
5 6 7
5 6 7
5 6 7
5 6 7
5 6 7
5 6 7
5 6 7
5 6 7
5 6 7
5 6 7
5 6 7
5 6 7
5 6 7
5 6 7
5 6 7
5 6 7
5 6 7
5 6 7
5 6 7
5 6 7
5 6 7
5 6 7
5 6 7
5 6 7
5 6 7
5 6 7
5 6 7
5 6 7
5 6 7
5 6 7
5 6 7
5 6 7
5 6 7
5 6 7
5 6 7
5 6 7
5 6 7
5 6 7
5 6 7
5 6 7
5 6 7
5 6 7
5 6 7
5 6 7
5 6 7
5 6 7
5 6 7
5 6 7
5 6 7
5 6 7
5 6 7
5 6 7
5 6 7
5 6 7
5 6 7
5 6 7
5 6 7
5 6 7
5 6 7
5 6 7
5 6 7
5 6 7
5 6 7
5 6 7
5 6 7
5 6 7
5 6 7
5 6 6
5 6 7
5 6 7
5 5 6
5 6 7
5 5 6
5 6 7
5 5 6
5 5 6
5 6 6
5 6 7
5 6 7
5 6 6
5 6 6
5 5 6
5 6 6
5 6 7
5 6 6
5 5 6
5 5 6
5 6 6
5 6 7
5 6 7
5 5 6
5 5 6
5 5 6
4 5 6
5 5 6
5 6 6
5 5 6
5 6 7
5 5 6
4 5 6
5 5 6
5 6 7
5 5 6
5 5 6
5 5 6
4 5 6
5 5 6
5 5 6
5 5 6
5 5 6
5 6 7
5 5 6
5 5 6
4 5 6
4 5 6
5 5 6
5 5 6
5 5 6
4 5 6
4 5 5
4 5 6
5 5 6
4 5 6
4 5 6
5 5 6
5 5 6
4 5 6
5 5 6
4 5 6
4 5 6
4 5 6
4 5 6
5 5 6
5 5 6
4 5 5
5 5 6
5 5 6
4 5 6
5 5 6
4 5 6
4 5 6
4 5 6
5 6 7
5 5 6
5 5 6
4 5 6
5 5 6
5 5 6
4 5 6
4 5 6
5 5 6
5 5 6
4 5 5
4 5 6
5 5 6
4 5 6
5 5 6
5 5 6
5 5 6
4 5 6
4 5 6
5 5 6
4 5 5
4 5 6
4 5 6
5 5 6
5 5 6
4 5 6
4 5 6
4 5 6
4 5 6
4 5 6
5 5 6
5 5 6
4 5 5
4 5 6
5 5 6
4 5 6
4 5 6
5 5 6
4 5 6
4 5 5
4 5 6
5 5 6
4 5 6
5 5 6
4 5 6
4 5 6
5 5 6
5 6 6
4 5 6
4 5 6
4 5 6
4 5 6
4 5 6
5 5 6
5 5 6
5 5 6
4 5 6
5 5 6
5 5 6
5 5 6
5 5 6
4 5 6
5 5 6
5 5 6
5 6 6
5 5 6
5 5 6
5 5 6
4 5 6
5 6 6
5 5 6
5 5 6
5 5 6
5 5 6
5 6 7
5 5 6
5 6 6
5 6 6
5 5 6
5 5 6
5 5 6
5 6 7
5 6 7
5 5 6
5 5 6
5 5 6
5 6 7
5 6 6
5 6 6
5 5 6
5 5 6
5 5 6
5 5 6
5 6 6
5 5 6
5 6 7
5 5 6
5 6 7
5 5 6
5 6 7
5 6 7
5 6 7
5 6 7
5 6 7
5 6 7
5 6 7
5 6 7
5 6 7
5 5 6
5 6 7
5 6 7
5 6 7
5 5 6
5 5 6
5 6 7
5 6 7
5 6 7
5 6 7
5 6 7
5 6 7
5 6 7
5 6 6
5 6 7
5 6 7
5 6 7
5 6 7
5 6 7
5 6 7
5 6 7
5 6 7
5 6 7
5 6 7
5 6 7
5 6 7
5 6 7
5 6 7
5 5 6
5 6 7
5 6 7
5 6 7
5 6 7
5 6 7
5 6 7
5 6 7
5 6 7
5 6 7
5 6 7
5 6 7
5 6 7
5 6 7
5 6 7
5 6 7
5 6 7
5 6 7
5 6 7
5 6 7
5 6 7
5 6 7
5 6 7
5 6 7
5 6 7
5 6 7
5 6 7
5 6 7
5 6 7
5 6 7
5 6 7
5 6 7
5 6 7
5 6 7
5 6 7
5 6 7
5 6 7
5 6 7
5 6 7
5 6 7
5 6 7
5 6 7
5 6 7
5 6 7
5 6 7
5 6 7
5 6 7
5 6 7
5 6 7
5 6 7
5 6 7
6 6 7
5 6 7
5 6 7
5 6 7
5 6 7
5 6 7
5 6 7
5 6 7
5 6 7
5 6 7
5 6 7
5 6 7
5 6 7
5 6 7
5 6 7
5 6 7
5 6 7
5 6 7
6 6 7
6 6 7
6 6 7
5 6 7
6 6 7
5 6 7
5 6 7
6 6 7
5 6 7
5 6 7
6 6 7
5 6 7
5 6 7
5 6 7
5 6 7
6 6 7
5 6 7
5 6 7
5 6 7
5 6 7
5 6 7
5 6 7
5 6 7
5 6 7
5 6 7
5 6 7
5 6 7
5 6 7
5 6 7
5 6 7
5 6 7
5 6 7
5 6 7
5 6 7
5 6 7
5 6 7
5 6 7
5 6 7
5 6 7
5 6 7
6 6 7
5 6 7
5 6 7
5 6 7
5 6 7
5 6 7
5 6 7
5 6 7
5 6 7
5 6 7
5 6 7
5 6 7
5 6 7
5 6 7
5 6 7
5 6 7
5 6 7
5 6 7
5 6 7
5 6 7
5 6 7
5 6 7
5 6 7
5 6 7
5 6 7
5 6 7
5 6 7
5 6 7
5 6 7
5 6 7
5 6 7
5 6 7
5 6 7
5 6 7
5 6 7
5 6 7
5 6 7
5 6 7
5 6 7
5 6 7
5 6 7
5 6 7
5 6 7
5 6 7
5 6 7
5 6 7
5 6 7
5 6 7
5 6 7
5 6 7
5 6 7
5 6 7
5 6 7
5 6 7
5 6 7
5 6 7
5 6 7
5 6 7
5 6 7
5 6 7
5 6 7
5 6 7
5 6 7
5 6 7
5 6 7
5 6 7
5 6 6
5 6 7
5 6 7
5 6 7
5 6 7
5 6 7
5 6 7
5 6 7
5 6 7
5 6 7
5 6 7
5 6 7
5 6 7
5 6 7
5 6 7
5 6 7
5 6 7
5 6 7
5 5 6
5 6 7
5 5 6
5 6 6
5 6 7
5 5 6
5 6 6
5 6 7
5 5 6
5 6 6
5 6 6
5 5 6
5 5 6
5 5 6
5 5 6
5 5 6
5 5 6
5 6 6
5 5 6
5 5 6
4 5 6
5 5 6
5 5 6
5 6 7
5 6 6
5 5 6
5 5 6
5 6 7
4 5 6
5 5 6
5 5 6
5 5 6
5 5 6
5 5 6
4 5 6
5 6 7
5 5 6
5 5 6
5 5 6
5 6 7
4 5 6
5 5 6
5 6 7
4 5 6
5 5 6
5 5 6
5 5 6
5 6 6
5 5 6
5 6 6
5 6 6
4 5 6
5 5 6
5 5 6
4 5 6
5 5 6
4 5 6
4 5 6
4 5 6
5 5 6
4 5 6
4 5 6
4 5 6
5 5 6
4 5 6
5 5 6
5 5 6
4 5 6
4 5 6
4 5 6
4 5 6
4 5 6
4 5 5
4 5 6
4 5 6
4 5 6
4 5 6
4 5 6
5 5 6
4 5 6
5 5 6
4 5 6
5 5 6
4 5 6
4 5 6
4 5 6
5 5 6
4 5 6
5 5 6
4 5 6
5 5 6
4 5 6
5 5 6
5 5 6
4 5 6
5 5 6
5 5 6
4 5 6
5 5 6
4 5 6
4 5 6
4 5 6
4 5 6
4 5 6
4 5 6
4 5 6
5 5 6
5 5 6
4 5 6
4 5 5
4 5 6
4 5 6
5 5 6
5 5 6
4 5 6
4 5 6
4 5 6
4 5 6
4 5 6
5 6 7
5 6 7
4 5 6
5 5 6
4 5 6
5 5 6
5 5 6
5 5 6
4 5 6
4 5 6
5 5 6
4 5 6
5 5 6
4 5 6
5 5 6
4 5 6
5 5 6
4 5 6
5 6 6
4 5 6
4 5 6
4 5 6
5 5 6
4 5 6
5 5 6
5 5 6
5 5 6
5 5 6
5 5 6
5 5 6
5 5 6
5 6 7
5 5 6
5 6 7
5 5 6
5 6 6
5 6 7
5 5 6
5 5 6
5 5 6
5 6 6
5 6 6
5 6 7
5 6 7
5 5 6
5 6 7
5 6 7
5 6 7
5 6 7
4 5 6
5 6 7
5 5 6
5 6 6
5 5 6
5 6 7
5 6 7
5 5 6
5 6 7
5 5 6
5 5 6
5 6 7
5 6 6
5 6 7
5 6 6
5 5 6
5 6 7
5 6 7
5 6 7
5 6 7
5 6 7
5 6 7
5 6 7
5 6 7
5 6 7
5 6 7
5 6 7
5 6 7
5 6 7
5 6 7
5 5 6
5 6 7
5 6 7
5 6 7
5 6 7
5 6 7
5 6 7
5 6 7
5 6 7
5 6 7
5 6 7
5 6 7
5 6 7
5 6 7
5 6 7
5 6 7
5 6 7
5 6 7
5 6 7
5 6 7
5 6 7
5 6 7
5 6 7
5 6 7
5 6 7
5 6 7
5 6 7
5 6 7
5 6 7
5 6 7
5 6 7
5 6 7
5 6 7
5 6 7
5 6 7
5 6 7
5 6 7
5 6 7
5 6 7
5 6 7
5 6 7
5 6 7
5 6 7
5 6 7
5 6 7
5 6 7
5 6 7
5 6 7
5 6 7
5 6 7
5 6 7
5 6 7
5 6 7
5 6 7
5 6 7
5 6 7
5 6 7
5 6 7
5 6 7
5 6 7
5 6 7
5 6 7
5 6 7
5 6 7
5 6 7
5 6 7
5 6 7
6 6 7
5 6 7
5 6 7
5 6 7
5 6 7
5 6 7
5 6 7
6 6 7
5 6 7
5 6 7
5 6 7
5 6 7
5 6 7
5 6 7
5 6 7
6 6 7
5 6 7
5 6 7
5 6 7
5 6 7
5 6 7
5 6 7
5 6 7
5 6 7
6 6 7
5 6 7
5 6 7
5 6 7
5 6 7
5 6 7
6 6 7
5 6 7
5 6 7
5 6 7
5 6 7
5 6 7
5 6 7
5 6 7
5 6 7
5 6 7
6 6 7
5 6 7
5 6 7
5 6 7
5 6 7
5 6 7
5 6 7
5 6 7
5 6 7
5 6 7
5 6 7
5 6 7
5 6 7
5 6 7
5 6 7
5 6 7
5 6 7
5 6 7
5 6 7
5 6 7
5 6 7
5 6 7
5 6 7
6 6 7
5 6 7
5 6 7
5 6 7
5 6 7
5 6 7
5 6 7
5 6 7
5 6 7
5 6 7
5 6 7
5 6 7
5 6 7
5 6 7
5 6 7
5 6 7
5 6 7
5 6 7
5 6 7
5 6 7
5 6 7
5 6 7
5 6 7
5 6 7
5 5 6
5 6 7
5 6 7
5 6 7
5 6 7
5 6 7
5 6 7
5 6 7
5 6 7
5 5 6
5 6 7
5 6 7
5 6 7
5 6 7
5 6 7
5 6 7
5 6 7
5 6 7
5 6 6
5 6 7
5 6 7
5 6 7
5 6 7
5 6 7
5 6 7
5 6 7
5 6 7
5 6 7
5 6 7
5 5 6
5 5 6
5 6 7
5 6 7
5 5 6
5 6 7
5 6 7
5 6 7
5 6 7
5 5 6
5 6 7
5 6 7
5 6 7
5 6 7
5 6 7
5 6 7
5 5 6
5 5 6
5 5 6
5 5 6
5 6 7
5 6 7
5 5 6
5 5 6
5 6 7
5 6 6
5 6 7
5 6 7
5 5 6
5 6 7
4 5 6
5 6 7
5 5 6
5 6 6
5 5 6
5 6 6
5 5 6
5 5 6
5 5 6
5 5 6
5 6 7
5 5 6
4 5 6
5 5 6
5 5 6
5 5 6
5 5 6
5 6 6
5 6 7
5 5 6
5 5 6
5 6 6
5 5 6
5 5 6
5 5 6
5 5 6
5 6 7
4 5 5
5 5 6
5 6 7
4 5 6
5 5 6
5 5 6
4 5 6
4 5 6
5 5 6
5 5 6
5 5 6
5 5 6
4 5 6
4 5 6
5 5 6
5 5 6
5 5 6
4 5 6
4 5 6
5 5 6
5 5 6
5 6 6
5 5 6
5 5 6
4 5 6
5 5 6
4 5 6
4 5 6
4 5 6
5 5 6
5 5 6
5 5 6
4 5 6
4 5 6
5 5 6
4 5 6
5 5 6
4 5 6
5 5 6
4 5 6
4 5 6
4 5 6
5 6 7
5 5 6
4 5 6
4 5 5
4 5 6
4 5 6
4 5 6
4 5 6
4 5 6
4 5 6
4 5 6
5 5 6
5 5 6
5 5 6
4 5 6
4 5 6
4 5 6
4 5 6
5 5 6
5 5 6
4 5 6
4 5 6
5 5 6
5 5 6
4 5 6
4 5 6
5 5 6
4 5 6
4 5 6
5 5 6
5 5 6
5 6 6
4 5 6
4 5 6
5 5 6
4 5 6
4 5 6
5 5 6
5 5 6
4 5 6
5 5 6
5 5 6
5 5 6
5 5 6
5 5 6
5 5 6
5 5 6
5 5 6
5 5 6
4 5 6
4 5 6
5 5 6
5 5 6
5 5 6
5 5 6
4 5 6
5 5 6
4 5 6
5 5 6
5 6 7
5 5 6
4 5 6
5 5 6
5 5 6
5 5 6
5 6 6
4 5 6
5 6 7
5 5 6
5 6 6
5 6 7
5 5 6
5 5 6
5 5 6
5 5 6
5 6 6
5 5 6
4 5 6
4 5 6
5 6 7
5 6 7
5 6 7
5 5 6
5 5 6
5 5 6
5 6 7
5 6 6
5 6 7
5 6 7
5 6 7
5 5 6
5 6 7
5 5 6
5 6 7
5 6 7
5 5 6
5 5 6
5 6 6
5 6 7
5 6 7
5 6 7
5 6 7
5 6 7
5 6 7
5 6 7
5 6 7
5 6 7
5 6 7
5 6 7
5 6 7
5 6 7
5 6 7
5 6 7
5 6 7
5 6 6
5 6 7
5 6 7
5 6 7
5 6 7
5 6 7
5 6 7
5 6 7
5 6 7
5 6 7
5 6 7
5 6 7
5 6 7
5 6 7
5 6 7
5 6 7
5 6 7
5 6 7
5 6 7
5 6 7
5 6 7
5 6 7
5 6 7
5 6 7
5 6 7
5 6 7
5 6 7
5 6 7
5 6 7
5 6 7
5 6 7
5 6 7
5 6 7
5 6 7
5 6 7
5 6 7
5 6 7
5 6 7
5 6 7
5 6 7
5 6 7
5 6 7
5 6 7
5 6 7
5 6 7
5 6 7
5 6 7
5 6 7
5 6 7
5 6 7
5 6 7
5 6 7
5 6 7
5 6 7
5 6 7
5 6 7
5 6 7
5 6 7
5 6 7
5 6 7
5 6 7
5 6 7
5 6 7
5 6 7
5 6 7
5 6 7
5 6 7
5 6 7
5 6 7
5 6 7
5 6 7
5 6 7
5 6 7
5 6 7
5 6 7
6 6 7
5 6 7
5 6 7
5 6 7
5 6 7
5 6 7
5 6 7
5 6 7
5 6 7
5 6 7
5 6 7
5 6 7
5 6 7
6 6 8
5 6 7
5 6 7
5 6 7
5 6 7
5 6 7
6 6 7
5 6 7
6 6 7
5 6 7
6 6 7
5 6 7
5 6 7
5 6 7
5 6 7
5 6 7
5 6 7
5 6 7
5 6 7
5 6 7
5 6 7
5 6 7
5 6 7
5 6 7
5 6 7
5 6 7
5 6 7
5 6 7
5 6 7
5 6 7
5 6 7
5 6 7
5 6 7
5 6 7
5 6 7
5 6 7
5 6 7
5 6 7
5 6 7
5 6 7
5 6 7
5 6 7
6 6 7
5 6 7
5 6 7
5 6 7
5 6 7
5 6 7
5 6 7
5 6 7
5 6 7
5 6 7
5 6 7
5 6 7
5 6 7
5 6 7
5 6 7
5 6 7
5 6 7
5 6 7
5 6 7
5 6 7
5 6 7
5 6 7
5 6 7
5 6 7
5 6 7
5 6 7
5 6 7
5 6 7
5 6 7
5 6 7
5 6 7
5 6 7
5 6 7
5 6 7
5 6 7
5 6 7
5 6 7
5 6 7
5 6 7
5 6 7
5 6 7
5 6 7
5 6 7
5 6 7
5 6 7
5 6 7
5 6 7
5 6 7
5 6 7
5 6 7
5 6 7
5 6 7
5 6 7
5 6 7
5 6 7
5 6 7
5 6 7
5 6 7
5 6 7
5 5 6
5 6 7
5 6 7
5 6 7
5 6 7
5 6 7
5 6 7
5 6 7
5 6 7
5 6 6
5 6 7
5 6 7
5 6 6
5 6 7
5 6 7
5 6 7
5 6 7
5 6 6
5 6 7
5 6 7
5 6 7
5 6 7
5 6 7
5 5 6
5 6 7
5 6 7
5 6 7
5 6 6
5 6 7
5 6 6
5 6 7
5 5 6
5 6 7
5 6 6
5 5 6
5 6 7
5 5 6
5 5 6
5 6 7
5 6 6
5 6 6
5 6 7
5 6 7
5 5 6
5 6 7
4 5 6
4 5 6
5 6 7
4 5 6
5 6 6
5 5 6
5 6 6
5 5 6
5 5 6
5 6 7
5 5 6
5 5 6
5 6 7
5 6 7
5 5 6
5 5 6
5 6 6
5 5 6
5 5 6
5 5 6
5 5 6
5 6 7
4 5 6
4 5 6
4 5 6
5 6 6
4 5 6
4 5 6
4 5 6
4 5 6
5 5 6
5 5 6
5 5 6
5 5 6
4 5 6
4 5 6
4 5 6
5 5 6
5 5 6
5 5 6
5 5 6
4 5 6
4 5 6
4 5 6
5 5 6
4 5 6
5 5 6
4 5 6
4 5 6
4 5 6
4 5 6
4 5 6
4 5 6
5 5 6
5 5 6
4 5 6
4 5 6
4 5 6
4 5 6
5 5 6
4 5 6
5 5 6
5 5 6
4 5 6
4 5 6
5 5 6
5 5 6
4 5 6
5 5 6
5 5 6
5 5 6
5 5 6
4 5 6
5 5 6
4 5 6
4 5 6
5 5 6
5 5 6
5 6 6
5 5 6
5 5 6
5 5 6
5 5 6
5 5 6
5 5 6
5 5 6
4 5 6
5 5 6
4 5 6
4 5 6
5 5 6
4 5 5
5 5 6
4 5 6
4 5 6
4 5 6
4 5 6
5 5 6
5 5 6
5 5 6
4 5 6
4 5 6
5 6 7
5 5 6
4 5 6
5 6 7
4 5 6
5 5 6
5 5 6
5 5 6
4 5 6
5 5 6
4 5 6
5 5 6
5 5 6
5 5 6
5 6 7
5 5 6
5 6 6
5 5 6
5 6 7
5 5 6
5 6 7
5 6 7
5 6 7
5 6 7
5 6 7
5 5 6
5 6 7
5 6 7
5 5 6
5 6 7
5 6 7
5 5 6
5 5 6
5 5 6
5 5 6
5 5 6
5 5 6
5 6 6
5 5 6
5 5 6
5 6 7
5 6 7
5 5 6
5 6 7
5 6 7
5 6 7
5 6 7
5 6 7
5 5 6
5 6 7
5 5 6
5 6 7
5 6 7
5 6 7
5 6 7
5 6 7
5 6 7
5 6 7
5 6 7
5 6 7
5 6 6
5 6 7
5 6 7
5 6 7
5 6 6
5 6 7
5 6 7
5 6 7
5 6 7
5 6 7
5 6 7
5 6 7
5 6 7
5 6 7
5 6 7
5 6 7
5 6 7
5 6 7
5 6 7
5 6 7
5 6 7
5 6 7
5 6 7
5 6 7
5 6 7
5 6 7
5 6 7
5 6 7
5 6 7
5 6 7
5 6 7
5 6 7
5 6 7
5 6 7
5 6 7
5 6 7
5 6 7
5 6 7
5 6 7
5 6 7
5 6 7
5 6 7
5 6 7
5 6 7
5 6 7
5 6 7
5 6 7
5 6 7
5 6 7
5 6 7
5 6 7
5 6 7
5 6 7
5 6 7
5 6 7
5 6 7
5 6 7
5 6 7
5 6 7
5 6 7
5 6 7
5 6 7
5 6 7
5 6 7
5 6 7
5 6 7
5 6 7
5 6 7
5 6 7
5 6 7
5 6 7
5 6 7
5 6 7
5 6 7
5 6 7
5 6 7
5 6 7
6 6 7
5 6 7
5 6 7
5 6 7
5 6 7
5 6 7
6 6 7
5 6 7
5 6 7
5 6 7
5 6 7
5 6 7
5 6 7
6 6 7
5 6 7
5 6 7
5 6 7
5 6 7
5 6 7
6 6 7
5 6 7
5 6 7
5 6 7
5 6 7
5 6 7
6 6 7
5 6 7
5 6 7
6 6 7
5 6 7
6 6 7
5 6 7
5 6 7
5 6 7
5 6 7
5 6 7
5 6 7
5 6 7
5 6 7
5 6 7
5 6 7
5 6 7
5 6 7
5 6 7
5 6 7
5 6 7
5 6 7
5 6 7
5 6 7
5 6 7
5 6 7
5 6 7
5 6 7
5 6 7
5 6 7
5 6 7
5 6 7
5 6 7
5 6 7
5 6 7
5 6 7
5 6 7
5 6 7
5 6 7
5 6 7
5 6 7
5 6 7
5 6 7
5 6 7
5 6 7
5 6 7
5 6 7
5 6 7
5 6 7
5 6 7
5 6 7
5 6 7
5 6 7
5 6 7
5 6 7
5 6 7
5 6 7
5 6 7
5 6 7
5 6 7
5 6 7
5 6 7
5 6 7
5 6 7
5 6 7
5 6 7
5 6 7
5 6 7
5 6 7
5 6 7
5 6 7
5 6 7
5 6 7
5 6 7
5 6 7
5 6 7
5 6 7
5 6 7
5 6 7
5 6 7
5 6 7
5 6 7
5 6 7
5 6 7
5 6 7
5 6 7
5 6 7
5 6 7
5 6 7
5 6 7
5 6 7
5 6 7
5 6 7
5 6 7
5 6 7
5 6 7
5 6 7
5 6 7
5 6 7
5 6 7
5 6 7
5 6 7
5 6 7
5 6 7
5 6 7
5 6 7
5 6 7
5 6 7
5 6 7
5 6 7
5 6 7
5 6 7
5 6 7
5 6 7
5 6 6
5 6 7
5 6 7
5 6 7
5 5 6
5 6 7
5 6 7
5 6 7
5 6 6
5 6 7
5 5 6
5 5 6
5 6 7
5 5 6
5 6 7
5 5 6
5 5 6
5 5 6
5 6 7
5 5 6
5 6 7
5 6 7
5 5 6
5 6 7
5 5 6
5 5 6
5 6 7
5 5 6
5 6 7
5 5 6
5 5 6
5 5 6
5 5 6
4 5 6
4 5 6
5 6 7
5 6 6
5 5 6
4 5 6
4 5 6
5 5 6
5 5 6
5 5 6
4 5 5
5 5 6
4 5 6
5 5 6
5 5 6
5 5 6
5 5 6
4 5 6
5 6 6
5 5 6
5 6 6
5 6 7
4 5 6
5 5 6
4 5 6
4 5 6
4 5 6
5 6 7
5 5 6
4 5 6
5 5 6
5 5 6
4 5 6
4 5 6
5 5 6
4 5 6
5 5 6
4 5 6
4 5 5
5 5 6
4 5 6
4 5 6
5 5 6
4 5 6
5 5 6
4 5 6
4 5 6
5 5 6
5 5 6
5 5 6
4 5 6
5 5 6
4 5 6
4 5 6
4 5 6
5 5 6
4 5 6
5 5 6
5 5 6
5 5 6
4 5 6
4 5 6
4 5 6
5 5 6
4 5 6
4 5 6
5 5 6
5 5 6
4 5 6
4 5 6
5 5 6
5 5 6
4 5 6
4 5 6
5 5 6
5 5 6
5 6 6
4 5 6
5 5 6
5 5 6
5 5 6
4 5 6
4 5 6
4 5 6
5 5 6
5 5 6
5 5 6
5 5 6
5 5 6
5 5 6
5 5 6
5 5 6
5 6 7
5 5 6
5 6 7
5 5 6
4 5 6
5 5 6
5 5 6
5 5 6
5 6 7
5 5 6
5 5 6
4 5 6
5 5 6
5 5 6
5 5 6
5 5 6
5 5 6
5 5 6
5 5 6
5 6 7
5 5 6
5 6 7
5 5 6
5 6 7
5 6 7
5 5 6
5 6 6
5 6 6
5 5 6
5 5 6
5 5 6
4 5 6
5 5 6
5 5 6
5 6 7
5 6 7
5 6 7
5 6 6
5 6 6
5 6 7
5 6 7
5 6 7
5 6 7
5 5 6
5 6 7
5 6 7
5 6 7
5 6 6
5 6 7
5 5 6
5 6 7
5 6 7
5 6 7
5 6 7
5 6 6
5 5 6
5 6 7
5 6 7
5 6 7
5 6 7
5 6 6
5 6 7
5 6 7
5 6 7
5 6 7
5 6 7
5 6 7
5 6 7
5 6 7
5 6 7
5 6 7
5 6 7
5 6 7
5 6 7
5 6 7
5 6 7
5 6 7
5 6 7
5 6 7
5 6 7
5 6 7
5 6 7
5 6 7
5 6 7
5 6 7
5 6 7
5 6 7
5 6 7
5 6 7
5 6 7
5 6 7
5 6 7
5 6 7
5 6 7
5 6 7
5 6 7
5 6 7
5 6 7
5 6 7
5 6 7
5 6 7
5 6 7
5 6 7
5 6 7
5 6 7
5 6 7
5 6 7
5 6 7
5 6 7
5 6 7
5 6 7
5 6 7
5 6 7
5 6 7
5 6 7
5 6 7
5 6 7
5 6 7
5 6 7
5 6 7
5 6 7
5 6 7
5 6 7
5 6 7
5 6 7
5 6 7
5 6 7
5 6 7
5 6 7
5 6 7
5 6 7
5 6 7
6 6 7
5 6 7
5 6 7
5 6 7
5 6 7
5 6 7
6 6 7
5 6 7
5 6 7
6 6 7
5 6 7
5 6 7
5 6 7
5 6 7
5 6 7
5 6 7
5 6 7
5 6 7
5 6 7
5 6 7
5 6 7
5 6 7
5 6 7
6 6 7
